ncols        41
nrows        96
xllcorner    409627.8
yllcorner    6870794.1
cellsize     5.00
NODATA_value -9999
0.000 0.000 0.000 0.000 0.000 0.000 0.000 0.000 0.000 0.000 0.000 0.000 0.000 0.000 0.000 0.000 0.000 0.000 0.000 0.000 0.000 0.000 0.000 0.000 0.000 0.000 0.000 0.000 0.000 0.000 0.000 0.000 0.000 0.000 0.000 0.000 0.000 0.000 0.000 0.000 0.000
0.000 0.000 0.000 0.053 21.879 89.869 83.426 88.574 4.091 0.000 0.000 0.000 0.000 0.000 0.000 0.000 0.000 0.000 0.000 0.000 0.000 0.000 0.000 0.000 0.000 0.000 0.000 0.000 0.000 0.000 0.000 0.000 0.000 0.000 0.000 0.000 0.000 0.000 0.000 0.000 0.000
0.000 0.000 0.024 18.055 88.953 103.260 102.201 94.568 90.435 0.140 0.000 0.000 0.000 0.000 0.000 0.000 0.000 0.000 0.000 0.000 0.000 0.000 0.000 0.000 0.000 0.000 0.000 0.000 0.000 0.000 0.000 0.000 0.000 0.000 0.000 0.000 0.000 0.000 0.000 0.000 0.000
0.000 0.000 2.895 86.154 101.843 113.692 106.854 105.810 91.257 38.573 0.000 0.000 0.000 0.000 0.000 0.000 0.000 0.000 0.000 0.000 0.000 0.000 0.000 0.000 0.000 0.000 0.000 0.000 0.000 0.000 0.000 0.000 0.000 0.000 0.000 0.000 0.000 0.000 0.000 0.000 0.000
0.000 0.289 84.806 97.517 123.925 130.563 106.289 124.796 95.336 71.934 0.366 0.000 0.000 0.000 0.000 0.000 0.000 0.000 0.000 0.000 0.000 0.000 0.000 0.000 0.000 0.000 0.000 0.000 0.000 0.000 0.000 0.000 0.000 0.000 0.000 0.000 0.000 0.000 0.000 0.000 0.000
0.000 7.138 84.692 105.262 129.359 134.840 128.832 122.147 102.959 79.684 33.254 0.000 0.000 0.000 0.000 0.000 0.000 0.000 0.000 0.000 0.000 0.000 0.000 0.000 0.000 0.000 0.000 0.000 0.000 0.000 0.000 0.000 0.000 0.000 0.000 0.000 0.000 0.000 0.000 0.000 0.000
0.092 77.485 94.952 116.428 133.702 134.311 126.818 122.139 108.993 90.470 66.286 1.158 0.000 0.000 0.000 0.000 0.000 0.000 0.000 0.000 0.000 0.000 0.000 0.000 0.000 0.000 0.000 0.000 0.000 0.000 0.000 0.000 0.000 0.000 0.000 0.000 0.000 0.000 0.000 0.000 0.000
1.140 78.588 93.010 115.561 138.912 142.895 139.897 131.336 115.384 97.027 70.885 32.087 0.000 0.000 0.000 0.000 0.000 0.000 0.000 0.000 0.000 0.000 0.000 0.000 0.000 0.000 0.000 0.000 0.000 0.000 0.000 0.000 0.000 0.000 0.000 0.000 0.000 0.000 0.000 0.000 0.000
4.474 76.523 99.232 120.815 135.326 140.198 147.690 130.571 127.858 104.239 79.831 66.532 2.430 0.000 0.000 0.000 0.000 0.000 0.000 0.000 0.000 0.000 0.000 0.000 0.000 0.000 0.000 0.000 0.000 0.000 0.000 0.000 0.000 0.000 0.000 0.000 0.000 0.000 0.000 0.000 0.000
11.912 82.587 101.344 120.885 147.124 149.907 162.032 145.886 122.289 107.779 90.596 66.627 32.808 0.117 0.000 0.000 0.000 0.000 0.000 0.000 0.000 0.000 0.000 0.000 0.000 0.000 0.000 0.000 0.000 0.000 0.000 0.000 0.000 0.000 0.000 0.000 0.000 0.000 0.000 0.000 0.000
20.093 83.251 106.568 128.543 155.706 157.020 156.183 150.150 124.776 106.517 97.670 80.645 55.309 15.533 0.040 0.000 0.000 0.000 0.000 0.000 0.000 0.000 0.000 0.000 0.000 0.000 0.000 0.000 0.000 0.000 0.000 0.000 0.000 0.000 0.000 0.000 0.000 0.000 0.000 0.000 0.000
24.119 75.569 106.247 135.332 145.239 163.282 156.759 155.257 148.147 135.977 106.756 94.649 55.812 46.227 12.099 0.319 0.000 0.000 0.000 0.000 0.000 0.000 0.000 0.000 0.000 0.000 0.000 0.000 0.000 0.000 0.000 0.000 0.000 0.000 0.000 0.000 0.000 0.000 0.000 0.000 0.000
24.759 71.291 110.344 136.416 144.982 162.583 165.012 145.636 150.293 153.669 126.940 97.697 71.468 51.187 40.175 17.361 0.470 0.000 0.000 0.000 0.000 0.000 0.000 0.000 0.000 0.000 0.000 0.000 0.000 0.000 0.000 0.000 0.000 0.000 0.000 0.000 0.000 0.000 0.000 0.000 0.000
22.684 73.051 95.653 122.513 145.839 161.165 177.465 155.411 152.608 168.759 166.402 110.870 77.478 54.849 47.137 35.970 19.508 0.332 0.000 0.000 0.000 0.000 0.000 0.000 0.000 0.000 0.000 0.000 0.000 0.000 0.000 0.000 0.000 0.000 0.000 0.000 0.000 0.000 0.000 0.000 0.000
16.792 67.737 95.573 118.897 147.059 166.145 169.545 171.668 163.582 164.021 148.747 107.692 72.312 59.195 47.346 41.077 37.910 18.691 0.314 0.000 0.000 0.000 0.000 0.000 0.000 0.000 0.000 0.000 0.000 0.000 0.000 0.000 0.000 0.000 0.000 0.000 0.000 0.000 0.000 0.000 0.000
11.179 54.284 80.275 110.062 132.098 162.324 177.692 179.666 160.032 166.957 177.956 140.746 88.211 72.977 51.211 48.243 41.487 41.226 17.891 0.430 0.000 0.000 0.000 0.000 0.000 0.000 0.000 0.000 0.000 0.000 0.000 0.000 0.000 0.000 0.000 0.000 0.000 0.000 0.000 0.000 0.000
6.798 48.925 74.018 96.320 132.551 159.083 166.812 165.531 143.663 172.851 162.190 142.102 115.951 79.328 63.865 56.052 48.850 42.425 37.225 18.028 0.080 0.000 0.000 0.000 0.000 0.000 0.000 0.000 0.000 0.000 0.000 0.000 0.000 0.000 0.000 0.000 0.000 0.000 0.000 0.000 0.000
2.995 37.632 69.322 104.186 127.594 143.274 160.458 165.597 163.548 174.227 146.256 147.410 106.742 90.796 86.613 67.361 50.692 43.358 42.814 35.117 7.470 0.000 0.000 0.000 0.000 0.000 0.000 0.000 0.000 0.000 0.000 0.000 0.000 0.000 0.000 0.000 0.000 0.000 0.000 0.000 0.000
0.887 25.788 51.505 79.617 121.593 134.356 168.003 208.199 169.006 155.195 170.215 127.905 109.977 103.955 70.483 58.872 45.929 46.114 49.380 34.089 19.951 0.416 0.000 0.000 0.000 0.000 0.000 0.000 0.000 0.000 0.000 0.000 0.000 0.000 0.000 0.000 0.000 0.000 0.000 0.000 0.000
0.221 16.643 41.822 78.891 99.930 132.235 195.057 188.372 145.082 173.779 150.120 121.050 121.176 92.951 64.319 59.322 53.250 57.177 42.549 34.716 31.841 10.179 0.000 0.000 0.000 0.000 0.000 0.000 0.000 0.000 0.000 0.000 0.000 0.000 0.000 0.000 0.000 0.000 0.000 0.000 0.000
0.048 9.652 35.487 65.186 103.377 160.081 160.990 167.692 159.211 156.942 145.307 146.716 126.236 111.450 86.925 70.323 68.601 53.754 40.003 45.510 35.606 18.443 0.923 0.000 0.000 0.000 0.000 0.000 0.000 0.000 0.000 0.000 0.000 0.000 0.000 0.000 0.000 0.000 0.000 0.000 0.000
0.004 4.048 22.004 44.079 106.480 112.496 138.762 157.434 142.649 148.784 167.994 149.931 119.429 111.371 96.972 91.608 64.420 55.480 48.537 43.490 36.512 23.093 8.251 0.000 0.000 0.000 0.000 0.000 0.000 0.000 0.000 0.000 0.000 0.000 0.000 0.000 0.000 0.000 0.000 0.000 0.000
0.000 1.321 14.918 39.145 72.829 98.317 118.699 154.287 148.639 160.322 174.639 163.684 138.076 119.563 123.396 95.441 71.871 64.509 47.746 39.827 35.874 26.464 17.183 0.372 0.000 0.000 0.000 0.000 0.000 0.000 0.000 0.000 0.000 0.000 0.000 0.000 0.000 0.000 0.000 0.000 0.000
0.000 0.280 8.929 25.400 57.361 78.418 121.727 140.642 156.021 149.733 165.697 156.080 121.012 131.860 131.462 85.795 77.636 56.364 35.256 37.349 36.926 35.419 27.530 6.518 0.000 0.000 0.000 0.000 0.000 0.000 0.000 0.000 0.000 0.000 0.000 0.000 0.000 0.000 0.000 0.000 0.000
0.000 0.033 4.850 17.788 38.316 81.675 126.628 146.326 168.948 168.457 159.060 137.946 114.847 137.607 127.681 104.854 85.290 51.063 34.677 33.745 40.460 40.384 30.893 14.843 0.000 0.000 0.000 0.000 0.000 0.000 0.000 0.000 0.000 0.000 0.000 0.000 0.000 0.000 0.000 0.000 0.000
0.000 0.001 1.551 11.351 27.841 76.579 126.487 147.360 152.039 146.719 140.645 126.195 133.751 155.389 126.062 100.463 76.686 44.928 37.099 36.295 42.360 38.815 32.975 23.098 0.030 0.000 0.000 0.000 0.000 0.000 0.000 0.000 0.000 0.000 0.000 0.000 0.000 0.000 0.000 0.000 0.000
0.000 0.000 0.383 8.384 24.149 49.916 100.586 143.023 143.810 127.877 144.471 122.059 152.363 139.982 121.477 108.091 85.133 60.851 42.459 36.809 39.750 39.958 38.744 32.151 2.550 0.000 0.000 0.000 0.000 0.000 0.000 0.000 0.000 0.000 0.000 0.000 0.000 0.000 0.000 0.000 0.000
0.000 0.000 0.090 5.627 21.036 36.406 93.396 115.860 125.346 135.636 130.551 143.721 145.375 152.789 124.265 118.629 89.028 55.788 40.592 31.498 30.255 38.182 36.154 29.084 4.453 0.000 0.000 0.000 0.000 0.000 0.000 0.000 0.000 0.000 0.000 0.000 0.000 0.000 0.000 0.000 0.000
0.000 0.000 0.004 2.339 14.606 30.321 59.446 106.953 118.121 138.763 145.977 130.638 154.334 142.150 126.056 110.030 77.272 52.962 37.064 28.475 27.713 34.989 32.171 23.360 8.782 0.000 0.000 0.000 0.000 0.000 0.000 0.000 0.000 0.000 0.000 0.000 0.000 0.000 0.000 0.000 0.000
0.000 0.000 0.000 0.306 9.390 18.720 32.283 82.575 116.855 127.530 130.033 131.276 130.488 126.190 121.397 87.433 64.734 47.916 40.709 28.758 27.780 28.166 29.399 26.688 14.875 0.001 0.000 0.000 0.000 0.000 0.000 0.000 0.000 0.000 0.000 0.000 0.000 0.000 0.000 0.000 0.000
0.000 0.000 0.000 0.049 4.896 14.975 25.434 62.980 88.838 103.831 111.687 122.841 120.294 105.247 106.109 75.683 63.979 66.140 43.340 32.356 27.921 22.943 27.287 29.308 15.252 0.690 0.000 0.000 0.000 0.000 0.000 0.000 0.000 0.000 0.000 0.000 0.000 0.000 0.000 0.000 0.000
0.000 0.000 0.000 0.002 2.186 10.986 17.368 37.336 85.549 101.417 112.779 107.544 108.416 111.480 103.301 81.167 72.881 66.045 45.139 40.158 27.171 23.450 31.967 27.004 16.085 3.695 0.000 0.000 0.000 0.000 0.000 0.000 0.000 0.000 0.000 0.000 0.000 0.000 0.000 0.000 0.000
0.000 0.000 0.000 0.000 0.745 8.205 13.742 25.060 58.141 90.830 97.316 87.149 92.324 93.492 91.394 82.278 87.886 65.246 55.062 43.212 33.000 30.174 30.428 29.144 16.788 5.385 0.000 0.000 0.000 0.000 0.000 0.000 0.000 0.000 0.000 0.000 0.000 0.000 0.000 0.000 0.000
0.000 0.000 0.000 0.000 0.135 5.375 11.629 17.851 53.332 73.585 81.066 89.795 90.684 83.783 89.468 87.909 74.616 75.364 61.547 47.925 37.205 25.776 27.169 28.204 18.351 7.517 0.000 0.000 0.000 0.000 0.000 0.000 0.000 0.000 0.000 0.000 0.000 0.000 0.000 0.000 0.000
0.000 0.000 0.000 0.000 0.019 2.938 9.496 13.775 35.778 61.094 75.024 80.726 75.854 75.464 89.435 90.777 66.510 72.507 56.843 54.643 32.241 23.810 20.572 26.207 19.958 9.803 0.091 0.000 0.000 0.000 0.000 0.000 0.000 0.000 0.000 0.000 0.000 0.000 0.000 0.000 0.000
0.000 0.000 0.000 0.000 0.001 0.801 6.271 10.692 19.916 50.663 73.827 72.953 71.734 77.052 80.602 82.271 70.521 77.772 64.016 46.252 27.764 21.638 23.100 27.760 22.152 11.523 2.009 0.000 0.000 0.000 0.000 0.000 0.000 0.000 0.000 0.000 0.000 0.000 0.000 0.000 0.000
0.000 0.000 0.000 0.000 0.001 0.369 4.731 9.628 16.195 36.131 59.487 73.928 75.278 85.279 87.125 70.655 78.844 64.936 52.515 41.904 29.940 25.612 27.417 28.384 23.428 13.142 3.906 0.001 0.000 0.000 0.000 0.000 0.000 0.000 0.000 0.000 0.000 0.000 0.000 0.000 0.000
0.000 0.000 0.000 0.000 0.000 0.032 3.082 8.029 14.222 26.273 60.374 62.111 70.936 86.725 80.154 79.176 75.264 63.499 47.268 38.853 32.381 29.951 29.868 27.308 24.201 13.229 4.569 0.410 0.000 0.000 0.000 0.000 0.000 0.000 0.000 0.000 0.000 0.000 0.000 0.000 0.000
0.000 0.000 0.000 0.000 0.000 0.001 1.141 6.644 9.380 19.107 42.102 69.380 69.211 62.422 69.429 67.326 60.813 52.469 36.774 38.364 32.711 30.739 24.389 28.333 24.226 13.193 5.278 2.448 0.005 0.000 0.000 0.000 0.000 0.000 0.000 0.000 0.000 0.000 0.000 0.000 0.000
0.000 0.000 0.000 0.000 0.000 0.000 0.172 4.301 7.452 14.606 27.383 48.350 55.768 55.868 58.487 57.158 50.089 41.779 37.607 40.754 38.358 31.715 28.799 24.669 20.551 13.672 5.876 3.433 0.607 0.000 0.000 0.000 0.000 0.000 0.000 0.000 0.000 0.000 0.000 0.000 0.000
0.000 0.000 0.000 0.000 0.000 0.000 0.008 2.701 7.787 12.021 16.099 40.508 49.271 33.726 47.101 41.223 42.036 36.557 42.820 44.909 39.156 31.211 28.177 22.738 20.546 14.589 5.426 3.481 2.135 0.024 0.000 0.000 0.000 0.000 0.000 0.000 0.000 0.000 0.000 0.000 0.000
0.000 0.000 0.000 0.000 0.000 0.000 0.017 1.424 5.862 7.840 11.171 27.806 35.377 37.673 38.180 37.876 38.606 40.974 42.472 39.491 27.951 38.783 27.419 22.048 19.188 13.601 5.101 3.932 3.019 0.792 0.002 0.000 0.000 0.000 0.000 0.000 0.000 0.000 0.000 0.000 0.000
0.000 0.000 0.000 0.000 0.000 0.000 0.000 0.290 2.605 5.663 6.017 12.555 25.971 22.350 29.081 37.542 39.971 42.596 35.768 30.420 30.611 32.037 16.680 17.469 17.995 12.885 6.418 4.702 3.560 2.188 0.485 0.000 0.000 0.000 0.000 0.000 0.000 0.000 0.000 0.000 0.000
0.000 0.000 0.000 0.000 0.000 0.000 0.000 0.013 0.688 3.445 4.846 7.955 25.273 25.804 33.460 37.770 36.949 35.839 29.603 27.572 28.433 23.858 15.530 12.890 16.914 12.513 7.580 4.811 3.894 3.169 1.590 0.003 0.000 0.000 0.000 0.000 0.000 0.000 0.000 0.000 0.000
0.000 0.000 0.000 0.000 0.000 0.000 0.000 0.000 0.006 0.656 2.224 4.482 11.487 23.887 27.596 31.277 35.393 28.947 23.897 21.577 24.930 22.362 16.639 14.213 13.143 12.146 7.477 4.713 3.904 3.045 2.350 0.553 0.000 0.000 0.000 0.000 0.000 0.000 0.000 0.000 0.000
0.000 0.000 0.000 0.000 0.000 0.000 0.000 0.000 0.000 0.097 2.134 5.114 11.614 16.302 20.330 24.798 25.076 24.901 22.564 24.515 26.657 26.571 19.968 13.262 10.804 9.451 7.065 4.624 3.731 3.139 2.573 1.437 0.004 0.000 0.000 0.000 0.000 0.000 0.000 0.000 0.000
0.000 0.000 0.000 0.000 0.000 0.000 0.000 0.000 0.000 0.005 1.411 4.848 7.460 13.195 15.285 19.178 23.687 22.715 25.420 23.801 26.698 22.562 14.089 10.063 7.839 7.733 7.172 4.710 3.683 3.002 2.040 1.275 0.309 0.000 0.000 0.000 0.000 0.000 0.000 0.000 0.000
0.000 0.000 0.000 0.000 0.000 0.000 0.000 0.000 0.000 0.000 0.058 1.962 3.465 5.174 11.172 14.875 18.641 19.437 19.294 20.875 23.593 14.898 9.204 7.447 5.454 5.464 5.685 4.508 3.242 2.302 1.553 1.717 1.405 0.001 0.000 0.000 0.000 0.000 0.000 0.000 0.000
0.000 0.000 0.000 0.000 0.000 0.000 0.000 0.000 0.000 0.000 0.000 0.108 2.876 5.583 9.340 13.298 15.365 14.792 15.277 15.989 14.197 8.949 5.694 4.309 2.896 3.657 4.754 4.352 2.737 1.631 1.086 1.393 1.381 0.026 0.000 0.000 0.000 0.000 0.000 0.000 0.000
0.000 0.000 0.000 0.000 0.000 0.000 0.000 0.000 0.000 0.000 0.000 0.040 1.454 5.224 7.406 11.859 12.256 11.084 12.445 13.352 12.904 7.006 4.134 1.939 3.366 3.918 4.521 3.430 2.192 0.804 0.054 0.557 0.390 0.233 0.000 0.000 0.000 0.000 0.000 0.000 0.000
0.000 0.000 0.000 0.000 0.000 0.000 0.000 0.000 0.000 0.000 0.000 0.000 0.615 3.366 6.755 8.213 8.327 8.377 9.580 10.371 7.916 4.108 1.925 2.202 4.058 3.934 4.328 3.701 1.948 0.079 0.034 0.025 0.487 0.473 0.003 0.000 0.000 0.000 0.000 0.000 0.000
0.000 0.000 0.000 0.000 0.000 0.000 0.000 0.000 0.000 0.000 0.000 0.000 0.001 1.076 2.888 4.111 4.307 7.412 9.652 8.688 3.889 2.522 2.048 3.091 3.408 3.804 4.395 3.592 1.641 0.414 0.029 0.002 0.850 0.638 0.055 0.000 0.000 0.000 0.000 0.000 0.000
0.000 0.000 0.000 0.000 0.000 0.000 0.000 0.000 0.000 0.000 0.000 0.000 0.000 0.099 1.304 2.720 4.948 8.119 9.867 6.789 4.284 2.798 3.125 3.242 3.285 4.598 4.551 3.450 2.188 1.113 0.001 0.047 0.917 0.793 0.180 0.000 0.000 0.000 0.000 0.000 0.000
0.000 0.000 0.000 0.000 0.000 0.000 0.000 0.000 0.000 0.000 0.000 0.000 0.000 0.000 0.471 1.788 3.052 5.272 5.176 5.082 4.228 3.338 4.124 3.510 5.028 4.916 5.112 3.910 3.027 1.212 0.000 0.088 1.128 1.096 0.581 0.034 0.000 0.000 0.000 0.000 0.000
0.000 0.000 0.000 0.000 0.000 0.000 0.000 0.000 0.000 0.000 0.000 0.000 0.000 0.000 0.005 0.770 2.096 3.606 3.781 4.824 5.113 3.799 3.479 3.769 5.461 4.941 5.190 3.837 3.175 1.148 0.164 0.748 1.411 1.082 0.965 0.187 0.001 0.000 0.000 0.000 0.000
0.000 0.000 0.000 0.000 0.000 0.000 0.000 0.000 0.000 0.000 0.000 0.000 0.000 0.000 0.000 0.504 2.056 2.373 1.653 2.685 3.577 4.262 2.448 5.041 4.926 4.660 4.951 4.287 3.852 1.901 0.993 1.228 1.208 1.006 1.074 0.578 0.029 0.000 0.000 0.000 0.000
0.000 0.000 0.000 0.000 0.000 0.000 0.000 0.000 0.000 0.000 0.000 0.000 0.000 0.000 0.000 0.052 0.665 1.606 1.729 1.826 3.642 4.564 3.927 3.945 3.668 3.939 4.866 4.748 3.584 2.216 1.687 1.928 1.678 1.445 0.996 0.977 0.422 0.070 0.000 0.000 0.000
0.000 0.000 0.000 0.000 0.000 0.000 0.000 0.000 0.000 0.000 0.000 0.000 0.000 0.000 0.000 0.000 0.031 0.883 1.653 1.642 2.365 3.487 3.580 2.530 2.200 3.788 4.916 3.872 2.558 2.371 2.580 2.807 2.402 1.692 1.083 1.356 1.164 0.530 0.057 0.000 0.000
0.000 0.000 0.000 0.000 0.000 0.000 0.000 0.000 0.000 0.000 0.000 0.000 0.000 0.000 0.000 0.000 0.000 0.118 1.317 1.547 1.863 2.353 2.957 1.068 1.186 3.435 3.481 3.290 2.321 2.714 3.169 3.368 2.763 1.353 1.208 1.575 1.481 1.106 0.325 0.007 0.000
0.000 0.000 0.000 0.000 0.000 0.000 0.000 0.000 0.000 0.000 0.000 0.000 0.000 0.000 0.000 0.000 0.000 0.000 0.641 1.691 1.637 0.940 1.560 1.069 0.991 2.899 2.726 2.796 2.128 2.935 3.314 3.948 2.164 0.605 0.920 1.203 1.699 1.514 0.733 0.168 0.000
0.000 0.000 0.000 0.000 0.000 0.000 0.000 0.000 0.000 0.000 0.000 0.000 0.000 0.000 0.000 0.000 0.000 0.000 0.098 1.188 1.393 0.734 0.102 1.163 1.546 2.860 1.884 2.152 2.741 3.501 3.296 3.476 1.906 1.435 0.919 1.223 2.066 1.646 1.133 0.528 0.061
0.000 0.000 0.000 0.000 0.000 0.000 0.000 0.000 0.000 0.000 0.000 0.000 0.000 0.000 0.000 0.000 0.000 0.000 0.000 0.210 1.050 0.847 0.362 1.076 1.812 2.107 2.831 3.021 3.247 3.852 3.419 4.308 3.533 2.266 1.243 1.386 1.693 1.448 1.467 0.932 0.262
0.000 0.000 0.000 0.000 0.000 0.000 0.000 0.000 0.000 0.000 0.000 0.000 0.000 0.000 0.000 0.000 0.000 0.000 0.000 0.002 0.602 0.679 0.587 1.775 2.892 3.066 3.063 3.182 3.375 2.958 3.661 4.787 4.757 2.632 0.983 0.727 0.834 1.674 1.681 1.184 0.564
0.000 0.000 0.000 0.000 0.000 0.000 0.000 0.000 0.000 0.000 0.000 0.000 0.000 0.000 0.000 0.000 0.000 0.000 0.000 0.000 0.378 0.703 0.526 1.320 3.122 3.967 2.888 2.867 2.479 3.269 4.271 5.527 4.489 2.575 0.769 0.246 0.816 1.650 1.594 1.185 0.827
0.000 0.000 0.000 0.000 0.000 0.000 0.000 0.000 0.000 0.000 0.000 0.000 0.000 0.000 0.000 0.000 0.000 0.000 0.000 0.000 0.046 0.690 0.724 1.659 2.369 3.993 2.793 2.295 2.925 4.158 4.857 4.893 3.983 2.722 0.357 0.001 0.445 1.109 1.314 1.026 0.976
0.000 0.000 0.000 0.000 0.000 0.000 0.000 0.000 0.000 0.000 0.000 0.000 0.000 0.000 0.000 0.000 0.000 0.000 0.000 0.000 0.002 0.562 1.203 1.334 2.098 2.914 2.551 1.667 2.397 4.075 4.727 4.367 3.779 1.570 0.050 0.001 0.074 0.504 1.007 0.734 0.979
0.000 0.000 0.000 0.000 0.000 0.000 0.000 0.000 0.000 0.000 0.000 0.000 0.000 0.000 0.000 0.000 0.000 0.000 0.000 0.000 0.004 0.155 0.870 0.671 1.490 0.423 1.499 0.485 2.475 4.219 5.369 5.034 3.610 1.698 0.280 0.060 0.002 0.043 0.434 0.868 1.208
0.000 0.000 0.000 0.000 0.000 0.000 0.000 0.000 0.000 0.000 0.000 0.000 0.000 0.000 0.000 0.000 0.000 0.000 0.000 0.000 0.000 0.035 0.001 1.000 0.725 0.001 0.246 0.853 3.216 5.411 5.851 5.615 3.844 2.479 0.379 0.018 0.001 0.014 0.001 0.639 1.252
0.000 0.000 0.000 0.000 0.000 0.000 0.000 0.000 0.000 0.000 0.000 0.000 0.000 0.000 0.000 0.000 0.000 0.000 0.000 0.000 0.000 0.000 0.225 0.986 0.651 0.001 0.195 1.255 4.173 5.713 5.883 5.736 4.518 2.971 0.221 0.096 0.002 0.001 0.001 0.836 1.336
0.000 0.000 0.000 0.000 0.000 0.000 0.000 0.000 0.000 0.000 0.000 0.000 0.000 0.000 0.000 0.000 0.000 0.000 0.000 0.000 0.000 0.000 0.148 0.603 0.591 0.002 0.000 3.235 5.120 6.052 5.999 6.531 5.077 1.980 0.454 0.399 0.000 0.002 0.017 0.665 1.322
0.000 0.000 0.000 0.000 0.000 0.000 0.000 0.000 0.000 0.000 0.000 0.000 0.000 0.000 0.000 0.000 0.000 0.000 0.000 0.000 0.000 0.000 0.037 0.129 0.479 0.142 0.022 5.538 6.346 7.463 7.862 7.101 4.908 2.209 2.006 0.474 0.019 0.000 0.002 0.027 0.802
0.000 0.000 0.000 0.000 0.000 0.000 0.000 0.000 0.000 0.000 0.000 0.000 0.000 0.000 0.000 0.000 0.000 0.000 0.000 0.000 0.000 0.000 0.000 0.095 0.093 0.047 1.361 4.677 7.697 7.879 8.923 6.903 5.712 4.230 2.685 1.075 0.301 0.019 0.002 0.001 0.487
0.000 0.000 0.000 0.000 0.000 0.000 0.000 0.000 0.000 0.000 0.000 0.000 0.000 0.000 0.000 0.000 0.000 0.000 0.000 0.000 0.000 0.000 0.000 0.020 0.076 0.223 1.756 3.058 5.336 6.493 6.650 6.794 5.711 4.663 3.643 2.177 0.936 0.279 0.000 0.000 0.400
0.000 0.000 0.000 0.000 0.000 0.000 0.000 0.000 0.000 0.000 0.000 0.000 0.000 0.000 0.000 0.000 0.000 0.000 0.000 0.000 0.000 0.000 0.000 0.000 0.002 1.077 1.686 1.854 3.559 4.101 5.693 7.207 6.958 6.267 4.533 3.238 2.212 0.889 0.369 0.002 0.129
0.000 0.000 0.000 0.000 0.000 0.000 0.000 0.000 0.000 0.000 0.000 0.000 0.000 0.000 0.000 0.000 0.000 0.000 0.000 0.000 0.000 0.000 0.000 0.000 0.418 1.206 1.316 1.234 2.075 2.842 4.338 7.542 7.776 7.476 5.610 3.619 3.390 2.291 1.192 0.002 0.001
0.000 0.000 0.000 0.000 0.000 0.000 0.000 0.000 0.000 0.000 0.000 0.000 0.000 0.000 0.000 0.000 0.000 0.000 0.000 0.000 0.000 0.000 0.000 0.001 0.267 0.682 0.834 0.865 1.384 1.714 2.893 5.792 6.711 7.117 6.425 4.787 3.876 2.643 1.158 0.155 0.002
0.000 0.000 0.000 0.000 0.000 0.000 0.000 0.000 0.000 0.000 0.000 0.000 0.000 0.000 0.000 0.000 0.000 0.000 0.000 0.000 0.000 0.000 0.000 0.000 0.000 0.078 0.541 0.772 0.918 1.444 2.211 4.868 5.753 6.409 6.374 5.553 4.259 2.759 1.059 0.533 0.473
0.000 0.000 0.000 0.000 0.000 0.000 0.000 0.000 0.000 0.000 0.000 0.000 0.000 0.000 0.000 0.000 0.000 0.000 0.000 0.000 0.000 0.000 0.000 0.000 0.000 0.000 0.279 0.547 0.456 1.005 3.192 4.599 5.806 5.987 5.921 6.081 4.604 2.608 1.397 0.995 1.359
0.000 0.000 0.000 0.000 0.000 0.000 0.000 0.000 0.000 0.000 0.000 0.000 0.000 0.000 0.000 0.000 0.000 0.000 0.000 0.000 0.000 0.000 0.000 0.000 0.000 0.000 0.008 0.231 0.073 1.145 3.555 4.662 5.268 5.798 5.796 6.242 4.465 2.625 1.711 1.603 1.226
0.000 0.000 0.000 0.000 0.000 0.000 0.000 0.000 0.000 0.000 0.000 0.000 0.000 0.000 0.000 0.000 0.000 0.000 0.000 0.000 0.000 0.000 0.000 0.000 0.000 0.000 0.000 0.268 0.580 1.259 2.763 3.961 4.891 5.867 5.931 5.768 4.591 2.681 1.941 1.149 0.999
0.000 0.000 0.000 0.000 0.000 0.000 0.000 0.000 0.000 0.000 0.000 0.000 0.000 0.000 0.000 0.000 0.000 0.000 0.000 0.000 0.000 0.000 0.000 0.000 0.000 0.000 0.000 0.155 0.698 1.224 1.661 3.046 4.589 6.053 6.771 5.919 4.792 2.876 1.995 0.436 1.268
0.000 0.000 0.000 0.000 0.000 0.000 0.000 0.000 0.000 0.000 0.000 0.000 0.000 0.000 0.000 0.000 0.000 0.000 0.000 0.000 0.000 0.000 0.000 0.000 0.000 0.000 0.000 0.020 0.811 1.150 1.217 2.198 4.284 6.443 7.919 6.871 5.410 3.513 2.046 0.480 1.673
0.000 0.000 0.000 0.000 0.000 0.000 0.000 0.000 0.000 0.000 0.000 0.000 0.000 0.000 0.000 0.000 0.000 0.000 0.000 0.000 0.000 0.000 0.000 0.000 0.000 0.000 0.000 0.000 0.409 0.954 1.068 1.827 2.246 5.018 8.327 7.704 6.791 4.591 2.924 1.370 2.248
0.000 0.000 0.000 0.000 0.000 0.000 0.000 0.000 0.000 0.000 0.000 0.000 0.000 0.000 0.000 0.000 0.000 0.000 0.000 0.000 0.000 0.000 0.000 0.000 0.000 0.000 0.000 0.000 0.123 0.635 0.973 1.767 1.500 4.441 8.653 8.638 7.592 5.075 3.358 1.979 2.352
0.000 0.000 0.000 0.000 0.000 0.000 0.000 0.000 0.000 0.000 0.000 0.000 0.000 0.000 0.000 0.000 0.000 0.000 0.000 0.000 0.000 0.000 0.000 0.000 0.000 0.000 0.000 0.000 0.007 0.373 0.766 1.614 1.412 3.263 7.396 8.119 7.094 4.540 2.708 2.111 2.369
0.000 0.000 0.000 0.000 0.000 0.000 0.000 0.000 0.000 0.000 0.000 0.000 0.000 0.000 0.000 0.000 0.000 0.000 0.000 0.000 0.000 0.000 0.000 0.000 0.000 0.000 0.000 0.000 0.000 0.105 0.564 1.045 1.452 2.319 5.981 7.733 6.670 4.351 2.302 2.013 2.162
0.000 0.000 0.000 0.000 0.000 0.000 0.000 0.000 0.000 0.000 0.000 0.000 0.000 0.000 0.000 0.000 0.000 0.000 0.000 0.000 0.000 0.000 0.000 0.000 0.000 0.000 0.000 0.000 0.000 0.000 0.315 0.961 1.406 1.709 4.020 7.485 6.078 4.538 2.800 1.892 1.895
0.000 0.000 0.000 0.000 0.000 0.000 0.000 0.000 0.000 0.000 0.000 0.000 0.000 0.000 0.000 0.000 0.000 0.000 0.000 0.000 0.000 0.000 0.000 0.000 0.000 0.000 0.000 0.000 0.000 0.000 0.052 1.249 1.422 1.522 3.223 6.161 5.725 5.096 2.981 1.958 2.572
0.000 0.000 0.000 0.000 0.000 0.000 0.000 0.000 0.000 0.000 0.000 0.000 0.000 0.000 0.000 0.000 0.000 0.000 0.000 0.000 0.000 0.000 0.000 0.000 0.000 0.000 0.000 0.000 0.000 0.000 0.011 1.136 1.538 1.796 2.823 4.972 5.633 4.612 2.589 2.337 2.405
0.000 0.000 0.000 0.000 0.000 0.000 0.000 0.000 0.000 0.000 0.000 0.000 0.000 0.000 0.000 0.000 0.000 0.000 0.000 0.000 0.000 0.000 0.000 0.000 0.000 0.000 0.000 0.000 0.000 0.000 0.005 1.045 1.366 1.670 2.792 3.776 4.760 3.936 2.033 1.327 0.748
0.000 0.000 0.000 0.000 0.000 0.000 0.000 0.000 0.000 0.000 0.000 0.000 0.000 0.000 0.000 0.000 0.000 0.000 0.000 0.000 0.000 0.000 0.000 0.000 0.000 0.000 0.000 0.000 0.000 0.000 0.008 0.728 1.207 1.723 2.464 2.680 3.256 3.541 0.993 0.289 0.450
0.000 0.000 0.000 0.000 0.000 0.000 0.000 0.000 0.000 0.000 0.000 0.000 0.000 0.000 0.000 0.000 0.000 0.000 0.000 0.000 0.000 0.000 0.000 0.000 0.000 0.000 0.000 0.000 0.000 0.000 0.007 0.652 0.844 1.679 1.893 1.646 2.203 1.958 0.212 0.229 0.492
0.000 0.000 0.000 0.000 0.000 0.000 0.000 0.000 0.000 0.000 0.000 0.000 0.000 0.000 0.000 0.000 0.000 0.000 0.000 0.000 0.000 0.000 0.000 0.000 0.000 0.000 0.000 0.000 0.000 0.000 0.005 0.624 0.846 1.419 1.485 1.301 1.408 1.212 0.008 0.107 0.188
0.000 0.000 0.000 0.000 0.000 0.000 0.000 0.000 0.000 0.000 0.000 0.000 0.000 0.000 0.000 0.000 0.000 0.000 0.000 0.000 0.000 0.000 0.000 0.000 0.000 0.000 0.000 0.000 0.000 0.000 0.007 0.575 0.847 1.200 1.437 1.640 1.235 0.804 0.001 0.080 0.915
0.000 0.000 0.000 0.000 0.000 0.000 0.000 0.000 0.000 0.000 0.000 0.000 0.000 0.000 0.000 0.000 0.000 0.000 0.000 0.000 0.000 0.000 0.000 0.000 0.000 0.000 0.000 0.000 0.000 0.000 0.014 0.620 0.750 1.062 1.108 1.344 1.186 0.192 0.065 0.957 2.000
0.000 0.000 0.000 0.000 0.000 0.000 0.000 0.000 0.000 0.000 0.000 0.000 0.000 0.000 0.000 0.000 0.000 0.000 0.000 0.000 0.000 0.000 0.000 0.000 0.000 0.000 0.000 0.000 0.000 0.000 0.008 0.624 0.743 0.981 1.073 0.838 0.714 0.132 0.187 1.136 1.819
