ncols        32
nrows        37
xllcorner    409852.8
yllcorner    6870499.1
cellsize     5.00
NODATA_value -9999
0.000 0.000 0.000 0.000 0.000 0.000 0.000 0.000 0.000 0.000 0.000 0.000 0.000 0.000 0.000 0.000 0.000 0.347 5.314 16.089 26.481 27.770 17.269 5.603 0.499 0.005 0.000 0.000 0.000 0.000 0.000 0.000
0.000 0.000 0.000 0.000 0.000 0.000 0.000 0.000 0.000 0.000 0.000 0.000 0.000 0.000 0.001 0.766 15.442 67.399 66.671 72.617 72.542 74.955 73.063 63.208 42.264 10.303 0.524 0.001 0.000 0.000 0.000 0.000
0.000 0.000 0.000 0.000 0.000 0.000 0.000 0.000 0.000 0.000 0.000 0.000 0.000 0.135 14.602 62.200 66.438 72.040 77.040 81.389 85.563 86.411 83.547 77.973 70.911 55.867 27.685 4.013 0.073 0.000 0.000 0.000
0.000 0.000 0.000 0.000 0.000 0.000 0.000 0.000 0.000 0.000 0.000 0.000 0.129 30.157 65.910 69.740 72.903 77.279 85.750 93.000 105.024 93.360 103.210 93.981 84.899 75.901 56.864 32.153 10.820 0.582 0.002 0.000
0.000 0.000 0.000 0.000 0.000 0.000 0.000 0.000 0.000 0.000 0.000 0.016 13.153 70.438 74.871 75.768 78.700 84.901 93.578 108.752 106.285 107.674 101.827 113.940 100.518 96.208 65.162 49.079 37.293 14.714 2.149 0.030
0.000 0.000 0.000 0.000 0.000 0.000 0.000 0.000 0.000 0.000 0.000 1.706 70.329 74.509 82.294 86.203 85.700 88.839 99.264 114.628 104.295 104.476 114.044 125.392 115.263 106.675 78.194 64.434 49.243 28.017 16.062 3.910
0.000 0.000 0.000 0.000 0.000 0.000 0.000 0.000 0.000 0.000 0.006 23.251 70.709 81.589 93.874 95.567 92.869 94.812 104.917 114.563 109.727 122.684 128.196 120.593 127.524 106.418 95.360 81.738 66.250 34.456 24.222 13.375
0.000 0.000 0.000 0.000 0.000 0.000 0.000 0.000 0.000 0.000 0.390 68.913 76.170 93.713 100.543 102.640 100.280 98.865 108.889 114.871 113.575 126.822 124.550 117.858 128.573 120.035 116.530 93.659 75.246 42.945 24.678 13.632
0.000 0.000 0.000 0.000 0.000 0.000 0.000 0.000 0.000 0.000 2.335 65.811 80.471 94.280 103.852 108.055 106.757 106.315 111.626 112.410 112.487 124.370 124.972 130.147 127.338 131.407 122.375 102.522 78.883 57.390 23.950 12.819
0.000 0.000 0.000 0.000 0.000 0.000 0.000 0.000 0.000 0.000 5.958 68.745 85.923 95.690 106.337 114.592 115.403 115.416 112.149 103.520 120.146 123.258 124.940 130.970 122.480 130.875 108.161 93.219 86.076 62.963 23.213 14.764
0.000 0.000 0.000 0.000 0.000 0.000 0.000 0.000 0.000 0.000 13.831 69.813 81.130 98.233 111.422 123.831 130.670 131.323 124.119 123.440 127.405 130.885 115.647 126.057 110.710 114.667 97.672 94.291 85.488 59.404 25.426 15.182
0.000 0.000 0.000 0.000 0.000 0.000 0.000 0.000 0.000 0.026 54.552 72.555 89.714 100.846 125.607 131.008 141.945 139.995 124.669 124.197 122.692 116.224 113.361 110.413 96.912 118.457 98.531 100.347 91.127 48.233 23.194 12.942
0.000 0.000 0.000 0.000 0.000 0.000 0.000 0.000 0.000 0.294 61.305 77.834 104.678 122.742 122.118 132.592 134.367 134.302 126.871 112.036 102.670 99.158 110.935 100.550 112.959 116.797 96.920 102.831 96.824 45.238 19.170 11.852
0.000 0.000 0.000 0.000 0.000 0.000 0.000 0.000 0.000 1.275 56.129 79.008 97.702 109.393 114.388 113.777 134.048 128.610 132.179 118.435 96.940 93.256 97.194 106.337 115.646 108.464 103.397 104.294 93.463 38.682 16.489 10.518
0.000 0.000 0.000 0.000 0.000 0.000 0.000 0.000 0.002 13.954 60.219 79.034 95.610 96.173 101.198 112.012 126.602 137.629 127.842 118.667 102.799 106.602 113.592 125.007 112.251 95.047 97.029 107.782 70.347 35.906 15.388 9.630
0.000 0.000 0.000 0.000 0.000 0.000 0.000 0.000 0.198 52.830 60.955 79.258 88.898 87.557 94.170 106.958 112.879 129.536 134.061 123.059 117.862 109.300 109.731 98.561 98.056 88.843 99.647 85.125 55.743 39.495 13.057 6.964
0.000 0.000 0.000 0.000 0.000 0.139 1.089 4.755 28.668 56.089 67.903 85.283 86.255 87.544 87.674 93.658 107.078 125.902 134.129 129.215 119.236 106.591 89.866 90.995 86.997 101.290 102.573 70.886 58.774 28.032 13.768 7.761
0.000 0.000 0.000 0.434 24.562 68.146 67.507 62.140 58.793 63.522 77.314 95.667 93.337 85.188 90.951 86.001 111.851 131.731 129.464 133.165 145.960 113.916 99.805 92.198 104.712 105.542 88.187 71.279 54.024 34.195 21.583 8.525
0.000 0.000 0.483 70.102 75.222 76.027 76.122 71.971 67.488 71.569 81.857 99.156 98.287 90.704 85.510 111.065 137.697 130.857 135.511 141.744 146.960 114.423 116.086 111.727 106.126 95.075 80.326 68.870 57.179 50.619 27.596 7.793
0.000 0.098 54.804 75.472 85.432 91.017 90.959 80.992 73.263 74.893 87.100 101.139 106.554 90.429 94.762 107.697 139.074 125.074 133.943 146.510 147.187 115.814 106.452 90.706 85.419 84.245 74.938 70.210 58.664 53.139 27.638 9.698
0.000 2.646 77.252 85.628 100.695 106.392 96.731 90.332 84.372 91.830 95.144 106.656 103.448 95.510 112.771 133.154 137.518 137.236 138.943 140.450 154.999 127.755 98.656 100.757 87.590 80.327 68.913 62.117 70.128 59.436 39.886 11.598
0.003 23.582 86.737 104.024 113.637 110.715 101.088 93.652 87.548 100.031 98.443 112.134 115.994 115.112 130.877 134.780 145.513 142.820 141.840 148.918 165.624 142.752 104.105 100.167 86.932 77.112 65.650 72.045 77.042 66.965 43.593 13.044
0.195 80.308 94.797 112.018 115.538 117.333 110.669 112.241 117.167 115.468 105.865 109.620 123.945 128.738 126.830 142.006 152.204 141.248 147.763 152.078 180.441 140.749 105.097 93.522 74.853 73.503 75.135 86.930 86.450 67.828 45.551 15.187
1.203 81.415 97.093 123.562 127.104 122.199 130.205 132.010 127.361 129.683 115.264 125.804 145.639 134.179 126.251 140.936 151.379 164.728 158.679 169.394 181.826 143.771 107.772 85.469 86.676 76.164 85.838 89.217 87.086 74.499 53.425 18.926
2.754 79.994 107.174 123.473 132.267 141.480 126.701 141.007 133.246 131.781 122.461 146.821 159.283 149.959 156.551 187.383 171.648 174.990 171.561 156.131 174.127 150.770 116.995 82.705 72.473 83.571 85.197 88.855 85.902 78.370 50.408 26.007
3.560 90.047 118.485 138.782 149.575 148.691 141.414 158.211 148.288 142.421 131.408 155.208 171.116 155.671 161.773 194.645 199.401 189.564 164.323 164.758 175.073 158.253 116.338 91.809 69.423 70.886 82.209 80.589 79.449 70.658 53.326 24.722
2.767 86.772 125.711 150.525 162.510 147.722 161.748 164.733 140.911 151.556 139.994 158.827 179.210 162.108 174.919 202.969 196.349 199.585 181.772 172.577 183.659 167.095 128.856 93.899 71.470 71.055 75.594 76.152 81.795 102.506 61.273 14.711
1.412 84.793 120.552 153.422 160.291 158.500 161.534 157.656 162.727 175.539 153.579 166.468 184.640 158.302 168.374 195.779 184.505 200.188 197.802 192.477 193.356 170.022 121.045 95.740 65.863 70.119 70.453 74.306 103.365 97.625 49.409 10.597
0.454 59.757 112.780 145.641 156.348 160.242 163.061 174.784 157.780 165.939 142.461 160.961 202.551 175.065 179.517 266.416 263.653 220.604 206.096 219.970 247.287 181.823 130.187 97.177 63.040 61.927 60.444 90.284 93.922 61.513 34.994 8.604
0.095 37.800 98.044 136.574 155.087 162.225 148.276 163.173 181.143 217.756 201.385 216.243 253.089 219.020 222.204 255.744 227.993 224.720 195.607 183.466 205.606 158.646 149.612 112.833 60.978 56.656 77.722 88.715 61.001 41.925 30.965 7.888
0.014 21.029 79.715 121.842 166.086 159.603 146.652 200.927 252.113 263.104 213.601 216.216 255.021 180.868 181.646 229.914 218.382 179.592 169.874 144.794 162.064 165.336 111.019 74.587 27.549 38.828 54.158 54.974 50.034 49.650 28.569 5.771
0.003 11.662 60.828 101.908 146.128 170.816 221.258 269.473 257.082 215.379 159.883 173.851 214.598 134.894 138.134 191.853 173.850 133.166 120.079 137.809 158.872 116.901 67.553 43.754 27.373 32.437 32.267 51.679 34.272 40.093 20.945 5.219
0.002 8.291 44.217 80.472 120.832 159.471 163.896 219.656 191.818 164.976 116.052 166.055 175.897 165.378 181.722 156.441 129.028 128.458 112.844 104.579 103.354 64.944 34.376 37.014 26.288 19.815 22.303 30.247 12.965 20.518 11.493 4.418
0.004 9.018 39.087 65.189 131.539 157.800 181.098 174.898 147.500 133.598 125.460 173.674 139.622 120.694 133.262 130.492 110.010 75.626 60.297 54.021 63.362 34.734 32.847 25.077 17.009 12.614 14.217 15.639 10.293 11.549 10.190 3.881
0.001 3.289 29.443 48.866 67.471 126.272 121.947 152.018 155.716 106.649 52.754 126.956 130.118 143.424 104.106 103.852 64.787 46.299 36.484 35.625 40.725 31.740 21.839 17.223 12.420 5.910 9.701 14.427 7.733 9.857 7.983 2.447
0.000 0.890 21.660 30.466 32.446 47.953 62.350 69.230 62.191 42.120 35.725 89.890 51.341 66.868 51.265 40.344 37.839 31.672 28.693 29.708 27.607 18.469 13.979 11.212 9.532 8.652 8.194 9.993 5.897 6.820 4.185 2.681
0.000 0.485 18.160 22.379 24.133 28.425 25.269 23.934 27.844 21.079 20.747 33.009 29.777 33.585 31.227 26.618 20.688 16.541 13.427 14.074 14.081 11.821 10.652 10.132 7.512 6.845 4.535 4.755 3.160 4.212 2.319 2.224
