ncols        31
nrows        48
xllcorner    409777.8
yllcorner    6870684.1
cellsize     5.00
NODATA_value -9999
0.000 0.000 0.000 0.000 0.000 0.000 0.000 0.000 0.000 0.000 0.000 0.000 0.000 0.000 0.000 0.000 0.000 0.000 0.000 0.000 0.000 0.000 0.000 0.000 0.000 0.000 0.000 0.000 0.000 0.000 0.000
0.000 0.000 0.000 0.000 0.027 4.797 53.155 73.756 72.292 71.272 75.558 35.289 5.218 0.016 0.000 0.000 0.000 0.000 0.000 0.000 0.000 0.000 0.000 0.000 0.000 0.000 0.000 0.000 0.000 0.000 0.000
0.000 0.000 0.000 0.507 33.846 77.983 76.182 79.705 79.492 77.760 79.816 73.531 73.751 28.715 0.333 0.000 0.000 0.000 0.000 0.000 0.000 0.000 0.000 0.000 0.000 0.000 0.000 0.000 0.000 0.000 0.000
0.000 0.000 0.355 42.226 74.446 83.112 86.610 89.128 90.328 91.883 90.829 88.336 83.416 76.639 45.726 1.507 0.000 0.000 0.000 0.000 0.000 0.000 0.000 0.000 0.000 0.000 0.000 0.000 0.000 0.000 0.000
0.000 0.002 12.824 74.545 82.799 90.385 97.949 101.839 103.633 99.988 103.406 100.227 94.097 89.957 70.957 65.752 3.986 0.000 0.000 0.000 0.000 0.000 0.000 0.000 0.000 0.000 0.000 0.000 0.000 0.000 0.000
0.000 1.483 77.464 80.825 90.117 98.528 107.393 109.823 112.784 105.714 103.935 119.294 118.819 108.001 97.873 80.012 77.606 6.565 0.001 0.000 0.000 0.000 0.000 0.000 0.000 0.000 0.000 0.000 0.000 0.000 0.000
0.001 19.161 75.705 86.817 96.515 104.731 113.477 116.539 115.725 116.064 115.695 132.992 139.288 129.337 117.928 100.107 84.211 74.919 12.432 0.005 0.000 0.000 0.000 0.000 0.000 0.000 0.000 0.000 0.000 0.000 0.000
0.136 69.271 79.482 91.571 100.885 108.593 120.570 123.884 122.665 117.805 134.199 156.948 151.672 151.090 135.217 110.631 98.715 77.695 82.344 15.171 0.002 0.000 0.000 0.000 0.000 0.000 0.000 0.000 0.000 0.000 0.000
1.585 75.050 81.750 93.405 104.639 115.097 121.136 126.637 129.817 130.712 139.915 166.247 167.929 161.889 128.237 110.085 109.952 103.249 88.939 81.961 8.832 0.000 0.000 0.000 0.000 0.000 0.000 0.000 0.000 0.000 0.000
4.187 69.210 81.696 95.857 104.685 118.468 123.369 129.593 133.636 138.439 133.533 163.391 169.830 159.024 128.491 125.394 139.059 123.729 97.123 90.009 60.402 2.763 0.000 0.000 0.000 0.000 0.000 0.000 0.000 0.000 0.000
5.355 69.611 80.895 93.224 103.589 114.373 125.947 128.186 138.429 137.395 138.865 173.050 185.378 160.683 135.490 145.464 144.754 118.779 107.934 107.824 67.601 39.762 0.186 0.000 0.000 0.000 0.000 0.000 0.000 0.000 0.000
4.378 65.238 80.102 96.174 105.350 116.692 124.331 129.714 133.137 129.930 145.479 173.996 174.152 159.332 148.388 155.907 140.453 113.134 127.958 117.863 97.927 60.973 15.178 0.000 0.000 0.000 0.000 0.000 0.000 0.000 0.000
2.051 64.219 78.095 87.767 100.193 111.303 126.871 132.975 132.591 136.997 159.007 178.167 166.935 162.214 159.078 164.465 136.110 129.144 137.203 137.494 118.845 66.162 39.717 1.436 0.000 0.000 0.000 0.000 0.000 0.000 0.000
0.472 49.355 68.106 82.170 101.406 112.977 131.782 144.743 136.325 139.877 168.562 165.095 171.522 171.704 159.201 157.341 151.845 138.189 144.965 145.584 119.156 76.501 56.237 19.117 0.015 0.000 0.000 0.000 0.000 0.000 0.000
0.057 25.187 60.140 75.591 91.641 105.230 122.210 133.895 133.796 139.289 170.674 184.318 180.281 159.357 149.231 161.236 157.225 152.193 167.082 139.971 129.277 118.402 89.257 31.838 4.063 0.000 0.000 0.000 0.000 0.000 0.000
0.002 8.689 46.864 70.037 83.891 93.014 113.259 121.837 119.959 132.485 161.862 174.552 161.520 144.444 156.929 144.476 144.899 159.721 171.743 152.362 137.708 132.349 88.756 37.647 18.640 0.112 0.000 0.000 0.000 0.000 0.000
0.000 1.458 37.094 56.631 68.822 86.944 100.966 108.742 115.592 124.982 139.720 156.441 150.745 149.326 144.305 142.193 150.467 168.592 166.143 150.515 141.807 124.231 93.098 58.073 24.314 5.289 0.000 0.000 0.000 0.000 0.000
0.000 0.076 16.778 44.162 60.399 74.504 86.349 103.235 114.517 116.278 135.188 156.962 149.308 142.321 134.604 148.885 159.852 171.415 151.965 154.729 143.582 122.789 87.308 65.829 28.150 16.394 0.118 0.000 0.000 0.000 0.000
0.000 0.001 4.603 40.770 49.099 62.038 74.908 93.282 103.255 115.151 145.836 137.737 131.586 134.706 150.982 162.910 177.336 161.427 145.325 146.440 129.814 118.810 102.361 68.954 35.983 20.429 4.137 0.000 0.000 0.000 0.000
0.000 0.000 0.641 33.683 46.313 56.663 67.157 75.927 91.582 109.410 116.535 117.571 126.282 136.964 148.503 169.315 158.695 148.307 150.045 136.951 138.183 130.672 121.483 83.404 46.837 21.951 10.833 0.016 0.000 0.000 0.000
0.000 0.000 0.202 45.291 46.843 54.606 61.630 74.497 80.792 87.985 100.500 109.502 127.454 133.431 135.426 160.263 143.386 152.396 149.069 145.682 158.957 142.664 131.684 86.959 52.583 24.714 12.397 2.061 0.000 0.000 0.000
0.000 0.000 0.832 43.044 52.010 58.468 63.809 68.716 72.977 78.573 93.242 104.732 110.972 124.474 160.540 157.258 150.687 146.654 157.025 157.988 177.341 144.484 119.794 85.094 59.399 25.242 13.895 6.961 0.000 0.000 0.000
0.000 0.000 4.358 46.328 54.885 61.296 67.465 68.400 70.115 78.959 87.718 100.570 108.741 136.438 146.079 135.471 160.760 166.501 162.204 167.933 165.967 136.594 107.634 80.476 60.553 32.213 16.026 10.800 0.483 0.000 0.000
0.000 0.016 28.237 49.909 61.815 68.021 70.229 73.448 67.524 71.785 75.945 98.567 124.291 127.977 125.829 138.930 158.911 148.637 151.282 192.893 153.110 120.781 113.158 81.600 65.407 44.719 18.461 12.045 4.471 0.000 0.000
0.000 0.223 43.613 52.100 63.269 71.962 74.588 69.369 66.940 80.267 96.926 101.736 109.950 108.503 116.032 137.105 150.685 154.211 185.585 171.043 139.110 139.794 103.250 88.618 70.885 56.076 25.203 16.332 8.965 0.000 0.000
0.000 0.744 41.538 54.215 66.612 74.177 74.752 68.944 70.932 82.522 97.150 99.191 97.646 110.379 114.811 130.377 146.987 171.015 169.746 152.773 148.966 127.544 109.004 97.844 83.280 60.421 28.917 15.717 10.270 0.052 0.000
0.000 1.414 41.400 55.181 66.200 70.577 72.106 67.667 71.735 85.643 93.483 82.683 94.900 99.432 103.184 117.787 142.890 148.120 147.134 141.158 130.573 124.515 115.531 101.063 78.213 53.269 33.236 16.956 9.133 1.005 0.000
0.000 1.899 39.829 52.509 66.462 70.130 73.009 68.847 75.290 90.828 84.643 85.302 89.509 92.322 91.636 94.338 123.223 136.041 137.118 130.355 127.925 126.476 112.867 88.651 65.944 55.646 38.400 19.431 9.193 3.741 0.000
0.000 2.050 36.767 53.075 62.050 66.810 67.407 74.509 76.621 81.678 86.695 82.538 84.272 88.172 85.717 101.800 105.332 115.319 124.281 126.286 126.826 118.202 96.538 77.310 71.311 62.580 40.566 25.840 11.486 5.442 0.085
0.000 1.860 36.161 49.692 59.546 62.970 64.741 64.487 76.546 81.692 73.506 81.294 84.848 97.338 89.974 89.373 95.692 102.157 111.658 120.524 111.093 102.431 89.425 78.206 79.441 67.511 44.547 27.385 11.362 3.487 1.592
0.000 1.567 31.369 45.773 53.497 59.560 68.172 72.214 71.538 67.087 74.681 84.226 83.806 80.937 84.930 77.891 82.701 90.760 90.294 101.304 93.628 91.966 92.435 80.960 86.165 61.149 46.421 27.512 12.638 4.340 5.727
0.000 1.112 27.198 42.627 51.592 57.371 60.642 60.388 61.639 79.480 77.220 80.674 67.481 79.609 82.335 72.541 67.539 70.478 85.501 88.216 99.011 96.620 78.201 81.502 73.360 55.113 45.636 29.399 14.504 6.800 6.882
0.000 0.764 21.543 37.842 49.397 55.757 57.264 59.054 63.108 66.820 72.067 66.609 63.573 83.560 76.215 59.100 51.956 61.321 77.499 86.452 83.754 81.563 79.130 87.619 71.266 54.603 47.946 29.916 13.841 7.150 7.153
0.000 0.828 17.008 36.107 43.167 49.585 51.693 53.657 63.066 67.935 66.658 58.912 69.705 84.018 62.492 51.109 52.022 58.926 61.736 66.796 69.553 74.744 81.419 78.211 61.636 55.274 44.972 24.001 11.798 6.093 7.123
0.000 0.536 14.192 31.153 40.411 46.634 47.330 48.915 62.938 65.380 58.017 62.285 78.949 67.259 50.319 47.981 50.819 46.268 49.075 56.608 68.242 74.735 75.482 64.555 58.791 60.921 35.258 24.257 12.907 10.742 8.858
0.000 0.267 10.885 29.014 38.740 41.688 42.751 50.404 60.847 58.761 64.965 81.227 66.198 52.807 53.424 44.758 39.432 37.424 41.507 52.306 59.799 69.940 71.616 69.339 68.528 49.600 35.203 25.422 18.421 15.610 10.318
0.000 0.085 8.464 23.929 34.298 39.254 41.325 48.493 55.633 57.810 68.952 60.563 47.251 45.271 46.523 39.906 35.394 31.546 32.602 43.352 56.323 65.097 66.511 66.847 61.981 48.343 36.488 29.704 23.193 19.048 10.304
0.000 0.021 5.912 19.735 31.570 35.950 41.291 48.785 58.289 59.733 52.403 45.908 42.268 44.544 41.401 30.611 25.934 26.183 24.722 39.846 44.453 53.607 62.837 59.502 53.173 45.312 36.272 27.886 26.978 19.915 11.401
0.000 0.007 4.070 17.244 28.481 33.578 35.894 46.996 47.171 42.412 45.928 42.614 45.944 48.246 33.753 24.575 24.179 18.575 20.732 24.761 41.041 49.967 55.006 59.474 54.136 44.345 36.210 34.116 29.273 23.277 10.809
0.000 0.001 2.339 14.260 24.948 30.422 34.514 38.498 38.628 36.313 39.446 40.903 42.242 33.120 23.589 21.577 21.589 14.636 13.668 20.071 32.148 40.967 48.760 52.951 52.892 44.205 40.596 35.597 30.777 24.264 11.111
0.000 0.000 1.102 11.747 22.017 24.716 32.002 33.410 26.062 26.776 34.079 34.337 36.759 26.209 21.514 19.467 15.308 12.186 12.467 15.172 21.301 35.133 46.373 54.807 48.757 44.376 41.281 36.586 33.239 25.283 12.724
0.000 0.000 0.239 8.348 14.811 21.766 24.505 22.729 19.643 19.930 21.500 24.743 22.742 19.108 17.665 14.630 12.965 10.933 11.378 13.360 16.782 27.985 37.943 43.773 45.846 43.410 36.415 38.227 33.934 23.652 13.373
0.000 0.000 0.032 5.585 13.840 17.591 20.173 18.314 17.989 18.120 18.130 19.973 17.892 14.663 14.371 12.666 11.630 12.721 11.773 12.307 13.743 19.315 32.461 44.461 40.654 39.531 38.430 36.447 30.366 21.929 12.192
0.000 0.000 0.005 3.091 12.701 16.590 15.855 16.681 17.126 15.768 16.011 16.906 15.631 13.559 12.862 12.017 12.109 11.396 11.422 10.802 11.696 15.498 26.436 33.118 36.488 37.816 37.228 33.429 25.032 19.688 11.229
0.000 0.000 0.001 1.417 10.769 14.673 14.900 15.787 16.472 15.621 15.069 15.604 13.944 12.561 12.809 13.146 10.847 11.321 11.469 10.354 10.709 11.890 18.910 29.138 34.692 34.464 33.609 26.014 21.083 19.953 9.098
0.000 0.000 0.000 0.434 7.402 12.843 13.364 15.502 16.235 14.555 12.671 12.704 11.614 11.465 11.798 10.081 10.390 10.634 9.841 9.214 8.315 11.254 15.343 25.483 29.291 34.788 29.686 23.115 20.207 14.685 7.323
0.000 0.000 0.000 0.071 4.671 11.036 12.188 14.561 13.185 10.588 12.640 10.463 9.474 11.653 9.761 9.114 9.899 9.867 9.008 8.448 8.013 10.241 9.462 13.129 21.977 25.956 21.128 17.988 12.019 9.366 7.113
0.000 0.000 0.000 0.006 2.145 8.144 10.064 10.433 8.445 9.303 8.605 6.323 8.089 7.417 7.137 7.529 8.213 8.024 7.603 6.838 7.387 6.963 6.199 7.574 10.982 13.573 10.768 8.532 7.530 7.010 5.731
