ncols        31
nrows        45
xllcorner    409787.8
yllcorner    6870664.1
cellsize     5.00
NODATA_value -9999
0.000 0.000 0.000 0.000 0.000 0.000 0.000 0.000 0.000 0.000 0.000 0.000 0.000 0.000 0.000 0.000 0.000 0.000 0.000 0.000 0.000 0.000 0.000 0.000 0.000 0.000 0.000 0.000 0.000 0.000 0.000
0.000 0.000 0.000 0.000 0.000 0.000 0.001 1.101 21.029 68.176 93.404 85.820 45.658 11.352 0.112 0.000 0.000 0.000 0.000 0.000 0.000 0.000 0.000 0.000 0.000 0.000 0.000 0.000 0.000 0.000 0.000
0.000 0.000 0.000 0.000 0.000 0.152 15.230 83.079 83.547 97.448 102.381 95.856 79.515 76.033 53.945 2.487 0.000 0.000 0.000 0.000 0.000 0.000 0.000 0.000 0.000 0.000 0.000 0.000 0.000 0.000 0.000
0.000 0.000 0.000 0.000 0.128 26.133 84.577 86.612 95.806 114.126 122.712 110.134 94.249 96.329 85.681 73.272 8.353 0.001 0.000 0.000 0.000 0.000 0.000 0.000 0.000 0.000 0.000 0.000 0.000 0.000 0.000
0.000 0.000 0.000 0.001 9.302 83.758 88.985 95.401 109.609 128.155 128.403 119.038 111.021 114.252 96.764 69.878 80.356 11.066 0.001 0.000 0.000 0.000 0.000 0.000 0.000 0.000 0.000 0.000 0.000 0.000 0.000
0.000 0.000 0.000 1.272 84.828 87.500 97.051 107.134 125.798 140.476 134.911 130.758 125.853 127.629 103.440 90.719 85.058 88.242 12.265 0.000 0.000 0.000 0.000 0.000 0.000 0.000 0.000 0.000 0.000 0.000 0.000
0.000 0.000 0.001 19.455 86.116 98.658 104.675 115.659 138.726 141.736 147.291 144.682 132.660 129.170 122.149 107.613 106.484 92.373 80.301 12.309 0.000 0.000 0.000 0.000 0.000 0.000 0.000 0.000 0.000 0.000 0.000
0.000 0.000 0.283 76.526 88.734 103.057 110.489 121.432 147.250 161.265 159.621 141.061 132.681 138.141 132.909 125.874 131.745 108.005 93.161 97.215 12.739 0.000 0.000 0.000 0.000 0.000 0.000 0.000 0.000 0.000 0.000
0.000 0.000 2.899 76.541 91.706 105.270 110.546 123.818 148.131 160.670 149.353 133.857 143.539 131.474 130.487 140.367 144.942 128.451 114.699 106.433 87.253 10.734 0.000 0.000 0.000 0.000 0.000 0.000 0.000 0.000 0.000
0.000 0.000 7.358 75.938 92.241 105.797 115.251 125.266 138.566 152.472 145.363 142.214 136.596 134.991 141.110 154.278 149.463 137.796 130.690 116.671 95.004 86.064 6.779 0.000 0.000 0.000 0.000 0.000 0.000 0.000 0.000
0.000 0.000 9.414 73.595 90.038 110.302 122.807 125.701 142.964 160.128 148.876 139.943 132.913 145.487 154.777 162.406 145.675 148.441 140.668 126.574 103.674 90.253 73.904 1.518 0.000 0.000 0.000 0.000 0.000 0.000 0.000
0.000 0.000 7.733 69.973 86.631 110.926 122.897 134.234 162.108 148.526 138.240 137.754 151.153 162.380 173.315 158.945 146.691 148.258 137.512 131.649 125.294 103.083 84.662 45.496 0.015 0.000 0.000 0.000 0.000 0.000 0.000
0.000 0.000 3.650 64.338 81.940 98.105 119.573 139.246 142.169 136.381 139.646 145.917 153.692 173.296 161.048 152.196 155.166 145.862 150.239 148.141 149.625 126.068 107.157 84.013 8.665 0.000 0.000 0.000 0.000 0.000 0.000
0.000 0.000 0.827 57.401 72.282 96.836 109.857 119.645 131.409 135.276 148.708 148.297 146.973 170.047 151.969 159.908 158.447 157.971 173.891 164.635 164.504 135.025 109.530 89.259 38.149 0.049 0.000 0.000 0.000 0.000 0.000
0.000 0.000 0.099 30.606 62.781 81.130 96.090 106.743 126.864 136.423 136.774 145.305 179.877 170.691 163.197 159.040 170.027 173.722 196.088 171.020 155.854 134.666 122.321 93.093 56.247 7.327 0.000 0.000 0.000 0.000 0.000
0.000 0.000 0.004 11.305 52.450 67.062 83.084 101.261 119.139 135.079 139.351 168.085 171.225 154.192 178.679 182.679 179.130 187.862 190.011 166.182 145.912 128.625 120.505 103.846 68.585 24.775 0.002 0.000 0.000 0.000 0.000
0.000 0.000 0.000 2.265 46.923 60.119 68.285 80.092 91.989 129.481 165.350 163.734 156.080 164.482 182.841 169.384 172.789 217.832 180.743 152.735 154.435 130.185 125.502 119.286 80.038 36.650 2.120 0.000 0.000 0.000 0.000
0.000 0.000 0.000 0.296 33.938 49.721 58.542 80.515 107.533 124.749 143.401 142.093 149.358 169.472 179.892 180.575 214.817 200.250 169.482 178.838 144.721 140.103 131.220 133.253 100.169 50.419 13.669 0.000 0.000 0.000 0.000
0.000 0.000 0.000 0.393 49.035 48.552 56.765 73.714 96.322 111.102 119.967 142.822 151.479 168.024 182.201 206.606 202.376 185.705 184.189 167.075 153.462 153.699 151.322 134.619 102.047 62.227 21.867 0.001 0.000 0.000 0.000
0.000 0.000 0.035 15.864 51.241 53.727 61.601 76.212 88.738 88.839 109.253 122.940 134.821 156.500 184.142 185.967 182.618 176.483 167.446 165.761 163.354 159.020 138.925 117.062 97.350 66.219 23.949 0.621 0.000 0.000 0.000
0.000 0.000 2.103 54.770 59.246 63.027 72.479 86.516 86.126 91.739 101.252 110.690 117.520 125.459 163.491 177.028 175.753 167.098 167.259 171.314 161.228 139.689 119.842 116.197 96.333 68.252 23.464 5.404 0.000 0.000 0.000
0.000 0.124 47.539 58.317 65.688 75.582 82.576 89.634 95.421 94.421 99.029 106.779 109.081 135.551 143.281 155.023 164.742 165.624 169.589 163.620 143.666 125.104 126.140 126.713 93.244 79.708 31.972 10.379 0.019 0.000 0.000
0.000 2.430 55.105 62.365 71.499 77.579 92.337 98.371 91.555 100.570 105.750 121.115 115.809 120.576 133.686 141.761 153.790 162.356 151.815 146.421 133.995 126.026 136.557 134.105 97.094 68.902 38.072 8.585 1.631 0.000 0.000
0.002 13.277 54.891 66.413 81.447 91.843 96.043 92.129 100.363 111.320 112.190 109.136 114.714 108.486 119.136 130.426 129.153 143.970 133.932 132.089 139.858 130.434 146.487 118.581 98.149 64.488 38.509 9.139 7.885 0.021 0.000
0.087 46.888 57.288 69.945 81.921 87.078 90.464 115.003 111.170 113.508 98.187 114.373 117.648 106.253 101.756 108.621 127.706 128.073 146.262 142.378 121.787 130.809 128.248 103.061 92.416 65.394 38.239 14.062 11.654 1.760 0.000
0.582 49.853 59.946 73.558 83.999 91.485 98.478 103.539 110.594 102.113 97.599 126.250 115.467 92.627 83.788 98.591 121.391 129.529 128.349 126.194 123.737 140.475 125.945 100.243 94.216 67.446 36.568 16.885 12.442 6.006 0.009
1.413 48.698 57.384 71.704 81.934 88.673 103.376 110.525 107.407 93.971 110.323 131.955 99.668 84.656 87.294 100.327 102.417 107.518 109.411 116.714 128.751 124.644 109.223 98.693 85.870 55.178 31.765 16.175 13.257 10.250 1.037
2.059 44.955 56.423 71.750 79.780 84.167 107.094 111.167 96.914 99.597 129.176 111.833 87.055 83.096 90.146 83.227 85.229 93.698 110.121 118.958 121.563 107.174 100.837 108.372 71.370 52.801 29.884 24.621 17.868 14.048 4.408
2.207 45.105 55.966 67.133 74.837 89.393 107.080 102.430 111.130 134.068 110.971 93.805 96.635 81.944 73.185 70.505 75.335 90.080 98.842 113.113 116.179 115.244 119.419 92.638 68.710 51.017 37.247 31.266 23.238 17.601 7.256
1.635 40.507 51.823 65.034 73.785 88.097 99.944 100.482 124.230 104.402 85.596 81.259 86.421 77.750 69.765 63.533 64.645 76.850 95.934 107.996 108.939 111.646 107.632 89.835 69.197 57.228 43.931 38.223 28.757 18.327 6.542
1.081 36.881 48.969 60.374 75.176 90.349 108.355 106.369 97.875 84.627 77.003 79.346 78.428 63.599 54.956 59.602 62.014 75.955 78.285 89.827 104.241 99.601 92.760 82.527 67.464 50.882 48.845 38.601 33.184 17.468 6.389
0.598 29.299 45.581 56.989 64.927 88.787 91.364 81.805 87.183 79.271 84.540 88.244 66.472 53.638 54.227 56.475 60.794 56.777 75.602 86.129 91.926 99.618 94.134 79.596 64.728 59.770 51.245 43.316 33.073 17.358 8.147
0.268 21.657 41.106 53.107 62.645 72.992 77.498 73.563 76.445 77.453 79.126 68.501 52.221 48.514 53.038 49.651 45.471 54.058 64.053 72.772 82.469 87.754 91.761 78.162 71.268 61.148 52.448 43.940 32.808 22.709 10.488
0.087 14.863 38.417 44.223 59.790 72.250 66.471 68.396 73.104 68.258 69.954 57.473 49.311 52.490 47.922 43.422 44.204 45.478 49.478 64.771 79.888 92.021 85.032 77.795 72.451 62.185 55.785 45.332 35.789 24.774 11.184
0.012 7.923 27.710 41.243 56.184 59.977 57.971 60.546 61.520 62.910 54.586 54.421 48.986 49.341 45.283 37.677 39.520 42.319 44.513 56.181 67.626 74.571 80.181 76.586 63.376 64.973 57.506 42.552 36.681 25.561 14.586
0.001 3.525 23.589 36.315 49.769 50.144 54.421 59.518 59.936 62.437 55.220 48.110 46.379 43.213 39.964 42.662 39.687 39.656 39.508 46.265 59.895 77.537 71.902 69.738 66.896 62.778 52.962 40.085 34.628 27.017 15.948
0.000 1.206 18.446 30.635 38.023 45.131 51.349 52.689 55.674 55.810 49.536 44.921 41.290 37.571 39.539 37.123 35.107 26.044 28.193 40.933 54.119 60.082 64.816 66.897 65.503 59.322 45.582 37.018 35.683 27.344 16.343
0.000 0.279 12.723 24.832 33.093 40.748 48.111 50.931 53.134 53.640 44.763 41.020 39.319 40.567 33.528 33.517 25.115 20.898 22.683 30.308 47.061 54.262 62.858 61.307 60.398 47.953 39.733 39.679 33.545 27.498 17.889
0.000 0.038 6.811 19.850 25.413 36.453 45.556 49.068 44.880 44.345 38.515 34.907 34.594 29.827 28.011 22.877 19.045 17.450 16.737 23.048 42.673 53.033 55.839 63.700 55.924 44.818 40.833 34.800 30.946 27.870 17.540
0.000 0.002 2.833 15.639 21.790 29.791 38.085 36.377 40.883 39.599 31.507 28.493 26.850 20.808 19.581 18.694 16.765 15.815 14.914 19.979 27.135 39.818 48.419 52.530 45.457 41.809 36.857 35.010 32.998 27.538 15.570
0.000 0.000 0.696 10.484 18.267 22.343 24.398 29.875 30.031 26.571 22.616 18.537 16.563 16.574 17.108 16.527 15.478 13.900 14.164 14.772 17.916 31.186 42.045 43.981 43.029 39.511 36.128 34.886 31.461 25.329 13.585
0.000 0.000 0.088 6.134 14.930 16.817 18.655 22.745 20.549 17.630 16.190 13.516 13.975 14.598 15.901 15.280 13.570 12.561 12.301 11.020 14.003 25.316 37.180 41.539 39.173 36.443 33.612 32.083 29.994 23.405 11.980
0.000 0.000 0.005 2.478 11.431 13.323 15.409 17.785 16.340 13.041 12.169 11.469 11.855 12.739 13.578 12.548 11.738 12.676 11.699 11.458 13.255 18.514 33.630 38.688 34.351 33.444 32.558 29.520 25.110 18.423 11.655
0.000 0.000 0.000 0.699 8.158 11.656 14.417 13.523 12.223 10.083 10.446 9.626 10.135 10.958 11.104 10.239 11.402 11.342 10.678 11.227 11.457 12.893 19.933 31.713 32.539 28.896 26.405 25.467 20.955 13.931 9.520
0.000 0.000 0.000 0.132 4.765 10.262 12.268 10.374 9.139 8.011 8.001 7.888 8.357 8.601 9.871 9.240 10.175 9.351 10.426 9.845 9.055 10.715 10.930 19.355 23.555 21.273 15.969 13.223 12.285 10.219 7.441
