ncols        42
nrows        97
xllcorner    409622.8
yllcorner    6870809.1
cellsize     5.00
NODATA_value -9999
0.000 0.000 0.000 0.000 0.003 1.953 14.100 2.321 0.000 0.000 0.000 0.000 0.000 0.000 0.000 0.000 0.000 0.000 0.000 0.000 0.000 0.000 0.000 0.000 0.000 0.000 0.000 0.000 0.000 0.000 0.000 0.000 0.000 0.000 0.000 0.000 0.000 0.000 0.000 0.000 0.000 0.000
0.000 0.000 0.000 0.034 18.627 82.049 79.765 80.600 18.633 0.000 0.000 0.000 0.000 0.000 0.000 0.000 0.000 0.000 0.000 0.000 0.000 0.000 0.000 0.000 0.000 0.000 0.000 0.000 0.000 0.000 0.000 0.000 0.000 0.000 0.000 0.000 0.000 0.000 0.000 0.000 0.000 0.000
0.000 0.000 0.000 1.905 76.420 87.457 88.031 85.040 78.550 1.476 0.000 0.000 0.000 0.000 0.000 0.000 0.000 0.000 0.000 0.000 0.000 0.000 0.000 0.000 0.000 0.000 0.000 0.000 0.000 0.000 0.000 0.000 0.000 0.000 0.000 0.000 0.000 0.000 0.000 0.000 0.000 0.000
0.000 0.000 0.110 77.912 84.547 94.709 100.128 98.474 90.895 62.568 0.000 0.000 0.000 0.000 0.000 0.000 0.000 0.000 0.000 0.000 0.000 0.000 0.000 0.000 0.000 0.000 0.000 0.000 0.000 0.000 0.000 0.000 0.000 0.000 0.000 0.000 0.000 0.000 0.000 0.000 0.000 0.000
0.000 0.000 3.252 79.013 94.494 102.564 112.027 109.770 106.958 73.641 0.267 0.000 0.000 0.000 0.000 0.000 0.000 0.000 0.000 0.000 0.000 0.000 0.000 0.000 0.000 0.000 0.000 0.000 0.000 0.000 0.000 0.000 0.000 0.000 0.000 0.000 0.000 0.000 0.000 0.000 0.000 0.000
0.000 0.097 78.346 84.456 107.079 116.630 115.607 123.531 118.093 96.168 34.615 0.000 0.000 0.000 0.000 0.000 0.000 0.000 0.000 0.000 0.000 0.000 0.000 0.000 0.000 0.000 0.000 0.000 0.000 0.000 0.000 0.000 0.000 0.000 0.000 0.000 0.000 0.000 0.000 0.000 0.000 0.000
0.000 1.613 79.198 102.862 120.592 141.289 149.816 141.700 130.413 112.040 79.621 0.005 0.000 0.000 0.000 0.000 0.000 0.000 0.000 0.000 0.000 0.000 0.000 0.000 0.000 0.000 0.000 0.000 0.000 0.000 0.000 0.000 0.000 0.000 0.000 0.000 0.000 0.000 0.000 0.000 0.000 0.000
0.002 17.834 78.898 103.390 130.143 145.456 146.101 129.534 129.947 118.270 73.271 6.704 0.000 0.000 0.000 0.000 0.000 0.000 0.000 0.000 0.000 0.000 0.000 0.000 0.000 0.000 0.000 0.000 0.000 0.000 0.000 0.000 0.000 0.000 0.000 0.000 0.000 0.000 0.000 0.000 0.000 0.000
0.150 74.716 90.292 118.056 141.960 174.062 166.405 118.457 146.497 110.985 84.810 38.931 0.002 0.000 0.000 0.000 0.000 0.000 0.000 0.000 0.000 0.000 0.000 0.000 0.000 0.000 0.000 0.000 0.000 0.000 0.000 0.000 0.000 0.000 0.000 0.000 0.000 0.000 0.000 0.000 0.000 0.000
1.026 71.277 96.340 119.390 138.599 165.588 161.739 146.272 135.315 113.345 91.671 62.004 3.503 0.000 0.000 0.000 0.000 0.000 0.000 0.000 0.000 0.000 0.000 0.000 0.000 0.000 0.000 0.000 0.000 0.000 0.000 0.000 0.000 0.000 0.000 0.000 0.000 0.000 0.000 0.000 0.000 0.000
2.605 67.914 88.540 124.700 145.110 160.302 153.650 138.542 130.377 115.419 96.673 64.912 27.091 0.004 0.000 0.000 0.000 0.000 0.000 0.000 0.000 0.000 0.000 0.000 0.000 0.000 0.000 0.000 0.000 0.000 0.000 0.000 0.000 0.000 0.000 0.000 0.000 0.000 0.000 0.000 0.000 0.000
4.387 65.651 96.118 112.629 133.734 157.660 159.971 151.930 138.382 119.446 100.545 76.509 51.363 4.346 0.000 0.000 0.000 0.000 0.000 0.000 0.000 0.000 0.000 0.000 0.000 0.000 0.000 0.000 0.000 0.000 0.000 0.000 0.000 0.000 0.000 0.000 0.000 0.000 0.000 0.000 0.000 0.000
6.761 65.210 88.914 115.056 134.105 147.336 151.937 158.192 134.543 131.530 105.993 80.163 57.336 28.920 0.634 0.000 0.000 0.000 0.000 0.000 0.000 0.000 0.000 0.000 0.000 0.000 0.000 0.000 0.000 0.000 0.000 0.000 0.000 0.000 0.000 0.000 0.000 0.000 0.000 0.000 0.000 0.000
8.835 63.657 94.774 112.336 128.771 156.981 159.749 172.367 150.865 123.987 108.423 90.107 68.575 46.202 19.163 0.656 0.001 0.000 0.000 0.000 0.000 0.000 0.000 0.000 0.000 0.000 0.000 0.000 0.000 0.000 0.000 0.000 0.000 0.000 0.000 0.000 0.000 0.000 0.000 0.000 0.000 0.000
7.681 61.691 90.462 114.512 134.465 162.873 164.897 162.872 154.720 125.950 106.049 96.198 78.817 50.799 40.290 18.268 4.416 0.005 0.000 0.000 0.000 0.000 0.000 0.000 0.000 0.000 0.000 0.000 0.000 0.000 0.000 0.000 0.000 0.000 0.000 0.000 0.000 0.000 0.000 0.000 0.000 0.000
5.133 50.858 76.303 109.313 139.029 148.282 168.912 161.461 158.819 150.851 136.525 104.642 92.729 55.751 47.299 38.997 27.316 5.710 0.001 0.000 0.000 0.000 0.000 0.000 0.000 0.000 0.000 0.000 0.000 0.000 0.000 0.000 0.000 0.000 0.000 0.000 0.000 0.000 0.000 0.000 0.000 0.000
3.152 46.881 69.061 110.103 136.950 145.854 165.421 168.977 147.453 151.665 154.729 124.310 94.213 68.852 51.215 44.541 31.191 26.680 3.750 0.000 0.000 0.000 0.000 0.000 0.000 0.000 0.000 0.000 0.000 0.000 0.000 0.000 0.000 0.000 0.000 0.000 0.000 0.000 0.000 0.000 0.000 0.000
1.826 39.463 69.105 91.280 119.161 144.480 161.508 180.631 157.217 152.879 168.950 163.989 106.773 73.440 51.751 45.104 34.785 32.457 24.878 2.330 0.000 0.000 0.000 0.000 0.000 0.000 0.000 0.000 0.000 0.000 0.000 0.000 0.000 0.000 0.000 0.000 0.000 0.000 0.000 0.000 0.000 0.000
0.905 28.548 60.431 88.644 113.060 143.390 164.765 170.379 173.040 163.712 163.483 145.902 103.119 67.230 54.777 44.718 39.785 37.060 34.345 21.246 0.929 0.000 0.000 0.000 0.000 0.000 0.000 0.000 0.000 0.000 0.000 0.000 0.000 0.000 0.000 0.000 0.000 0.000 0.000 0.000 0.000 0.000
0.315 19.870 44.260 71.062 101.971 126.080 158.627 176.943 179.760 159.539 165.850 174.546 136.067 82.362 66.996 47.339 45.876 41.037 41.257 30.955 15.547 0.020 0.000 0.000 0.000 0.000 0.000 0.000 0.000 0.000 0.000 0.000 0.000 0.000 0.000 0.000 0.000 0.000 0.000 0.000 0.000 0.000
0.098 12.575 35.630 63.001 86.741 124.229 153.464 164.338 164.442 142.024 170.628 158.345 136.521 108.700 72.809 58.423 52.053 47.033 41.136 35.734 30.675 4.132 0.000 0.000 0.000 0.000 0.000 0.000 0.000 0.000 0.000 0.000 0.000 0.000 0.000 0.000 0.000 0.000 0.000 0.000 0.000 0.000
0.016 6.989 28.832 56.289 91.815 117.324 136.211 156.577 163.321 160.999 171.750 142.202 141.474 99.343 83.142 79.092 61.690 47.579 41.659 40.949 36.055 13.637 0.042 0.000 0.000 0.000 0.000 0.000 0.000 0.000 0.000 0.000 0.000 0.000 0.000 0.000 0.000 0.000 0.000 0.000 0.000 0.000
0.001 2.885 21.071 39.158 66.755 108.978 125.932 161.933 204.051 166.822 152.425 165.375 122.590 102.465 95.027 63.541 52.307 41.703 43.436 48.482 32.949 20.060 4.276 0.000 0.000 0.000 0.000 0.000 0.000 0.000 0.000 0.000 0.000 0.000 0.000 0.000 0.000 0.000 0.000 0.000 0.000 0.000
0.000 1.009 14.909 30.238 62.550 86.737 121.287 186.034 183.897 142.189 170.569 145.376 115.790 113.232 84.617 57.571 52.584 47.707 52.641 40.281 32.562 29.128 15.431 0.083 0.000 0.000 0.000 0.000 0.000 0.000 0.000 0.000 0.000 0.000 0.000 0.000 0.000 0.000 0.000 0.000 0.000 0.000
0.000 0.387 10.876 26.254 44.381 85.357 142.910 154.128 162.447 155.949 153.610 140.741 140.599 118.521 102.166 78.332 62.732 60.889 48.414 36.830 42.276 32.562 18.237 3.806 0.000 0.000 0.000 0.000 0.000 0.000 0.000 0.000 0.000 0.000 0.000 0.000 0.000 0.000 0.000 0.000 0.000 0.000
0.000 0.070 6.104 16.647 32.939 81.907 97.938 130.269 151.712 138.812 144.999 162.549 143.804 112.675 102.811 88.107 82.130 57.167 49.494 43.978 39.534 33.444 20.839 10.720 0.012 0.000 0.000 0.000 0.000 0.000 0.000 0.000 0.000 0.000 0.000 0.000 0.000 0.000 0.000 0.000 0.000 0.000
0.000 0.012 2.935 12.788 28.427 51.733 84.684 109.160 147.277 144.138 155.719 168.547 156.852 130.689 111.018 112.764 86.296 63.964 56.976 42.389 35.331 32.585 24.167 17.576 2.388 0.000 0.000 0.000 0.000 0.000 0.000 0.000 0.000 0.000 0.000 0.000 0.000 0.000 0.000 0.000 0.000 0.000
0.000 0.001 1.085 9.306 18.232 36.234 64.422 109.800 132.659 150.455 145.016 159.375 149.511 114.355 122.913 120.944 77.633 69.566 49.687 29.866 32.352 33.311 32.136 26.316 9.428 0.000 0.000 0.000 0.000 0.000 0.000 0.000 0.000 0.000 0.000 0.000 0.000 0.000 0.000 0.000 0.000 0.000
0.000 0.000 0.193 6.056 13.318 24.720 63.490 111.365 136.177 161.382 162.877 153.242 131.884 108.853 128.809 117.691 95.392 76.959 45.372 29.073 28.921 36.215 37.606 29.992 17.306 0.001 0.000 0.000 0.000 0.000 0.000 0.000 0.000 0.000 0.000 0.000 0.000 0.000 0.000 0.000 0.000 0.000
0.000 0.000 0.012 2.501 8.868 19.914 50.291 107.352 134.988 143.970 140.938 135.457 120.924 126.987 146.059 116.915 92.079 69.081 39.520 30.903 31.329 37.034 35.846 31.805 23.925 0.918 0.000 0.000 0.000 0.000 0.000 0.000 0.000 0.000 0.000 0.000 0.000 0.000 0.000 0.000 0.000 0.000
0.000 0.000 0.001 0.716 7.327 18.242 34.178 80.709 128.111 135.530 121.876 138.754 117.092 144.751 131.672 113.244 99.746 77.263 53.777 34.373 32.020 34.044 36.283 36.504 31.244 5.818 0.000 0.000 0.000 0.000 0.000 0.000 0.000 0.000 0.000 0.000 0.000 0.000 0.000 0.000 0.000 0.000
0.000 0.000 0.000 0.261 5.830 16.665 27.038 63.520 101.118 116.435 128.677 124.450 137.451 138.195 144.140 116.246 110.036 81.303 49.852 33.581 27.075 25.803 33.754 34.142 28.639 5.517 0.000 0.000 0.000 0.000 0.000 0.000 0.000 0.000 0.000 0.000 0.000 0.000 0.000 0.000 0.000 0.000
0.000 0.000 0.000 0.019 3.177 12.451 22.843 36.292 89.793 108.396 130.634 138.874 124.475 146.511 134.495 118.132 102.586 70.965 47.788 31.765 24.333 24.108 29.667 30.044 23.015 9.939 0.000 0.000 0.000 0.000 0.000 0.000 0.000 0.000 0.000 0.000 0.000 0.000 0.000 0.000 0.000 0.000
0.000 0.000 0.000 0.000 0.608 8.825 14.456 22.733 63.865 105.114 118.844 123.226 124.742 123.314 119.112 113.842 81.351 59.044 42.981 35.287 24.639 24.296 23.966 26.946 26.115 15.631 0.114 0.000 0.000 0.000 0.000 0.000 0.000 0.000 0.000 0.000 0.000 0.000 0.000 0.000 0.000 0.000
0.000 0.000 0.000 0.000 0.120 4.977 11.927 18.515 39.635 76.992 94.718 104.579 116.256 113.592 99.015 99.174 70.157 58.869 59.683 37.975 27.704 24.253 19.201 24.085 28.515 14.837 2.375 0.000 0.000 0.000 0.000 0.000 0.000 0.000 0.000 0.000 0.000 0.000 0.000 0.000 0.000 0.000
0.000 0.000 0.000 0.000 0.008 2.574 9.130 13.073 24.457 71.427 90.801 104.411 101.408 102.177 104.929 96.820 75.537 67.549 59.946 40.138 34.162 23.569 20.273 26.469 26.234 15.034 4.559 0.000 0.000 0.000 0.000 0.000 0.000 0.000 0.000 0.000 0.000 0.000 0.000 0.000 0.000 0.000
0.000 0.000 0.000 0.000 0.000 1.023 7.125 10.690 16.966 43.552 78.922 88.987 81.326 86.779 87.403 85.205 76.650 81.660 59.618 49.461 36.375 28.722 25.976 25.454 28.398 17.124 6.004 0.000 0.000 0.000 0.000 0.000 0.000 0.000 0.000 0.000 0.000 0.000 0.000 0.000 0.000 0.000
0.000 0.000 0.000 0.000 0.000 0.222 4.925 9.345 12.410 32.633 61.800 73.162 83.275 85.219 78.289 83.382 81.839 68.846 69.025 55.603 42.509 32.284 21.670 22.312 27.426 18.641 8.195 0.003 0.000 0.000 0.000 0.000 0.000 0.000 0.000 0.000 0.000 0.000 0.000 0.000 0.000 0.000
0.000 0.000 0.000 0.000 0.000 0.038 2.930 7.763 10.092 20.933 49.080 66.581 74.300 70.686 70.536 83.227 84.497 61.461 66.483 51.658 48.645 28.107 19.690 17.526 25.374 20.109 10.290 0.631 0.000 0.000 0.000 0.000 0.000 0.000 0.000 0.000 0.000 0.000 0.000 0.000 0.000 0.000
0.000 0.000 0.000 0.000 0.000 0.003 0.908 5.228 8.269 13.534 37.625 64.136 66.876 66.857 72.096 74.925 76.616 65.191 71.238 58.186 41.325 24.479 18.754 18.619 26.766 22.199 11.703 2.881 0.000 0.000 0.000 0.000 0.000 0.000 0.000 0.000 0.000 0.000 0.000 0.000 0.000 0.000
0.000 0.000 0.000 0.000 0.000 0.002 0.454 4.073 7.660 12.169 23.412 50.104 67.225 69.964 79.762 80.773 65.283 72.600 59.422 47.739 37.616 26.651 22.490 22.803 27.251 23.347 13.215 4.231 0.023 0.000 0.000 0.000 0.000 0.000 0.000 0.000 0.000 0.000 0.000 0.000 0.000 0.000
0.000 0.000 0.000 0.000 0.000 0.000 0.045 2.788 6.580 11.019 19.393 47.791 55.980 65.376 80.810 74.148 73.048 68.952 57.958 42.907 35.058 29.021 26.643 24.879 26.141 23.964 13.237 4.720 1.197 0.000 0.000 0.000 0.000 0.000 0.000 0.000 0.000 0.000 0.000 0.000 0.000 0.000
0.000 0.000 0.000 0.000 0.000 0.000 0.002 1.114 5.636 7.358 14.737 28.611 61.306 63.207 57.513 63.832 61.975 55.413 47.652 33.434 34.843 29.604 27.601 22.030 26.867 23.829 13.161 5.253 3.006 0.056 0.000 0.000 0.000 0.000 0.000 0.000 0.000 0.000 0.000 0.000 0.000 0.000
0.000 0.000 0.000 0.000 0.000 0.000 0.000 0.196 3.721 6.095 11.746 20.419 40.834 50.190 51.053 53.368 52.510 45.434 37.823 34.339 37.182 34.958 28.608 26.101 23.173 20.021 13.545 5.699 3.600 1.196 0.000 0.000 0.000 0.000 0.000 0.000 0.000 0.000 0.000 0.000 0.000 0.000
0.000 0.000 0.000 0.000 0.000 0.000 0.000 0.011 2.472 6.645 9.787 12.432 30.556 43.718 30.208 42.275 37.158 38.019 33.177 39.045 40.881 35.534 28.193 25.497 21.229 19.835 14.293 5.175 3.459 2.428 0.117 0.000 0.000 0.000 0.000 0.000 0.000 0.000 0.000 0.000 0.000 0.000
0.000 0.000 0.000 0.000 0.000 0.000 0.000 0.030 1.459 5.091 6.476 8.741 15.717 30.706 33.643 33.991 34.155 34.939 37.242 38.492 35.586 25.169 34.953 24.292 20.546 18.373 13.123 4.827 3.784 3.076 1.188 0.023 0.000 0.000 0.000 0.000 0.000 0.000 0.000 0.000 0.000 0.000
0.000 0.000 0.000 0.000 0.000 0.000 0.000 0.001 0.361 2.389 4.845 5.008 7.767 22.386 19.139 25.789 33.821 36.149 38.485 32.129 27.215 27.592 28.598 14.422 15.756 17.128 12.427 6.083 4.434 3.469 2.354 0.926 0.000 0.000 0.000 0.000 0.000 0.000 0.000 0.000 0.000 0.000
0.000 0.000 0.000 0.000 0.000 0.000 0.000 0.000 0.023 0.713 3.034 4.087 5.169 20.861 22.522 29.477 33.775 33.302 32.098 26.358 24.493 25.472 21.132 13.426 11.262 15.766 11.951 7.155 4.490 3.693 3.128 1.764 0.026 0.000 0.000 0.000 0.000 0.000 0.000 0.000 0.000 0.000
0.000 0.000 0.000 0.000 0.000 0.000 0.000 0.000 0.000 0.007 0.616 1.916 3.223 8.670 20.402 23.896 27.592 31.576 25.763 21.188 19.159 22.374 19.947 14.685 12.460 11.801 11.391 6.973 4.370 3.643 2.901 2.347 0.991 0.000 0.000 0.000 0.000 0.000 0.000 0.000 0.000 0.000
0.000 0.000 0.000 0.000 0.000 0.000 0.000 0.000 0.000 0.000 0.100 1.875 4.079 8.020 13.708 17.271 21.505 22.132 22.083 20.214 22.014 24.054 23.822 17.580 11.431 9.328 8.599 6.493 4.263 3.453 2.940 2.471 1.595 0.018 0.000 0.000 0.000 0.000 0.000 0.000 0.000 0.000
0.000 0.000 0.000 0.000 0.000 0.000 0.000 0.000 0.000 0.000 0.006 1.281 4.067 5.930 10.632 12.776 16.348 20.671 20.005 22.682 21.273 23.957 19.860 11.972 8.377 6.395 6.729 6.432 4.308 3.382 2.779 1.933 1.266 0.497 0.000 0.000 0.000 0.000 0.000 0.000 0.000 0.000
0.000 0.000 0.000 0.000 0.000 0.000 0.000 0.000 0.000 0.000 0.000 0.061 1.757 2.792 3.853 9.232 12.612 16.000 16.793 16.862 18.441 20.703 12.537 7.281 5.840 3.979 4.353 4.729 4.031 2.959 2.114 1.445 1.659 1.601 0.003 0.000 0.000 0.000 0.000 0.000 0.000 0.000
0.000 0.000 0.000 0.000 0.000 0.000 0.000 0.000 0.000 0.000 0.000 0.000 0.098 2.500 4.738 7.782 11.356 13.028 12.411 13.032 13.811 12.082 7.130 4.150 2.804 1.689 2.573 3.852 3.737 2.441 1.477 0.988 1.323 1.424 0.058 0.000 0.000 0.000 0.000 0.000 0.000 0.000
0.000 0.000 0.000 0.000 0.000 0.000 0.000 0.000 0.000 0.000 0.000 0.000 0.045 1.314 4.611 6.494 10.258 10.247 9.070 10.363 11.277 10.754 5.303 2.633 0.795 2.115 2.745 3.493 2.688 1.890 0.673 0.016 0.500 0.383 0.286 0.000 0.000 0.000 0.000 0.000 0.000 0.000
0.000 0.000 0.000 0.000 0.000 0.000 0.000 0.000 0.000 0.000 0.000 0.000 0.000 0.589 3.006 6.047 7.122 6.649 6.664 7.777 8.546 6.006 2.600 0.764 1.031 2.681 2.697 3.240 2.935 1.562 0.006 0.004 0.003 0.449 0.481 0.007 0.000 0.000 0.000 0.000 0.000 0.000
0.000 0.000 0.000 0.000 0.000 0.000 0.000 0.000 0.000 0.000 0.000 0.000 0.000 0.001 0.998 2.535 3.552 3.384 6.125 8.044 6.916 2.553 1.291 0.906 1.792 1.992 2.554 3.221 2.692 1.128 0.234 0.001 0.001 0.775 0.619 0.069 0.000 0.000 0.000 0.000 0.000 0.000
0.000 0.000 0.000 0.000 0.000 0.000 0.000 0.000 0.000 0.000 0.000 0.000 0.000 0.000 0.100 1.174 2.403 4.386 7.050 8.110 5.201 2.853 1.544 1.829 1.923 2.013 3.260 3.324 2.482 1.573 0.849 0.001 0.002 0.824 0.733 0.182 0.001 0.000 0.000 0.000 0.000 0.000
0.000 0.000 0.000 0.000 0.000 0.000 0.000 0.000 0.000 0.000 0.000 0.000 0.000 0.000 0.000 0.442 1.582 2.668 4.623 4.223 3.831 3.004 2.082 2.816 2.169 3.609 3.541 3.808 2.834 2.253 0.805 0.001 0.011 1.017 1.010 0.555 0.041 0.000 0.000 0.000 0.000 0.000
0.000 0.000 0.000 0.000 0.000 0.000 0.000 0.000 0.000 0.000 0.000 0.000 0.000 0.000 0.000 0.005 0.698 1.880 3.191 3.248 3.826 3.795 2.590 2.110 2.563 4.045 3.587 3.860 2.727 2.308 0.653 0.018 0.591 1.272 0.982 0.892 0.188 0.001 0.000 0.000 0.000 0.000
0.000 0.000 0.000 0.000 0.000 0.000 0.000 0.000 0.000 0.000 0.000 0.000 0.000 0.000 0.000 0.000 0.490 1.861 2.123 1.424 2.117 2.540 3.118 1.420 3.763 3.564 3.331 3.637 3.160 2.869 1.246 0.624 1.027 1.050 0.896 0.989 0.545 0.032 0.000 0.000 0.000 0.000
0.000 0.000 0.000 0.000 0.000 0.000 0.000 0.000 0.000 0.000 0.000 0.000 0.000 0.000 0.000 0.000 0.059 0.632 1.460 1.558 1.513 2.497 3.449 2.847 2.829 2.462 2.706 3.609 3.559 2.551 1.467 1.203 1.663 1.488 1.305 0.899 0.908 0.412 0.081 0.000 0.000 0.000
0.000 0.000 0.000 0.000 0.000 0.000 0.000 0.000 0.000 0.000 0.000 0.000 0.000 0.000 0.000 0.000 0.000 0.034 0.823 1.500 1.463 1.927 2.619 2.623 1.575 1.198 2.652 3.651 2.711 1.593 1.571 1.970 2.450 2.161 1.524 0.971 1.263 1.096 0.525 0.072 0.000 0.000
0.000 0.000 0.000 0.000 0.000 0.000 0.000 0.000 0.000 0.000 0.000 0.000 0.000 0.000 0.000 0.000 0.000 0.000 0.117 1.208 1.403 1.634 1.873 2.143 0.394 0.390 2.268 2.316 2.232 1.383 1.840 2.442 2.868 2.468 1.170 1.080 1.464 1.381 1.053 0.331 0.010 0.000
0.000 0.000 0.000 0.000 0.000 0.000 0.000 0.000 0.000 0.000 0.000 0.000 0.000 0.000 0.000 0.000 0.000 0.000 0.001 0.606 1.540 1.486 0.831 0.800 0.453 0.292 1.878 1.673 1.675 1.221 2.012 2.501 3.269 1.766 0.425 0.780 1.097 1.583 1.414 0.707 0.179 0.001
0.000 0.000 0.000 0.000 0.000 0.000 0.000 0.000 0.000 0.000 0.000 0.000 0.000 0.000 0.000 0.000 0.000 0.000 0.000 0.101 1.100 1.280 0.668 0.001 0.527 0.709 1.780 0.963 1.205 1.747 2.536 2.449 2.742 1.430 1.173 0.755 1.103 1.929 1.528 1.062 0.514 0.069
0.000 0.000 0.000 0.000 0.000 0.000 0.000 0.000 0.000 0.000 0.000 0.000 0.000 0.000 0.000 0.000 0.000 0.000 0.000 0.000 0.203 0.970 0.787 0.277 0.515 1.005 1.175 1.836 1.961 2.247 2.791 2.558 3.490 2.847 1.902 1.044 1.251 1.570 1.346 1.360 0.875 0.257
0.000 0.000 0.000 0.000 0.000 0.000 0.000 0.000 0.000 0.000 0.000 0.000 0.000 0.000 0.000 0.000 0.000 0.000 0.000 0.000 0.002 0.562 0.631 0.519 1.200 2.071 2.146 2.073 2.177 2.309 1.965 2.768 3.991 4.077 2.149 0.772 0.610 0.736 1.558 1.554 1.098 0.533
0.000 0.000 0.000 0.000 0.000 0.000 0.000 0.000 0.000 0.000 0.000 0.000 0.000 0.000 0.000 0.000 0.000 0.000 0.000 0.000 0.000 0.359 0.654 0.475 0.802 2.336 3.032 2.001 1.873 1.547 2.307 3.362 4.662 3.777 1.998 0.565 0.176 0.708 1.531 1.477 1.095 0.771
0.000 0.000 0.000 0.000 0.000 0.000 0.000 0.000 0.000 0.000 0.000 0.000 0.000 0.000 0.000 0.000 0.000 0.000 0.000 0.000 0.000 0.045 0.643 0.672 1.434 1.698 3.165 1.999 1.478 1.951 3.146 3.908 4.016 3.354 2.322 0.167 0.003 0.349 1.012 1.217 0.949 0.905
0.000 0.000 0.000 0.000 0.000 0.000 0.000 0.000 0.000 0.000 0.000 0.000 0.000 0.000 0.000 0.000 0.000 0.000 0.000 0.000 0.000 0.002 0.527 1.116 1.186 1.781 2.262 1.930 0.955 1.506 3.047 3.771 3.529 3.111 1.232 0.001 0.002 0.023 0.428 0.925 0.675 0.907
0.000 0.000 0.000 0.000 0.000 0.000 0.000 0.000 0.000 0.000 0.000 0.000 0.000 0.000 0.000 0.000 0.000 0.000 0.000 0.000 0.000 0.004 0.148 0.806 0.610 1.335 0.295 1.082 0.077 1.617 3.271 4.387 4.149 2.880 1.237 0.071 0.002 0.002 0.007 0.379 0.799 1.112
0.000 0.000 0.000 0.000 0.000 0.000 0.000 0.000 0.000 0.000 0.000 0.000 0.000 0.000 0.000 0.000 0.000 0.000 0.000 0.000 0.000 0.000 0.036 0.001 0.930 0.670 0.001 0.025 0.327 2.364 4.431 4.861 4.679 3.090 1.978 0.136 0.001 0.001 0.002 0.001 0.573 1.152
0.000 0.000 0.000 0.000 0.000 0.000 0.000 0.000 0.000 0.000 0.000 0.000 0.000 0.000 0.000 0.000 0.000 0.000 0.000 0.000 0.000 0.000 0.000 0.211 0.918 0.613 0.001 0.015 0.679 3.359 4.770 4.895 4.803 3.737 2.421 0.017 0.000 0.002 0.001 0.001 0.748 1.228
0.000 0.000 0.000 0.000 0.000 0.000 0.000 0.000 0.000 0.000 0.000 0.000 0.000 0.000 0.000 0.000 0.000 0.000 0.000 0.000 0.000 0.000 0.000 0.146 0.564 0.554 0.021 0.000 2.709 4.358 5.186 5.098 5.571 4.205 1.280 0.120 0.156 0.000 0.002 0.001 0.578 1.214
0.000 0.000 0.000 0.000 0.000 0.000 0.000 0.000 0.000 0.000 0.000 0.000 0.000 0.000 0.000 0.000 0.000 0.000 0.000 0.000 0.000 0.000 0.000 0.039 0.118 0.450 0.114 0.018 5.070 5.755 6.657 6.969 6.120 3.997 1.529 1.436 0.174 0.001 0.000 0.002 0.002 0.733
0.000 0.000 0.000 0.000 0.000 0.000 0.000 0.000 0.000 0.000 0.000 0.000 0.000 0.000 0.000 0.000 0.000 0.000 0.000 0.000 0.000 0.000 0.000 0.000 0.092 0.080 0.024 1.246 4.335 7.165 7.162 7.959 5.953 4.779 3.373 1.988 0.609 0.058 0.001 0.002 0.002 0.430
0.000 0.000 0.000 0.000 0.000 0.000 0.000 0.000 0.000 0.000 0.000 0.000 0.000 0.000 0.000 0.000 0.000 0.000 0.000 0.000 0.000 0.000 0.000 0.000 0.021 0.068 0.193 1.636 2.838 4.914 5.861 5.847 5.899 4.816 3.831 2.858 1.539 0.487 0.045 0.000 0.001 0.345
0.000 0.000 0.000 0.000 0.000 0.000 0.000 0.000 0.000 0.000 0.000 0.000 0.000 0.000 0.000 0.000 0.000 0.000 0.000 0.000 0.000 0.000 0.000 0.000 0.000 0.002 1.005 1.557 1.706 3.253 3.632 4.975 6.410 6.101 5.408 3.736 2.452 1.533 0.411 0.100 0.003 0.093
0.000 0.000 0.000 0.000 0.000 0.000 0.000 0.000 0.000 0.000 0.000 0.000 0.000 0.000 0.000 0.000 0.000 0.000 0.000 0.000 0.000 0.000 0.000 0.000 0.000 0.406 1.128 1.220 1.146 1.856 2.441 3.704 6.740 6.915 6.593 4.779 2.823 2.567 1.552 0.736 0.000 0.001
0.000 0.000 0.000 0.000 0.000 0.000 0.000 0.000 0.000 0.000 0.000 0.000 0.000 0.000 0.000 0.000 0.000 0.000 0.000 0.000 0.000 0.000 0.000 0.000 0.001 0.270 0.652 0.780 0.810 1.263 1.433 2.349 5.090 5.906 6.268 5.587 3.950 2.964 1.535 0.553 0.004 0.002
0.000 0.000 0.000 0.000 0.000 0.000 0.000 0.000 0.000 0.000 0.000 0.000 0.000 0.000 0.000 0.000 0.000 0.000 0.000 0.000 0.000 0.000 0.000 0.000 0.000 0.000 0.079 0.511 0.723 0.864 1.226 1.803 4.258 5.048 5.621 5.556 4.709 3.291 1.576 0.583 0.235 0.379
0.000 0.000 0.000 0.000 0.000 0.000 0.000 0.000 0.000 0.000 0.000 0.000 0.000 0.000 0.000 0.000 0.000 0.000 0.000 0.000 0.000 0.000 0.000 0.000 0.000 0.000 0.000 0.269 0.513 0.427 0.891 2.832 4.082 5.143 5.251 5.153 5.264 3.632 1.777 1.002 0.740 1.232
0.000 0.000 0.000 0.000 0.000 0.000 0.000 0.000 0.000 0.000 0.000 0.000 0.000 0.000 0.000 0.000 0.000 0.000 0.000 0.000 0.000 0.000 0.000 0.000 0.000 0.000 0.000 0.008 0.219 0.059 1.080 3.288 4.202 4.670 5.119 5.077 5.446 3.573 1.919 1.345 1.361 1.101
0.000 0.000 0.000 0.000 0.000 0.000 0.000 0.000 0.000 0.000 0.000 0.000 0.000 0.000 0.000 0.000 0.000 0.000 0.000 0.000 0.000 0.000 0.000 0.000 0.000 0.000 0.000 0.000 0.258 0.544 1.199 2.617 3.624 4.374 5.222 5.270 5.032 3.772 2.080 1.582 0.921 0.885
0.000 0.000 0.000 0.000 0.000 0.000 0.000 0.000 0.000 0.000 0.000 0.000 0.000 0.000 0.000 0.000 0.000 0.000 0.000 0.000 0.000 0.000 0.000 0.000 0.000 0.000 0.000 0.000 0.153 0.659 1.151 1.582 2.850 4.169 5.475 6.163 5.267 4.067 2.355 1.620 0.245 1.139
0.000 0.000 0.000 0.000 0.000 0.000 0.000 0.000 0.000 0.000 0.000 0.000 0.000 0.000 0.000 0.000 0.000 0.000 0.000 0.000 0.000 0.000 0.000 0.000 0.000 0.000 0.000 0.000 0.021 0.774 1.078 1.139 2.082 3.976 5.875 7.326 6.245 4.773 3.015 1.660 0.295 1.514
0.000 0.000 0.000 0.000 0.000 0.000 0.000 0.000 0.000 0.000 0.000 0.000 0.000 0.000 0.000 0.000 0.000 0.000 0.000 0.000 0.000 0.000 0.000 0.000 0.000 0.000 0.000 0.000 0.000 0.401 0.898 0.999 1.723 2.083 4.563 7.786 7.133 6.183 4.063 2.539 1.173 2.035
0.000 0.000 0.000 0.000 0.000 0.000 0.000 0.000 0.000 0.000 0.000 0.000 0.000 0.000 0.000 0.000 0.000 0.000 0.000 0.000 0.000 0.000 0.000 0.000 0.000 0.000 0.000 0.000 0.000 0.125 0.605 0.910 1.667 1.418 4.119 8.113 8.067 6.971 4.464 2.961 1.778 2.127
0.000 0.000 0.000 0.000 0.000 0.000 0.000 0.000 0.000 0.000 0.000 0.000 0.000 0.000 0.000 0.000 0.000 0.000 0.000 0.000 0.000 0.000 0.000 0.000 0.000 0.000 0.000 0.000 0.000 0.008 0.363 0.720 1.522 1.333 3.063 6.895 7.580 6.506 3.908 2.306 1.914 2.145
0.000 0.000 0.000 0.000 0.000 0.000 0.000 0.000 0.000 0.000 0.000 0.000 0.000 0.000 0.000 0.000 0.000 0.000 0.000 0.000 0.000 0.000 0.000 0.000 0.000 0.000 0.000 0.000 0.000 0.000 0.106 0.536 0.982 1.374 2.219 5.494 7.233 6.142 3.892 1.907 1.828 1.966
0.000 0.000 0.000 0.000 0.000 0.000 0.000 0.000 0.000 0.000 0.000 0.000 0.000 0.000 0.000 0.000 0.000 0.000 0.000 0.000 0.000 0.000 0.000 0.000 0.000 0.000 0.000 0.000 0.000 0.000 0.000 0.305 0.904 1.329 1.627 3.643 6.986 5.578 4.094 2.425 1.714 1.732
0.000 0.000 0.000 0.000 0.000 0.000 0.000 0.000 0.000 0.000 0.000 0.000 0.000 0.000 0.000 0.000 0.000 0.000 0.000 0.000 0.000 0.000 0.000 0.000 0.000 0.000 0.000 0.000 0.000 0.000 0.000 0.054 1.176 1.346 1.445 2.958 5.691 5.255 4.657 2.614 1.775 2.349
0.000 0.000 0.000 0.000 0.000 0.000 0.000 0.000 0.000 0.000 0.000 0.000 0.000 0.000 0.000 0.000 0.000 0.000 0.000 0.000 0.000 0.000 0.000 0.000 0.000 0.000 0.000 0.000 0.000 0.000 0.000 0.011 1.072 1.455 1.707 2.622 4.551 5.171 4.204 2.239 2.146 2.201
0.000 0.000 0.000 0.000 0.000 0.000 0.000 0.000 0.000 0.000 0.000 0.000 0.000 0.000 0.000 0.000 0.000 0.000 0.000 0.000 0.000 0.000 0.000 0.000 0.000 0.000 0.000 0.000 0.000 0.000 0.000 0.005 0.988 1.294 1.580 2.618 3.401 4.229 3.532 1.857 1.187 0.680
0.000 0.000 0.000 0.000 0.000 0.000 0.000 0.000 0.000 0.000 0.000 0.000 0.000 0.000 0.000 0.000 0.000 0.000 0.000 0.000 0.000 0.000 0.000 0.000 0.000 0.000 0.000 0.000 0.000 0.000 0.000 0.008 0.688 1.145 1.626 2.313 2.417 2.602 2.719 0.858 0.193 0.393
0.000 0.000 0.000 0.000 0.000 0.000 0.000 0.000 0.000 0.000 0.000 0.000 0.000 0.000 0.000 0.000 0.000 0.000 0.000 0.000 0.000 0.000 0.000 0.000 0.000 0.000 0.000 0.000 0.000 0.000 0.000 0.008 0.617 0.798 1.575 1.753 1.463 1.902 1.264 0.122 0.145 0.432
0.000 0.000 0.000 0.000 0.000 0.000 0.000 0.000 0.000 0.000 0.000 0.000 0.000 0.000 0.000 0.000 0.000 0.000 0.000 0.000 0.000 0.000 0.000 0.000 0.000 0.000 0.000 0.000 0.000 0.000 0.000 0.005 0.589 0.798 1.318 1.358 1.153 1.227 0.960 0.002 0.042 0.131
