ncols        33
nrows        38
xllcorner    409822.8
yllcorner    6870579.1
cellsize     5.00
NODATA_value -9999
0.000 0.000 0.000 0.000 0.000 0.000 0.000 0.000 0.000 0.000 0.000 0.083 5.782 26.803 35.460 21.914 4.885 0.030 0.000 0.000 0.000 0.000 0.000 0.000 0.000 0.000 0.000 0.000 0.000 0.000 0.000 0.000 0.000
0.000 0.000 0.000 0.000 0.000 0.000 0.000 0.000 0.000 0.000 0.663 52.954 72.769 75.451 83.709 78.212 73.093 40.790 1.507 0.000 0.000 0.000 0.000 0.000 0.000 0.000 0.000 0.000 0.000 0.000 0.000 0.000 0.000
0.000 0.000 0.000 0.000 0.000 0.000 0.000 0.000 0.000 0.487 69.530 74.979 81.462 89.638 92.088 84.390 85.843 74.389 65.471 3.644 0.000 0.000 0.000 0.000 0.000 0.000 0.000 0.000 0.000 0.000 0.000 0.000 0.000
0.000 0.000 0.000 0.000 0.000 0.000 0.000 0.000 0.004 17.882 76.889 85.008 93.403 98.626 95.753 96.188 103.883 79.151 63.924 51.362 2.675 0.000 0.000 0.000 0.000 0.000 0.000 0.000 0.000 0.000 0.000 0.000 0.000
0.000 0.000 0.000 0.000 0.000 0.000 0.000 0.000 0.978 80.121 85.335 92.556 103.013 106.593 109.503 117.350 104.450 88.053 73.133 54.742 46.292 1.555 0.000 0.000 0.000 0.000 0.000 0.000 0.000 0.000 0.000 0.000 0.000
0.000 0.000 0.000 0.000 0.000 0.000 0.000 0.000 8.486 79.473 91.252 103.331 110.691 112.354 117.541 119.305 110.675 97.266 87.206 71.504 60.117 38.364 0.909 0.000 0.000 0.000 0.000 0.000 0.000 0.000 0.000 0.000 0.000
0.000 0.000 0.000 0.000 0.000 0.000 0.000 0.002 25.350 83.038 101.753 102.354 110.353 119.897 117.506 116.431 113.015 104.119 88.853 88.476 72.809 62.209 25.584 0.431 0.000 0.000 0.000 0.000 0.000 0.000 0.000 0.000 0.000
0.000 0.000 0.000 0.000 0.000 0.000 0.000 0.009 36.696 87.042 96.146 113.669 117.091 119.016 125.926 124.711 116.581 107.026 108.648 100.770 89.497 73.006 48.249 14.618 0.242 0.000 0.000 0.000 0.000 0.000 0.000 0.000 0.000
0.000 0.000 0.000 0.000 0.000 0.000 0.000 0.012 32.711 78.425 101.642 114.912 114.575 118.861 123.287 131.432 120.488 122.791 118.192 111.027 100.059 80.298 58.438 36.448 9.892 0.061 0.000 0.000 0.000 0.000 0.000 0.000 0.000
0.000 0.000 0.000 0.000 0.000 0.000 0.000 0.004 20.908 77.588 94.872 106.573 118.548 127.469 136.273 130.562 127.163 132.428 126.674 125.145 111.086 95.903 72.445 44.071 28.902 5.678 0.005 0.000 0.000 0.000 0.000 0.000 0.000
0.000 0.000 0.000 0.000 0.000 0.000 0.000 0.000 7.739 66.843 92.372 106.625 119.856 122.872 124.920 134.420 134.675 124.376 141.059 138.029 114.486 109.200 84.318 65.756 43.773 18.590 1.665 0.002 0.000 0.000 0.000 0.000 0.000
0.000 0.000 0.000 0.000 0.000 0.000 0.000 0.000 1.483 61.581 88.360 104.981 113.090 122.765 139.192 129.653 132.777 139.746 147.452 139.024 119.856 115.958 99.997 81.613 51.564 24.666 9.371 1.549 0.002 0.000 0.000 0.000 0.000
0.000 0.000 0.000 0.000 0.000 0.000 0.000 0.000 0.108 28.861 73.520 93.978 115.325 124.368 124.876 126.478 137.460 148.847 152.311 135.076 123.572 130.301 113.487 91.416 67.516 28.805 20.227 9.915 0.917 0.002 0.000 0.000 0.000
0.000 0.000 0.000 0.000 0.000 0.000 0.000 0.000 0.002 7.695 66.068 91.243 101.513 119.605 119.405 133.297 134.636 150.223 145.478 135.702 144.423 136.612 125.236 107.834 77.472 42.311 32.569 17.755 5.932 0.823 0.006 0.000 0.000
0.000 0.000 0.000 0.000 0.000 0.000 0.000 0.013 0.042 1.384 53.525 72.828 92.550 123.474 125.883 126.726 151.025 150.247 147.985 153.258 143.563 138.161 136.799 124.394 93.293 60.548 45.879 24.173 12.923 6.735 1.159 0.005 0.000
0.000 0.000 0.000 0.000 0.012 2.911 26.473 53.666 60.647 50.020 70.901 66.625 84.565 95.888 106.650 118.112 136.647 139.470 151.878 153.227 154.786 156.147 148.736 135.744 106.817 79.223 56.999 33.467 20.879 11.395 4.507 0.871 0.007
0.000 0.000 0.000 0.285 35.567 76.691 78.049 80.292 78.199 74.676 66.039 67.542 71.250 79.839 93.593 111.445 122.933 141.287 156.479 163.667 169.424 163.500 152.268 147.850 112.094 82.896 60.339 44.753 27.071 12.527 8.195 4.649 0.778
0.000 0.000 0.310 56.573 77.152 83.438 89.447 94.243 92.202 85.832 77.606 73.913 68.948 73.086 92.336 108.953 123.751 137.792 157.268 167.715 171.212 172.618 160.216 149.719 130.945 97.777 78.039 51.776 34.839 17.241 10.625 7.393 3.873
0.000 0.030 21.777 76.885 85.765 94.710 101.011 104.766 100.811 94.522 92.680 86.195 83.268 80.487 98.242 117.765 128.940 130.018 153.645 180.828 179.538 163.654 168.531 168.928 126.799 102.027 76.462 61.904 42.780 20.484 12.577 8.453 6.548
0.000 1.626 77.282 84.520 94.340 104.387 111.732 109.009 103.693 106.993 101.232 93.708 96.373 86.595 89.843 116.818 128.428 137.358 146.896 168.997 186.375 178.765 176.674 159.335 132.860 103.728 82.512 65.926 46.847 28.417 14.499 8.657 7.663
0.000 12.959 76.925 90.888 103.286 113.879 115.961 119.599 111.730 119.517 105.852 101.432 105.755 94.539 102.719 107.735 121.930 131.253 152.405 167.897 184.596 192.251 180.487 152.795 130.804 106.665 98.576 69.800 58.994 37.484 18.152 11.465 7.103
0.000 42.386 81.888 98.924 108.303 119.308 124.349 130.477 123.646 118.201 112.874 113.933 98.382 87.437 96.275 118.578 135.124 136.825 143.726 181.102 185.845 173.895 166.304 155.240 131.078 122.878 89.741 78.713 58.653 47.685 23.970 13.381 6.458
0.000 70.938 79.227 97.506 115.372 127.525 128.301 126.153 124.112 125.723 123.651 102.471 95.906 81.189 97.114 113.340 134.441 138.772 153.677 163.264 168.388 175.475 162.873 145.584 128.726 119.134 84.642 72.026 67.094 54.105 31.413 15.106 6.937
0.000 70.270 85.027 105.915 120.607 130.688 136.317 137.058 119.354 125.775 113.353 107.925 117.089 105.788 107.612 116.467 130.966 123.292 136.852 148.013 170.739 171.567 158.585 144.971 131.281 111.496 88.172 86.672 78.067 55.984 39.807 15.806 8.861
0.000 68.797 82.777 103.067 117.600 128.201 132.778 123.515 115.221 129.195 127.609 111.917 100.378 91.612 95.979 117.301 133.898 146.936 140.115 160.786 161.662 159.364 152.338 137.007 128.917 107.656 89.691 88.084 75.978 59.813 44.376 21.593 11.567
0.000 55.690 78.592 98.141 118.107 126.636 138.783 108.979 106.936 123.412 108.787 94.151 88.399 89.344 101.959 113.926 124.648 132.345 136.099 142.170 144.388 144.137 140.479 133.514 124.342 102.072 86.876 85.341 76.968 69.547 49.831 28.753 12.857
0.000 38.883 73.284 93.809 110.753 116.749 130.247 144.813 119.033 102.516 93.706 83.459 99.309 110.418 86.737 100.961 128.574 142.952 139.527 133.330 131.559 133.461 132.714 129.558 116.249 88.970 89.514 84.182 77.406 71.366 53.431 35.294 12.250
0.000 23.937 64.362 90.524 103.523 124.119 139.516 121.373 98.039 100.857 94.209 118.892 119.519 91.528 83.470 103.244 117.876 136.350 122.282 126.029 126.680 128.364 133.265 132.454 119.597 106.457 93.941 90.784 74.138 70.772 52.461 37.911 13.418
0.000 11.644 53.280 70.912 91.136 114.564 116.809 105.526 100.095 95.972 130.151 116.071 95.452 87.078 77.991 107.828 110.946 127.395 133.674 121.148 134.940 123.196 127.748 124.610 107.951 99.766 87.857 76.906 72.990 63.951 49.842 43.924 16.622
0.000 4.084 39.947 63.488 85.559 95.483 98.024 100.791 122.869 108.687 97.860 90.765 84.507 84.243 89.588 97.489 116.723 130.192 151.367 152.571 124.311 114.455 106.456 103.858 97.471 82.226 68.926 62.795 69.605 59.868 60.559 48.088 19.702
0.000 0.919 25.902 49.649 70.244 84.733 88.828 109.977 118.930 80.875 76.817 73.496 75.812 77.493 68.896 80.751 94.014 117.904 125.688 124.006 108.243 88.208 94.148 87.455 89.558 78.487 61.331 57.543 58.264 62.404 62.170 48.209 22.999
0.000 0.140 14.599 35.427 54.283 72.549 89.915 110.968 99.103 88.831 72.771 70.009 69.218 67.044 63.204 66.983 90.254 99.591 109.413 98.614 85.478 80.664 78.957 83.480 76.307 68.987 58.938 62.697 66.871 72.672 60.888 44.194 22.444
0.000 0.013 7.200 31.137 41.520 67.014 86.188 84.271 77.954 67.796 66.553 64.612 64.965 64.598 55.976 60.626 70.390 81.381 86.292 79.687 70.539 70.210 61.551 69.423 71.327 62.900 59.496 59.212 62.018 52.419 50.834 40.247 23.426
0.000 0.000 2.064 19.779 34.414 50.959 65.108 62.662 62.638 56.056 55.026 55.466 58.342 50.363 51.486 59.057 63.259 72.445 69.730 69.861 56.289 49.270 48.782 59.029 63.104 57.553 50.370 50.988 43.804 44.676 41.407 43.461 23.476
0.000 0.000 0.378 12.045 21.644 27.646 44.285 52.282 53.396 51.893 50.589 40.398 43.153 46.362 44.898 49.898 57.483 67.930 63.856 56.899 48.123 32.384 39.032 50.996 51.821 52.140 54.826 45.938 41.292 40.057 45.661 35.541 16.847
0.000 0.000 0.064 5.585 16.564 20.183 30.993 42.364 44.862 39.230 26.210 21.476 24.193 31.009 25.026 28.069 35.927 54.480 54.445 48.869 32.501 32.835 29.885 32.590 43.037 46.900 42.852 27.835 30.389 31.034 30.177 23.378 12.950
0.000 0.000 0.007 2.183 9.661 13.165 15.045 22.312 26.259 22.325 16.127 15.377 16.799 16.546 14.025 14.554 18.613 25.136 43.966 33.129 23.895 17.923 21.956 20.341 24.799 28.163 22.561 19.145 20.106 17.993 16.141 14.332 9.412
0.000 0.000 0.000 0.838 7.197 10.231 10.108 12.542 12.862 10.075 11.000 10.568 8.178 8.598 8.346 9.845 10.962 13.457 13.088 12.378 12.937 14.616 12.939 13.676 14.156 13.219 12.926 12.946 11.744 13.257 10.794 8.635 5.429
