ncols        35
nrows        38
xllcorner    409862.8
yllcorner    6870469.1
cellsize     5.00
NODATA_value -9999
0.000 0.000 0.000 0.000 0.000 0.000 0.000 0.000 0.000 0.000 0.000 0.000 0.000 0.000 0.000 0.000 0.000 0.000 0.000 0.000 0.000 0.000 0.144 2.102 4.621 3.782 1.445 0.212 0.005 0.000 0.000 0.000 0.000 0.000 0.000
0.000 0.000 0.000 0.000 0.000 0.000 0.000 0.000 0.000 0.000 0.000 0.000 0.000 0.000 0.000 0.000 0.000 0.000 0.000 0.000 0.384 11.559 66.161 69.947 70.939 71.251 77.981 45.942 14.901 1.498 0.031 0.000 0.000 0.000 0.000
0.000 0.000 0.000 0.000 0.000 0.000 0.000 0.000 0.000 0.000 0.000 0.000 0.000 0.000 0.000 0.000 0.000 0.000 0.000 1.268 60.252 65.685 75.042 81.397 89.676 88.533 85.985 78.905 76.859 42.020 13.382 1.093 0.010 0.000 0.000
0.000 0.000 0.000 0.000 0.000 0.000 0.000 0.000 0.000 0.000 0.000 0.000 0.000 0.000 0.000 0.000 0.000 0.000 1.122 61.297 66.843 75.736 85.232 97.081 104.175 105.338 100.773 98.837 90.956 69.726 53.246 28.038 6.714 0.448 0.005
0.000 0.000 0.000 0.000 0.000 0.000 0.000 0.000 0.000 0.000 0.000 0.000 0.000 0.000 0.000 0.000 0.036 2.256 56.174 65.244 74.173 84.653 92.141 105.654 105.153 107.703 118.317 117.669 106.174 98.513 72.570 57.747 35.831 18.796 4.828
0.000 0.000 0.000 0.000 0.000 0.000 0.000 0.000 0.000 0.000 0.000 0.000 0.000 0.000 0.117 10.575 55.964 56.761 61.064 70.184 76.166 89.622 92.396 103.626 105.691 117.258 128.420 132.657 130.274 116.695 87.599 72.649 61.290 39.271 24.374
0.000 0.000 0.000 0.000 0.000 0.000 0.000 0.000 0.000 0.000 0.000 0.000 0.000 0.246 40.861 62.797 64.991 65.713 65.091 69.235 78.047 85.798 88.531 112.804 112.525 130.942 144.978 156.596 134.956 122.435 104.961 86.854 84.819 50.619 19.698
0.000 0.000 0.000 0.000 0.000 0.000 0.000 0.000 0.000 0.000 0.000 0.000 0.105 35.117 65.493 72.140 76.550 74.136 67.022 68.435 80.905 82.815 101.124 116.532 113.953 140.448 162.106 150.701 125.084 126.446 123.162 99.947 86.195 67.250 23.667
0.000 0.000 0.000 0.000 0.000 0.000 0.000 0.000 0.000 0.000 0.000 0.015 12.058 61.588 73.817 81.029 88.389 86.278 73.439 71.020 78.435 90.057 104.787 113.074 123.135 144.362 164.063 136.865 120.217 124.762 124.367 105.245 90.907 64.878 28.003
0.000 0.000 0.000 0.000 0.000 0.000 0.000 0.000 0.000 0.000 0.000 2.350 58.377 67.874 81.281 93.634 95.817 94.727 84.994 84.001 92.174 104.930 100.811 97.400 115.273 150.110 131.757 126.767 117.788 125.602 123.298 110.112 100.308 59.544 28.553
0.000 0.000 0.000 0.000 0.000 0.000 0.000 0.000 0.000 0.000 0.137 60.175 63.921 74.706 84.480 100.317 107.986 104.058 101.978 93.287 92.261 85.766 92.171 88.980 113.930 117.501 100.307 114.117 102.742 98.211 120.790 103.491 100.014 62.003 24.437
0.000 0.000 0.000 0.000 0.000 0.000 0.000 0.000 0.000 0.004 16.254 62.365 70.258 76.098 88.645 108.002 116.875 113.811 105.596 97.648 79.437 81.889 83.386 102.440 116.034 95.862 98.725 82.448 89.589 97.035 113.165 92.792 92.902 38.431 17.695
0.000 0.000 0.000 0.000 0.000 0.000 0.000 0.000 0.000 0.213 57.696 68.663 79.642 75.181 96.441 121.831 119.340 121.021 133.468 107.626 89.749 83.950 99.765 104.803 95.928 86.490 80.920 71.850 104.884 91.188 90.285 95.947 59.821 28.574 16.203
0.000 0.000 0.000 0.000 0.000 0.000 0.000 0.000 0.012 35.068 63.774 76.845 80.607 96.803 119.836 124.893 129.059 131.843 131.170 109.228 107.485 101.068 98.140 89.556 80.377 75.269 73.232 85.387 91.257 70.412 70.640 65.708 34.225 25.136 15.347
0.000 0.000 0.000 0.000 0.000 0.000 0.000 0.000 0.540 59.939 72.974 79.896 89.654 95.501 119.944 111.958 126.158 135.794 124.438 107.673 101.591 81.983 76.474 76.695 71.854 71.896 65.213 76.883 62.722 58.676 53.862 30.772 29.751 25.372 15.186
0.000 0.000 0.000 0.000 0.000 0.000 0.000 0.022 37.778 67.012 75.232 82.710 106.373 119.082 111.898 115.556 125.419 122.840 127.478 113.899 95.376 93.457 78.310 72.076 64.281 61.168 74.568 76.343 73.127 47.028 30.870 28.340 26.909 23.361 11.646
0.000 0.000 0.000 0.000 0.000 0.000 0.000 0.461 59.949 75.663 85.793 95.743 123.441 113.614 112.324 107.552 117.952 126.441 133.478 121.694 100.198 95.663 78.924 69.134 60.890 69.600 79.706 80.245 71.814 43.066 24.948 25.657 20.793 18.626 12.193
0.000 0.000 0.000 0.000 0.000 0.000 0.000 3.710 63.000 76.404 92.966 103.002 111.447 111.266 111.612 88.532 112.476 123.730 140.481 110.922 97.820 91.368 70.818 67.197 69.335 82.918 87.310 77.382 71.203 46.513 26.962 30.309 21.532 18.571 17.975
0.000 0.000 0.000 0.000 0.000 0.000 0.175 54.595 69.769 89.178 109.820 102.029 101.392 99.594 108.591 97.629 109.552 129.875 132.656 105.477 95.040 83.763 83.804 70.356 78.880 84.590 86.803 82.458 82.550 57.426 33.885 28.063 17.942 17.683 18.401
0.000 0.000 0.000 0.000 0.097 7.158 44.444 62.455 75.702 105.351 119.238 111.083 124.699 130.986 123.051 102.770 105.897 108.358 120.991 104.967 98.080 79.597 73.891 79.672 79.457 84.295 84.986 84.743 82.798 81.871 29.973 17.566 16.594 15.187 16.315
0.000 0.000 0.006 3.833 61.659 68.644 67.939 69.929 82.891 112.289 126.013 110.523 121.680 129.429 139.675 111.991 96.636 106.771 118.660 105.628 93.725 86.155 74.567 71.748 79.370 77.585 78.703 75.889 107.603 80.326 17.105 14.521 14.045 15.617 15.169
0.000 0.002 4.079 70.418 75.370 78.484 75.344 84.362 91.787 115.387 129.798 112.086 126.641 130.406 135.326 119.551 104.851 107.118 121.871 109.070 100.140 86.079 80.066 75.438 75.784 74.711 82.044 111.333 107.923 54.760 13.576 13.753 15.587 13.799 12.533
0.000 0.666 74.709 79.651 88.662 90.225 95.162 106.241 105.107 121.221 131.849 108.103 118.153 126.097 125.466 123.388 113.454 116.097 127.560 112.145 96.783 88.086 77.110 78.310 72.964 74.737 104.756 99.304 65.400 42.492 11.727 12.644 12.676 8.692 10.043
0.000 11.244 80.460 93.407 102.724 108.658 104.650 114.407 103.775 119.220 144.063 118.603 126.454 157.700 159.302 132.929 120.145 128.232 148.158 119.153 104.916 92.264 78.930 72.220 63.620 93.715 93.004 57.617 45.994 37.328 10.596 11.856 10.769 8.590 9.181
0.017 55.619 93.039 107.452 108.745 116.618 128.663 153.450 145.448 154.529 173.071 138.358 143.337 151.318 141.092 137.032 125.592 128.332 142.087 121.745 124.364 108.981 85.696 72.057 84.880 87.272 57.636 38.547 39.741 36.636 9.492 12.131 6.469 7.099 5.608
0.095 87.797 110.107 119.804 118.378 151.005 179.557 188.327 160.486 148.261 164.707 117.278 120.631 144.665 142.942 126.518 130.045 127.372 140.507 140.190 114.314 91.769 66.766 71.398 73.828 51.717 50.767 45.358 35.719 26.505 8.135 7.791 5.532 5.536 3.735
0.262 97.304 118.776 147.269 173.214 199.937 186.833 166.098 137.811 122.795 140.135 101.327 106.526 136.281 135.648 115.267 117.691 140.754 164.305 131.581 99.739 81.613 88.763 75.929 50.465 49.802 44.134 39.279 28.177 15.388 6.848 5.472 5.085 4.303 2.667
1.020 96.991 123.654 163.713 162.942 191.036 159.109 147.015 124.763 122.206 128.440 121.561 134.725 135.362 123.723 124.669 134.351 149.069 157.989 114.902 105.503 122.567 94.523 57.134 44.759 36.524 29.878 27.919 26.302 8.655 5.329 5.301 3.869 2.403 1.967
2.439 116.205 157.541 193.475 193.997 166.819 145.477 148.033 154.794 130.472 126.282 116.022 126.788 141.837 134.358 111.078 114.759 126.382 148.901 116.538 130.028 95.259 70.207 39.581 35.435 35.029 34.594 29.910 29.185 6.481 4.250 2.937 1.953 2.015 0.000
4.503 111.264 163.113 205.386 167.888 170.666 170.828 166.130 141.031 118.828 143.683 149.471 131.994 155.195 143.389 137.017 136.531 141.937 172.994 142.951 96.083 72.695 55.837 19.339 28.367 39.964 25.956 35.432 26.371 3.630 2.507 1.900 1.934 0.000 0.000
6.304 78.315 125.005 191.991 186.354 157.485 161.465 150.716 141.674 117.044 140.317 154.165 143.419 144.667 157.358 144.656 146.533 156.641 140.633 91.603 65.426 49.259 39.764 16.328 17.477 31.982 11.130 24.858 16.084 3.514 2.476 1.912 0.000 0.000 0.000
9.478 51.203 103.132 168.047 155.886 133.627 148.795 138.305 130.596 118.532 149.798 168.488 167.072 158.814 136.018 111.121 107.902 103.908 74.658 54.909 56.619 51.977 23.531 11.900 9.611 18.468 5.445 8.946 6.752 2.823 1.665 0.000 0.000 0.000 0.000
8.072 37.816 53.311 124.712 159.382 144.180 145.706 158.638 150.124 133.439 156.134 154.221 145.339 134.995 106.639 75.924 75.185 60.739 26.882 22.447 20.645 19.465 8.057 5.156 3.733 7.476 2.892 3.404 2.586 1.772 0.000 0.000 0.000 0.000 0.000
3.413 20.007 27.610 76.632 140.275 117.717 161.444 156.223 135.915 104.403 129.254 132.473 119.443 105.126 96.029 79.524 59.351 30.195 17.214 15.359 8.341 5.785 3.567 2.441 3.786 2.906 2.496 2.920 2.113 0.000 0.000 0.000 0.000 0.000 0.000
1.584 21.687 25.547 44.404 99.906 130.832 135.970 124.869 104.927 92.976 104.726 107.787 108.037 92.130 73.196 50.321 32.230 21.057 13.435 10.060 7.740 5.134 2.955 2.931 3.084 2.361 2.502 2.130 0.000 0.000 0.000 0.000 0.000 0.000 0.000
0.773 19.637 18.807 23.497 72.430 86.495 112.657 89.615 68.634 61.744 98.365 114.832 86.811 53.497 33.558 22.433 20.034 14.923 12.063 9.702 9.074 7.573 4.662 3.157 2.147 1.338 0.000 0.000 0.000 0.000 0.000 0.000 0.000 0.000 0.000
0.408 13.168 16.320 19.357 26.657 38.607 91.404 56.955 40.833 60.380 76.152 88.469 45.397 29.362 21.275 17.018 16.211 12.786 11.115 12.322 9.711 7.872 3.869 2.962 0.000 0.000 0.000 0.000 0.000 0.000 0.000 0.000 0.000 0.000 0.000
0.164 10.511 12.708 11.787 18.576 19.780 59.179 22.543 19.896 22.553 28.684 33.277 21.619 18.011 17.626 17.602 14.121 12.128 11.709 11.180 9.045 7.700 3.155 0.000 0.000 0.000 0.000 0.000 0.000 0.000 0.000 0.000 0.000 0.000 0.000
