ncols        42
nrows        101
xllcorner    409622.8
yllcorner    6870809.1
cellsize     5.00
NODATA_value -9999
0.000 0.000 0.000 0.003 2.058 15.195 1.722 0.000 0.000 0.000 0.000 0.000 0.000 0.000 0.000 0.000 0.000 0.000 0.000 0.000 0.000 0.000 0.000 0.000 0.000 0.000 0.000 0.000 0.000 0.000 0.000 0.000 0.000 0.000 0.000 0.000 0.000 0.000 0.000 0.000 0.000 0.000
0.000 0.000 0.002 5.587 76.606 71.572 94.604 25.676 0.001 0.000 0.000 0.000 0.000 0.000 0.000 0.000 0.000 0.000 0.000 0.000 0.000 0.000 0.000 0.000 0.000 0.000 0.000 0.000 0.000 0.000 0.000 0.000 0.000 0.000 0.000 0.000 0.000 0.000 0.000 0.000 0.000 0.000
0.000 0.000 0.440 81.530 80.487 94.464 99.735 85.121 19.810 0.000 0.000 0.000 0.000 0.000 0.000 0.000 0.000 0.000 0.000 0.000 0.000 0.000 0.000 0.000 0.000 0.000 0.000 0.000 0.000 0.000 0.000 0.000 0.000 0.000 0.000 0.000 0.000 0.000 0.000 0.000 0.000 0.000
0.000 0.000 5.693 85.620 99.577 107.846 114.969 92.334 69.277 0.006 0.000 0.000 0.000 0.000 0.000 0.000 0.000 0.000 0.000 0.000 0.000 0.000 0.000 0.000 0.000 0.000 0.000 0.000 0.000 0.000 0.000 0.000 0.000 0.000 0.000 0.000 0.000 0.000 0.000 0.000 0.000 0.000
0.000 0.035 78.595 92.265 108.394 106.676 118.923 94.946 77.033 15.202 0.000 0.000 0.000 0.000 0.000 0.000 0.000 0.000 0.000 0.000 0.000 0.000 0.000 0.000 0.000 0.000 0.000 0.000 0.000 0.000 0.000 0.000 0.000 0.000 0.000 0.000 0.000 0.000 0.000 0.000 0.000 0.000
0.000 0.441 76.125 99.348 114.932 109.803 117.285 104.589 91.899 63.326 0.000 0.000 0.000 0.000 0.000 0.000 0.000 0.000 0.000 0.000 0.000 0.000 0.000 0.000 0.000 0.000 0.000 0.000 0.000 0.000 0.000 0.000 0.000 0.000 0.000 0.000 0.000 0.000 0.000 0.000 0.000 0.000
0.000 2.819 77.950 106.487 114.979 120.041 113.637 111.289 105.287 68.931 0.012 0.000 0.000 0.000 0.000 0.000 0.000 0.000 0.000 0.000 0.000 0.000 0.000 0.000 0.000 0.000 0.000 0.000 0.000 0.000 0.000 0.000 0.000 0.000 0.000 0.000 0.000 0.000 0.000 0.000 0.000 0.000
0.019 57.207 80.219 108.029 113.891 116.714 118.474 118.457 115.556 78.179 8.872 0.000 0.000 0.000 0.000 0.000 0.000 0.000 0.000 0.000 0.000 0.000 0.000 0.000 0.000 0.000 0.000 0.000 0.000 0.000 0.000 0.000 0.000 0.000 0.000 0.000 0.000 0.000 0.000 0.000 0.000 0.000
0.338 66.971 87.090 104.860 118.915 116.869 126.637 124.135 126.271 88.774 44.845 0.000 0.000 0.000 0.000 0.000 0.000 0.000 0.000 0.000 0.000 0.000 0.000 0.000 0.000 0.000 0.000 0.000 0.000 0.000 0.000 0.000 0.000 0.000 0.000 0.000 0.000 0.000 0.000 0.000 0.000 0.000
2.226 69.139 94.924 105.547 129.390 130.812 122.679 134.384 131.486 112.909 81.975 0.105 0.000 0.000 0.000 0.000 0.000 0.000 0.000 0.000 0.000 0.000 0.000 0.000 0.000 0.000 0.000 0.000 0.000 0.000 0.000 0.000 0.000 0.000 0.000 0.000 0.000 0.000 0.000 0.000 0.000 0.000
9.843 75.429 103.290 130.034 142.693 160.683 164.427 153.755 141.557 123.594 76.684 9.446 0.000 0.000 0.000 0.000 0.000 0.000 0.000 0.000 0.000 0.000 0.000 0.000 0.000 0.000 0.000 0.000 0.000 0.000 0.000 0.000 0.000 0.000 0.000 0.000 0.000 0.000 0.000 0.000 0.000 0.000
31.650 72.697 95.856 120.570 147.913 158.982 154.092 135.095 136.056 125.673 79.617 29.863 0.006 0.000 0.000 0.000 0.000 0.000 0.000 0.000 0.000 0.000 0.000 0.000 0.000 0.000 0.000 0.000 0.000 0.000 0.000 0.000 0.000 0.000 0.000 0.000 0.000 0.000 0.000 0.000 0.000 0.000
50.331 73.127 107.181 135.652 156.850 191.587 177.746 120.164 151.807 114.231 88.393 47.937 3.725 0.000 0.000 0.000 0.000 0.000 0.000 0.000 0.000 0.000 0.000 0.000 0.000 0.000 0.000 0.000 0.000 0.000 0.000 0.000 0.000 0.000 0.000 0.000 0.000 0.000 0.000 0.000 0.000 0.000
52.315 74.434 108.251 130.312 146.789 175.966 169.745 150.517 137.682 114.529 91.736 54.501 20.270 0.012 0.000 0.000 0.000 0.000 0.000 0.000 0.000 0.000 0.000 0.000 0.000 0.000 0.000 0.000 0.000 0.000 0.000 0.000 0.000 0.000 0.000 0.000 0.000 0.000 0.000 0.000 0.000 0.000
44.419 69.189 93.352 130.625 150.550 166.222 158.567 140.634 130.995 115.275 95.800 65.134 37.396 4.656 0.000 0.000 0.000 0.000 0.000 0.000 0.000 0.000 0.000 0.000 0.000 0.000 0.000 0.000 0.000 0.000 0.000 0.000 0.000 0.000 0.000 0.000 0.000 0.000 0.000 0.000 0.000 0.000
39.078 64.290 99.123 113.170 134.421 159.923 163.996 154.240 138.698 118.512 98.589 73.647 44.345 22.572 1.188 0.001 0.000 0.000 0.000 0.000 0.000 0.000 0.000 0.000 0.000 0.000 0.000 0.000 0.000 0.000 0.000 0.000 0.000 0.000 0.000 0.000 0.000 0.000 0.000 0.000 0.000 0.000
35.744 61.429 86.625 112.767 132.151 146.682 153.473 159.942 133.821 130.422 103.595 76.742 56.184 37.316 18.353 2.770 0.193 0.000 0.000 0.000 0.000 0.000 0.000 0.000 0.000 0.000 0.000 0.000 0.000 0.000 0.000 0.000 0.000 0.000 0.000 0.000 0.000 0.000 0.000 0.000 0.000 0.000
27.517 57.148 89.676 107.214 124.404 154.571 159.879 173.934 150.616 122.235 105.888 86.033 64.586 40.144 34.696 21.949 14.362 0.275 0.000 0.000 0.000 0.000 0.000 0.000 0.000 0.000 0.000 0.000 0.000 0.000 0.000 0.000 0.000 0.000 0.000 0.000 0.000 0.000 0.000 0.000 0.000 0.000
21.477 53.313 81.964 106.801 128.212 158.577 163.628 162.898 154.545 124.234 103.261 91.978 74.543 48.934 40.541 31.161 31.259 12.286 0.032 0.000 0.000 0.000 0.000 0.000 0.000 0.000 0.000 0.000 0.000 0.000 0.000 0.000 0.000 0.000 0.000 0.000 0.000 0.000 0.000 0.000 0.000 0.000
14.371 41.069 66.013 98.920 130.646 142.053 166.017 160.360 158.167 149.767 133.777 100.212 87.515 51.773 44.999 40.367 34.300 24.709 6.687 0.004 0.000 0.000 0.000 0.000 0.000 0.000 0.000 0.000 0.000 0.000 0.000 0.000 0.000 0.000 0.000 0.000 0.000 0.000 0.000 0.000 0.000 0.000
9.330 33.987 57.938 96.755 126.540 138.223 160.827 167.102 145.916 149.914 152.031 119.344 88.462 63.564 47.019 38.706 27.753 27.717 22.246 3.170 0.000 0.000 0.000 0.000 0.000 0.000 0.000 0.000 0.000 0.000 0.000 0.000 0.000 0.000 0.000 0.000 0.000 0.000 0.000 0.000 0.000 0.000
5.844 30.087 56.048 77.654 106.980 135.103 155.279 177.714 155.464 150.504 165.515 158.061 100.456 67.343 46.961 42.137 33.183 30.184 31.004 16.856 0.592 0.000 0.000 0.000 0.000 0.000 0.000 0.000 0.000 0.000 0.000 0.000 0.000 0.000 0.000 0.000 0.000 0.000 0.000 0.000 0.000 0.000
3.038 22.827 46.216 73.171 99.303 131.973 156.797 166.057 170.536 161.065 159.835 140.364 97.018 61.046 49.192 40.953 37.658 35.797 30.615 27.238 8.853 0.001 0.000 0.000 0.000 0.000 0.000 0.000 0.000 0.000 0.000 0.000 0.000 0.000 0.000 0.000 0.000 0.000 0.000 0.000 0.000 0.000
1.280 17.062 29.887 56.372 87.278 113.714 148.951 170.896 175.997 156.590 161.928 168.020 128.917 75.461 60.122 42.759 42.488 39.174 39.937 29.536 21.001 1.381 0.000 0.000 0.000 0.000 0.000 0.000 0.000 0.000 0.000 0.000 0.000 0.000 0.000 0.000 0.000 0.000 0.000 0.000 0.000 0.000
0.487 11.665 24.485 46.972 72.316 109.593 142.138 157.150 159.851 138.513 165.862 152.238 128.956 99.967 65.539 52.575 47.434 44.142 39.421 34.311 30.226 9.662 0.001 0.000 0.000 0.000 0.000 0.000 0.000 0.000 0.000 0.000 0.000 0.000 0.000 0.000 0.000 0.000 0.000 0.000 0.000 0.000
0.119 7.719 20.322 35.819 74.087 100.859 124.324 148.356 157.754 156.352 166.735 136.440 133.816 90.941 75.111 71.177 55.526 43.533 39.078 38.844 33.066 14.668 0.950 0.000 0.000 0.000 0.000 0.000 0.000 0.000 0.000 0.000 0.000 0.000 0.000 0.000 0.000 0.000 0.000 0.000 0.000 0.000
0.012 4.160 15.537 24.307 49.076 90.558 113.149 151.578 195.390 162.114 147.586 158.477 116.016 94.231 85.893 56.700 45.870 37.233 39.847 45.265 30.373 18.027 7.977 0.002 0.000 0.000 0.000 0.000 0.000 0.000 0.000 0.000 0.000 0.000 0.000 0.000 0.000 0.000 0.000 0.000 0.000 0.000
0.001 1.984 11.993 21.604 39.239 69.049 106.587 171.711 175.291 137.330 164.992 138.947 109.591 104.581 76.219 51.134 46.262 42.314 47.418 36.691 29.691 26.588 17.361 0.837 0.000 0.000 0.000 0.000 0.000 0.000 0.000 0.000 0.000 0.000 0.000 0.000 0.000 0.000 0.000 0.000 0.000 0.000
0.000 1.107 10.048 19.402 30.093 62.268 120.646 142.633 153.487 150.358 148.219 134.778 133.374 110.187 92.776 70.096 55.722 53.640 42.960 33.301 38.438 29.626 17.152 5.991 0.000 0.000 0.000 0.000 0.000 0.000 0.000 0.000 0.000 0.000 0.000 0.000 0.000 0.000 0.000 0.000 0.000 0.000
0.000 0.327 6.691 12.745 24.381 47.915 80.095 118.055 142.508 132.950 139.608 155.521 136.630 105.460 94.181 79.645 73.369 50.431 43.275 39.513 35.729 30.616 19.524 12.190 0.222 0.000 0.000 0.000 0.000 0.000 0.000 0.000 0.000 0.000 0.000 0.000 0.000 0.000 0.000 0.000 0.000 0.000
0.000 0.088 4.089 10.663 20.899 29.230 68.255 96.600 137.063 137.561 149.520 160.978 149.022 122.703 102.355 102.559 77.786 56.644 48.277 37.761 31.730 29.738 22.588 17.141 4.746 0.000 0.000 0.000 0.000 0.000 0.000 0.000 0.000 0.000 0.000 0.000 0.000 0.000 0.000 0.000 0.000 0.000
0.000 0.010 2.201 8.824 13.803 22.245 48.622 94.908 122.081 142.719 138.966 151.905 142.080 107.288 113.924 110.743 70.039 62.303 43.932 25.796 29.039 30.370 30.157 26.020 11.621 0.000 0.000 0.000 0.000 0.000 0.000 0.000 0.000 0.000 0.000 0.000 0.000 0.000 0.000 0.000 0.000 0.000
0.000 0.000 0.586 6.485 10.306 16.974 45.480 93.083 123.446 151.657 155.729 146.259 125.099 102.595 120.047 108.026 86.530 69.420 40.587 25.105 26.203 32.954 34.813 29.798 19.365 0.119 0.000 0.000 0.000 0.000 0.000 0.000 0.000 0.000 0.000 0.000 0.000 0.000 0.000 0.000 0.000 0.000
0.000 0.000 0.056 3.246 7.048 14.753 34.724 85.223 119.948 134.032 133.829 129.314 115.053 120.004 136.734 108.009 84.168 62.194 35.107 26.569 28.742 33.384 33.541 30.951 23.926 4.105 0.000 0.000 0.000 0.000 0.000 0.000 0.000 0.000 0.000 0.000 0.000 0.000 0.000 0.000 0.000 0.000
0.000 0.000 0.008 1.054 6.364 14.395 25.237 59.392 110.808 125.361 114.734 132.073 111.617 136.828 123.384 105.248 91.819 70.075 48.023 30.305 29.181 31.176 33.533 35.006 31.044 8.131 0.000 0.000 0.000 0.000 0.000 0.000 0.000 0.000 0.000 0.000 0.000 0.000 0.000 0.000 0.000 0.000
0.000 0.000 0.000 0.534 5.714 13.609 20.880 43.321 84.753 105.987 120.336 117.566 130.601 130.803 135.335 108.455 101.809 74.108 44.795 29.138 24.185 23.338 30.437 32.525 28.743 6.639 0.000 0.000 0.000 0.000 0.000 0.000 0.000 0.000 0.000 0.000 0.000 0.000 0.000 0.000 0.000 0.000
0.000 0.000 0.000 0.059 3.720 10.777 18.020 26.105 71.739 97.352 121.169 130.585 117.939 138.509 126.431 110.386 95.387 65.001 43.322 27.891 21.370 21.675 26.751 28.032 22.840 10.918 0.006 0.000 0.000 0.000 0.000 0.000 0.000 0.000 0.000 0.000 0.000 0.000 0.000 0.000 0.000 0.000
0.000 0.000 0.000 0.002 0.970 8.165 11.652 17.121 44.385 92.195 108.974 115.216 117.791 116.042 112.021 106.317 75.439 53.623 38.583 31.011 21.396 21.556 21.099 24.603 25.736 16.216 1.067 0.000 0.000 0.000 0.000 0.000 0.000 0.000 0.000 0.000 0.000 0.000 0.000 0.000 0.000 0.000
0.000 0.000 0.000 0.000 0.230 4.872 9.836 14.228 27.180 64.287 84.720 96.854 109.365 106.722 92.760 92.088 64.801 54.013 53.807 33.432 23.964 21.255 16.611 21.588 27.986 14.918 3.543 0.000 0.000 0.000 0.000 0.000 0.000 0.000 0.000 0.000 0.000 0.000 0.000 0.000 0.000 0.000
0.000 0.000 0.000 0.000 0.019 2.798 7.764 10.359 17.358 56.585 79.426 95.411 95.042 95.834 98.325 89.927 70.040 62.471 54.329 35.660 29.270 20.557 17.765 23.159 25.698 15.385 5.186 0.000 0.000 0.000 0.000 0.000 0.000 0.000 0.000 0.000 0.000 0.000 0.000 0.000 0.000 0.000
0.000 0.000 0.000 0.000 0.001 1.252 6.240 8.648 12.248 31.061 66.568 80.097 75.306 81.201 81.374 79.166 71.249 75.685 54.450 44.326 30.686 24.904 22.356 21.721 27.809 17.628 6.664 0.000 0.000 0.000 0.000 0.000 0.000 0.000 0.000 0.000 0.000 0.000 0.000 0.000 0.000 0.000
0.000 0.000 0.000 0.000 0.000 0.320 4.487 7.745 9.349 21.857 49.606 64.874 76.576 79.726 72.896 77.499 76.055 63.432 63.277 50.123 35.658 27.344 17.989 18.333 26.759 19.044 8.799 0.087 0.000 0.000 0.000 0.000 0.000 0.000 0.000 0.000 0.000 0.000 0.000 0.000 0.000 0.000
0.000 0.000 0.000 0.000 0.000 0.064 2.845 6.510 8.000 14.122 36.304 57.797 67.701 65.543 65.792 77.325 78.554 56.811 61.099 47.062 43.101 22.679 15.732 13.804 24.653 20.330 10.560 1.472 0.000 0.000 0.000 0.000 0.000 0.000 0.000 0.000 0.000 0.000 0.000 0.000 0.000 0.000
0.000 0.000 0.000 0.000 0.000 0.006 0.980 4.446 6.711 9.723 24.042 53.994 60.599 62.037 67.359 69.651 71.373 60.374 65.453 53.024 36.898 21.207 14.308 15.677 25.877 22.315 11.787 3.299 0.000 0.000 0.000 0.000 0.000 0.000 0.000 0.000 0.000 0.000 0.000 0.000 0.000 0.000
0.000 0.000 0.000 0.000 0.000 0.005 0.519 3.548 6.301 9.572 16.840 39.717 60.289 64.774 74.558 74.894 60.426 67.027 54.581 43.507 33.726 23.355 17.814 19.561 26.214 23.324 13.235 4.434 0.218 0.000 0.000 0.000 0.000 0.000 0.000 0.000 0.000 0.000 0.000 0.000 0.000 0.000
0.000 0.000 0.000 0.000 0.000 0.000 0.060 2.520 5.523 8.838 14.750 32.454 49.347 60.073 75.315 68.654 67.550 63.369 53.109 39.031 31.591 25.701 21.946 20.819 25.047 23.779 13.181 4.789 2.037 0.000 0.000 0.000 0.000 0.000 0.000 0.000 0.000 0.000 0.000 0.000 0.000 0.000
0.000 0.000 0.000 0.000 0.000 0.000 0.004 1.069 4.855 5.943 11.666 21.478 51.970 57.516 53.035 58.769 57.204 50.661 43.431 30.472 31.612 26.605 24.481 17.800 25.501 23.482 13.039 5.165 3.332 0.281 0.000 0.000 0.000 0.000 0.000 0.000 0.000 0.000 0.000 0.000 0.000 0.000
0.000 0.000 0.000 0.000 0.000 0.000 0.000 0.217 3.249 5.085 9.634 15.727 31.913 45.063 46.700 48.777 48.377 41.347 34.358 31.466 33.923 31.629 25.571 21.695 21.784 19.529 13.322 5.502 3.678 1.724 0.002 0.000 0.000 0.000 0.000 0.000 0.000 0.000 0.000 0.000 0.000 0.000
0.000 0.000 0.000 0.000 0.000 0.000 0.000 0.015 2.258 5.721 8.106 9.824 19.537 38.672 27.085 37.990 33.571 34.502 30.240 35.764 37.294 32.060 25.424 22.898 19.838 19.177 13.947 4.927 3.393 2.607 0.350 0.000 0.000 0.000 0.000 0.000 0.000 0.000 0.000 0.000 0.000 0.000
0.000 0.000 0.000 0.000 0.000 0.000 0.000 0.047 1.456 4.439 5.444 7.141 11.805 26.371 30.064 30.295 30.890 31.750 34.028 35.059 32.196 22.732 31.556 21.448 19.162 17.625 12.728 4.564 3.624 3.080 1.520 0.107 0.000 0.000 0.000 0.000 0.000 0.000 0.000 0.000 0.000 0.000
0.000 0.000 0.000 0.000 0.000 0.000 0.000 0.002 0.422 2.186 4.190 4.301 5.885 18.673 16.386 22.911 30.584 32.849 34.958 28.995 24.444 24.979 25.626 12.470 14.212 16.341 11.995 5.757 4.172 3.352 2.455 1.347 0.000 0.000 0.000 0.000 0.000 0.000 0.000 0.000 0.000 0.000
0.000 0.000 0.000 0.000 0.000 0.000 0.000 0.000 0.036 0.720 2.690 3.520 3.833 16.258 19.748 26.049 30.319 30.161 28.893 23.568 21.838 22.927 18.801 11.632 9.845 14.747 11.432 6.741 4.189 3.486 3.044 1.864 0.109 0.000 0.000 0.000 0.000 0.000 0.000 0.000 0.000 0.000
0.000 0.000 0.000 0.000 0.000 0.000 0.000 0.000 0.000 0.009 0.579 1.680 2.385 6.504 17.534 20.755 24.423 28.293 23.035 18.868 17.087 20.203 17.912 13.053 10.984 10.642 10.712 6.480 4.053 3.395 2.751 2.324 1.379 0.000 0.000 0.000 0.000 0.000 0.000 0.000 0.000 0.000
0.000 0.000 0.000 0.000 0.000 0.000 0.000 0.000 0.000 0.000 0.103 1.667 3.328 6.302 11.615 14.705 18.692 19.603 19.669 18.217 19.896 21.882 21.555 15.635 9.932 8.082 7.847 5.919 3.929 3.195 2.748 2.358 1.676 0.061 0.000 0.000 0.000 0.000 0.000 0.000 0.000 0.000
0.000 0.000 0.000 0.000 0.000 0.000 0.000 0.000 0.000 0.000 0.007 1.169 3.463 4.744 8.623 10.689 13.952 18.097 17.693 20.371 19.158 21.707 17.681 10.296 7.044 5.210 5.853 5.684 3.940 3.107 2.570 1.824 1.243 0.674 0.001 0.000 0.000 0.000 0.000 0.000 0.000 0.000
0.000 0.000 0.000 0.000 0.000 0.000 0.000 0.000 0.000 0.000 0.000 0.065 1.582 2.339 2.807 7.604 10.713 13.765 14.550 14.820 16.427 18.366 10.672 5.805 4.644 2.809 3.402 3.888 3.617 2.703 1.942 1.342 1.593 1.727 0.007 0.000 0.000 0.000 0.000 0.000 0.000 0.000
0.000 0.000 0.000 0.000 0.000 0.000 0.000 0.000 0.000 0.000 0.000 0.000 0.089 2.201 4.089 6.512 9.739 11.067 10.398 11.155 12.031 10.394 5.731 3.029 1.778 0.784 1.688 3.090 3.248 2.184 1.340 0.904 1.252 1.445 0.111 0.000 0.000 0.000 0.000 0.000 0.000 0.000
0.000 0.000 0.000 0.000 0.000 0.000 0.000 0.000 0.000 0.000 0.000 0.000 0.050 1.194 4.099 5.740 8.923 8.571 7.374 8.627 9.601 9.087 4.045 1.656 0.128 1.147 1.794 2.649 2.138 1.638 0.581 0.002 0.454 0.374 0.334 0.000 0.000 0.000 0.000 0.000 0.000 0.000
0.000 0.000 0.000 0.000 0.000 0.000 0.000 0.000 0.000 0.000 0.000 0.000 0.000 0.562 2.698 5.440 6.185 5.261 5.234 6.289 7.089 4.553 1.536 0.109 0.265 1.611 1.703 2.348 2.309 1.266 0.002 0.002 0.002 0.415 0.486 0.014 0.000 0.000 0.000 0.000 0.000 0.000
0.000 0.000 0.000 0.000 0.000 0.000 0.000 0.000 0.000 0.000 0.000 0.000 0.000 0.001 0.928 2.249 3.068 2.619 5.061 6.737 5.497 1.541 0.456 0.192 0.833 0.929 1.553 2.264 1.961 0.687 0.116 0.001 0.001 0.709 0.599 0.083 0.000 0.000 0.000 0.000 0.000 0.000
0.000 0.000 0.000 0.000 0.000 0.000 0.000 0.000 0.000 0.000 0.000 0.000 0.000 0.000 0.100 1.065 2.139 3.919 6.194 6.742 3.918 1.741 0.638 0.858 0.929 1.025 2.170 2.323 1.701 1.081 0.653 0.001 0.001 0.742 0.679 0.184 0.001 0.000 0.000 0.000 0.000 0.000
0.000 0.000 0.000 0.000 0.000 0.000 0.000 0.000 0.000 0.000 0.000 0.000 0.000 0.000 0.000 0.416 1.409 2.351 4.097 3.509 2.821 2.020 1.117 1.791 1.132 2.452 2.418 2.741 1.965 1.637 0.500 0.001 0.003 0.919 0.933 0.530 0.048 0.000 0.000 0.000 0.000 0.000
0.000 0.000 0.000 0.000 0.000 0.000 0.000 0.000 0.000 0.000 0.000 0.000 0.000 0.000 0.000 0.005 0.637 1.694 2.838 2.822 3.027 2.719 1.636 1.076 1.601 2.899 2.484 2.772 1.834 1.626 0.308 0.002 0.458 1.152 0.893 0.827 0.188 0.002 0.000 0.000 0.000 0.000
0.000 0.000 0.000 0.000 0.000 0.000 0.000 0.000 0.000 0.000 0.000 0.000 0.000 0.000 0.000 0.001 0.476 1.689 1.907 1.247 1.700 1.674 2.201 0.651 2.758 2.494 2.257 2.568 2.248 2.085 0.739 0.341 0.857 0.915 0.800 0.912 0.515 0.035 0.000 0.000 0.000 0.000
0.000 0.000 0.000 0.000 0.000 0.000 0.000 0.000 0.000 0.000 0.000 0.000 0.000 0.000 0.000 0.000 0.066 0.601 1.332 1.412 1.270 1.734 2.552 1.990 2.005 1.570 1.722 2.592 2.606 1.743 0.881 0.810 1.442 1.324 1.183 0.814 0.846 0.402 0.091 0.001 0.000 0.000
0.000 0.000 0.000 0.000 0.000 0.000 0.000 0.000 0.000 0.000 0.000 0.000 0.000 0.000 0.000 0.000 0.000 0.036 0.768 1.366 1.318 1.597 1.940 1.889 0.955 0.548 1.753 2.649 1.802 0.864 0.938 1.465 2.161 1.955 1.378 0.872 1.178 1.033 0.518 0.088 0.000 0.000
0.000 0.000 0.000 0.000 0.000 0.000 0.000 0.000 0.000 0.000 0.000 0.000 0.000 0.000 0.000 0.000 0.000 0.000 0.115 1.110 1.277 1.453 1.520 1.570 0.047 0.019 1.364 1.427 1.417 0.685 1.140 1.843 2.482 2.222 1.016 0.969 1.364 1.290 1.002 0.335 0.015 0.000
0.000 0.000 0.000 0.000 0.000 0.000 0.000 0.000 0.000 0.000 0.000 0.000 0.000 0.000 0.000 0.000 0.000 0.000 0.001 0.572 1.406 1.353 0.746 0.335 0.097 0.002 1.099 0.900 0.844 0.550 1.269 1.843 2.767 1.457 0.280 0.661 1.002 1.476 1.322 0.682 0.187 0.001
0.000 0.000 0.000 0.000 0.000 0.000 0.000 0.000 0.000 0.000 0.000 0.000 0.000 0.000 0.000 0.000 0.000 0.000 0.000 0.103 1.021 1.178 0.614 0.000 0.134 0.177 0.973 0.327 0.512 0.968 1.747 1.749 2.142 1.080 0.963 0.621 0.998 1.802 1.420 0.996 0.499 0.077
0.000 0.000 0.000 0.000 0.000 0.000 0.000 0.000 0.000 0.000 0.000 0.000 0.000 0.000 0.000 0.000 0.000 0.000 0.000 0.000 0.196 0.899 0.733 0.218 0.149 0.425 0.493 1.060 1.130 1.444 1.925 1.840 2.811 2.294 1.626 0.888 1.138 1.459 1.253 1.262 0.822 0.251
0.000 0.000 0.000 0.000 0.000 0.000 0.000 0.000 0.000 0.000 0.000 0.000 0.000 0.000 0.000 0.000 0.000 0.000 0.000 0.000 0.002 0.526 0.588 0.465 0.744 1.404 1.403 1.291 1.384 1.460 1.165 2.018 3.287 3.139 1.821 0.619 0.523 0.650 1.450 1.437 1.019 0.503
0.000 0.000 0.000 0.000 0.000 0.000 0.000 0.000 0.000 0.000 0.000 0.000 0.000 0.000 0.000 0.000 0.000 0.000 0.000 0.000 0.000 0.341 0.609 0.433 0.471 1.671 2.266 1.303 1.110 0.820 1.513 2.595 3.941 3.221 1.611 0.431 0.127 0.619 1.422 1.368 1.014 0.719
0.000 0.000 0.000 0.000 0.000 0.000 0.000 0.000 0.000 0.000 0.000 0.000 0.000 0.000 0.000 0.000 0.000 0.000 0.000 0.000 0.000 0.043 0.600 0.625 1.242 1.193 2.522 1.382 0.880 1.172 2.296 3.109 3.292 2.848 1.710 0.057 0.001 0.280 0.927 1.128 0.880 0.840
0.000 0.000 0.000 0.000 0.000 0.000 0.000 0.000 0.000 0.000 0.000 0.000 0.000 0.000 0.000 0.000 0.000 0.000 0.000 0.000 0.000 0.002 0.495 1.036 1.062 1.545 1.840 1.495 0.547 0.804 2.178 2.964 2.837 2.588 0.942 0.002 0.002 0.003 0.371 0.854 0.624 0.841
0.000 0.000 0.000 0.000 0.000 0.000 0.000 0.000 0.000 0.000 0.000 0.000 0.000 0.000 0.000 0.000 0.000 0.000 0.000 0.000 0.000 0.005 0.141 0.748 0.557 1.209 0.219 0.914 0.001 0.918 2.457 3.549 3.412 2.306 0.936 0.001 0.002 0.002 0.003 0.336 0.738 1.026
0.000 0.000 0.000 0.000 0.000 0.000 0.000 0.000 0.000 0.000 0.000 0.000 0.000 0.000 0.000 0.000 0.000 0.000 0.000 0.000 0.000 0.000 0.036 0.001 0.867 0.622 0.001 0.001 0.036 1.635 3.578 4.008 3.895 2.495 1.674 0.020 0.001 0.001 0.002 0.001 0.518 1.061
0.000 0.000 0.000 0.000 0.000 0.000 0.000 0.000 0.000 0.000 0.000 0.000 0.000 0.000 0.000 0.000 0.000 0.000 0.000 0.000 0.000 0.000 0.000 0.197 0.857 0.578 0.001 0.000 0.253 2.643 3.943 4.037 4.013 3.123 2.103 0.002 0.001 0.002 0.001 0.001 0.674 1.130
0.000 0.000 0.000 0.000 0.000 0.000 0.000 0.000 0.000 0.000 0.000 0.000 0.000 0.000 0.000 0.000 0.000 0.000 0.000 0.000 0.000 0.000 0.000 0.144 0.528 0.519 0.002 0.000 2.233 3.676 4.418 4.307 4.744 3.490 0.768 0.003 0.022 0.000 0.002 0.003 0.515 1.118
0.000 0.000 0.000 0.000 0.000 0.000 0.000 0.000 0.000 0.000 0.000 0.000 0.000 0.000 0.000 0.000 0.000 0.000 0.000 0.000 0.000 0.000 0.000 0.041 0.108 0.424 0.090 0.016 4.637 5.221 5.937 6.178 5.259 3.214 0.970 1.001 0.015 0.001 0.000 0.002 0.002 0.676
0.000 0.000 0.000 0.000 0.000 0.000 0.000 0.000 0.000 0.000 0.000 0.000 0.000 0.000 0.000 0.000 0.000 0.000 0.000 0.000 0.000 0.000 0.000 0.000 0.089 0.068 0.007 1.143 4.014 6.678 6.521 7.099 5.112 3.961 2.635 1.416 0.282 0.003 0.001 0.002 0.000 0.386
0.000 0.000 0.000 0.000 0.000 0.000 0.000 0.000 0.000 0.000 0.000 0.000 0.000 0.000 0.000 0.000 0.000 0.000 0.000 0.000 0.000 0.000 0.000 0.000 0.021 0.060 0.166 1.526 2.632 4.532 5.294 5.129 5.102 4.022 3.100 2.181 1.021 0.184 0.000 0.000 0.001 0.304
0.000 0.000 0.000 0.000 0.000 0.000 0.000 0.000 0.000 0.000 0.000 0.000 0.000 0.000 0.000 0.000 0.000 0.000 0.000 0.000 0.000 0.000 0.000 0.000 0.000 0.002 0.939 1.439 1.571 2.975 3.211 4.333 5.698 5.336 4.644 3.034 1.775 0.987 0.105 0.003 0.000 0.068
0.000 0.000 0.000 0.000 0.000 0.000 0.000 0.000 0.000 0.000 0.000 0.000 0.000 0.000 0.000 0.000 0.000 0.000 0.000 0.000 0.000 0.000 0.000 0.000 0.000 0.394 1.056 1.132 1.066 1.658 2.078 3.136 6.024 6.146 5.804 4.040 2.128 1.857 0.925 0.384 0.000 0.001
0.000 0.000 0.000 0.000 0.000 0.000 0.000 0.000 0.000 0.000 0.000 0.000 0.000 0.000 0.000 0.000 0.000 0.000 0.000 0.000 0.000 0.000 0.000 0.000 0.002 0.270 0.623 0.730 0.759 1.152 1.177 1.863 4.464 5.188 5.508 4.839 3.213 2.173 0.861 0.201 0.003 0.016
0.000 0.000 0.000 0.000 0.000 0.000 0.000 0.000 0.000 0.000 0.000 0.000 0.000 0.000 0.000 0.000 0.000 0.000 0.000 0.000 0.000 0.000 0.000 0.000 0.000 0.000 0.079 0.484 0.678 0.813 1.025 1.434 3.711 4.417 4.916 4.827 3.968 2.510 1.080 0.308 0.064 0.306
0.000 0.000 0.000 0.000 0.000 0.000 0.000 0.000 0.000 0.000 0.000 0.000 0.000 0.000 0.000 0.000 0.000 0.000 0.000 0.000 0.000 0.000 0.000 0.000 0.000 0.000 0.000 0.260 0.482 0.401 0.782 2.502 3.615 4.548 4.590 4.470 4.552 2.839 1.344 0.733 0.549 1.126
0.000 0.000 0.000 0.000 0.000 0.000 0.000 0.000 0.000 0.000 0.000 0.000 0.000 0.000 0.000 0.000 0.000 0.000 0.000 0.000 0.000 0.000 0.000 0.000 0.000 0.000 0.000 0.009 0.207 0.046 1.013 3.038 3.789 4.131 4.509 4.438 4.756 2.892 1.522 1.085 1.174 0.999
0.000 0.000 0.000 0.000 0.000 0.000 0.000 0.000 0.000 0.000 0.000 0.000 0.000 0.000 0.000 0.000 0.000 0.000 0.000 0.000 0.000 0.000 0.000 0.000 0.000 0.000 0.000 0.000 0.248 0.511 1.142 2.471 3.317 3.910 4.643 4.677 4.394 3.150 1.691 1.320 0.749 0.795
0.000 0.000 0.000 0.000 0.000 0.000 0.000 0.000 0.000 0.000 0.000 0.000 0.000 0.000 0.000 0.000 0.000 0.000 0.000 0.000 0.000 0.000 0.000 0.000 0.000 0.000 0.000 0.000 0.150 0.622 1.083 1.505 2.666 3.807 4.964 5.610 4.694 3.489 1.961 1.335 0.114 1.033
0.000 0.000 0.000 0.000 0.000 0.000 0.000 0.000 0.000 0.000 0.000 0.000 0.000 0.000 0.000 0.000 0.000 0.000 0.000 0.000 0.000 0.000 0.000 0.000 0.000 0.000 0.000 0.000 0.022 0.738 1.012 1.066 1.969 3.701 5.385 6.780 5.683 4.221 2.607 1.355 0.160 1.379
0.000 0.000 0.000 0.000 0.000 0.000 0.000 0.000 0.000 0.000 0.000 0.000 0.000 0.000 0.000 0.000 0.000 0.000 0.000 0.000 0.000 0.000 0.000 0.000 0.000 0.000 0.000 0.000 0.000 0.392 0.847 0.935 1.624 1.932 4.173 7.278 6.609 5.626 3.645 2.232 1.018 1.847
0.000 0.000 0.000 0.000 0.000 0.000 0.000 0.000 0.000 0.000 0.000 0.000 0.000 0.000 0.000 0.000 0.000 0.000 0.000 0.000 0.000 0.000 0.000 0.000 0.000 0.000 0.000 0.000 0.001 0.126 0.576 0.852 1.571 1.341 3.828 7.599 7.536 6.398 3.996 2.653 1.614 1.928
0.000 0.000 0.000 0.000 0.000 0.000 0.000 0.000 0.000 0.000 0.000 0.000 0.000 0.000 0.000 0.000 0.000 0.000 0.000 0.000 0.000 0.000 0.000 0.000 0.000 0.000 0.000 0.000 0.000 0.008 0.352 0.677 1.435 1.258 2.878 6.422 7.077 5.972 3.390 2.006 1.751 1.946
0.000 0.000 0.000 0.000 0.000 0.000 0.000 0.000 0.000 0.000 0.000 0.000 0.000 0.000 0.000 0.000 0.000 0.000 0.000 0.000 0.000 0.000 0.000 0.000 0.000 0.000 0.000 0.000 0.000 0.000 0.106 0.510 0.923 1.300 2.123 4.926 6.763 5.641 3.217 1.610 1.674 1.793
0.000 0.000 0.000 0.000 0.000 0.000 0.000 0.000 0.000 0.000 0.000 0.000 0.000 0.000 0.000 0.000 0.000 0.000 0.000 0.000 0.000 0.000 0.000 0.000 0.000 0.000 0.000 0.000 0.000 0.000 0.000 0.295 0.851 1.256 1.548 3.315 6.521 5.106 3.670 2.103 1.566 1.588
0.000 0.000 0.000 0.000 0.000 0.000 0.000 0.000 0.000 0.000 0.000 0.000 0.000 0.000 0.000 0.000 0.000 0.000 0.000 0.000 0.000 0.000 0.000 0.000 0.000 0.000 0.000 0.000 0.000 0.000 0.000 0.055 1.108 1.273 1.371 2.715 5.261 4.799 4.116 2.226 1.622 2.149
0.000 0.000 0.000 0.000 0.000 0.000 0.000 0.000 0.000 0.000 0.000 0.000 0.000 0.000 0.000 0.000 0.000 0.000 0.000 0.000 0.000 0.000 0.000 0.000 0.000 0.000 0.000 0.000 0.000 0.000 0.000 0.012 1.011 1.376 1.621 2.434 4.172 4.681 3.734 1.795 1.986 2.020
0.000 0.000 0.000 0.000 0.000 0.000 0.000 0.000 0.000 0.000 0.000 0.000 0.000 0.000 0.000 0.000 0.000 0.000 0.000 0.000 0.000 0.000 0.000 0.000 0.000 0.000 0.000 0.000 0.000 0.000 0.000 0.006 0.933 1.225 1.491 2.449 3.056 3.426 2.788 1.523 1.077 0.624
0.000 0.000 0.000 0.000 0.000 0.000 0.000 0.000 0.000 0.000 0.000 0.000 0.000 0.000 0.000 0.000 0.000 0.000 0.000 0.000 0.000 0.000 0.000 0.000 0.000 0.000 0.000 0.000 0.000 0.000 0.000 0.009 0.651 1.084 1.528 2.159 2.168 2.122 1.942 0.759 0.126 0.348
0.000 0.000 0.000 0.000 0.000 0.000 0.000 0.000 0.000 0.000 0.000 0.000 0.000 0.000 0.000 0.000 0.000 0.000 0.000 0.000 0.000 0.000 0.000 0.000 0.000 0.000 0.000 0.000 0.000 0.000 0.000 0.008 0.584 0.750 1.453 1.574 1.243 1.602 0.878 0.058 0.089 0.385
0.000 0.000 0.000 0.000 0.000 0.000 0.000 0.000 0.000 0.000 0.000 0.000 0.000 0.000 0.000 0.000 0.000 0.000 0.000 0.000 0.000 0.000 0.000 0.000 0.000 0.000 0.000 0.000 0.000 0.000 0.000 0.005 0.553 0.730 1.136 1.085 0.836 0.922 0.706 0.002 0.008 0.084
