ncols        45
nrows        40
xllcorner    409867.8
yllcorner    6870409.1
cellsize     5.00
NODATA_value -9999
0.000 0.000 0.000 0.000 0.000 0.000 0.000 0.000 0.000 0.000 0.000 0.000 0.000 0.000 0.000 0.000 0.000 0.000 0.000 0.000 0.000 0.000 0.000 0.000 0.000 0.000 0.000 0.000 0.000 0.000 0.000 0.000 0.000 0.000 0.000 0.000 0.006 0.209 0.693 0.104 0.006 0.004 0.001 0.000 0.000
0.000 0.000 0.000 0.000 0.000 0.000 0.000 0.000 0.000 0.000 0.000 0.000 0.000 0.000 0.000 0.000 0.000 0.000 0.000 0.000 0.000 0.000 0.000 0.000 0.000 0.000 0.000 0.000 0.000 0.000 0.000 0.000 0.000 0.001 0.174 4.283 17.356 22.231 18.194 21.039 13.537 9.033 4.037 0.000 0.000
0.000 0.000 0.000 0.000 0.000 0.000 0.000 0.000 0.000 0.000 0.000 0.000 0.000 0.000 0.000 0.000 0.000 0.000 0.000 0.000 0.000 0.000 0.000 0.000 0.000 0.000 0.000 0.000 0.000 0.000 0.000 0.000 0.015 2.318 17.631 22.502 32.660 23.428 26.123 25.264 24.043 13.609 13.278 3.266 0.000
0.000 0.000 0.000 0.000 0.000 0.000 0.000 0.000 0.000 0.000 0.000 0.000 0.000 0.000 0.000 0.000 0.000 0.000 0.000 0.000 0.000 0.000 0.000 0.000 0.000 0.000 0.000 0.000 0.000 0.000 0.000 0.007 5.227 17.829 23.321 35.759 42.494 32.468 34.095 27.003 27.506 14.074 16.276 20.689 0.000
0.000 0.000 0.000 0.000 0.000 0.000 0.000 0.000 0.000 0.000 0.000 0.000 0.000 0.000 0.000 0.000 0.000 0.000 0.000 0.000 0.000 0.000 0.000 0.000 0.000 0.000 0.000 0.000 0.000 0.000 0.000 1.310 17.641 22.554 32.793 47.726 47.139 36.058 26.231 22.656 22.676 18.055 21.184 18.504 0.000
0.000 0.000 0.000 0.000 0.000 0.000 0.000 0.000 0.000 0.000 0.000 0.000 0.000 0.000 0.000 0.000 0.000 0.000 0.000 0.000 0.000 0.000 0.000 0.000 0.000 0.000 0.000 0.000 0.000 0.000 0.002 14.846 20.214 24.027 37.201 48.721 38.142 26.288 17.672 19.721 19.522 19.879 14.062 12.597 0.000
0.000 0.000 0.000 0.000 0.000 0.000 0.000 0.000 0.000 0.000 0.000 0.000 0.000 0.000 0.000 0.000 0.000 0.000 0.000 0.000 0.000 0.000 0.000 0.000 0.000 0.000 0.000 0.000 0.000 0.000 0.098 18.123 22.730 28.129 45.825 45.677 25.287 17.652 19.645 19.719 17.434 14.726 14.762 12.277 0.000
0.000 0.000 0.000 0.000 0.000 0.000 0.000 0.000 0.000 0.000 0.000 0.000 0.000 0.000 0.000 0.000 0.000 0.000 0.000 0.000 0.000 0.000 0.000 0.000 0.000 0.000 0.000 0.000 0.000 0.000 1.735 20.222 26.843 38.370 45.577 30.970 18.652 20.105 19.142 15.977 15.475 15.815 11.964 12.157 0.000
0.000 0.000 0.000 0.000 0.000 0.000 0.000 0.000 0.000 0.000 0.000 0.000 0.000 0.000 0.000 0.000 0.000 0.000 0.000 0.000 0.000 0.000 0.000 0.000 0.000 0.000 0.000 0.000 0.000 0.108 15.856 19.627 29.264 41.384 38.846 22.638 21.055 19.839 13.500 16.376 15.456 18.567 17.060 0.000 0.000
0.000 0.000 0.000 0.000 0.000 0.000 0.000 0.000 0.000 0.000 0.000 0.000 0.000 0.000 0.000 0.000 0.000 0.000 0.000 0.000 0.000 0.000 0.000 0.001 0.013 0.003 0.000 0.000 0.019 10.657 13.168 20.339 30.160 44.732 38.393 29.228 21.099 12.396 13.205 14.329 15.640 20.451 2.467 0.000 0.000
0.000 0.000 0.000 0.000 0.000 0.000 0.000 0.000 0.000 0.000 0.000 0.000 0.000 0.000 0.000 0.000 0.000 0.000 0.000 0.000 0.000 0.003 0.723 10.280 15.140 9.467 4.538 0.164 8.724 9.705 14.201 20.131 33.700 48.911 43.873 26.559 11.231 11.663 13.059 13.109 13.831 0.000 0.000 0.000 0.000
0.000 0.000 0.000 0.000 0.000 0.000 0.000 0.000 0.000 0.000 0.000 0.000 0.000 0.000 0.000 0.000 0.000 0.000 0.000 0.000 0.007 3.182 14.712 17.496 19.965 21.541 21.997 8.678 6.672 11.188 18.601 24.598 31.362 38.834 43.143 11.837 7.667 6.947 10.497 1.527 0.000 0.000 0.000 0.000 0.000
0.000 0.000 0.000 0.000 0.000 0.000 0.000 0.000 0.000 0.000 0.000 0.000 0.000 0.000 0.000 0.000 0.000 0.000 0.000 0.003 3.436 15.884 20.425 23.304 27.703 31.512 21.703 5.214 6.957 12.807 22.361 26.476 24.359 39.604 39.195 3.363 3.422 0.000 0.000 0.000 0.000 0.000 0.000 0.000 0.000
0.000 0.000 0.000 0.000 0.000 0.000 0.000 0.000 0.000 0.000 0.000 0.000 0.000 0.000 0.000 0.000 0.000 0.000 0.004 2.170 16.051 21.726 27.205 29.307 47.409 26.944 10.914 4.332 7.164 13.316 22.687 24.367 27.605 35.999 14.206 4.078 3.954 0.000 0.000 0.000 0.000 0.000 0.000 0.000 0.000
0.000 0.000 0.000 0.000 0.000 0.000 0.000 0.000 0.000 0.000 0.000 0.000 0.000 0.000 0.000 0.000 0.000 0.942 10.198 17.537 21.606 26.757 32.113 49.081 42.265 10.284 5.018 4.510 6.141 11.142 18.959 11.853 17.750 16.753 14.350 8.036 0.000 0.000 0.000 0.000 0.000 0.000 0.000 0.000 0.000
0.000 0.000 0.000 0.000 0.000 0.000 0.000 0.000 0.000 0.000 0.000 0.000 0.000 0.000 0.019 0.278 2.582 13.709 17.499 21.081 24.074 25.215 41.955 38.015 13.566 10.374 7.680 2.989 3.882 7.538 9.951 10.379 13.566 11.867 15.331 0.000 0.000 0.000 0.000 0.000 0.000 0.000 0.000 0.000 0.000
0.000 0.000 0.000 0.000 0.000 0.000 0.000 0.000 0.000 0.000 0.000 0.000 0.079 6.107 15.622 13.931 15.226 17.849 20.603 23.079 26.407 39.109 43.740 17.071 10.048 4.970 3.127 1.859 3.728 6.436 8.042 10.257 10.817 9.247 5.084 0.000 0.000 0.000 0.000 0.000 0.000 0.000 0.000 0.000 0.000
0.000 0.000 0.000 0.000 0.000 0.000 0.000 0.000 0.000 0.000 0.001 2.202 14.533 16.895 21.683 17.398 19.572 21.301 22.888 29.922 35.368 35.460 26.413 14.249 5.300 3.171 0.910 3.863 3.692 6.071 8.751 7.531 6.476 9.906 0.000 0.000 0.000 0.000 0.000 0.000 0.000 0.000 0.000 0.000 0.000
0.000 0.000 0.000 0.000 0.000 0.000 0.000 0.000 0.000 0.105 4.907 16.005 18.856 22.522 22.928 17.285 19.480 23.688 29.104 30.879 17.532 14.643 10.250 12.088 9.918 5.818 3.978 7.096 2.880 3.785 3.533 3.879 9.558 0.000 0.000 0.000 0.000 0.000 0.000 0.000 0.000 0.000 0.000 0.000 0.000
0.000 0.000 0.000 0.000 0.000 0.000 0.000 0.000 0.015 16.106 17.463 21.155 24.021 27.659 28.424 21.950 23.565 24.431 27.099 17.659 10.620 9.305 4.590 11.646 15.065 7.461 6.450 5.322 2.038 2.981 3.870 8.286 0.000 0.000 0.000 0.000 0.000 0.000 0.000 0.000 0.000 0.000 0.000 0.000 0.000
0.000 0.000 0.000 0.000 0.000 0.000 0.000 0.005 8.912 19.570 21.068 26.170 26.429 27.412 22.593 16.220 17.643 15.302 12.204 12.555 9.590 9.760 12.259 11.475 10.023 7.162 4.863 1.958 4.256 4.823 8.315 0.000 0.000 0.000 0.000 0.000 0.000 0.000 0.000 0.000 0.000 0.000 0.000 0.000 0.000
0.000 0.000 0.000 0.000 0.000 0.000 0.001 3.123 14.776 22.812 22.960 25.975 22.164 13.270 6.663 4.586 5.899 7.544 9.486 9.784 10.772 7.689 8.623 3.831 2.631 2.250 2.568 0.538 5.627 5.270 0.000 0.000 0.000 0.000 0.000 0.000 0.000 0.000 0.000 0.000 0.000 0.000 0.000 0.000 0.000
0.000 0.000 0.000 0.000 0.000 0.000 0.125 11.427 15.562 18.834 15.899 11.877 8.063 6.821 2.995 3.120 4.690 5.475 6.650 2.207 3.163 1.947 1.963 1.278 0.436 1.051 1.602 1.944 5.974 0.000 0.000 0.000 0.000 0.000 0.000 0.000 0.000 0.000 0.000 0.000 0.000 0.000 0.000 0.000 0.000
0.000 0.000 0.000 0.000 0.000 0.287 5.370 8.727 9.354 7.698 5.968 5.269 3.931 5.843 4.945 4.712 5.761 4.556 2.942 0.859 0.291 0.688 1.377 4.834 1.479 2.637 3.951 5.089 0.000 0.000 0.000 0.000 0.000 0.000 0.000 0.000 0.000 0.000 0.000 0.000 0.000 0.000 0.000 0.000 0.000
0.000 0.000 0.000 0.001 0.890 5.572 4.809 5.057 4.703 3.965 4.340 5.370 3.567 3.859 3.687 4.492 5.265 4.263 1.132 3.590 3.389 3.651 4.891 5.192 2.019 4.745 2.478 0.000 0.000 0.000 0.000 0.000 0.000 0.000 0.000 0.000 0.000 0.000 0.000 0.000 0.000 0.000 0.000 0.000 0.000
0.000 0.000 0.001 2.640 6.070 6.156 4.516 3.741 3.501 5.662 6.370 7.377 5.479 4.755 4.520 4.331 4.350 5.509 5.791 8.916 10.138 10.532 10.007 5.803 2.157 0.000 0.000 0.000 0.000 0.000 0.000 0.000 0.000 0.000 0.000 0.000 0.000 0.000 0.000 0.000 0.000 0.000 0.000 0.000 0.000
0.000 0.000 3.041 5.482 6.392 7.023 5.872 7.208 8.811 7.990 6.299 7.228 7.672 9.552 9.631 6.540 6.595 8.965 13.204 14.215 15.556 14.384 19.774 0.000 0.000 0.000 0.000 0.000 0.000 0.000 0.000 0.000 0.000 0.000 0.000 0.000 0.000 0.000 0.000 0.000 0.000 0.000 0.000 0.000 0.000
0.000 1.819 5.081 5.491 5.794 7.557 8.500 11.287 10.959 7.900 7.295 6.906 7.197 8.699 12.371 10.678 11.060 14.267 17.311 19.921 22.205 19.099 0.000 0.000 0.000 0.000 0.000 0.000 0.000 0.000 0.000 0.000 0.000 0.000 0.000 0.000 0.000 0.000 0.000 0.000 0.000 0.000 0.000 0.000 0.000
0.005 5.685 5.419 5.492 6.400 8.697 8.645 8.171 7.453 7.184 6.613 9.661 10.651 9.094 11.544 15.631 16.630 18.445 23.552 28.823 30.494 0.000 0.000 0.000 0.000 0.000 0.000 0.000 0.000 0.000 0.000 0.000 0.000 0.000 0.000 0.000 0.000 0.000 0.000 0.000 0.000 0.000 0.000 0.000 0.000
0.006 6.027 5.682 8.061 9.978 11.014 8.056 5.324 3.265 7.663 6.619 10.524 14.739 16.588 17.470 22.181 23.027 25.098 34.710 39.621 12.354 0.000 0.000 0.000 0.000 0.000 0.000 0.000 0.000 0.000 0.000 0.000 0.000 0.000 0.000 0.000 0.000 0.000 0.000 0.000 0.000 0.000 0.000 0.000 0.000
0.004 7.270 10.211 12.889 10.626 9.249 10.275 8.933 6.370 7.456 9.557 11.829 16.354 23.066 26.392 29.357 30.159 36.633 38.977 26.325 6.009 0.008 0.000 0.000 0.000 0.000 0.000 0.000 0.000 0.000 0.000 0.000 0.000 0.000 0.000 0.000 0.000 0.000 0.000 0.000 0.000 0.000 0.000 0.000 0.000
0.185 10.505 14.381 15.496 10.863 9.305 10.722 13.244 9.731 9.187 12.720 13.909 19.290 25.423 28.700 30.261 32.850 36.222 8.679 7.608 0.023 0.000 0.000 0.000 0.000 0.000 0.000 0.000 0.000 0.000 0.000 0.000 0.000 0.000 0.000 0.000 0.000 0.000 0.000 0.000 0.000 0.000 0.000 0.000 0.000
0.010 10.855 16.416 14.490 14.631 11.316 11.286 11.542 10.413 11.378 15.871 17.083 20.298 19.281 17.246 18.709 17.837 10.601 12.421 0.002 0.000 0.000 0.000 0.000 0.000 0.000 0.000 0.000 0.000 0.000 0.000 0.000 0.000 0.000 0.000 0.000 0.000 0.000 0.000 0.000 0.000 0.000 0.000 0.000 0.000
0.024 9.727 14.543 12.498 13.876 10.768 11.112 9.997 12.095 15.221 16.832 17.902 17.160 13.482 12.731 11.197 15.419 0.000 0.000 0.000 0.000 0.000 0.000 0.000 0.000 0.000 0.000 0.000 0.000 0.000 0.000 0.000 0.000 0.000 0.000 0.000 0.000 0.000 0.000 0.000 0.000 0.000 0.000 0.000 0.000
0.000 0.669 9.668 8.884 8.695 9.824 9.810 15.648 18.468 20.766 19.775 15.264 15.297 13.915 18.780 23.869 0.000 0.000 0.000 0.000 0.000 0.000 0.000 0.000 0.000 0.000 0.000 0.000 0.000 0.000 0.000 0.000 0.000 0.000 0.000 0.000 0.000 0.000 0.000 0.000 0.000 0.000 0.000 0.000 0.000
0.000 0.000 6.861 9.665 7.883 11.267 14.369 18.449 24.309 23.839 18.050 17.488 17.811 23.437 29.957 0.000 0.000 0.000 0.000 0.000 0.000 0.000 0.000 0.000 0.000 0.000 0.000 0.000 0.000 0.000 0.000 0.000 0.000 0.000 0.000 0.000 0.000 0.000 0.000 0.000 0.000 0.000 0.000 0.000 0.000
0.000 0.000 0.000 0.000 11.234 15.972 22.182 27.877 29.535 19.996 16.437 22.548 33.349 33.508 0.000 0.000 0.000 0.000 0.000 0.000 0.000 0.000 0.000 0.000 0.000 0.000 0.000 0.000 0.000 0.000 0.000 0.000 0.000 0.000 0.000 0.000 0.000 0.000 0.000 0.000 0.000 0.000 0.000 0.000 0.000
0.000 0.000 0.000 0.000 0.828 24.501 33.807 48.302 20.228 18.226 15.794 37.239 18.515 0.000 0.000 0.000 0.000 0.000 0.000 0.000 0.000 0.000 0.000 0.000 0.000 0.000 0.000 0.000 0.000 0.000 0.000 0.000 0.000 0.000 0.000 0.000 0.000 0.000 0.000 0.000 0.000 0.000 0.000 0.000 0.000
0.000 0.000 0.000 0.000 0.000 0.000 0.000 3.631 18.330 23.910 31.749 48.894 0.000 0.000 0.000 0.000 0.000 0.000 0.000 0.000 0.000 0.000 0.000 0.000 0.000 0.000 0.000 0.000 0.000 0.000 0.000 0.000 0.000 0.000 0.000 0.000 0.000 0.000 0.000 0.000 0.000 0.000 0.000 0.000 0.000
0.000 0.000 0.000 0.000 0.000 0.000 0.000 0.000 1.581 21.228 31.578 0.000 0.000 0.000 0.000 0.000 0.000 0.000 0.000 0.000 0.000 0.000 0.000 0.000 0.000 0.000 0.000 0.000 0.000 0.000 0.000 0.000 0.000 0.000 0.000 0.000 0.000 0.000 0.000 0.000 0.000 0.000 0.000 0.000 0.000
