ncols        32
nrows        44
xllcorner    409792.8
yllcorner    6870644.1
cellsize     5.00
NODATA_value -9999
0.000 0.000 0.000 0.000 0.000 0.000 0.000 0.000 0.004 1.549 17.129 30.449 31.720 14.552 1.115 0.001 0.000 0.000 0.000 0.000 0.000 0.000 0.000 0.000 0.000 0.000 0.000 0.000 0.000 0.000 0.000 0.000
0.000 0.000 0.000 0.000 0.000 0.000 0.000 0.688 35.821 96.719 89.877 87.838 86.471 80.242 83.640 23.197 0.202 0.000 0.000 0.000 0.000 0.000 0.000 0.000 0.000 0.000 0.000 0.000 0.000 0.000 0.000 0.000
0.000 0.000 0.000 0.000 0.000 0.000 1.301 86.325 97.340 103.733 99.496 98.434 100.335 96.002 88.518 86.326 50.948 0.857 0.000 0.000 0.000 0.000 0.000 0.000 0.000 0.000 0.000 0.000 0.000 0.000 0.000 0.000
0.000 0.000 0.000 0.000 0.000 0.743 80.720 95.342 108.356 109.217 105.032 113.337 106.200 104.429 107.458 103.058 82.977 57.902 0.639 0.000 0.000 0.000 0.000 0.000 0.000 0.000 0.000 0.000 0.000 0.000 0.000 0.000
0.000 0.000 0.000 0.000 0.006 22.932 85.299 99.785 113.726 115.320 116.684 115.235 115.662 119.325 126.061 115.436 99.816 82.386 49.574 0.209 0.000 0.000 0.000 0.000 0.000 0.000 0.000 0.000 0.000 0.000 0.000 0.000
0.000 0.000 0.000 0.000 1.796 86.849 91.358 110.886 126.094 124.141 120.899 118.663 128.837 136.115 139.259 120.295 115.965 100.819 77.395 40.538 0.029 0.000 0.000 0.000 0.000 0.000 0.000 0.000 0.000 0.000 0.000 0.000
0.000 0.000 0.000 0.000 16.490 85.842 101.449 126.326 124.872 121.593 124.209 135.893 146.417 155.388 140.839 127.049 122.972 108.671 94.198 82.331 32.389 0.054 0.000 0.000 0.000 0.000 0.000 0.000 0.000 0.000 0.000 0.000
0.000 0.000 0.000 0.012 45.084 88.324 108.123 118.659 121.451 127.478 134.232 141.579 159.277 147.733 137.824 138.238 126.918 127.138 116.362 108.409 84.668 39.377 0.173 0.000 0.000 0.000 0.000 0.000 0.000 0.000 0.000 0.000
0.000 0.000 0.000 0.098 71.489 87.517 103.256 117.975 125.548 138.246 139.687 140.274 160.377 142.712 147.223 144.546 141.435 152.279 138.169 130.606 102.371 83.212 46.875 0.048 0.000 0.000 0.000 0.000 0.000 0.000 0.000 0.000
0.000 0.000 0.000 0.199 74.303 83.758 99.779 120.685 131.679 133.882 141.669 171.858 162.456 155.074 149.621 157.679 159.366 173.875 150.971 135.099 115.034 104.701 82.838 31.511 0.000 0.000 0.000 0.000 0.000 0.000 0.000 0.000
0.000 0.000 0.000 0.166 58.192 78.997 99.141 120.129 136.598 141.472 166.944 168.074 150.051 172.182 172.587 167.047 176.149 174.339 152.693 135.344 121.174 114.754 102.867 81.689 5.143 0.000 0.000 0.000 0.000 0.000 0.000 0.000
0.000 0.000 0.000 0.065 38.908 70.951 86.346 101.516 139.045 173.075 168.923 158.161 163.349 179.629 163.831 166.403 204.593 169.819 146.750 147.659 129.390 126.802 123.794 92.700 57.409 0.002 0.000 0.000 0.000 0.000 0.000 0.000
0.000 0.000 0.000 0.009 20.514 64.675 90.192 121.616 142.230 161.516 155.525 157.625 173.312 180.213 177.702 207.649 191.727 163.871 171.428 144.107 142.722 138.499 143.959 121.260 92.080 5.179 0.000 0.000 0.000 0.000 0.000 0.000
0.000 0.000 0.000 0.000 7.027 57.978 81.294 112.363 133.686 143.672 166.101 167.951 178.175 187.363 207.026 199.798 181.788 179.835 165.089 155.320 158.773 161.563 151.094 126.172 90.425 33.024 0.000 0.000 0.000 0.000 0.000 0.000
0.000 0.000 0.000 0.000 1.253 48.706 72.528 96.591 104.744 133.777 149.824 158.455 173.957 196.184 191.814 184.864 176.959 168.346 167.830 167.764 167.652 153.709 139.018 125.124 99.307 52.918 0.035 0.000 0.000 0.000 0.000 0.000
0.000 0.000 0.000 0.000 0.120 31.422 70.264 78.406 96.662 116.880 133.000 142.773 145.063 181.372 187.685 181.754 171.216 171.464 176.543 169.220 152.408 138.299 141.555 127.085 102.812 59.446 4.981 0.000 0.000 0.000 0.000 0.000
0.000 0.000 0.000 0.000 0.046 28.577 65.044 73.102 84.061 100.950 117.049 128.533 163.147 164.340 169.388 174.557 172.950 176.749 172.116 155.425 140.743 147.090 156.619 125.580 118.100 72.990 17.502 0.001 0.000 0.000 0.000 0.000
0.000 0.000 0.000 0.008 5.023 62.268 66.351 66.747 80.038 95.439 121.259 126.985 142.231 156.479 158.794 166.995 172.917 161.583 157.916 147.878 143.818 160.141 168.427 133.473 104.819 70.655 20.831 0.968 0.000 0.000 0.000 0.000
0.000 0.000 0.004 4.482 65.808 66.881 70.209 78.701 89.279 95.527 100.706 114.326 119.304 138.050 148.389 143.117 157.330 146.165 145.398 156.306 150.504 173.773 151.650 137.270 98.675 70.713 22.447 9.551 0.000 0.000 0.000 0.000
0.000 0.000 1.226 66.297 67.087 75.212 92.050 94.583 98.462 89.575 105.309 111.862 109.712 113.615 124.919 144.047 142.018 161.825 158.780 139.707 152.740 156.120 134.899 130.118 99.995 68.798 34.420 18.276 0.723 0.000 0.000 0.000
0.000 0.109 36.912 65.346 76.129 87.926 96.824 104.711 98.175 96.319 121.119 111.102 94.280 91.765 112.094 138.962 145.805 144.575 144.552 143.627 166.116 155.730 132.593 133.689 103.925 65.816 37.938 20.385 6.407 0.000 0.000 0.000
0.000 2.474 59.846 70.080 82.328 99.513 110.853 111.195 99.319 115.054 133.794 102.078 88.753 94.671 113.410 118.967 124.862 126.672 135.727 151.662 149.577 138.828 130.800 122.721 88.759 56.739 30.021 21.183 14.338 0.439 0.000 0.000
0.001 13.284 63.307 74.355 86.038 110.568 119.628 109.121 111.824 140.629 121.631 96.030 91.292 99.276 96.119 101.028 111.026 129.874 140.548 145.871 132.026 128.237 145.595 104.860 83.611 50.797 42.375 29.356 20.112 4.536 0.000 0.000
0.053 40.207 63.912 76.468 96.206 118.277 118.242 130.216 154.856 128.831 109.131 111.512 95.032 85.685 84.797 91.635 109.464 119.399 136.144 141.403 143.245 153.948 127.824 100.537 77.692 59.882 50.560 39.711 25.101 9.645 0.402 0.000
0.432 57.235 65.619 80.011 101.042 118.613 121.844 152.641 129.051 107.232 100.378 105.845 95.904 85.517 80.253 81.584 95.978 119.128 133.187 134.748 140.644 139.087 125.016 100.957 86.061 68.131 59.729 43.649 27.958 10.167 3.304 0.000
1.194 54.855 64.362 85.610 108.716 135.488 135.267 128.632 111.201 100.715 101.907 100.800 84.024 73.043 79.126 80.910 98.039 100.683 113.266 131.348 127.100 122.686 114.456 98.315 75.166 73.437 58.216 50.338 29.992 11.214 7.353 0.232
1.767 52.313 63.266 78.103 112.005 121.154 110.982 119.338 107.804 113.951 117.888 89.111 74.484 75.226 78.611 82.648 78.097 100.781 111.789 117.512 128.352 125.741 110.456 92.495 86.892 75.095 63.810 49.347 27.097 15.661 10.300 2.454
1.892 50.573 62.127 77.711 95.614 106.762 103.565 107.707 108.737 109.918 97.771 74.980 69.339 76.361 72.731 66.596 77.514 88.853 97.137 107.352 112.971 123.574 108.322 101.379 87.723 75.313 63.366 47.597 34.288 21.234 11.344 4.847
1.439 47.565 54.545 76.336 97.597 94.060 98.763 106.487 98.170 98.937 84.387 72.102 77.103 71.064 65.468 67.116 67.829 70.746 88.705 106.138 119.338 115.713 107.826 103.018 88.475 79.231 64.673 51.174 37.216 23.277 14.905 8.104
0.712 33.675 52.638 73.511 83.050 83.309 88.786 90.764 92.509 80.783 81.493 73.016 74.269 69.158 57.498 60.809 64.932 65.865 79.290 92.044 98.977 109.881 107.074 89.371 92.033 81.881 60.359 52.227 38.195 30.474 18.181 9.111
0.243 23.901 47.788 67.160 70.452 78.432 88.225 89.460 92.952 83.262 73.126 70.451 66.470 61.705 66.331 62.467 63.579 61.761 67.429 82.713 103.929 99.553 97.587 94.710 89.133 75.765 56.804 49.066 39.718 32.257 21.056 7.554
0.055 15.213 42.885 52.862 63.929 74.009 77.711 83.532 83.235 75.316 69.212 63.867 58.005 62.122 59.180 58.385 56.697 55.209 63.090 76.862 83.756 90.093 93.860 93.224 85.220 65.622 52.066 50.478 39.787 30.860 23.207 7.306
0.006 7.645 35.120 48.111 58.538 69.261 74.424 79.825 80.468 68.726 64.123 61.823 64.811 54.549 56.390 58.122 54.180 54.920 53.588 68.321 76.105 88.216 86.032 86.529 69.544 56.709 55.947 47.686 40.034 32.886 22.948 8.906
0.000 2.842 25.888 40.089 54.347 65.785 72.245 67.152 66.148 60.056 55.597 56.829 51.097 50.414 51.055 49.439 47.790 44.760 50.728 64.713 76.144 79.033 90.364 81.018 64.947 58.416 49.164 43.822 40.774 35.414 25.928 11.670
0.000 0.704 17.624 31.922 49.175 56.845 54.563 69.025 59.917 50.728 59.930 50.064 46.946 48.212 47.754 44.678 44.294 41.507 50.000 49.767 59.015 69.380 75.326 66.011 60.633 52.654 49.223 46.683 41.241 36.000 27.801 13.581
0.000 0.092 9.533 25.185 34.535 41.341 49.619 54.425 45.320 49.252 47.601 42.107 43.112 43.834 41.894 40.144 37.916 35.032 37.991 41.579 48.983 61.201 63.325 62.638 57.425 51.650 49.332 45.019 39.492 36.690 27.104 12.110
0.000 0.005 3.932 18.985 25.544 34.998 45.556 44.069 42.964 42.372 37.525 36.928 36.994 38.774 36.167 31.457 25.952 24.159 23.940 35.368 45.060 55.343 60.233 57.436 53.333 48.397 45.839 43.990 38.571 35.390 29.682 12.534
0.000 0.000 0.993 13.003 19.460 25.553 38.505 39.644 35.902 34.065 31.741 28.755 24.104 24.355 22.018 19.429 20.976 20.405 20.915 26.932 42.752 54.014 57.498 51.002 49.512 47.950 43.261 38.638 38.794 36.442 25.517 11.240
0.000 0.000 0.172 8.041 16.112 22.184 28.777 31.771 29.519 29.936 24.157 17.291 17.331 17.289 16.311 17.220 17.813 17.393 18.632 20.224 30.007 45.387 50.192 50.362 44.833 41.510 41.197 39.093 37.586 31.172 18.310 9.855
0.000 0.000 0.020 3.912 13.655 19.344 20.877 26.968 24.842 20.326 15.905 14.695 14.233 15.942 15.362 16.204 15.098 16.448 16.703 16.335 21.615 31.788 40.276 43.952 44.259 38.555 37.730 37.970 34.229 25.912 14.142 9.688
0.000 0.000 0.001 1.163 9.187 13.468 14.540 16.969 15.761 14.770 13.313 13.160 13.466 15.160 14.965 13.675 14.471 15.888 11.700 10.955 14.168 24.470 37.288 40.901 39.702 37.946 33.035 29.485 27.023 19.510 12.196 10.302
0.000 0.000 0.000 0.168 5.551 10.192 10.696 11.971 11.274 11.497 12.148 12.180 12.147 12.986 13.004 12.994 13.330 10.929 10.065 8.686 11.175 14.313 26.998 34.906 38.007 28.694 24.766 24.875 21.333 13.008 10.809 9.030
0.000 0.000 0.000 0.016 2.635 8.891 9.514 8.603 9.745 10.049 10.089 10.067 10.811 11.409 10.053 10.713 10.189 10.847 10.558 9.535 9.365 9.803 12.624 18.986 20.025 14.790 13.403 12.754 11.286 9.719 9.291 7.374
0.000 0.000 0.000 0.000 0.814 6.204 6.827 5.958 6.393 6.407 6.655 6.787 7.643 6.804 6.826 8.158 8.449 7.577 4.836 3.881 4.925 6.197 6.975 9.265 7.769 8.276 7.153 6.785 6.492 6.077 6.515 5.410
