ncols        41
nrows        41
xllcorner    409867.8
yllcorner    6870424.1
cellsize     5.00
NODATA_value -9999
0.000 0.000 0.000 0.000 0.000 0.000 0.000 0.000 0.000 0.000 0.000 0.000 0.000 0.000 0.000 0.000 0.000 0.000 0.000 0.000 0.000 0.000 0.000 0.000 0.000 0.000 0.000 0.000 0.000 0.000 0.000 0.000 0.000 0.000 0.000 0.000 0.000 0.000 0.000 0.000 0.000
0.000 0.000 0.000 0.000 0.000 0.000 0.000 0.000 0.000 0.000 0.000 0.000 0.000 0.000 0.000 0.000 0.000 0.000 0.000 0.000 0.000 0.000 0.000 0.000 0.000 0.000 0.000 0.021 1.933 18.893 50.475 58.342 58.371 72.101 41.376 25.960 16.919 3.001 0.047 0.001 0.000
0.000 0.000 0.000 0.000 0.000 0.000 0.000 0.000 0.000 0.000 0.000 0.000 0.000 0.000 0.000 0.000 0.000 0.000 0.000 0.000 0.000 0.000 0.000 0.000 0.000 0.000 0.261 17.838 48.457 54.481 60.152 66.638 70.850 88.041 66.707 65.855 71.188 74.188 24.513 6.364 0.942
0.000 0.000 0.000 0.000 0.000 0.000 0.000 0.000 0.000 0.000 0.000 0.000 0.000 0.000 0.000 0.000 0.000 0.000 0.000 0.000 0.000 0.000 0.000 0.000 0.000 0.211 36.493 43.960 53.169 62.073 70.840 81.639 81.228 102.997 82.647 87.977 85.724 107.200 73.910 39.521 22.422
0.000 0.000 0.000 0.000 0.000 0.000 0.000 0.000 0.000 0.000 0.000 0.000 0.000 0.000 0.000 0.000 0.000 0.000 0.000 0.000 0.000 0.000 0.000 0.000 0.004 15.402 41.996 45.279 54.093 69.529 76.614 90.419 96.683 101.511 101.376 97.146 92.194 134.336 85.097 61.482 29.248
0.000 0.000 0.000 0.000 0.000 0.000 0.000 0.000 0.000 0.000 0.000 0.000 0.000 0.000 0.000 0.000 0.000 0.000 0.000 0.000 0.000 0.000 0.000 0.000 0.986 38.774 39.890 48.890 60.782 76.420 82.732 100.080 96.225 91.466 101.306 95.905 132.604 132.735 88.745 73.972 29.487
0.000 0.000 0.000 0.000 0.000 0.000 0.000 0.000 0.000 0.000 0.000 0.000 0.000 0.000 0.000 0.000 0.000 0.000 0.000 0.000 0.000 0.000 0.000 0.000 13.173 38.349 45.103 61.555 66.404 77.882 98.233 102.256 100.486 97.276 95.143 102.143 160.180 115.976 106.900 78.735 32.332
0.000 0.000 0.000 0.000 0.000 0.000 0.000 0.000 0.000 0.000 0.000 0.000 0.000 0.000 0.000 0.000 0.000 0.000 0.000 0.000 0.043 0.403 0.313 0.425 33.835 40.134 54.033 65.967 65.518 79.697 94.165 95.254 97.682 98.776 98.389 134.028 160.715 118.878 122.266 74.914 36.117
0.000 0.000 0.000 0.000 0.000 0.000 0.000 0.000 0.000 0.000 0.000 0.000 0.000 0.000 0.000 0.000 0.000 0.000 0.553 16.115 35.514 33.704 30.701 25.760 31.233 39.277 53.500 59.415 74.287 92.637 91.224 103.084 105.224 101.549 115.004 158.547 160.091 142.056 112.261 76.278 28.241
0.000 0.000 0.000 0.000 0.000 0.000 0.000 0.000 0.000 0.000 0.000 0.000 0.000 0.000 0.000 0.000 0.003 2.943 40.145 40.600 43.467 39.613 33.805 27.560 31.098 43.757 57.243 72.065 80.764 100.946 107.971 108.553 100.752 83.276 117.531 154.736 148.766 126.176 97.434 71.805 18.608
0.000 0.000 0.000 0.000 0.000 0.000 0.000 0.000 0.000 0.000 0.000 0.000 0.000 0.000 0.000 0.000 1.255 42.643 46.365 49.223 52.950 47.106 38.792 31.579 36.156 47.720 61.487 74.846 82.676 92.935 113.619 96.248 100.824 88.046 135.684 160.967 124.405 91.208 79.616 26.809 14.982
0.000 0.000 0.000 0.000 0.000 0.000 0.000 0.000 0.000 0.000 0.000 0.000 0.000 0.000 0.000 0.126 43.591 49.105 53.381 57.528 60.047 51.545 43.549 40.501 44.690 52.212 61.117 75.107 89.350 106.747 141.137 106.969 108.494 127.529 158.265 126.099 94.203 75.654 28.967 17.403 10.864
0.000 0.000 0.000 0.000 0.000 0.000 0.000 0.000 0.000 0.000 0.000 0.000 0.000 0.000 0.000 4.437 51.347 56.694 61.249 65.955 64.541 66.333 49.808 50.078 49.816 54.512 65.256 85.587 100.755 150.132 120.351 85.331 97.681 126.175 118.700 84.821 58.599 29.321 14.527 12.511 8.041
0.000 0.000 0.000 0.000 0.000 0.000 0.000 0.000 0.000 0.000 0.000 0.000 0.158 5.999 1.005 52.296 55.352 64.902 71.408 77.004 70.138 62.738 60.134 53.928 52.954 55.333 63.911 81.868 138.932 130.017 86.316 83.120 78.067 102.964 83.810 36.007 23.244 13.502 9.499 7.987 5.656
0.000 0.000 0.000 0.000 0.000 0.000 0.000 0.000 0.000 0.000 0.000 0.504 58.829 62.740 64.212 58.292 65.223 74.729 82.158 82.244 82.019 69.318 57.933 56.622 51.297 52.365 55.816 94.762 113.500 84.456 76.360 68.723 77.407 90.004 42.538 24.547 9.802 7.610 6.112 4.744 3.449
0.000 0.000 0.000 0.000 0.000 0.000 0.000 0.000 0.000 0.000 0.082 59.493 68.449 76.831 71.078 74.184 75.274 86.247 93.414 94.434 84.598 76.933 64.544 56.338 50.007 54.778 75.507 82.201 56.289 64.681 78.805 88.726 66.601 58.632 32.902 14.884 6.206 3.740 3.319 1.625 0.000
0.000 0.000 0.000 0.000 0.000 0.000 0.000 0.000 0.002 4.033 36.247 65.666 82.585 89.777 85.910 90.574 88.408 97.690 100.187 91.185 86.152 76.025 70.734 57.035 50.406 64.350 60.342 42.098 38.177 54.196 78.835 84.161 35.237 22.770 23.053 6.698 2.451 0.000 0.000 0.000 0.000
0.000 0.000 0.000 0.000 0.000 0.000 0.000 0.000 0.193 65.812 66.476 82.924 116.157 114.340 95.152 103.909 104.204 119.069 106.610 98.083 87.496 79.422 72.015 55.723 68.444 51.413 30.584 25.568 32.331 51.411 67.915 56.697 17.604 18.182 9.403 3.217 2.476 0.000 0.000 0.000 0.000
0.000 0.000 0.000 0.000 0.000 0.000 0.000 0.002 17.363 81.431 84.074 100.321 120.246 107.602 101.009 106.723 95.137 105.710 101.656 112.266 101.574 85.891 76.532 85.882 68.125 27.764 17.615 22.970 30.393 41.950 78.006 35.943 14.259 10.062 6.406 2.868 0.000 0.000 0.000 0.000 0.000
0.000 0.000 0.000 0.000 0.000 0.000 0.000 0.099 65.132 91.980 83.314 91.356 112.633 106.998 85.026 95.964 80.104 94.249 110.581 93.381 78.294 61.983 84.405 85.002 42.424 26.903 19.231 19.764 22.705 34.180 51.950 19.848 10.428 6.324 4.564 0.000 0.000 0.000 0.000 0.000 0.000
0.000 0.000 0.000 0.000 0.000 0.000 0.079 23.277 60.899 88.222 67.505 73.647 98.782 87.401 64.245 66.783 73.940 94.403 90.941 74.331 63.801 78.229 89.585 57.439 44.204 25.023 16.378 16.104 20.724 30.004 33.195 11.624 7.752 4.052 3.073 0.000 0.000 0.000 0.000 0.000 0.000
0.000 0.000 0.000 0.000 0.000 0.052 26.552 45.617 65.355 83.091 78.222 87.663 76.056 69.225 63.611 56.531 62.485 73.000 67.169 71.653 88.052 71.890 56.309 48.925 30.071 19.259 13.329 16.277 17.994 23.936 30.019 7.857 3.835 2.782 0.000 0.000 0.000 0.000 0.000 0.000 0.000
0.000 0.000 0.000 0.000 0.108 18.822 44.946 55.407 69.836 71.531 61.373 65.635 67.241 65.597 46.039 36.317 44.463 58.844 57.404 65.690 50.539 40.766 32.140 30.416 25.791 22.750 17.004 18.245 18.594 22.266 9.160 3.433 2.878 0.000 0.000 0.000 0.000 0.000 0.000 0.000 0.000
0.000 0.000 0.000 0.858 35.871 43.209 47.977 49.654 56.187 73.303 70.414 60.323 61.350 57.656 46.134 36.580 43.051 52.355 44.178 32.438 28.317 26.007 17.303 22.892 23.164 18.054 18.653 13.355 14.319 11.909 3.307 2.764 0.000 0.000 0.000 0.000 0.000 0.000 0.000 0.000 0.000
0.000 0.000 0.072 37.863 42.017 44.463 45.567 48.819 51.303 61.934 60.344 57.287 48.290 47.617 38.246 32.775 39.269 40.562 26.821 21.725 17.962 19.389 23.267 21.140 13.962 15.500 14.850 7.317 17.717 4.218 2.688 0.000 0.000 0.000 0.000 0.000 0.000 0.000 0.000 0.000 0.000
0.000 0.001 19.454 37.614 42.270 45.593 43.604 45.896 50.304 58.065 53.649 54.022 43.315 35.696 30.578 26.898 31.191 35.122 27.325 22.834 18.063 17.138 21.518 15.459 7.058 10.674 12.311 5.100 4.996 2.279 0.000 0.000 0.000 0.000 0.000 0.000 0.000 0.000 0.000 0.000 0.000
0.000 1.194 35.696 42.535 48.040 48.241 48.892 51.603 51.806 51.523 41.918 40.468 34.907 32.372 27.778 30.816 36.033 41.061 32.128 23.076 16.282 12.642 14.207 8.303 4.709 9.422 9.547 7.017 2.446 0.000 0.000 0.000 0.000 0.000 0.000 0.000 0.000 0.000 0.000 0.000 0.000
0.105 34.941 37.812 45.750 47.514 53.321 48.277 47.886 37.346 37.188 34.385 33.360 32.934 38.715 40.771 42.113 47.389 51.856 41.025 26.993 14.411 13.348 12.790 15.524 8.525 11.325 7.171 2.921 0.000 0.000 0.000 0.000 0.000 0.000 0.000 0.000 0.000 0.000 0.000 0.000 0.000
0.857 40.105 45.807 46.389 55.225 45.356 43.335 41.754 34.845 31.109 31.394 37.280 39.747 46.401 49.945 55.948 62.109 61.781 43.126 41.660 25.434 14.682 8.304 6.106 10.534 4.152 2.855 0.000 0.000 0.000 0.000 0.000 0.000 0.000 0.000 0.000 0.000 0.000 0.000 0.000 0.000
3.446 40.684 46.620 52.702 49.308 44.039 38.288 35.081 27.206 35.497 38.931 43.791 45.458 49.360 59.126 64.955 69.665 71.310 46.040 41.973 19.063 9.196 5.140 3.222 1.866 0.000 0.000 0.000 0.000 0.000 0.000 0.000 0.000 0.000 0.000 0.000 0.000 0.000 0.000 0.000 0.000
8.168 44.780 54.721 49.914 51.896 45.467 40.436 39.708 36.270 40.755 43.451 52.691 60.075 66.783 69.740 75.589 75.952 65.583 63.250 19.582 13.416 6.445 4.566 0.000 0.000 0.000 0.000 0.000 0.000 0.000 0.000 0.000 0.000 0.000 0.000 0.000 0.000 0.000 0.000 0.000 0.000
8.371 43.408 48.053 56.772 49.899 49.340 47.209 50.199 42.551 48.598 50.503 55.022 65.132 80.123 97.489 83.424 80.923 71.967 44.510 16.281 11.759 4.878 0.000 0.000 0.000 0.000 0.000 0.000 0.000 0.000 0.000 0.000 0.000 0.000 0.000 0.000 0.000 0.000 0.000 0.000 0.000
7.430 41.290 59.732 52.198 48.878 47.901 53.495 58.035 53.833 52.715 61.048 66.810 70.373 71.485 87.231 91.014 78.538 36.143 22.600 15.106 11.400 0.001 0.000 0.000 0.000 0.000 0.000 0.000 0.000 0.000 0.000 0.000 0.000 0.000 0.000 0.000 0.000 0.000 0.000 0.000 0.000
2.809 34.336 42.436 56.307 55.936 56.679 53.826 55.403 52.677 64.727 62.641 76.700 87.336 82.815 83.221 79.064 45.147 18.988 18.661 14.939 9.132 0.128 0.000 0.000 0.000 0.000 0.000 0.000 0.000 0.000 0.000 0.000 0.000 0.000 0.000 0.000 0.000 0.000 0.000 0.000 0.000
4.163 21.426 43.405 63.848 61.653 59.138 62.494 61.752 63.440 70.658 76.951 88.084 89.437 93.811 86.472 57.660 21.415 16.650 16.694 10.596 6.519 0.754 0.001 0.000 0.000 0.000 0.000 0.000 0.000 0.000 0.000 0.000 0.000 0.000 0.000 0.000 0.000 0.000 0.000 0.000 0.000
5.207 13.362 20.884 69.818 52.975 56.997 71.599 72.064 80.476 80.023 82.814 92.550 93.699 101.441 46.954 25.025 18.978 13.613 6.511 5.720 1.267 0.001 0.000 0.000 0.000 0.000 0.000 0.000 0.000 0.000 0.000 0.000 0.000 0.000 0.000 0.000 0.000 0.000 0.000 0.000 0.000
2.854 10.045 13.290 54.029 54.579 65.840 68.603 79.709 88.807 89.601 103.077 94.896 77.903 31.950 20.247 14.713 9.246 4.949 6.795 0.137 0.000 0.000 0.000 0.000 0.000 0.000 0.000 0.000 0.000 0.000 0.000 0.000 0.000 0.000 0.000 0.000 0.000 0.000 0.000 0.000 0.000
1.481 7.922 10.554 19.392 52.823 65.974 76.914 37.616 66.519 91.250 91.079 101.495 22.909 15.843 9.660 6.035 5.009 0.000 0.000 0.000 0.000 0.000 0.000 0.000 0.000 0.000 0.000 0.000 0.000 0.000 0.000 0.000 0.000 0.000 0.000 0.000 0.000 0.000 0.000 0.000 0.000
0.013 3.292 5.805 8.233 14.012 45.124 20.736 19.951 38.741 82.004 96.710 31.243 14.879 8.955 6.710 5.213 0.000 0.000 0.000 0.000 0.000 0.000 0.000 0.000 0.000 0.000 0.000 0.000 0.000 0.000 0.000 0.000 0.000 0.000 0.000 0.000 0.000 0.000 0.000 0.000 0.000
0.000 0.000 3.789 4.957 7.374 12.508 10.789 13.151 17.765 32.842 62.630 18.279 8.153 6.534 6.173 0.000 0.000 0.000 0.000 0.000 0.000 0.000 0.000 0.000 0.000 0.000 0.000 0.000 0.000 0.000 0.000 0.000 0.000 0.000 0.000 0.000 0.000 0.000 0.000 0.000 0.000
0.000 0.000 0.000 0.000 5.738 7.763 8.490 9.456 14.269 17.212 16.076 11.141 7.894 7.154 0.000 0.000 0.000 0.000 0.000 0.000 0.000 0.000 0.000 0.000 0.000 0.000 0.000 0.000 0.000 0.000 0.000 0.000 0.000 0.000 0.000 0.000 0.000 0.000 0.000 0.000 0.000
