ncols        37
nrows        80
xllcorner    409647.8
yllcorner    6870789.1
cellsize     5.00
NODATA_value -9999
0.000 0.000 0.000 0.000 0.487 12.474 15.337 5.169 0.059 0.000 0.000 0.000 0.000 0.000 0.000 0.000 0.000 0.000 0.000 0.000 0.000 0.000 0.000 0.000 0.000 0.000 0.000 0.000 0.000 0.000 0.000 0.000 0.000 0.000 0.000 0.000 0.000
0.000 0.000 0.055 10.308 81.691 78.645 90.016 78.197 61.449 6.896 0.008 0.000 0.000 0.000 0.000 0.000 0.000 0.000 0.000 0.000 0.000 0.000 0.000 0.000 0.000 0.000 0.000 0.000 0.000 0.000 0.000 0.000 0.000 0.000 0.000 0.000 0.000
0.000 0.013 10.732 86.603 82.794 95.235 95.163 86.227 85.446 79.046 28.108 0.180 0.000 0.000 0.000 0.000 0.000 0.000 0.000 0.000 0.000 0.000 0.000 0.000 0.000 0.000 0.000 0.000 0.000 0.000 0.000 0.000 0.000 0.000 0.000 0.000 0.000
0.000 1.892 77.556 88.782 97.625 101.672 106.130 110.447 100.913 91.479 76.872 47.675 1.417 0.000 0.000 0.000 0.000 0.000 0.000 0.000 0.000 0.000 0.000 0.000 0.000 0.000 0.000 0.000 0.000 0.000 0.000 0.000 0.000 0.000 0.000 0.000 0.000
0.069 72.226 82.849 95.910 101.419 111.593 128.809 122.917 108.122 103.913 94.444 88.562 56.990 4.139 0.000 0.000 0.000 0.000 0.000 0.000 0.000 0.000 0.000 0.000 0.000 0.000 0.000 0.000 0.000 0.000 0.000 0.000 0.000 0.000 0.000 0.000 0.000
1.722 72.884 84.390 107.421 112.279 128.038 143.971 143.438 128.589 117.072 126.381 99.715 75.532 61.768 6.410 0.014 0.000 0.000 0.000 0.000 0.000 0.000 0.000 0.000 0.000 0.000 0.000 0.000 0.000 0.000 0.000 0.000 0.000 0.000 0.000 0.000 0.000
5.379 70.298 94.998 112.190 125.405 129.744 148.356 145.747 120.940 136.964 141.782 98.934 91.540 65.319 47.055 15.094 0.902 0.003 0.000 0.000 0.000 0.000 0.000 0.000 0.000 0.000 0.000 0.000 0.000 0.000 0.000 0.000 0.000 0.000 0.000 0.000 0.000
11.336 78.073 106.758 123.749 144.756 147.928 144.670 134.436 119.529 148.905 144.260 124.541 105.959 65.087 46.665 49.073 37.263 9.541 0.056 0.000 0.000 0.000 0.000 0.000 0.000 0.000 0.000 0.000 0.000 0.000 0.000 0.000 0.000 0.000 0.000 0.000 0.000
12.484 86.152 116.499 131.154 140.183 137.845 133.837 125.835 141.155 170.752 145.459 122.749 100.785 64.390 56.426 56.187 55.428 45.361 15.396 0.001 0.000 0.000 0.000 0.000 0.000 0.000 0.000 0.000 0.000 0.000 0.000 0.000 0.000 0.000 0.000 0.000 0.000
7.309 82.863 110.416 137.087 136.460 125.579 142.498 122.877 162.995 157.463 142.407 133.187 112.158 88.410 70.072 66.150 56.511 49.238 42.457 3.845 0.000 0.000 0.000 0.000 0.000 0.000 0.000 0.000 0.000 0.000 0.000 0.000 0.000 0.000 0.000 0.000 0.000
3.259 84.642 117.235 120.138 126.254 135.542 134.731 147.859 158.332 173.403 146.668 147.065 117.150 82.250 72.252 65.675 52.515 53.205 43.469 25.245 0.000 0.000 0.000 0.000 0.000 0.000 0.000 0.000 0.000 0.000 0.000 0.000 0.000 0.000 0.000 0.000 0.000
0.613 62.155 98.045 120.102 123.379 143.011 151.541 139.048 171.393 163.087 150.193 136.882 102.813 77.147 67.000 64.097 56.381 56.100 43.513 30.248 0.001 0.000 0.000 0.000 0.000 0.000 0.000 0.000 0.000 0.000 0.000 0.000 0.000 0.000 0.000 0.000 0.000
0.102 35.527 79.378 109.266 128.905 135.990 138.722 142.388 148.284 148.123 146.725 110.452 88.488 70.912 71.806 64.763 61.411 52.820 42.687 31.693 1.692 0.000 0.000 0.000 0.000 0.000 0.000 0.000 0.000 0.000 0.000 0.000 0.000 0.000 0.000 0.000 0.000
0.018 19.706 78.235 101.882 107.663 117.218 124.156 137.526 138.260 125.906 131.046 97.340 85.711 96.784 73.730 68.768 62.849 46.822 41.541 35.758 10.492 0.000 0.000 0.000 0.000 0.000 0.000 0.000 0.000 0.000 0.000 0.000 0.000 0.000 0.000 0.000 0.000
0.002 8.458 60.341 89.730 112.201 118.429 128.850 123.258 126.307 133.946 127.190 103.412 95.842 94.826 71.726 79.966 58.630 48.015 50.262 34.569 15.773 0.000 0.000 0.000 0.000 0.000 0.000 0.000 0.000 0.000 0.000 0.000 0.000 0.000 0.000 0.000 0.000
0.000 3.300 49.202 80.752 90.995 114.658 114.684 103.490 110.151 115.468 115.493 104.566 115.555 91.249 83.712 76.716 66.786 62.554 50.181 37.658 20.160 0.001 0.000 0.000 0.000 0.000 0.000 0.000 0.000 0.000 0.000 0.000 0.000 0.000 0.000 0.000 0.000
0.000 1.096 34.665 68.522 97.791 100.817 100.483 108.608 109.034 104.120 113.996 113.041 100.022 104.717 91.738 81.229 71.541 51.677 44.905 36.474 22.055 1.225 0.000 0.000 0.000 0.000 0.000 0.000 0.000 0.000 0.000 0.000 0.000 0.000 0.000 0.000 0.000
0.000 0.247 22.954 56.438 81.352 91.995 96.634 100.254 94.239 94.268 115.216 117.968 88.596 100.590 83.064 91.130 58.697 45.718 34.627 34.174 22.090 6.203 0.000 0.000 0.000 0.000 0.000 0.000 0.000 0.000 0.000 0.000 0.000 0.000 0.000 0.000 0.000
0.000 0.034 12.454 42.928 63.071 88.251 99.538 91.498 89.327 96.879 105.004 108.465 94.369 108.286 93.165 76.129 48.778 38.612 36.970 36.572 24.857 9.208 0.000 0.000 0.000 0.000 0.000 0.000 0.000 0.000 0.000 0.000 0.000 0.000 0.000 0.000 0.000
0.000 0.007 6.422 35.224 58.564 76.604 86.705 94.839 94.361 107.695 115.208 96.012 108.770 91.628 77.567 67.631 50.446 43.449 44.221 37.719 26.797 12.308 0.015 0.000 0.000 0.000 0.000 0.000 0.000 0.000 0.000 0.000 0.000 0.000 0.000 0.000 0.000
0.000 0.000 2.351 25.141 56.560 76.726 96.940 81.334 91.623 111.849 106.489 108.863 106.673 90.545 69.713 61.158 53.074 49.749 46.993 36.138 28.299 13.830 1.429 0.000 0.000 0.000 0.000 0.000 0.000 0.000 0.000 0.000 0.000 0.000 0.000 0.000 0.000
0.000 0.000 0.386 15.635 38.083 65.216 81.351 95.963 92.207 84.313 94.721 94.199 88.882 76.243 55.315 58.991 51.416 50.479 38.705 39.043 29.008 14.046 4.191 0.002 0.000 0.000 0.000 0.000 0.000 0.000 0.000 0.000 0.000 0.000 0.000 0.000 0.000
0.000 0.000 0.024 7.190 23.607 51.859 78.518 74.024 78.914 78.242 81.936 81.082 75.350 64.157 56.137 61.721 58.575 50.941 44.827 35.171 25.393 14.641 6.028 0.572 0.000 0.000 0.000 0.000 0.000 0.000 0.000 0.000 0.000 0.000 0.000 0.000 0.000
0.000 0.000 0.001 2.613 18.404 38.297 56.493 70.356 73.949 51.150 70.458 62.657 64.403 55.745 65.136 69.027 59.700 49.863 43.325 33.081 26.300 16.222 6.635 2.503 0.046 0.000 0.000 0.000 0.000 0.000 0.000 0.000 0.000 0.000 0.000 0.000 0.000
0.000 0.000 0.000 0.401 10.663 24.254 50.978 58.181 58.503 58.543 58.633 57.963 59.315 62.929 66.896 63.731 45.783 63.671 44.193 32.082 25.280 16.021 6.709 4.131 1.411 0.001 0.000 0.000 0.000 0.000 0.000 0.000 0.000 0.000 0.000 0.000 0.000
0.000 0.000 0.000 0.019 3.182 14.387 30.839 44.388 43.910 40.628 47.152 58.364 62.070 67.742 58.741 51.411 50.620 55.686 32.315 28.835 24.184 16.271 8.311 5.937 3.254 0.372 0.000 0.000 0.000 0.000 0.000 0.000 0.000 0.000 0.000 0.000 0.000
0.000 0.000 0.000 0.000 0.283 7.229 18.405 36.762 44.803 44.945 56.437 61.212 58.757 59.260 50.212 47.908 48.670 43.174 30.298 23.888 24.961 16.387 9.900 6.643 4.561 2.344 0.073 0.000 0.000 0.000 0.000 0.000 0.000 0.000 0.000 0.000 0.000
0.000 0.000 0.000 0.000 0.001 0.939 8.089 20.012 28.031 45.864 50.287 53.606 59.220 49.303 41.457 37.533 42.700 39.663 30.681 26.710 22.498 17.290 10.254 6.794 5.241 3.305 1.409 0.000 0.000 0.000 0.000 0.000 0.000 0.000 0.000 0.000 0.000
0.000 0.000 0.000 0.000 0.000 0.075 5.451 15.851 27.707 33.974 40.266 45.963 43.792 43.280 38.028 41.539 45.169 47.074 37.955 26.629 21.268 15.250 10.407 6.832 5.379 4.068 2.687 0.118 0.000 0.000 0.000 0.000 0.000 0.000 0.000 0.000 0.000
0.000 0.000 0.000 0.000 0.000 0.003 2.327 12.117 24.285 32.674 32.723 38.084 43.637 40.564 44.143 41.447 46.740 43.291 30.374 22.688 18.298 14.675 11.775 7.161 5.564 4.285 2.438 0.908 0.003 0.000 0.000 0.000 0.000 0.000 0.000 0.000 0.000
0.000 0.000 0.000 0.000 0.000 0.000 0.037 3.691 10.465 16.411 25.666 30.794 36.728 37.518 36.207 38.133 45.375 33.253 24.370 19.990 16.498 13.364 11.269 7.494 5.094 3.487 2.131 1.800 0.156 0.000 0.000 0.000 0.000 0.000 0.000 0.000 0.000
0.000 0.000 0.000 0.000 0.000 0.000 0.000 0.182 7.207 14.407 22.294 27.914 32.056 31.523 31.253 31.984 30.191 23.321 18.345 16.862 12.386 11.617 11.110 8.265 4.837 2.727 1.781 1.689 0.754 0.000 0.000 0.000 0.000 0.000 0.000 0.000 0.000
0.000 0.000 0.000 0.000 0.000 0.000 0.000 0.018 2.728 10.563 16.744 25.209 27.320 25.588 27.453 28.828 29.821 20.758 17.160 12.324 12.991 12.613 11.932 8.444 4.524 1.999 0.562 0.975 0.407 0.035 0.000 0.000 0.000 0.000 0.000 0.000 0.000
0.000 0.000 0.000 0.000 0.000 0.000 0.000 0.000 0.670 6.122 12.559 19.454 21.879 21.275 22.825 24.094 23.446 16.835 12.828 12.122 14.632 13.182 12.442 9.576 5.309 1.324 0.652 0.435 0.714 0.357 0.000 0.000 0.000 0.000 0.000 0.000 0.000
0.000 0.000 0.000 0.000 0.000 0.000 0.000 0.000 0.000 1.557 5.930 8.765 12.126 17.655 21.449 22.122 14.677 13.198 12.009 13.436 14.494 13.134 13.179 10.578 5.947 2.342 0.865 0.424 1.344 0.717 0.011 0.000 0.000 0.000 0.000 0.000 0.000
0.000 0.000 0.000 0.000 0.000 0.000 0.000 0.000 0.000 0.087 2.362 5.391 9.779 18.890 23.267 18.901 15.542 13.083 13.362 13.568 12.893 14.465 13.700 10.963 7.213 4.005 1.026 0.723 1.545 1.165 0.153 0.000 0.000 0.000 0.000 0.000 0.000
0.000 0.000 0.000 0.000 0.000 0.000 0.000 0.000 0.000 0.000 0.643 3.516 6.411 10.377 14.272 15.016 13.521 13.207 14.183 13.755 15.401 15.020 14.773 12.195 9.234 5.210 1.126 0.974 1.895 1.654 0.705 0.009 0.000 0.000 0.000 0.000 0.000
0.000 0.000 0.000 0.000 0.000 0.000 0.000 0.000 0.000 0.000 0.006 1.300 3.781 7.032 9.540 13.625 15.110 13.025 14.355 12.768 15.957 14.900 15.059 12.346 10.129 5.815 2.419 1.966 2.386 1.750 1.425 0.172 0.000 0.000 0.000 0.000 0.000
0.000 0.000 0.000 0.000 0.000 0.000 0.000 0.000 0.000 0.000 0.000 0.525 3.359 4.321 4.266 10.668 11.654 12.777 10.622 14.889 15.352 14.532 14.740 12.844 11.595 7.408 4.266 2.835 2.356 1.758 1.629 0.749 0.016 0.000 0.000 0.000 0.000
0.000 0.000 0.000 0.000 0.000 0.000 0.000 0.000 0.000 0.000 0.000 0.021 0.819 2.601 3.261 5.303 11.116 12.893 12.269 13.186 13.450 13.242 14.309 13.888 11.868 8.378 5.763 4.077 3.089 2.417 1.640 1.403 0.456 0.025 0.000 0.000 0.000
0.000 0.000 0.000 0.000 0.000 0.000 0.000 0.000 0.000 0.000 0.000 0.000 0.020 1.243 2.740 3.562 8.204 10.507 11.147 11.341 11.157 12.456 14.629 13.018 10.545 8.852 7.529 5.754 4.246 2.907 1.841 1.924 1.537 0.512 0.011 0.000 0.000
0.000 0.000 0.000 0.000 0.000 0.000 0.000 0.000 0.000 0.000 0.000 0.000 0.000 0.120 2.031 2.666 4.306 8.983 9.562 8.225 9.266 12.561 12.840 11.733 10.104 9.640 8.800 7.495 5.175 2.771 2.099 2.261 2.064 1.366 0.253 0.001 0.000
0.000 0.000 0.000 0.000 0.000 0.000 0.000 0.000 0.000 0.000 0.000 0.000 0.000 0.000 0.839 2.693 2.782 3.156 7.323 7.196 8.097 10.939 11.405 12.010 9.556 10.095 9.412 9.159 5.480 2.184 1.965 1.894 2.384 2.096 0.844 0.099 0.000
0.000 0.000 0.000 0.000 0.000 0.000 0.000 0.000 0.000 0.000 0.000 0.000 0.000 0.000 0.080 1.708 2.102 1.410 4.602 7.153 8.797 11.520 9.621 9.824 10.491 10.852 9.765 8.997 5.659 3.697 2.201 2.031 2.870 2.342 1.533 0.576 0.026
0.000 0.000 0.000 0.000 0.000 0.000 0.000 0.000 0.000 0.000 0.000 0.000 0.000 0.000 0.000 0.246 1.538 1.249 3.355 6.111 8.377 9.567 10.551 11.245 10.821 11.881 9.869 10.244 8.462 5.463 2.940 2.378 2.450 2.035 2.085 1.233 0.268
0.000 0.000 0.000 0.000 0.000 0.000 0.000 0.000 0.000 0.000 0.000 0.000 0.000 0.000 0.000 0.002 0.839 0.994 1.505 6.152 9.072 9.894 10.756 10.939 11.519 10.490 10.294 10.765 10.035 7.078 3.132 1.854 1.514 2.332 2.404 1.682 0.734
0.000 0.000 0.000 0.000 0.000 0.000 0.000 0.000 0.000 0.000 0.000 0.000 0.000 0.000 0.000 0.000 0.488 1.009 1.043 4.814 8.873 10.704 9.839 10.802 9.644 10.313 10.892 12.014 9.829 7.017 3.443 1.463 1.647 2.339 2.259 1.716 1.175
0.000 0.000 0.000 0.000 0.000 0.000 0.000 0.000 0.000 0.000 0.000 0.000 0.000 0.000 0.000 0.000 0.056 0.977 1.083 3.405 6.604 9.737 9.161 9.071 10.210 11.429 11.748 11.558 9.246 6.968 2.990 1.121 1.428 1.754 1.887 1.502 1.430
0.000 0.000 0.000 0.000 0.000 0.000 0.000 0.000 0.000 0.000 0.000 0.000 0.000 0.000 0.000 0.000 0.002 0.766 1.741 2.458 4.651 8.213 7.916 8.469 9.064 11.357 11.601 10.656 9.463 5.703 2.582 1.547 1.208 1.188 1.542 1.141 1.457
0.000 0.000 0.000 0.000 0.000 0.000 0.000 0.000 0.000 0.000 0.000 0.000 0.000 0.000 0.000 0.000 0.002 0.193 1.249 1.106 2.902 3.273 5.922 5.543 8.663 10.707 12.219 11.500 9.439 6.118 3.307 2.033 1.103 0.768 0.959 1.345 1.829
0.000 0.000 0.000 0.000 0.000 0.000 0.000 0.000 0.000 0.000 0.000 0.000 0.000 0.000 0.000 0.000 0.000 0.033 0.001 1.424 1.173 0.476 3.212 5.610 9.017 12.003 12.594 12.257 9.676 7.334 3.717 2.161 1.197 0.870 0.459 1.150 1.924
0.000 0.000 0.000 0.000 0.000 0.000 0.000 0.000 0.000 0.000 0.000 0.000 0.000 0.000 0.000 0.000 0.000 0.000 0.309 1.385 0.881 0.000 2.047 5.477 9.526 11.928 12.483 12.157 10.381 8.467 3.691 2.641 1.670 0.648 0.375 1.534 2.070
0.000 0.000 0.000 0.000 0.000 0.000 0.000 0.000 0.000 0.000 0.000 0.000 0.000 0.000 0.000 0.000 0.000 0.000 0.156 0.834 0.808 0.002 0.003 6.278 9.976 11.632 11.837 12.923 11.255 7.681 4.198 3.432 1.921 1.053 1.079 1.560 2.110
0.000 0.000 0.000 0.000 0.000 0.000 0.000 0.000 0.000 0.000 0.000 0.000 0.000 0.000 0.000 0.000 0.000 0.000 0.028 0.195 0.652 0.345 0.213 8.023 9.992 12.593 13.523 13.439 10.989 7.016 6.531 3.907 2.390 1.680 1.002 0.898 1.491
0.000 0.000 0.000 0.000 0.000 0.000 0.000 0.000 0.000 0.000 0.000 0.000 0.000 0.000 0.000 0.000 0.000 0.000 0.000 0.111 0.187 0.255 2.088 6.442 10.868 12.385 15.000 12.925 11.730 9.928 7.597 4.951 3.466 2.241 1.235 1.194 1.208
0.000 0.000 0.000 0.000 0.000 0.000 0.000 0.000 0.000 0.000 0.000 0.000 0.000 0.000 0.000 0.000 0.000 0.000 0.000 0.016 0.129 0.434 2.461 4.245 7.716 10.443 11.653 12.400 11.368 9.982 8.763 6.525 4.619 3.344 1.845 1.434 1.244
0.000 0.000 0.000 0.000 0.000 0.000 0.000 0.000 0.000 0.000 0.000 0.000 0.000 0.000 0.000 0.000 0.000 0.000 0.000 0.000 0.003 1.495 2.456 2.706 5.225 6.944 10.106 12.173 12.314 11.639 9.523 8.080 6.597 4.729 3.458 2.009 0.987
0.000 0.000 0.000 0.000 0.000 0.000 0.000 0.000 0.000 0.000 0.000 0.000 0.000 0.000 0.000 0.000 0.000 0.000 0.000 0.000 0.462 1.646 1.885 1.753 3.264 5.180 8.164 12.522 13.163 12.968 10.705 8.334 8.279 7.034 5.271 2.470 0.789
0.000 0.000 0.000 0.000 0.000 0.000 0.000 0.000 0.000 0.000 0.000 0.000 0.000 0.000 0.000 0.000 0.000 0.000 0.000 0.000 0.230 0.834 1.142 1.178 1.999 3.253 6.112 10.119 11.745 12.392 11.516 9.643 9.134 7.990 6.205 3.528 0.980
0.000 0.000 0.000 0.000 0.000 0.000 0.000 0.000 0.000 0.000 0.000 0.000 0.000 0.000 0.000 0.000 0.000 0.000 0.000 0.000 0.000 0.072 0.700 1.052 1.226 2.553 4.507 8.569 10.141 11.310 11.354 10.441 9.694 8.796 6.960 5.053 1.898
0.000 0.000 0.000 0.000 0.000 0.000 0.000 0.000 0.000 0.000 0.000 0.000 0.000 0.000 0.000 0.000 0.000 0.000 0.000 0.000 0.000 0.000 0.328 0.739 0.624 1.479 5.063 7.650 9.888 10.563 10.636 10.878 10.285 9.470 8.028 5.993 3.031
0.000 0.000 0.000 0.000 0.000 0.000 0.000 0.000 0.000 0.000 0.000 0.000 0.000 0.000 0.000 0.000 0.000 0.000 0.000 0.000 0.000 0.000 0.007 0.302 0.170 1.392 4.766 7.315 8.889 9.966 10.247 11.025 9.962 9.500 8.622 7.120 2.915
0.000 0.000 0.000 0.000 0.000 0.000 0.000 0.000 0.000 0.000 0.000 0.000 0.000 0.000 0.000 0.000 0.000 0.000 0.000 0.000 0.000 0.000 0.000 0.319 0.784 1.574 3.332 5.714 7.937 9.738 10.032 10.313 9.942 9.399 8.549 6.220 2.567
0.000 0.000 0.000 0.000 0.000 0.000 0.000 0.000 0.000 0.000 0.000 0.000 0.000 0.000 0.000 0.000 0.000 0.000 0.000 0.000 0.000 0.000 0.000 0.161 0.915 1.636 2.047 3.918 7.081 9.401 10.508 9.976 9.862 9.195 8.126 4.239 2.897
0.000 0.000 0.000 0.000 0.000 0.000 0.000 0.000 0.000 0.000 0.000 0.000 0.000 0.000 0.000 0.000 0.000 0.000 0.000 0.000 0.000 0.000 0.000 0.016 1.005 1.552 1.661 2.736 5.907 9.694 11.513 10.759 9.940 9.492 7.229 3.375 3.431
0.000 0.000 0.000 0.000 0.000 0.000 0.000 0.000 0.000 0.000 0.000 0.000 0.000 0.000 0.000 0.000 0.000 0.000 0.000 0.000 0.000 0.000 0.000 0.000 0.439 1.255 1.458 2.376 3.050 7.939 11.521 11.214 10.872 10.063 7.523 3.951 4.255
0.000 0.000 0.000 0.000 0.000 0.000 0.000 0.000 0.000 0.000 0.000 0.000 0.000 0.000 0.000 0.000 0.000 0.000 0.000 0.000 0.000 0.000 0.000 0.000 0.106 0.786 1.328 2.300 1.944 6.426 11.711 12.088 11.347 9.889 7.387 4.355 4.369
0.000 0.000 0.000 0.000 0.000 0.000 0.000 0.000 0.000 0.000 0.000 0.000 0.000 0.000 0.000 0.000 0.000 0.000 0.000 0.000 0.000 0.000 0.000 0.000 0.004 0.418 1.020 2.109 1.842 4.345 10.008 11.276 10.324 7.994 6.002 4.340 4.321
0.000 0.000 0.000 0.000 0.000 0.000 0.000 0.000 0.000 0.000 0.000 0.000 0.000 0.000 0.000 0.000 0.000 0.000 0.000 0.000 0.000 0.000 0.000 0.000 0.000 0.096 0.711 1.399 1.871 2.845 8.375 10.606 9.649 6.925 4.895 4.072 3.898
0.000 0.000 0.000 0.000 0.000 0.000 0.000 0.000 0.000 0.000 0.000 0.000 0.000 0.000 0.000 0.000 0.000 0.000 0.000 0.000 0.000 0.000 0.000 0.000 0.000 0.000 0.363 1.275 1.821 2.151 6.066 10.279 8.892 6.811 5.157 3.745 3.358
0.000 0.000 0.000 0.000 0.000 0.000 0.000 0.000 0.000 0.000 0.000 0.000 0.000 0.000 0.000 0.000 0.000 0.000 0.000 0.000 0.000 0.000 0.000 0.000 0.000 0.000 0.046 1.640 1.827 1.922 4.662 8.744 8.416 7.296 5.076 3.684 4.261
0.000 0.000 0.000 0.000 0.000 0.000 0.000 0.000 0.000 0.000 0.000 0.000 0.000 0.000 0.000 0.000 0.000 0.000 0.000 0.000 0.000 0.000 0.000 0.000 0.000 0.000 0.008 1.478 1.974 2.239 3.850 7.330 8.305 6.763 4.149 4.100 4.035
0.000 0.000 0.000 0.000 0.000 0.000 0.000 0.000 0.000 0.000 0.000 0.000 0.000 0.000 0.000 0.000 0.000 0.000 0.000 0.000 0.000 0.000 0.000 0.000 0.000 0.000 0.003 1.350 1.743 2.109 3.646 6.102 7.451 5.968 3.371 2.857 1.563
0.000 0.000 0.000 0.000 0.000 0.000 0.000 0.000 0.000 0.000 0.000 0.000 0.000 0.000 0.000 0.000 0.000 0.000 0.000 0.000 0.000 0.000 0.000 0.000 0.000 0.000 0.006 0.942 1.534 2.183 3.203 4.225 5.818 5.731 2.183 1.665 1.201
0.000 0.000 0.000 0.000 0.000 0.000 0.000 0.000 0.000 0.000 0.000 0.000 0.000 0.000 0.000 0.000 0.000 0.000 0.000 0.000 0.000 0.000 0.000 0.000 0.000 0.000 0.005 0.841 1.089 2.175 2.623 2.784 4.470 4.198 1.244 1.513 1.275
0.000 0.000 0.000 0.000 0.000 0.000 0.000 0.000 0.000 0.000 0.000 0.000 0.000 0.000 0.000 0.000 0.000 0.000 0.000 0.000 0.000 0.000 0.000 0.000 0.000 0.000 0.003 0.808 1.094 1.931 2.184 2.198 2.619 3.945 0.884 1.315 1.000
0.000 0.000 0.000 0.000 0.000 0.000 0.000 0.000 0.000 0.000 0.000 0.000 0.000 0.000 0.000 0.000 0.000 0.000 0.000 0.000 0.000 0.000 0.000 0.000 0.000 0.000 0.005 0.743 1.114 1.753 2.199 2.518 2.046 3.492 0.836 1.083 1.952
0.000 0.000 0.000 0.000 0.000 0.000 0.000 0.000 0.000 0.000 0.000 0.000 0.000 0.000 0.000 0.000 0.000 0.000 0.000 0.000 0.000 0.000 0.000 0.000 0.000 0.000 0.011 0.809 1.029 1.663 1.841 2.120 1.959 1.896 1.400 2.213 3.659
0.000 0.000 0.000 0.000 0.000 0.000 0.000 0.000 0.000 0.000 0.000 0.000 0.000 0.000 0.000 0.000 0.000 0.000 0.000 0.000 0.000 0.000 0.000 0.000 0.000 0.000 0.006 0.822 1.061 1.587 1.804 1.451 1.315 1.057 1.723 2.323 3.286
0.000 0.000 0.000 0.000 0.000 0.000 0.000 0.000 0.000 0.000 0.000 0.000 0.000 0.000 0.000 0.000 0.000 0.000 0.000 0.000 0.000 0.000 0.000 0.000 0.000 0.000 0.005 0.832 1.076 1.199 1.478 0.895 0.887 0.698 0.892 2.425 2.369
