ncols        36
nrows        59
xllcorner    409707.8
yllcorner    6870754.1
cellsize     5.00
NODATA_value -9999
0.000 0.000 0.000 0.000 0.341 9.236 28.876 43.550 33.497 12.352 1.485 0.006 0.000 0.000 0.000 0.000 0.000 0.000 0.000 0.000 0.000 0.000 0.000 0.000 0.000 0.000 0.000 0.000 0.000 0.000 0.000 0.000 0.000 0.000 0.000 0.000
0.000 0.000 0.005 2.653 52.025 54.199 51.536 47.801 46.023 41.701 48.523 14.543 0.244 0.000 0.000 0.000 0.000 0.000 0.000 0.000 0.000 0.000 0.000 0.000 0.000 0.000 0.000 0.000 0.000 0.000 0.000 0.000 0.000 0.000 0.000 0.000
0.000 0.001 3.101 50.501 57.710 57.738 55.582 53.703 53.181 48.704 48.024 44.014 27.358 1.056 0.000 0.000 0.000 0.000 0.000 0.000 0.000 0.000 0.000 0.000 0.000 0.000 0.000 0.000 0.000 0.000 0.000 0.000 0.000 0.000 0.000 0.000
0.000 0.736 45.478 49.313 56.254 57.862 56.653 59.732 52.482 52.199 53.702 52.585 45.507 26.419 1.351 0.000 0.000 0.000 0.000 0.000 0.000 0.000 0.000 0.000 0.000 0.000 0.000 0.000 0.000 0.000 0.000 0.000 0.000 0.000 0.000 0.000
0.000 12.501 46.091 53.780 62.927 60.671 62.522 56.649 56.258 58.181 60.499 57.036 48.617 38.930 18.551 0.757 0.000 0.000 0.000 0.000 0.000 0.000 0.000 0.000 0.000 0.000 0.000 0.000 0.000 0.000 0.000 0.000 0.000 0.000 0.000 0.000
0.000 40.644 47.044 55.083 62.969 60.724 58.593 57.331 63.763 62.859 64.763 62.279 59.899 42.289 28.400 12.673 0.231 0.000 0.000 0.000 0.000 0.000 0.000 0.000 0.000 0.000 0.000 0.000 0.000 0.000 0.000 0.000 0.000 0.000 0.000 0.000
0.000 42.867 49.399 59.473 55.955 58.028 57.264 61.709 69.378 64.303 68.936 68.123 62.316 50.426 38.616 23.250 7.602 0.017 0.000 0.000 0.000 0.000 0.000 0.000 0.000 0.000 0.000 0.000 0.000 0.000 0.000 0.000 0.000 0.000 0.000 0.000
0.000 45.322 55.939 58.121 60.142 58.884 60.810 65.154 63.319 70.060 71.628 69.506 62.857 61.110 45.895 31.111 18.947 2.652 0.000 0.000 0.000 0.000 0.000 0.000 0.000 0.000 0.000 0.000 0.000 0.000 0.000 0.000 0.000 0.000 0.000 0.000
0.000 44.208 49.047 55.269 55.645 60.735 62.316 67.934 70.988 73.944 76.355 74.845 70.126 69.858 51.150 38.477 25.765 11.866 0.332 0.000 0.000 0.000 0.000 0.000 0.000 0.000 0.000 0.000 0.000 0.000 0.000 0.000 0.000 0.000 0.000 0.000
0.000 35.641 50.772 53.095 62.230 60.140 69.042 62.514 75.574 75.160 79.276 75.976 72.314 68.213 56.131 47.735 39.831 17.655 5.218 0.003 0.000 0.000 0.000 0.000 0.000 0.000 0.000 0.000 0.000 0.000 0.000 0.000 0.000 0.000 0.000 0.000
0.000 14.162 41.410 53.859 55.738 61.289 60.648 72.861 78.456 76.704 80.468 76.341 78.526 70.523 64.468 56.035 48.574 23.292 12.028 1.037 0.000 0.000 0.000 0.000 0.000 0.000 0.000 0.000 0.000 0.000 0.000 0.000 0.000 0.000 0.000 0.000
0.000 3.296 34.891 46.982 55.276 63.448 66.070 72.801 77.161 74.676 78.689 82.506 83.911 73.353 66.968 63.185 55.319 36.348 15.226 6.271 0.106 0.000 0.000 0.000 0.000 0.000 0.000 0.000 0.000 0.000 0.000 0.000 0.000 0.000 0.000 0.000
0.000 0.283 25.142 43.445 52.408 57.665 64.462 74.175 74.463 71.579 82.831 83.136 80.683 72.796 71.070 70.386 63.501 46.671 21.197 10.539 3.186 0.011 0.000 0.000 0.000 0.000 0.000 0.000 0.000 0.000 0.000 0.000 0.000 0.000 0.000 0.000
0.000 0.004 7.169 34.967 49.186 56.719 62.014 64.627 69.278 78.146 82.951 75.294 78.523 75.980 73.520 76.910 70.360 53.458 31.291 14.234 8.388 1.439 0.001 0.000 0.000 0.000 0.000 0.000 0.000 0.000 0.000 0.000 0.000 0.000 0.000 0.000
0.000 0.000 0.626 21.504 41.362 52.825 58.348 57.871 63.292 70.021 78.511 83.622 73.726 77.335 76.158 76.799 76.512 54.830 38.896 18.175 10.672 6.612 0.472 0.000 0.000 0.000 0.000 0.000 0.000 0.000 0.000 0.000 0.000 0.000 0.000 0.000
0.000 0.000 0.006 6.313 30.534 41.753 48.964 57.771 64.022 79.275 71.603 72.179 77.576 77.463 78.275 78.317 64.916 63.667 46.206 27.347 14.172 9.551 4.039 0.173 0.000 0.000 0.000 0.000 0.000 0.000 0.000 0.000 0.000 0.000 0.000 0.000
0.000 0.000 0.000 0.406 17.301 34.511 43.704 51.825 58.877 69.005 71.262 78.907 74.321 85.661 74.581 79.532 75.418 71.155 55.572 35.424 18.736 9.211 7.915 2.675 0.053 0.000 0.000 0.000 0.000 0.000 0.000 0.000 0.000 0.000 0.000 0.000
0.000 0.000 0.000 0.008 6.559 25.878 42.278 49.421 57.653 63.117 73.245 73.343 80.890 78.886 75.551 76.483 80.287 77.016 60.437 43.168 24.979 11.752 9.531 6.042 1.496 0.005 0.000 0.000 0.000 0.000 0.000 0.000 0.000 0.000 0.000 0.000
0.000 0.000 0.000 0.000 1.628 14.091 31.118 45.575 56.860 64.532 66.118 77.016 69.785 71.443 73.586 81.448 79.844 75.462 61.675 46.413 31.311 16.495 9.929 6.829 4.273 1.319 0.032 0.000 0.000 0.000 0.000 0.000 0.000 0.000 0.000 0.000
0.000 0.000 0.000 0.000 0.116 7.649 23.121 35.510 48.790 58.095 62.884 64.164 70.554 72.982 74.451 81.589 73.904 76.420 65.229 46.474 38.019 23.831 11.374 6.757 5.505 4.408 1.317 0.004 0.000 0.000 0.000 0.000 0.000 0.000 0.000 0.000
0.000 0.000 0.000 0.000 0.002 3.331 12.970 34.265 40.895 55.579 54.834 66.034 62.836 72.105 71.679 72.051 75.306 68.485 57.851 48.741 42.853 27.803 15.025 7.367 5.992 5.839 4.158 0.741 0.001 0.000 0.000 0.000 0.000 0.000 0.000 0.000
0.000 0.000 0.000 0.000 0.000 0.472 8.454 16.349 34.501 42.433 50.749 49.830 57.370 62.027 69.538 70.413 71.753 65.300 59.781 51.951 46.046 32.889 22.102 9.702 7.876 6.479 5.726 3.246 0.464 0.000 0.000 0.000 0.000 0.000 0.000 0.000
0.000 0.000 0.000 0.000 0.000 0.022 1.850 8.745 20.319 28.991 38.753 45.214 52.925 62.686 66.609 69.793 67.389 65.332 61.517 53.432 45.806 37.739 26.926 13.662 9.400 7.553 6.305 4.808 2.286 0.026 0.000 0.000 0.000 0.000 0.000 0.000
0.000 0.000 0.000 0.000 0.000 0.000 0.989 5.638 9.527 20.208 33.264 40.700 50.040 58.284 63.846 64.952 64.183 67.929 58.884 53.388 48.585 40.501 28.616 21.145 12.144 8.799 6.860 5.099 4.212 1.643 0.014 0.000 0.000 0.000 0.000 0.000
0.000 0.000 0.000 0.000 0.000 0.000 0.134 2.826 4.767 13.606 27.031 35.554 48.804 53.490 55.335 62.796 63.839 64.317 53.775 55.671 50.101 41.593 35.562 26.955 16.602 10.639 7.862 5.317 5.245 3.561 0.913 0.000 0.000 0.000 0.000 0.000
0.000 0.000 0.000 0.000 0.000 0.000 0.005 0.783 3.169 8.894 17.904 39.486 42.826 52.882 54.697 60.737 60.572 52.393 58.329 56.078 48.739 43.625 38.451 30.142 21.728 13.231 8.954 6.724 5.838 4.789 2.817 0.242 0.000 0.000 0.000 0.000
0.000 0.000 0.000 0.000 0.000 0.000 0.000 0.196 2.071 5.971 15.839 35.314 45.826 50.500 60.467 56.677 57.679 59.269 57.670 53.772 52.434 45.764 38.282 33.777 27.555 18.897 12.720 8.087 6.758 5.278 4.072 1.905 0.007 0.000 0.000 0.000
0.000 0.000 0.000 0.000 0.000 0.000 0.000 0.005 1.010 4.004 10.298 24.434 38.481 49.511 51.282 53.409 52.906 52.229 57.239 53.891 49.688 48.658 40.845 34.470 32.560 23.557 15.688 10.349 7.431 5.764 4.923 3.462 0.597 0.000 0.000 0.000
0.000 0.000 0.000 0.000 0.000 0.000 0.000 0.000 0.421 5.129 8.975 13.068 30.252 38.287 48.041 49.860 51.001 51.519 52.253 57.044 52.007 47.207 42.923 38.934 34.196 28.827 22.551 13.405 7.771 7.614 5.393 3.913 2.251 0.005 0.000 0.000
0.000 0.000 0.000 0.000 0.000 0.000 0.000 0.000 0.341 4.199 6.404 7.576 20.920 34.085 43.123 52.292 52.631 52.471 50.129 51.068 53.467 51.267 47.299 39.703 37.488 31.963 25.997 17.502 10.452 9.017 5.426 4.409 3.343 0.964 0.006 0.000
0.000 0.000 0.000 0.000 0.000 0.000 0.000 0.000 0.018 1.174 3.239 3.610 9.150 22.538 37.912 46.461 49.951 50.198 48.211 49.407 52.972 50.975 48.511 39.935 36.330 40.700 34.847 22.902 14.370 9.455 6.153 4.831 4.058 3.274 0.248 0.000
0.000 0.000 0.000 0.000 0.000 0.000 0.000 0.000 0.000 0.033 1.603 3.103 4.720 16.726 26.898 41.095 44.733 46.987 45.614 46.952 50.494 50.027 47.051 43.815 40.873 46.572 43.271 31.581 18.185 10.569 7.206 4.857 4.629 3.902 1.520 0.054
0.000 0.000 0.000 0.000 0.000 0.000 0.000 0.000 0.000 0.000 0.475 2.176 2.415 7.241 21.878 34.345 43.517 45.022 42.537 43.708 49.256 49.776 47.598 43.841 48.723 55.114 47.728 39.979 22.795 10.329 7.072 5.306 5.639 4.317 3.037 0.869
0.000 0.000 0.000 0.000 0.000 0.000 0.000 0.000 0.000 0.000 0.005 0.827 1.381 4.724 11.927 28.806 39.933 42.715 40.743 41.663 44.589 47.192 48.150 47.964 49.707 57.850 52.631 44.450 22.474 11.261 8.729 7.203 5.369 4.349 3.634 2.293
0.000 0.000 0.000 0.000 0.000 0.000 0.000 0.000 0.000 0.000 0.000 0.536 2.443 4.305 7.397 15.544 33.817 41.904 39.357 38.009 41.303 44.593 46.857 48.193 45.802 56.109 53.175 40.513 22.808 17.327 12.846 7.360 4.181 5.212 4.031 3.040
0.000 0.000 0.000 0.000 0.000 0.000 0.000 0.000 0.000 0.000 0.000 0.125 2.223 4.343 4.807 8.667 25.097 38.660 38.828 33.784 38.150 40.881 45.478 45.259 46.963 58.882 58.265 41.118 25.648 22.638 14.479 5.739 4.593 5.082 4.091 3.995
0.000 0.000 0.000 0.000 0.000 0.000 0.000 0.000 0.000 0.000 0.000 0.005 1.732 3.984 4.536 5.469 11.595 39.669 40.539 33.238 34.463 38.448 40.729 41.198 48.593 57.970 52.135 39.720 29.816 26.229 16.564 6.005 6.520 5.584 5.388 4.291
0.000 0.000 0.000 0.000 0.000 0.000 0.000 0.000 0.000 0.000 0.000 0.000 0.365 2.829 3.882 4.983 6.462 33.336 39.587 32.033 32.837 36.832 38.594 41.984 51.986 57.514 49.608 41.761 33.323 28.002 15.646 9.777 8.270 7.152 5.009 2.465
0.000 0.000 0.000 0.000 0.000 0.000 0.000 0.000 0.000 0.000 0.000 0.000 0.029 1.347 3.459 4.723 5.154 26.515 40.828 33.524 31.821 36.163 36.657 40.635 51.655 51.451 51.321 44.585 33.480 27.414 20.605 13.430 10.502 7.827 3.921 3.057
0.000 0.000 0.000 0.000 0.000 0.000 0.000 0.000 0.000 0.000 0.000 0.000 0.000 0.428 2.420 4.603 4.827 14.483 37.729 32.599 28.011 30.224 32.732 37.852 49.205 53.987 51.319 40.141 32.485 29.117 23.632 17.552 13.343 8.696 6.479 5.869
0.000 0.000 0.000 0.000 0.000 0.000 0.000 0.000 0.000 0.000 0.000 0.000 0.000 0.036 1.342 3.572 4.565 10.850 36.373 31.617 25.475 25.163 27.220 33.904 43.422 47.421 40.863 32.508 34.630 26.501 23.995 22.066 15.997 10.338 7.964 6.103
0.000 0.000 0.000 0.000 0.000 0.000 0.000 0.000 0.000 0.000 0.000 0.000 0.000 0.000 0.459 3.098 4.432 8.462 31.016 32.031 23.266 21.684 24.749 29.869 35.841 39.192 35.035 32.476 29.665 28.406 27.904 26.549 18.955 11.492 8.740 5.971
0.000 0.000 0.000 0.000 0.000 0.000 0.000 0.000 0.000 0.000 0.000 0.000 0.000 0.000 0.022 3.578 4.071 6.841 28.694 30.415 21.835 20.433 22.668 26.123 34.693 38.183 33.556 30.294 29.426 32.331 32.511 29.025 19.652 14.053 9.185 5.465
0.000 0.000 0.000 0.000 0.000 0.000 0.000 0.000 0.000 0.000 0.000 0.000 0.000 0.000 0.003 3.108 4.264 6.590 24.096 28.370 21.687 18.260 18.876 24.291 34.565 31.343 27.665 29.793 33.885 36.866 36.600 28.481 21.407 16.743 9.825 6.333
0.000 0.000 0.000 0.000 0.000 0.000 0.000 0.000 0.000 0.000 0.000 0.000 0.000 0.000 0.001 2.800 3.709 5.911 22.107 27.802 21.606 15.242 15.649 19.714 22.198 23.494 27.107 30.856 33.856 38.368 33.032 27.420 24.670 18.730 13.246 8.596
0.000 0.000 0.000 0.000 0.000 0.000 0.000 0.000 0.000 0.000 0.000 0.000 0.000 0.000 0.002 2.096 3.311 5.451 18.869 24.983 20.150 14.426 12.017 14.265 18.667 22.509 27.325 29.707 32.719 37.098 31.067 30.527 27.459 23.296 17.926 10.633
0.000 0.000 0.000 0.000 0.000 0.000 0.000 0.000 0.000 0.000 0.000 0.000 0.000 0.000 0.002 1.855 2.547 5.230 16.714 22.722 20.084 11.826 9.037 11.841 16.797 21.481 24.449 29.824 38.854 36.081 33.652 32.160 31.940 28.862 22.308 11.321
0.000 0.000 0.000 0.000 0.000 0.000 0.000 0.000 0.000 0.000 0.000 0.000 0.000 0.000 0.001 1.794 2.440 4.669 13.488 19.077 18.734 11.141 7.302 10.727 14.652 20.087 25.076 32.860 34.619 30.786 37.636 37.129 33.991 33.856 23.263 10.924
0.000 0.000 0.000 0.000 0.000 0.000 0.000 0.000 0.000 0.000 0.000 0.000 0.000 0.000 0.002 1.613 2.444 4.332 12.354 19.249 17.430 10.997 6.236 8.906 13.226 19.933 27.352 29.331 28.255 32.592 37.559 34.331 35.628 40.330 24.639 9.763
0.000 0.000 0.000 0.000 0.000 0.000 0.000 0.000 0.000 0.000 0.000 0.000 0.000 0.000 0.004 1.704 2.280 4.126 7.884 17.146 16.840 9.644 6.650 10.509 15.635 18.697 21.726 24.208 27.074 32.790 36.184 37.543 43.449 36.108 23.819 12.100
0.000 0.000 0.000 0.000 0.000 0.000 0.000 0.000 0.000 0.000 0.000 0.000 0.000 0.000 0.002 1.673 2.308 4.075 6.680 14.935 14.920 9.563 7.286 10.043 14.021 15.923 18.068 23.563 26.286 30.827 35.949 40.821 39.321 31.333 26.203 11.317
0.000 0.000 0.000 0.000 0.000 0.000 0.000 0.000 0.000 0.000 0.000 0.000 0.000 0.000 0.001 1.676 2.418 3.773 5.779 12.637 13.144 9.593 7.712 10.068 11.407 11.868 16.286 19.032 22.674 27.131 33.726 34.672 33.218 29.245 23.082 11.508
0.000 0.000 0.000 0.000 0.000 0.000 0.000 0.000 0.000 0.000 0.000 0.000 0.000 0.000 0.001 1.496 2.160 3.482 5.007 11.990 12.289 10.142 8.773 9.757 9.513 11.448 14.067 16.358 17.619 20.908 27.333 30.950 30.233 27.215 23.298 11.647
0.000 0.000 0.000 0.000 0.000 0.000 0.000 0.000 0.000 0.000 0.000 0.000 0.000 0.000 0.001 1.645 2.203 3.530 4.198 11.096 10.819 9.698 8.728 8.646 8.945 10.225 12.408 15.192 16.196 19.858 20.885 24.961 26.586 26.069 22.417 9.915
0.000 0.000 0.000 0.000 0.000 0.000 0.000 0.000 0.000 0.000 0.000 0.000 0.000 0.000 0.000 1.428 2.527 2.992 3.729 10.469 11.307 8.528 8.093 7.902 7.374 9.975 12.398 15.551 15.891 16.102 16.966 17.944 20.384 22.625 16.241 7.413
0.000 0.000 0.000 0.000 0.000 0.000 0.000 0.000 0.000 0.000 0.000 0.000 0.000 0.000 0.000 0.971 2.127 2.613 3.330 9.856 11.210 9.214 6.488 6.792 8.525 10.227 10.766 12.176 14.073 13.179 13.312 13.086 12.682 12.761 9.584 6.461
0.000 0.000 0.000 0.000 0.000 0.000 0.000 0.000 0.000 0.000 0.000 0.000 0.000 0.000 0.000 1.020 2.152 2.287 3.410 9.349 9.428 6.939 5.719 8.176 8.584 8.641 7.913 11.577 12.484 10.811 9.232 9.061 10.159 9.039 8.170 5.776
0.000 0.000 0.000 0.000 0.000 0.000 0.000 0.000 0.000 0.000 0.000 0.000 0.000 0.000 0.000 0.139 2.087 2.182 2.803 5.779 8.193 6.013 5.911 6.525 7.577 6.442 7.633 11.264 9.703 7.258 6.545 8.171 8.404 7.051 5.108 3.414
0.000 0.000 0.000 0.000 0.000 0.000 0.000 0.000 0.000 0.000 0.000 0.000 0.000 0.000 0.000 0.000 1.938 2.100 1.970 3.286 4.223 3.243 5.094 5.972 5.887 5.311 8.581 9.616 5.969 4.948 6.146 6.617 5.118 3.582 3.090 2.720
