ncols        33
nrows        38
xllcorner    409837.8
yllcorner    6870544.1
cellsize     5.00
NODATA_value -9999
0.000 0.000 0.000 0.000 0.000 0.000 0.000 0.000 0.000 0.000 0.000 0.000 0.000 0.000 0.000 0.000 0.000 0.000 0.000 0.000 0.000 0.000 0.000 0.000 0.000 0.000 0.000 0.000 0.000 0.000 0.000 0.000 0.000
0.000 0.000 0.000 0.000 0.000 0.000 0.000 0.000 0.000 0.000 0.000 0.030 4.409 41.809 67.559 69.082 44.595 13.373 1.433 0.017 0.000 0.000 0.000 0.000 0.000 0.000 0.000 0.000 0.000 0.000 0.000 0.000 0.000
0.000 0.000 0.000 0.000 0.000 0.000 0.000 0.000 0.000 0.000 0.165 22.498 70.100 72.242 75.473 75.915 74.816 67.459 70.654 24.085 1.718 0.004 0.000 0.000 0.000 0.000 0.000 0.000 0.000 0.000 0.000 0.000 0.000
0.000 0.000 0.000 0.000 0.000 0.000 0.000 0.000 0.000 0.000 9.051 69.846 77.276 81.691 83.395 92.687 90.115 77.152 75.024 60.873 54.970 10.230 0.119 0.000 0.000 0.000 0.000 0.000 0.000 0.000 0.000 0.000 0.000
0.000 0.000 0.000 0.000 0.000 0.000 0.000 0.000 0.000 0.478 75.182 81.982 83.330 89.870 97.235 104.972 99.559 85.223 85.104 75.785 67.110 57.111 15.957 0.487 0.000 0.000 0.000 0.000 0.000 0.000 0.000 0.000 0.000
0.000 0.000 0.000 0.000 0.000 0.000 0.000 0.000 0.000 5.962 76.227 84.705 90.519 99.465 108.426 113.120 100.330 90.470 98.548 87.406 75.981 64.847 38.122 17.533 1.210 0.001 0.000 0.000 0.000 0.000 0.000 0.000 0.000
0.000 0.000 0.000 0.000 0.000 0.000 0.000 0.000 0.000 18.730 80.338 89.568 100.345 104.872 115.360 110.372 102.471 106.849 103.223 96.698 88.458 73.271 45.828 38.956 17.639 1.694 0.005 0.000 0.000 0.000 0.000 0.000 0.000
0.000 0.000 0.000 0.000 0.000 0.000 0.000 0.000 0.002 26.393 87.769 96.717 103.185 119.972 118.551 112.469 114.360 106.015 104.151 106.576 101.503 86.354 63.205 54.880 30.419 14.834 2.704 0.018 0.000 0.000 0.000 0.000 0.000
0.000 0.000 0.000 0.000 0.000 0.000 0.000 0.000 0.002 23.943 81.222 92.626 103.639 117.665 113.754 116.541 113.813 113.841 116.955 114.739 110.532 97.537 82.191 66.299 39.485 26.866 14.043 2.590 0.037 0.000 0.000 0.000 0.000
0.000 0.000 0.000 0.000 0.000 0.000 0.000 0.000 0.001 18.899 76.756 89.175 103.144 111.775 119.637 122.009 120.797 123.439 121.009 115.626 120.396 101.303 86.386 69.869 53.776 31.510 17.840 10.868 3.168 0.068 0.000 0.000 0.000
0.000 0.000 0.000 0.000 0.000 0.000 0.000 0.000 0.000 11.432 72.822 90.879 103.084 113.936 120.583 125.648 124.279 124.726 127.027 119.016 121.572 117.774 100.577 90.019 60.746 39.017 21.361 15.519 9.979 3.202 0.152 0.000 0.000
0.000 0.000 0.000 0.000 0.000 0.000 0.000 0.000 0.000 4.232 69.090 96.691 109.314 115.430 113.448 127.365 136.757 128.372 119.142 126.542 134.935 113.517 105.742 88.131 72.538 50.829 23.473 17.215 12.839 9.399 3.452 0.300 0.001
0.000 0.000 0.000 0.000 0.000 0.000 0.000 0.000 0.000 0.924 60.817 79.554 105.379 110.277 117.791 122.232 130.619 135.366 129.377 132.497 127.460 119.157 107.742 95.534 77.776 55.319 32.514 18.633 12.720 12.522 8.574 4.006 0.449
0.000 0.000 0.000 0.000 0.000 0.000 0.000 0.000 0.000 0.127 36.786 79.030 87.632 98.369 110.421 128.150 131.663 138.920 142.022 135.195 123.069 120.223 112.781 113.740 82.107 70.225 43.935 22.764 16.144 12.117 9.620 8.091 3.850
0.000 0.000 0.000 0.000 0.000 0.000 0.000 0.000 0.000 0.011 16.836 64.946 88.229 102.934 110.780 120.162 145.360 142.454 132.768 131.499 130.622 124.903 131.537 106.365 93.991 71.520 58.769 32.343 19.026 11.115 9.979 10.435 6.616
0.000 0.000 0.000 0.000 0.000 0.001 0.087 0.188 0.102 0.139 15.680 57.516 76.760 97.373 109.974 124.677 132.149 136.008 142.873 139.520 135.363 132.382 133.162 101.614 89.106 84.248 69.544 44.835 23.619 11.807 10.459 9.935 6.587
0.000 0.000 0.000 0.027 5.596 38.565 77.882 77.995 68.322 63.916 57.329 59.927 74.752 91.882 93.210 109.084 124.067 145.633 151.421 149.404 147.999 146.401 133.109 107.271 106.988 99.197 74.264 56.637 28.556 15.032 11.426 9.302 6.714
0.000 0.000 0.208 33.275 81.210 80.743 86.535 88.236 78.485 68.933 59.306 59.101 76.954 95.469 110.213 112.173 137.317 147.054 155.037 159.052 156.455 158.487 138.874 113.451 110.316 98.295 81.087 65.560 41.631 21.285 12.164 8.923 6.801
0.000 0.097 30.873 86.758 87.146 92.191 100.147 94.955 83.148 76.057 71.186 70.395 80.991 93.896 102.657 113.599 128.022 143.477 155.701 163.696 167.962 168.831 143.419 116.706 108.655 100.842 95.275 74.512 55.911 28.079 13.276 8.565 6.970
0.000 3.318 82.844 98.497 114.850 108.352 101.510 98.602 90.318 94.591 92.284 74.153 83.058 103.996 117.322 122.696 127.927 142.118 158.321 170.464 178.243 175.013 141.796 127.470 109.146 103.108 99.578 80.314 65.431 33.644 14.569 9.584 7.063
0.007 29.900 94.238 115.531 116.590 109.105 111.600 110.467 126.750 118.090 93.145 83.218 95.368 106.310 123.359 119.624 130.260 146.148 164.400 185.626 196.587 194.309 182.074 142.811 120.020 100.270 100.524 80.053 67.080 39.813 19.402 10.959 7.925
0.406 86.088 100.252 115.918 119.629 122.777 120.403 153.393 136.890 113.471 101.943 90.285 111.104 111.820 129.251 139.637 134.238 162.205 170.204 195.993 203.755 193.919 185.794 145.725 105.588 100.618 92.720 76.452 76.825 50.122 27.239 14.851 9.610
2.226 83.445 99.349 114.662 126.922 157.717 144.989 136.719 127.081 116.085 112.353 112.510 115.626 128.258 145.095 167.090 170.035 162.800 173.110 185.674 190.658 193.090 172.867 131.687 91.026 98.062 88.027 93.529 83.810 59.435 37.517 20.247 9.830
4.088 82.084 100.680 116.032 146.644 168.466 127.504 127.812 121.592 119.230 118.005 104.552 112.569 121.222 149.829 160.811 160.139 158.967 153.623 185.445 177.523 190.916 179.480 128.026 88.491 85.526 92.963 97.587 84.168 70.573 52.838 23.501 8.118
4.378 76.252 98.473 125.787 159.561 158.447 150.765 134.120 128.950 122.841 116.093 108.659 108.715 131.488 146.629 159.510 150.875 146.189 154.568 174.855 190.263 176.852 167.349 131.968 102.278 100.556 110.441 98.353 78.403 70.938 63.049 20.120 7.456
3.696 73.500 100.952 131.638 137.828 141.717 136.325 137.974 133.187 129.114 124.657 108.140 111.613 123.240 139.419 149.230 142.726 136.307 148.787 157.210 173.429 181.160 161.784 146.137 105.061 97.945 86.574 85.166 74.082 75.195 54.742 20.852 7.192
1.763 70.772 96.058 112.130 117.171 126.129 126.391 129.423 129.156 131.617 111.643 111.105 121.160 127.080 141.121 138.658 144.647 125.040 128.711 145.460 163.683 172.709 160.329 131.209 99.825 77.645 77.964 73.035 82.934 78.475 44.893 25.681 4.568
0.606 43.699 73.832 91.861 107.351 116.865 131.110 136.096 137.594 118.415 116.721 113.271 118.417 134.084 149.763 143.115 138.519 125.478 110.329 141.525 167.846 154.045 149.278 156.831 102.443 84.221 76.765 86.662 85.247 65.236 45.887 25.620 7.040
0.199 28.266 64.503 88.388 97.251 108.427 116.277 127.434 120.336 120.110 116.144 104.440 109.347 126.811 143.702 140.474 142.936 110.162 138.044 174.643 155.357 150.918 147.191 137.178 94.314 94.006 90.736 85.776 75.583 58.354 44.160 27.237 11.288
0.048 14.587 47.056 67.262 76.591 89.388 105.440 110.923 116.524 117.637 98.507 84.034 91.910 118.665 133.232 141.215 129.963 111.918 112.738 155.014 127.985 129.349 136.655 116.310 83.171 80.466 67.873 63.725 61.752 51.737 44.534 27.954 11.243
0.010 7.933 35.017 62.812 88.975 98.316 93.245 108.411 115.016 97.025 84.534 77.528 95.026 114.440 127.845 122.421 121.129 123.970 132.077 130.490 123.831 114.370 109.125 107.206 78.745 65.776 70.678 62.170 55.450 44.400 35.300 33.302 12.480
0.001 3.716 28.470 53.353 74.396 93.007 102.225 103.404 94.221 78.925 66.081 59.598 80.465 100.905 120.233 121.206 135.378 134.468 109.401 117.835 108.324 93.834 100.582 101.988 74.978 61.152 64.467 58.013 49.915 40.023 40.086 35.610 13.890
0.000 1.286 20.046 35.351 63.826 78.266 86.595 82.106 81.652 72.453 68.734 72.921 76.173 93.415 100.401 108.890 135.768 108.668 91.145 101.832 83.411 75.847 86.396 98.601 58.798 51.293 53.705 46.285 44.070 43.530 45.950 28.695 13.843
0.000 0.292 12.140 24.732 49.485 60.211 78.147 75.968 70.091 74.859 68.412 63.413 69.134 87.127 102.705 112.553 119.766 85.867 63.217 79.261 83.611 48.612 79.131 83.714 46.868 41.243 41.923 48.823 41.677 45.302 40.892 24.800 15.417
0.000 0.034 7.163 20.122 34.128 53.770 60.443 64.245 70.362 57.315 56.782 48.042 51.368 76.295 107.496 102.392 117.702 96.262 67.835 70.796 66.076 35.124 47.886 66.072 37.161 33.557 31.606 32.905 38.624 34.064 27.178 22.477 15.937
0.000 0.003 3.648 19.742 27.328 44.677 52.890 57.620 59.721 52.683 33.317 29.320 33.222 64.379 94.779 86.865 99.175 74.454 38.613 46.401 39.611 26.843 32.514 55.419 27.512 24.528 25.093 23.382 23.372 24.415 21.773 19.462 14.356
0.000 0.000 1.306 16.817 21.613 26.390 29.838 32.479 35.496 31.879 24.715 19.408 25.299 40.491 75.493 63.372 80.116 42.896 30.371 34.996 33.185 25.562 26.502 45.637 24.665 22.861 21.618 21.127 21.006 20.448 18.325 19.156 21.731
0.000 0.000 0.326 11.998 17.943 18.020 19.837 19.873 20.659 20.769 16.581 17.131 21.817 29.545 39.232 30.443 42.652 27.250 24.221 27.989 27.765 23.892 23.283 28.129 20.844 18.854 18.936 18.035 18.883 16.774 15.896 23.202 21.619
