ncols        54
nrows        130
xllcorner    409542.8
yllcorner    6870869.1
cellsize     5.00
NODATA_value -9999
0.000 0.000 0.000 0.000 0.000 0.033 2.847 15.705 24.840 45.478 15.365 0.213 0.000 0.000 0.000 0.000 0.000 0.000 0.000 0.000 0.000 0.000 0.000 0.000 0.000 0.000 0.000 0.000 0.000 0.000 0.000 0.000 0.000 0.000 0.000 0.000 0.000 0.000 0.000 0.000 0.000 0.000 0.000 0.000 0.000 0.000 0.000 0.000 0.000 0.000 0.000 0.000 0.000 0.000
0.000 0.000 0.000 0.621 25.892 74.663 108.197 101.688 101.569 99.800 88.333 53.725 2.850 0.000 0.000 0.000 0.000 0.000 0.000 0.000 0.000 0.000 0.000 0.000 0.000 0.000 0.000 0.000 0.000 0.000 0.000 0.000 0.000 0.000 0.000 0.000 0.000 0.000 0.000 0.000 0.000 0.000 0.000 0.000 0.000 0.000 0.000 0.000 0.000 0.000 0.000 0.000 0.000 0.000
0.000 0.000 1.049 73.275 88.200 110.881 107.050 114.968 139.964 99.094 112.715 72.937 62.733 2.595 0.000 0.000 0.000 0.000 0.000 0.000 0.000 0.000 0.000 0.000 0.000 0.000 0.000 0.000 0.000 0.000 0.000 0.000 0.000 0.000 0.000 0.000 0.000 0.000 0.000 0.000 0.000 0.000 0.000 0.000 0.000 0.000 0.000 0.000 0.000 0.000 0.000 0.000 0.000 0.000
0.000 0.200 59.165 91.200 111.297 120.715 126.919 133.499 127.778 141.652 125.157 81.348 68.659 47.628 0.104 0.000 0.000 0.000 0.000 0.000 0.000 0.000 0.000 0.000 0.000 0.000 0.000 0.000 0.000 0.000 0.000 0.000 0.000 0.000 0.000 0.000 0.000 0.000 0.000 0.000 0.000 0.000 0.000 0.000 0.000 0.000 0.000 0.000 0.000 0.000 0.000 0.000 0.000 0.000
0.000 5.054 80.716 99.030 133.509 136.985 122.226 120.643 163.704 189.832 132.548 93.419 80.810 59.117 20.057 0.000 0.000 0.000 0.000 0.000 0.000 0.000 0.000 0.000 0.000 0.000 0.000 0.000 0.000 0.000 0.000 0.000 0.000 0.000 0.000 0.000 0.000 0.000 0.000 0.000 0.000 0.000 0.000 0.000 0.000 0.000 0.000 0.000 0.000 0.000 0.000 0.000 0.000 0.000
0.009 30.284 79.859 104.678 147.020 127.069 135.693 153.784 170.779 172.940 127.096 110.091 98.232 75.277 54.219 0.031 0.000 0.000 0.000 0.000 0.000 0.000 0.000 0.000 0.000 0.000 0.000 0.000 0.000 0.000 0.000 0.000 0.000 0.000 0.000 0.000 0.000 0.000 0.000 0.000 0.000 0.000 0.000 0.000 0.000 0.000 0.000 0.000 0.000 0.000 0.000 0.000 0.000 0.000
0.850 85.132 87.970 115.629 143.359 153.601 154.592 130.737 147.840 153.338 129.242 135.971 110.410 88.433 63.015 8.570 0.000 0.000 0.000 0.000 0.000 0.000 0.000 0.000 0.000 0.000 0.000 0.000 0.000 0.000 0.000 0.000 0.000 0.000 0.000 0.000 0.000 0.000 0.000 0.000 0.000 0.000 0.000 0.000 0.000 0.000 0.000 0.000 0.000 0.000 0.000 0.000 0.000 0.000
4.846 90.417 100.550 118.452 133.814 150.384 132.204 109.679 131.223 169.772 144.226 131.335 107.443 96.553 72.192 27.866 0.000 0.000 0.000 0.000 0.000 0.000 0.000 0.000 0.000 0.000 0.000 0.000 0.000 0.000 0.000 0.000 0.000 0.000 0.000 0.000 0.000 0.000 0.000 0.000 0.000 0.000 0.000 0.000 0.000 0.000 0.000 0.000 0.000 0.000 0.000 0.000 0.000 0.000
8.057 88.429 110.647 126.901 145.676 139.274 116.672 132.609 152.483 185.962 151.185 145.726 115.673 115.210 75.929 41.929 0.765 0.000 0.000 0.000 0.000 0.000 0.000 0.000 0.000 0.000 0.000 0.000 0.000 0.000 0.000 0.000 0.000 0.000 0.000 0.000 0.000 0.000 0.000 0.000 0.000 0.000 0.000 0.000 0.000 0.000 0.000 0.000 0.000 0.000 0.000 0.000 0.000 0.000
10.942 85.430 97.948 131.054 133.627 120.605 112.642 121.611 140.708 175.956 159.082 142.876 141.457 125.059 87.252 40.110 9.101 0.000 0.000 0.000 0.000 0.000 0.000 0.000 0.000 0.000 0.000 0.000 0.000 0.000 0.000 0.000 0.000 0.000 0.000 0.000 0.000 0.000 0.000 0.000 0.000 0.000 0.000 0.000 0.000 0.000 0.000 0.000 0.000 0.000 0.000 0.000 0.000 0.000
10.437 89.028 108.372 121.477 118.217 114.180 119.827 144.202 173.713 158.382 169.722 146.952 125.747 121.223 78.690 38.487 25.672 0.493 0.000 0.000 0.000 0.000 0.000 0.000 0.000 0.000 0.000 0.000 0.000 0.000 0.000 0.000 0.000 0.000 0.000 0.000 0.000 0.000 0.000 0.000 0.000 0.000 0.000 0.000 0.000 0.000 0.000 0.000 0.000 0.000 0.000 0.000 0.000 0.000
6.718 81.968 103.332 108.080 122.500 108.290 134.524 120.502 156.700 159.557 159.842 156.510 151.393 113.911 75.555 52.299 37.831 8.391 0.000 0.000 0.000 0.000 0.000 0.000 0.000 0.000 0.000 0.000 0.000 0.000 0.000 0.000 0.000 0.000 0.000 0.000 0.000 0.000 0.000 0.000 0.000 0.000 0.000 0.000 0.000 0.000 0.000 0.000 0.000 0.000 0.000 0.000 0.000 0.000
2.941 81.803 90.657 108.660 113.829 132.643 122.607 138.406 131.597 152.211 169.473 180.308 129.400 103.720 79.211 57.891 45.850 20.221 0.159 0.000 0.000 0.000 0.000 0.000 0.000 0.000 0.000 0.000 0.000 0.000 0.000 0.000 0.000 0.000 0.000 0.000 0.000 0.000 0.000 0.000 0.000 0.000 0.000 0.000 0.000 0.000 0.000 0.000 0.000 0.000 0.000 0.000 0.000 0.000
0.908 58.210 80.929 106.838 118.750 131.627 138.554 145.468 108.514 139.727 161.572 168.424 115.045 98.965 89.088 73.578 56.457 30.529 3.767 0.000 0.000 0.000 0.000 0.000 0.000 0.000 0.000 0.000 0.000 0.000 0.000 0.000 0.000 0.000 0.000 0.000 0.000 0.000 0.000 0.000 0.000 0.000 0.000 0.000 0.000 0.000 0.000 0.000 0.000 0.000 0.000 0.000 0.000 0.000
0.137 35.198 88.158 107.540 138.677 131.685 152.768 141.240 150.796 165.502 165.738 159.504 116.508 114.173 122.509 87.992 55.427 38.363 10.168 0.023 0.000 0.000 0.000 0.000 0.000 0.000 0.000 0.000 0.000 0.000 0.000 0.000 0.000 0.000 0.000 0.000 0.000 0.000 0.000 0.000 0.000 0.000 0.000 0.000 0.000 0.000 0.000 0.000 0.000 0.000 0.000 0.000 0.000 0.000
0.004 11.277 68.159 95.460 124.991 141.366 158.760 137.559 118.626 154.432 175.386 149.407 122.033 135.573 134.207 77.639 67.449 42.800 20.331 2.814 0.000 0.000 0.000 0.000 0.000 0.000 0.000 0.000 0.000 0.000 0.000 0.000 0.000 0.000 0.000 0.000 0.000 0.000 0.000 0.000 0.000 0.000 0.000 0.000 0.000 0.000 0.000 0.000 0.000 0.000 0.000 0.000 0.000 0.000
0.000 1.326 45.939 88.659 105.666 136.393 133.313 125.608 133.128 127.356 162.383 146.671 142.160 150.471 139.876 99.789 93.991 46.809 29.893 9.709 0.000 0.000 0.000 0.000 0.000 0.000 0.000 0.000 0.000 0.000 0.000 0.000 0.000 0.000 0.000 0.000 0.000 0.000 0.000 0.000 0.000 0.000 0.000 0.000 0.000 0.000 0.000 0.000 0.000 0.000 0.000 0.000 0.000 0.000
0.000 0.024 12.646 59.371 105.651 111.947 112.228 120.913 134.685 168.388 165.611 150.056 147.080 156.051 158.461 122.901 81.783 57.834 38.866 16.843 0.159 0.000 0.000 0.000 0.000 0.000 0.000 0.000 0.000 0.000 0.000 0.000 0.000 0.000 0.000 0.000 0.000 0.000 0.000 0.000 0.000 0.000 0.000 0.000 0.000 0.000 0.000 0.000 0.000 0.000 0.000 0.000 0.000 0.000
0.000 0.000 1.453 35.593 74.545 103.215 123.102 132.537 151.837 129.564 139.896 145.540 132.725 145.967 145.510 106.613 80.190 93.482 47.011 22.279 3.517 0.000 0.000 0.000 0.000 0.000 0.000 0.000 0.000 0.000 0.000 0.000 0.000 0.000 0.000 0.000 0.000 0.000 0.000 0.000 0.000 0.000 0.000 0.000 0.000 0.000 0.000 0.000 0.000 0.000 0.000 0.000 0.000 0.000
0.000 0.000 0.017 8.280 55.958 89.555 107.436 120.422 117.586 96.843 149.454 121.717 121.762 143.033 147.305 111.483 127.122 105.487 49.281 21.471 9.401 0.000 0.000 0.000 0.000 0.000 0.000 0.000 0.000 0.000 0.000 0.000 0.000 0.000 0.000 0.000 0.000 0.000 0.000 0.000 0.000 0.000 0.000 0.000 0.000 0.000 0.000 0.000 0.000 0.000 0.000 0.000 0.000 0.000
0.000 0.000 0.000 0.250 15.705 59.703 102.389 113.671 96.304 112.378 159.878 148.011 127.525 145.082 131.098 111.164 141.340 92.555 51.098 30.759 16.727 0.016 0.000 0.000 0.000 0.000 0.000 0.000 0.000 0.000 0.000 0.000 0.000 0.000 0.000 0.000 0.000 0.000 0.000 0.000 0.000 0.000 0.000 0.000 0.000 0.000 0.000 0.000 0.000 0.000 0.000 0.000 0.000 0.000
0.000 0.000 0.000 0.000 1.308 25.828 65.175 89.141 121.281 134.366 128.643 142.088 140.616 127.071 121.155 119.603 122.893 90.969 61.708 43.388 21.250 1.592 0.000 0.000 0.000 0.000 0.000 0.000 0.000 0.000 0.000 0.000 0.000 0.000 0.000 0.000 0.000 0.000 0.000 0.000 0.000 0.000 0.000 0.000 0.000 0.000 0.000 0.000 0.000 0.000 0.000 0.000 0.000 0.000
0.000 0.000 0.000 0.000 0.006 4.213 36.303 73.142 102.977 117.802 122.178 140.046 130.709 105.528 111.562 119.001 128.127 111.874 94.451 47.960 24.152 4.856 0.000 0.000 0.000 0.000 0.000 0.000 0.000 0.000 0.000 0.000 0.000 0.000 0.000 0.000 0.000 0.000 0.000 0.000 0.000 0.000 0.000 0.000 0.000 0.000 0.000 0.000 0.000 0.000 0.000 0.000 0.000 0.000
0.000 0.000 0.000 0.000 0.000 0.148 12.476 48.824 77.882 99.337 110.412 120.647 130.767 146.389 108.421 129.752 139.899 137.803 96.964 54.859 23.571 9.114 0.257 0.000 0.000 0.000 0.000 0.000 0.000 0.000 0.000 0.000 0.000 0.000 0.000 0.000 0.000 0.000 0.000 0.000 0.000 0.000 0.000 0.000 0.000 0.000 0.000 0.000 0.000 0.000 0.000 0.000 0.000 0.000
0.000 0.000 0.000 0.000 0.000 0.002 2.724 30.708 66.104 90.401 106.595 118.903 141.017 132.087 107.041 128.445 149.865 124.372 99.861 57.699 24.681 14.567 4.345 0.001 0.000 0.000 0.000 0.000 0.000 0.000 0.000 0.000 0.000 0.000 0.000 0.000 0.000 0.000 0.000 0.000 0.000 0.000 0.000 0.000 0.000 0.000 0.000 0.000 0.000 0.000 0.000 0.000 0.000 0.000
0.000 0.000 0.000 0.000 0.000 0.000 0.294 14.812 48.165 76.478 128.126 142.337 135.615 127.172 118.872 139.371 126.672 104.008 90.695 60.463 31.981 18.431 9.135 0.551 0.000 0.000 0.000 0.000 0.000 0.000 0.000 0.000 0.000 0.000 0.000 0.000 0.000 0.000 0.000 0.000 0.000 0.000 0.000 0.000 0.000 0.000 0.000 0.000 0.000 0.000 0.000 0.000 0.000 0.000
0.000 0.000 0.000 0.000 0.000 0.000 0.022 6.393 36.084 67.234 98.823 128.958 121.146 131.349 120.937 96.283 113.806 95.292 89.790 73.503 38.562 22.877 13.270 4.167 0.000 0.000 0.000 0.000 0.000 0.000 0.000 0.000 0.000 0.000 0.000 0.000 0.000 0.000 0.000 0.000 0.000 0.000 0.000 0.000 0.000 0.000 0.000 0.000 0.000 0.000 0.000 0.000 0.000 0.000
0.000 0.000 0.000 0.000 0.000 0.000 0.001 1.686 24.218 53.722 91.757 111.449 126.470 124.588 111.012 107.794 97.919 105.573 88.972 72.028 50.245 27.565 17.998 9.212 0.013 0.000 0.000 0.000 0.000 0.000 0.000 0.000 0.000 0.000 0.000 0.000 0.000 0.000 0.000 0.000 0.000 0.000 0.000 0.000 0.000 0.000 0.000 0.000 0.000 0.000 0.000 0.000 0.000 0.000
0.000 0.000 0.000 0.000 0.000 0.000 0.000 0.160 12.711 41.001 68.447 105.640 142.028 136.032 119.807 111.013 86.020 85.534 92.200 94.155 56.969 30.736 20.962 12.970 1.527 0.000 0.000 0.000 0.000 0.000 0.000 0.000 0.000 0.000 0.000 0.000 0.000 0.000 0.000 0.000 0.000 0.000 0.000 0.000 0.000 0.000 0.000 0.000 0.000 0.000 0.000 0.000 0.000 0.000
0.000 0.000 0.000 0.000 0.000 0.000 0.000 0.006 4.166 29.285 56.388 88.699 126.858 157.569 169.792 111.426 79.856 73.329 92.919 74.937 62.318 36.366 23.316 14.772 5.476 0.000 0.000 0.000 0.000 0.000 0.000 0.000 0.000 0.000 0.000 0.000 0.000 0.000 0.000 0.000 0.000 0.000 0.000 0.000 0.000 0.000 0.000 0.000 0.000 0.000 0.000 0.000 0.000 0.000
0.000 0.000 0.000 0.000 0.000 0.000 0.000 0.000 0.301 18.120 39.711 70.586 106.418 148.984 174.089 165.091 123.976 110.056 93.429 70.931 85.229 43.425 23.097 18.803 8.437 0.000 0.000 0.000 0.000 0.000 0.000 0.000 0.000 0.000 0.000 0.000 0.000 0.000 0.000 0.000 0.000 0.000 0.000 0.000 0.000 0.000 0.000 0.000 0.000 0.000 0.000 0.000 0.000 0.000
0.000 0.000 0.000 0.000 0.000 0.000 0.000 0.000 0.012 9.422 33.972 56.181 92.488 132.724 153.382 160.753 151.973 160.208 137.657 111.121 81.344 53.727 29.875 19.031 12.620 0.000 0.000 0.000 0.000 0.000 0.000 0.000 0.000 0.000 0.000 0.000 0.000 0.000 0.000 0.000 0.000 0.000 0.000 0.000 0.000 0.000 0.000 0.000 0.000 0.000 0.000 0.000 0.000 0.000
0.000 0.000 0.000 0.000 0.000 0.000 0.000 0.000 0.001 2.782 23.692 47.070 77.891 105.810 125.712 157.119 171.773 157.209 134.068 124.856 98.260 60.846 34.218 17.946 14.897 0.171 0.000 0.000 0.000 0.000 0.000 0.000 0.000 0.000 0.000 0.000 0.000 0.000 0.000 0.000 0.000 0.000 0.000 0.000 0.000 0.000 0.000 0.000 0.000 0.000 0.000 0.000 0.000 0.000
0.000 0.000 0.000 0.000 0.000 0.000 0.000 0.000 0.000 0.453 14.037 35.422 62.670 94.023 117.683 141.872 153.265 144.569 135.109 129.201 99.588 69.710 34.866 21.432 14.625 3.204 0.000 0.000 0.000 0.000 0.000 0.000 0.000 0.000 0.000 0.000 0.000 0.000 0.000 0.000 0.000 0.000 0.000 0.000 0.000 0.000 0.000 0.000 0.000 0.000 0.000 0.000 0.000 0.000
0.000 0.000 0.000 0.000 0.000 0.000 0.000 0.000 0.000 0.045 6.609 26.271 45.803 73.142 110.237 136.368 132.889 141.222 155.181 133.784 120.837 92.570 46.903 16.746 15.847 10.008 0.000 0.000 0.000 0.000 0.000 0.000 0.000 0.000 0.000 0.000 0.000 0.000 0.000 0.000 0.000 0.000 0.000 0.000 0.000 0.000 0.000 0.000 0.000 0.000 0.000 0.000 0.000 0.000
0.000 0.000 0.000 0.000 0.000 0.000 0.000 0.000 0.000 0.001 1.865 16.521 34.301 60.157 99.051 118.667 136.931 123.373 132.260 112.841 125.133 79.592 49.514 27.222 25.605 12.685 0.000 0.000 0.000 0.000 0.000 0.000 0.000 0.000 0.000 0.000 0.000 0.000 0.000 0.000 0.000 0.000 0.000 0.000 0.000 0.000 0.000 0.000 0.000 0.000 0.000 0.000 0.000 0.000
0.000 0.000 0.000 0.000 0.000 0.000 0.000 0.000 0.000 0.000 0.185 9.452 23.473 46.420 84.505 117.925 117.408 126.557 136.243 128.214 112.825 79.534 52.545 33.090 26.189 16.233 0.000 0.000 0.000 0.000 0.000 0.000 0.000 0.000 0.000 0.000 0.000 0.000 0.000 0.000 0.000 0.000 0.000 0.000 0.000 0.000 0.000 0.000 0.000 0.000 0.000 0.000 0.000 0.000
0.000 0.000 0.000 0.000 0.000 0.000 0.000 0.000 0.000 0.000 0.005 4.491 18.014 34.449 60.983 90.676 103.044 123.507 111.652 114.339 102.325 85.267 52.321 30.533 25.424 19.387 0.000 0.000 0.000 0.000 0.000 0.000 0.000 0.000 0.000 0.000 0.000 0.000 0.000 0.000 0.000 0.000 0.000 0.000 0.000 0.000 0.000 0.000 0.000 0.000 0.000 0.000 0.000 0.000
0.000 0.000 0.000 0.000 0.000 0.000 0.000 0.000 0.000 0.000 0.000 1.571 12.635 22.326 38.128 67.124 111.092 99.840 123.885 118.182 95.698 81.085 49.346 42.979 25.309 19.010 0.000 0.000 0.000 0.000 0.000 0.000 0.000 0.000 0.000 0.000 0.000 0.000 0.000 0.000 0.000 0.000 0.000 0.000 0.000 0.000 0.000 0.000 0.000 0.000 0.000 0.000 0.000 0.000
0.000 0.000 0.000 0.000 0.000 0.000 0.000 0.000 0.000 0.000 0.000 0.346 9.189 17.359 27.573 54.363 90.930 102.190 102.760 112.591 101.673 67.328 52.131 46.457 26.886 17.891 0.238 0.000 0.000 0.000 0.000 0.000 0.000 0.000 0.000 0.000 0.000 0.000 0.000 0.000 0.000 0.000 0.000 0.000 0.000 0.000 0.000 0.000 0.000 0.000 0.000 0.000 0.000 0.000
0.000 0.000 0.000 0.000 0.000 0.000 0.000 0.000 0.000 0.000 0.000 0.049 6.116 12.469 16.305 32.015 63.700 86.593 97.829 107.191 86.149 65.559 54.242 64.460 29.400 17.440 3.607 0.000 0.000 0.000 0.000 0.000 0.000 0.000 0.000 0.000 0.000 0.000 0.000 0.000 0.000 0.000 0.000 0.000 0.000 0.000 0.000 0.000 0.000 0.000 0.000 0.000 0.000 0.000
0.000 0.000 0.000 0.000 0.000 0.000 0.000 0.000 0.000 0.000 0.000 0.002 3.801 11.615 13.751 21.012 45.087 79.154 94.011 94.000 76.685 56.632 72.096 61.070 32.804 20.601 6.682 0.001 0.000 0.000 0.000 0.000 0.000 0.000 0.000 0.000 0.000 0.000 0.000 0.000 0.000 0.000 0.000 0.000 0.000 0.000 0.000 0.000 0.000 0.000 0.000 0.000 0.000 0.000
0.000 0.000 0.000 0.000 0.000 0.000 0.000 0.000 0.000 0.000 0.000 0.000 1.391 10.015 11.968 15.419 27.917 61.327 70.640 78.628 64.738 59.408 88.408 65.279 37.745 16.270 9.447 1.480 0.029 0.000 0.000 0.000 0.000 0.000 0.000 0.000 0.000 0.000 0.000 0.000 0.000 0.000 0.000 0.000 0.000 0.000 0.000 0.000 0.000 0.000 0.000 0.000 0.000 0.000
0.000 0.000 0.000 0.000 0.000 0.000 0.000 0.000 0.000 0.000 0.000 0.000 0.424 7.846 12.055 10.995 13.392 35.786 65.845 67.270 64.603 86.505 92.670 69.165 40.868 16.729 13.493 9.548 3.302 0.031 0.000 0.000 0.000 0.000 0.000 0.000 0.000 0.000 0.000 0.000 0.000 0.000 0.000 0.000 0.000 0.000 0.000 0.000 0.000 0.000 0.000 0.000 0.000 0.000
0.000 0.000 0.000 0.000 0.000 0.000 0.000 0.000 0.000 0.000 0.000 0.000 0.137 4.857 10.315 9.240 10.130 23.827 63.656 74.450 81.868 89.522 95.690 67.924 37.613 18.431 16.174 12.180 8.756 2.172 0.000 0.000 0.000 0.000 0.000 0.000 0.000 0.000 0.000 0.000 0.000 0.000 0.000 0.000 0.000 0.000 0.000 0.000 0.000 0.000 0.000 0.000 0.000 0.000
0.000 0.000 0.000 0.000 0.000 0.000 0.000 0.000 0.000 0.000 0.000 0.000 0.024 2.566 7.605 8.742 7.746 10.260 53.401 65.083 76.665 71.417 89.236 60.002 41.782 22.843 15.291 11.869 11.422 5.427 0.004 0.000 0.000 0.000 0.000 0.000 0.000 0.000 0.000 0.000 0.000 0.000 0.000 0.000 0.000 0.000 0.000 0.000 0.000 0.000 0.000 0.000 0.000 0.000
0.000 0.000 0.000 0.000 0.000 0.000 0.000 0.000 0.000 0.000 0.000 0.000 0.004 0.999 5.026 6.430 7.231 5.789 28.793 57.479 70.899 66.752 79.662 64.620 49.173 25.287 12.625 16.003 12.654 9.701 1.030 0.000 0.000 0.000 0.000 0.000 0.000 0.000 0.000 0.000 0.000 0.000 0.000 0.000 0.000 0.000 0.000 0.000 0.000 0.000 0.000 0.000 0.000 0.000
0.000 0.000 0.000 0.000 0.000 0.000 0.000 0.000 0.000 0.000 0.000 0.000 0.000 0.250 3.310 7.145 7.452 5.364 10.400 49.316 58.212 70.012 71.228 68.506 56.756 29.237 16.575 21.353 18.138 12.973 4.046 0.000 0.000 0.000 0.000 0.000 0.000 0.000 0.000 0.000 0.000 0.000 0.000 0.000 0.000 0.000 0.000 0.000 0.000 0.000 0.000 0.000 0.000 0.000
0.000 0.000 0.000 0.000 0.000 0.000 0.000 0.000 0.000 0.000 0.000 0.000 0.000 0.144 3.350 6.585 6.261 5.391 4.172 38.262 49.878 61.718 72.605 73.621 63.660 33.797 19.832 21.519 17.634 14.661 8.566 0.066 0.000 0.000 0.000 0.000 0.000 0.000 0.000 0.000 0.000 0.000 0.000 0.000 0.000 0.000 0.000 0.000 0.000 0.000 0.000 0.000 0.000 0.000
0.000 0.000 0.000 0.000 0.000 0.000 0.000 0.000 0.000 0.000 0.000 0.000 0.000 0.006 2.163 4.790 5.892 5.853 5.745 26.122 47.728 59.234 76.992 77.822 71.033 39.920 23.074 20.967 17.977 16.190 9.783 1.872 0.000 0.000 0.000 0.000 0.000 0.000 0.000 0.000 0.000 0.000 0.000 0.000 0.000 0.000 0.000 0.000 0.000 0.000 0.000 0.000 0.000 0.000
0.000 0.000 0.000 0.000 0.000 0.000 0.000 0.000 0.000 0.000 0.000 0.000 0.000 0.000 0.942 4.291 5.623 6.268 7.604 21.961 48.684 63.701 73.009 85.982 75.359 54.190 26.873 18.272 14.804 13.044 10.236 4.961 0.055 0.000 0.000 0.000 0.000 0.000 0.000 0.000 0.000 0.000 0.000 0.000 0.000 0.000 0.000 0.000 0.000 0.000 0.000 0.000 0.000 0.000
0.000 0.000 0.000 0.000 0.000 0.000 0.000 0.000 0.000 0.000 0.000 0.000 0.000 0.000 0.446 3.459 5.054 5.849 7.573 21.640 46.922 75.838 96.688 96.823 81.000 62.038 22.896 14.213 14.494 14.285 14.843 6.938 0.996 0.000 0.000 0.000 0.000 0.000 0.000 0.000 0.000 0.000 0.000 0.000 0.000 0.000 0.000 0.000 0.000 0.000 0.000 0.000 0.000 0.000
0.000 0.000 0.000 0.000 0.000 0.000 0.000 0.000 0.000 0.000 0.000 0.000 0.000 0.000 0.373 3.423 4.445 4.971 6.839 14.440 36.141 63.959 78.274 79.357 77.278 64.518 24.991 14.261 13.494 17.433 15.970 6.742 3.376 0.270 0.000 0.000 0.000 0.000 0.000 0.000 0.000 0.000 0.000 0.000 0.000 0.000 0.000 0.000 0.000 0.000 0.000 0.000 0.000 0.000
0.000 0.000 0.000 0.000 0.000 0.000 0.000 0.000 0.000 0.000 0.000 0.000 0.000 0.000 0.135 3.083 3.563 5.035 7.546 14.430 25.491 67.227 81.848 63.377 87.103 56.256 31.870 14.788 15.841 17.542 12.885 9.154 9.386 2.572 0.001 0.000 0.000 0.000 0.000 0.000 0.000 0.000 0.000 0.000 0.000 0.000 0.000 0.000 0.000 0.000 0.000 0.000 0.000 0.000
0.000 0.000 0.000 0.000 0.000 0.000 0.000 0.000 0.000 0.000 0.000 0.000 0.000 0.000 0.010 1.553 2.798 4.896 6.065 12.091 16.031 32.525 70.043 75.944 74.427 57.512 36.121 15.538 15.758 15.469 16.409 16.248 17.015 5.401 0.237 0.004 0.000 0.000 0.000 0.000 0.000 0.000 0.000 0.000 0.000 0.000 0.000 0.000 0.000 0.000 0.000 0.000 0.000 0.000
0.000 0.000 0.000 0.000 0.000 0.000 0.000 0.000 0.000 0.000 0.000 0.000 0.000 0.000 0.001 1.057 2.525 4.124 4.663 9.332 12.602 13.780 49.334 62.947 67.212 59.733 40.548 18.521 14.593 16.559 18.807 20.581 19.645 7.840 0.534 0.745 0.000 0.000 0.000 0.000 0.000 0.000 0.000 0.000 0.000 0.000 0.000 0.000 0.000 0.000 0.000 0.000 0.000 0.000
0.000 0.000 0.000 0.000 0.000 0.000 0.000 0.000 0.000 0.000 0.000 0.000 0.000 0.000 0.002 1.272 3.993 4.185 4.819 6.045 8.045 10.456 40.558 67.291 71.302 63.387 44.680 24.194 14.968 16.997 17.524 22.414 14.516 8.717 0.915 2.732 0.001 0.000 0.000 0.000 0.000 0.000 0.000 0.000 0.000 0.000 0.000 0.000 0.000 0.000 0.000 0.000 0.000 0.000
0.000 0.000 0.000 0.000 0.000 0.000 0.000 0.000 0.000 0.000 0.000 0.000 0.000 0.000 0.050 1.977 4.092 4.660 4.615 6.203 8.037 9.258 24.595 67.311 69.376 71.333 49.074 28.661 17.896 16.184 20.042 26.469 17.112 11.696 4.723 3.868 0.217 0.000 0.000 0.000 0.000 0.000 0.000 0.000 0.000 0.000 0.000 0.000 0.000 0.000 0.000 0.000 0.000 0.000
0.000 0.000 0.000 0.000 0.000 0.000 0.000 0.000 0.000 0.000 0.000 0.000 0.000 0.000 0.177 2.181 3.416 4.939 5.173 6.421 8.583 10.698 19.026 70.247 79.430 64.942 53.014 35.004 22.208 15.160 18.423 19.544 21.891 14.232 7.701 4.045 1.406 0.000 0.000 0.000 0.000 0.000 0.000 0.000 0.000 0.000 0.000 0.000 0.000 0.000 0.000 0.000 0.000 0.000
0.000 0.000 0.000 0.000 0.000 0.000 0.000 0.000 0.000 0.000 0.000 0.000 0.000 0.000 0.011 1.790 3.952 4.679 4.105 6.653 10.174 10.899 18.987 61.460 83.659 69.922 52.008 40.950 29.863 17.310 17.374 17.068 20.733 13.103 10.826 5.717 3.029 0.016 0.000 0.000 0.000 0.000 0.000 0.000 0.000 0.000 0.000 0.000 0.000 0.000 0.000 0.000 0.000 0.000
0.000 0.000 0.000 0.000 0.000 0.000 0.000 0.000 0.000 0.000 0.000 0.000 0.000 0.000 0.007 1.444 3.694 3.877 3.513 6.093 10.604 10.059 19.035 57.021 85.270 89.025 72.288 47.845 37.252 18.879 18.171 20.132 20.676 15.599 12.442 7.502 4.375 0.886 0.000 0.000 0.000 0.000 0.000 0.000 0.000 0.000 0.000 0.000 0.000 0.000 0.000 0.000 0.000 0.000
0.000 0.000 0.000 0.000 0.000 0.000 0.000 0.000 0.000 0.000 0.000 0.000 0.000 0.000 0.000 0.836 3.672 4.508 4.794 5.828 9.288 10.946 18.481 55.782 75.876 90.023 85.903 61.162 40.401 24.874 17.544 17.867 15.681 17.754 15.626 10.118 6.377 2.127 0.002 0.000 0.000 0.000 0.000 0.000 0.000 0.000 0.000 0.000 0.000 0.000 0.000 0.000 0.000 0.000
0.000 0.000 0.000 0.000 0.000 0.000 0.000 0.000 0.000 0.000 0.000 0.000 0.000 0.000 0.000 0.675 3.174 4.599 5.469 5.113 7.218 11.256 18.575 54.489 79.360 90.450 94.884 84.030 46.741 27.008 16.247 17.926 18.286 18.972 18.890 13.836 8.487 3.458 0.525 0.000 0.000 0.000 0.000 0.000 0.000 0.000 0.000 0.000 0.000 0.000 0.000 0.000 0.000 0.000
0.000 0.000 0.000 0.000 0.000 0.000 0.000 0.000 0.000 0.000 0.000 0.000 0.000 0.000 0.000 0.595 2.320 4.104 4.442 4.946 6.948 10.772 18.560 45.402 82.594 96.664 92.408 74.523 44.996 21.852 17.301 16.769 19.319 22.116 19.882 18.127 10.580 7.319 2.910 0.001 0.000 0.000 0.000 0.000 0.000 0.000 0.000 0.000 0.000 0.000 0.000 0.000 0.000 0.000
0.000 0.000 0.000 0.000 0.000 0.000 0.000 0.000 0.000 0.000 0.000 0.000 0.000 0.000 0.002 0.577 2.346 3.539 3.459 4.058 6.139 9.558 16.956 37.435 78.029 93.153 94.100 91.266 64.459 29.628 20.962 17.389 20.818 23.422 25.797 19.250 16.954 11.404 4.594 0.339 0.000 0.000 0.000 0.000 0.000 0.000 0.000 0.000 0.000 0.000 0.000 0.000 0.000 0.000
0.000 0.000 0.000 0.000 0.000 0.000 0.000 0.000 0.000 0.000 0.000 0.000 0.000 0.000 0.000 0.379 2.203 2.991 3.608 4.257 6.168 9.669 15.047 27.926 62.929 77.365 94.615 84.024 63.160 39.725 22.457 20.847 22.529 24.942 25.006 23.005 22.255 12.748 5.588 2.271 0.000 0.000 0.000 0.000 0.000 0.000 0.000 0.000 0.000 0.000 0.000 0.000 0.000 0.000
0.000 0.000 0.000 0.000 0.000 0.000 0.000 0.000 0.000 0.000 0.000 0.000 0.000 0.000 0.000 0.146 2.239 3.040 3.552 4.223 6.025 8.716 12.800 23.594 56.731 83.826 93.919 74.560 66.991 33.598 26.019 25.558 23.260 22.606 23.949 26.019 23.424 11.908 8.573 4.100 0.016 0.000 0.000 0.000 0.000 0.000 0.000 0.000 0.000 0.000 0.000 0.000 0.000 0.000
0.000 0.000 0.000 0.000 0.000 0.000 0.000 0.000 0.000 0.000 0.000 0.000 0.000 0.000 0.000 0.001 1.363 3.151 3.204 3.698 4.866 7.476 11.784 22.102 59.738 85.376 79.315 85.844 58.609 36.348 29.276 18.101 16.456 17.894 23.894 29.805 20.633 13.764 12.179 6.304 0.580 0.000 0.000 0.000 0.000 0.000 0.000 0.000 0.000 0.000 0.000 0.000 0.000 0.000
0.000 0.000 0.000 0.000 0.000 0.000 0.000 0.000 0.000 0.000 0.000 0.000 0.000 0.000 0.000 0.002 0.617 3.189 3.337 4.256 5.604 6.115 12.941 20.946 50.548 66.246 87.601 72.320 54.870 42.262 23.760 14.900 16.156 19.929 27.124 23.646 20.641 20.494 17.141 7.209 2.731 0.001 0.000 0.000 0.000 0.000 0.000 0.000 0.000 0.000 0.000 0.000 0.000 0.000
0.000 0.000 0.000 0.000 0.000 0.000 0.000 0.000 0.000 0.000 0.000 0.000 0.000 0.000 0.000 0.006 1.023 3.643 4.116 3.992 4.641 8.726 11.356 19.240 38.487 71.199 78.723 72.687 69.331 47.799 30.865 21.384 19.931 23.206 23.199 21.178 26.022 21.633 14.617 10.362 5.124 0.335 0.000 0.000 0.000 0.000 0.000 0.000 0.000 0.000 0.000 0.000 0.000 0.000
0.000 0.000 0.000 0.000 0.000 0.000 0.000 0.000 0.000 0.000 0.000 0.000 0.000 0.000 0.000 0.013 1.078 3.625 4.455 2.970 4.922 7.184 3.244 12.883 34.953 56.824 73.805 83.878 72.823 49.549 35.027 25.988 25.516 20.691 22.989 24.703 23.408 21.112 15.476 13.119 6.842 2.995 0.001 0.000 0.000 0.000 0.000 0.000 0.000 0.000 0.000 0.000 0.000 0.000
0.000 0.000 0.000 0.000 0.000 0.000 0.000 0.000 0.000 0.000 0.000 0.000 0.000 0.000 0.000 0.000 0.213 2.602 4.689 3.336 3.660 3.598 3.296 10.958 30.601 56.860 77.474 85.854 79.763 59.511 40.233 34.433 26.660 21.924 24.319 22.234 20.077 19.945 16.876 15.566 12.487 7.390 0.745 0.000 0.000 0.000 0.000 0.000 0.000 0.000 0.000 0.000 0.000 0.000
0.000 0.000 0.000 0.000 0.000 0.000 0.000 0.000 0.000 0.000 0.000 0.000 0.000 0.000 0.000 0.000 0.049 1.865 4.896 3.951 3.097 3.101 4.034 12.637 26.358 55.574 71.423 80.058 76.521 50.205 47.501 38.447 22.808 22.884 19.573 13.420 17.887 20.157 21.932 21.352 16.243 9.515 4.271 0.000 0.000 0.000 0.000 0.000 0.000 0.000 0.000 0.000 0.000 0.000
0.000 0.000 0.000 0.000 0.000 0.000 0.000 0.000 0.000 0.000 0.000 0.000 0.000 0.000 0.000 0.000 0.000 0.052 4.261 4.083 2.646 2.683 6.023 13.288 25.783 53.926 78.065 77.855 65.061 51.015 54.026 39.769 28.856 24.623 17.074 13.062 16.214 21.938 24.032 21.839 17.671 12.064 6.113 0.000 0.000 0.000 0.000 0.000 0.000 0.000 0.000 0.000 0.000 0.000
0.000 0.000 0.000 0.000 0.000 0.000 0.000 0.000 0.000 0.000 0.000 0.000 0.000 0.000 0.000 0.000 0.000 0.215 2.089 3.402 1.674 3.153 5.916 11.501 22.834 43.837 61.376 69.479 61.957 62.490 65.221 44.724 29.470 21.363 14.418 13.839 17.900 22.200 22.104 21.275 18.186 13.866 6.702 0.010 0.000 0.000 0.000 0.000 0.000 0.000 0.000 0.000 0.000 0.000
0.000 0.000 0.000 0.000 0.000 0.000 0.000 0.000 0.000 0.000 0.000 0.000 0.000 0.000 0.000 0.000 0.000 0.000 1.367 1.837 2.164 3.842 4.977 8.820 18.768 36.476 48.218 69.552 61.590 72.347 60.608 47.204 34.807 25.072 18.977 14.324 16.538 19.870 21.666 23.422 22.581 13.599 5.087 0.117 0.000 0.000 0.000 0.000 0.000 0.000 0.000 0.000 0.000 0.000
0.000 0.000 0.000 0.000 0.000 0.000 0.000 0.000 0.000 0.000 0.000 0.000 0.000 0.000 0.000 0.000 0.000 0.000 0.154 2.023 2.908 3.883 4.824 6.656 14.086 26.362 47.309 56.519 70.319 70.756 68.577 51.731 42.035 26.580 16.063 11.472 11.806 13.687 19.264 20.411 19.140 7.880 3.066 0.040 0.000 0.000 0.000 0.000 0.000 0.000 0.000 0.000 0.000 0.000
0.000 0.000 0.000 0.000 0.000 0.000 0.000 0.000 0.000 0.000 0.000 0.000 0.000 0.000 0.000 0.000 0.000 0.000 0.048 1.326 3.009 3.812 4.339 4.519 11.538 23.005 43.516 59.424 62.081 74.773 65.633 54.833 44.553 23.401 13.880 9.056 8.802 11.250 15.727 16.310 14.536 9.163 4.600 0.026 0.000 0.000 0.000 0.000 0.000 0.000 0.000 0.000 0.000 0.000
0.000 0.000 0.000 0.000 0.000 0.000 0.000 0.000 0.000 0.000 0.000 0.000 0.000 0.000 0.000 0.000 0.000 0.000 0.007 0.548 2.032 3.474 3.173 3.914 7.974 19.060 33.481 49.124 59.637 59.925 59.262 53.396 35.632 19.315 12.160 9.418 7.653 9.502 10.759 13.334 16.183 12.644 5.224 1.383 0.000 0.000 0.000 0.000 0.000 0.000 0.000 0.000 0.000 0.000
0.000 0.000 0.000 0.000 0.000 0.000 0.000 0.000 0.000 0.000 0.000 0.000 0.000 0.000 0.000 0.000 0.000 0.000 0.000 0.107 1.076 2.551 2.833 3.393 5.176 12.132 21.599 37.765 53.235 53.935 46.927 43.883 28.661 21.803 17.594 9.570 7.991 7.967 6.949 11.241 16.397 11.103 5.557 2.628 0.000 0.000 0.000 0.000 0.000 0.000 0.000 0.000 0.000 0.000
0.000 0.000 0.000 0.000 0.000 0.000 0.000 0.000 0.000 0.000 0.000 0.000 0.000 0.000 0.000 0.000 0.000 0.000 0.000 0.004 0.368 2.042 2.466 2.749 3.940 8.826 17.445 31.376 43.997 47.232 49.850 43.668 32.751 27.910 18.494 10.713 9.165 7.268 7.415 11.051 13.708 11.133 6.142 2.266 0.000 0.000 0.000 0.000 0.000 0.000 0.000 0.000 0.000 0.000
0.000 0.000 0.000 0.000 0.000 0.000 0.000 0.000 0.000 0.000 0.000 0.000 0.000 0.000 0.000 0.000 0.000 0.000 0.000 0.000 0.053 1.434 2.156 2.415 3.481 4.901 11.553 19.917 29.496 38.522 40.344 39.166 34.780 34.741 20.276 13.962 9.412 8.530 8.158 8.095 12.320 10.958 6.334 2.610 0.247 0.000 0.000 0.000 0.000 0.000 0.000 0.000 0.000 0.000
0.000 0.000 0.000 0.000 0.000 0.000 0.000 0.000 0.000 0.000 0.000 0.000 0.000 0.000 0.000 0.000 0.000 0.000 0.000 0.000 0.032 0.833 1.780 2.315 2.936 3.964 7.059 13.454 26.489 35.997 36.170 38.998 37.778 29.097 25.356 15.227 10.361 8.102 5.719 5.025 10.078 10.372 6.992 2.545 1.239 0.000 0.000 0.000 0.000 0.000 0.000 0.000 0.000 0.000
0.000 0.000 0.000 0.000 0.000 0.000 0.000 0.000 0.000 0.000 0.000 0.000 0.000 0.000 0.000 0.000 0.000 0.000 0.000 0.000 0.007 0.396 1.423 1.944 2.508 2.519 4.696 10.086 18.462 27.499 33.217 39.433 39.224 27.243 26.883 14.769 10.665 5.062 3.698 2.712 8.283 10.028 7.746 2.273 1.236 0.002 0.000 0.000 0.000 0.000 0.000 0.000 0.000 0.000
0.000 0.000 0.000 0.000 0.000 0.000 0.000 0.000 0.000 0.000 0.000 0.000 0.000 0.000 0.000 0.000 0.000 0.000 0.000 0.000 0.004 0.154 0.773 1.425 2.088 1.866 3.434 7.916 14.214 24.335 34.540 36.696 35.869 30.124 29.425 16.582 7.690 3.775 2.739 4.269 8.260 10.519 8.264 3.063 1.664 0.298 0.000 0.000 0.000 0.000 0.000 0.000 0.000 0.000
0.000 0.000 0.000 0.000 0.000 0.000 0.000 0.000 0.000 0.000 0.000 0.000 0.000 0.000 0.000 0.000 0.000 0.000 0.000 0.000 0.000 0.184 0.531 1.252 1.860 2.475 3.009 6.307 13.052 21.514 37.762 39.523 29.689 33.194 24.928 13.965 6.207 4.302 4.110 5.814 7.808 10.614 8.780 3.491 2.328 1.228 0.014 0.000 0.000 0.000 0.000 0.000 0.000 0.000
0.000 0.000 0.000 0.000 0.000 0.000 0.000 0.000 0.000 0.000 0.000 0.000 0.000 0.000 0.000 0.000 0.000 0.000 0.000 0.000 0.000 0.000 0.179 1.033 1.663 2.274 2.888 5.385 10.821 17.988 34.768 35.786 32.886 30.282 24.131 13.087 5.350 4.256 4.877 5.200 7.180 10.536 8.128 3.336 2.770 2.102 0.799 0.000 0.000 0.000 0.000 0.000 0.000 0.000
0.000 0.000 0.000 0.000 0.000 0.000 0.000 0.000 0.000 0.000 0.000 0.000 0.000 0.000 0.000 0.000 0.000 0.000 0.000 0.000 0.000 0.000 0.029 0.638 1.591 1.480 2.567 4.278 9.671 14.538 20.093 29.160 26.610 22.900 18.527 10.405 5.762 4.557 4.627 3.949 6.554 9.538 7.480 3.304 2.781 2.333 1.574 0.022 0.000 0.000 0.000 0.000 0.000 0.000
0.000 0.000 0.000 0.000 0.000 0.000 0.000 0.000 0.000 0.000 0.000 0.000 0.000 0.000 0.000 0.000 0.000 0.000 0.000 0.000 0.000 0.000 0.002 0.326 1.145 1.400 2.351 3.277 5.967 10.039 14.594 22.732 20.425 17.589 13.659 12.230 7.383 6.144 4.862 5.031 4.892 7.000 7.248 3.303 2.510 2.202 1.632 0.430 0.002 0.000 0.000 0.000 0.000 0.000
0.000 0.000 0.000 0.000 0.000 0.000 0.000 0.000 0.000 0.000 0.000 0.000 0.000 0.000 0.000 0.000 0.000 0.000 0.000 0.000 0.000 0.000 0.000 0.165 0.971 1.681 2.013 2.469 4.118 6.210 6.351 14.894 12.714 13.883 12.528 14.403 8.819 5.451 5.030 5.401 4.814 6.342 7.138 2.730 2.035 2.061 1.859 1.238 0.453 0.000 0.000 0.000 0.000 0.000
0.000 0.000 0.000 0.000 0.000 0.000 0.000 0.000 0.000 0.000 0.000 0.000 0.000 0.000 0.000 0.000 0.000 0.000 0.000 0.000 0.000 0.000 0.000 0.247 0.881 1.368 1.499 1.839 2.895 3.166 5.948 10.170 11.529 12.693 15.145 13.658 6.818 3.821 6.322 4.095 5.233 5.451 5.880 2.353 1.964 1.940 1.767 1.828 1.885 0.002 0.000 0.000 0.000 0.000
0.000 0.000 0.000 0.000 0.000 0.000 0.000 0.000 0.000 0.000 0.000 0.000 0.000 0.000 0.000 0.000 0.000 0.000 0.000 0.000 0.000 0.000 0.000 0.059 0.492 0.905 1.337 1.351 1.697 2.706 2.561 7.500 10.801 12.557 14.853 10.248 4.504 4.903 4.585 0.890 3.090 5.427 5.000 2.954 2.071 1.845 1.779 1.979 1.637 0.330 0.000 0.000 0.000 0.000
0.000 0.000 0.000 0.000 0.000 0.000 0.000 0.000 0.000 0.000 0.000 0.000 0.000 0.000 0.000 0.000 0.000 0.000 0.000 0.000 0.000 0.000 0.000 0.006 0.179 0.484 1.008 1.139 1.006 1.501 4.892 9.020 8.347 9.244 10.878 6.938 3.101 3.735 2.684 0.676 1.011 4.753 4.652 3.359 1.983 1.715 1.705 1.509 0.863 1.155 0.000 0.000 0.000 0.000
0.000 0.000 0.000 0.000 0.000 0.000 0.000 0.000 0.000 0.000 0.000 0.000 0.000 0.000 0.000 0.000 0.000 0.000 0.000 0.000 0.000 0.000 0.000 0.000 0.000 0.030 0.332 0.651 0.634 0.003 3.833 6.097 5.659 6.937 7.347 4.759 2.164 3.192 3.104 2.491 2.210 3.034 4.137 2.987 1.835 1.553 1.347 1.367 1.496 1.166 0.001 0.000 0.000 0.000
0.000 0.000 0.000 0.000 0.000 0.000 0.000 0.000 0.000 0.000 0.000 0.000 0.000 0.000 0.000 0.000 0.000 0.000 0.000 0.000 0.000 0.000 0.000 0.000 0.000 0.000 0.105 0.667 1.026 1.578 2.558 3.287 3.496 4.056 4.382 5.394 3.787 4.543 5.040 3.926 2.276 2.055 2.686 2.588 1.701 1.399 1.243 1.172 1.147 0.766 0.052 0.000 0.000 0.000
0.000 0.000 0.000 0.000 0.000 0.000 0.000 0.000 0.000 0.000 0.000 0.000 0.000 0.000 0.000 0.000 0.000 0.000 0.000 0.000 0.000 0.000 0.000 0.000 0.000 0.000 0.013 0.536 1.075 1.125 0.809 1.694 1.884 3.404 3.470 5.074 4.063 5.328 4.391 2.571 1.705 1.243 1.824 2.268 1.659 1.291 1.102 0.890 0.772 0.984 0.321 0.000 0.000 0.000
0.000 0.000 0.000 0.000 0.000 0.000 0.000 0.000 0.000 0.000 0.000 0.000 0.000 0.000 0.000 0.000 0.000 0.000 0.000 0.000 0.000 0.000 0.000 0.000 0.000 0.000 0.000 0.079 0.654 0.831 0.001 0.550 1.337 2.212 2.402 2.883 3.530 4.366 2.319 1.001 1.112 0.296 0.552 0.928 1.434 1.115 0.840 0.655 0.898 1.586 0.728 0.000 0.000 0.000
0.000 0.000 0.000 0.000 0.000 0.000 0.000 0.000 0.000 0.000 0.000 0.000 0.000 0.000 0.000 0.000 0.000 0.000 0.000 0.000 0.000 0.000 0.000 0.000 0.000 0.000 0.000 0.000 0.041 0.801 1.179 0.532 1.596 1.708 1.055 1.563 2.389 2.286 1.015 0.418 0.072 0.002 0.001 0.220 1.147 0.860 0.606 0.455 0.703 1.185 0.763 0.000 0.000 0.000
0.000 0.000 0.000 0.000 0.000 0.000 0.000 0.000 0.000 0.000 0.000 0.000 0.000 0.000 0.000 0.000 0.000 0.000 0.000 0.000 0.000 0.000 0.000 0.000 0.000 0.000 0.000 0.000 0.077 0.533 1.387 1.797 2.168 1.183 0.391 0.760 1.730 2.133 0.742 0.173 0.001 0.000 0.001 0.009 0.296 0.640 0.274 0.002 0.233 0.280 0.475 0.067 0.000 0.000
0.000 0.000 0.000 0.000 0.000 0.000 0.000 0.000 0.000 0.000 0.000 0.000 0.000 0.000 0.000 0.000 0.000 0.000 0.000 0.000 0.000 0.000 0.000 0.000 0.000 0.000 0.000 0.000 0.000 0.327 1.039 2.010 1.767 0.088 0.002 0.246 1.584 0.656 0.002 0.000 0.000 0.001 0.002 0.002 0.176 0.367 0.001 0.002 0.002 0.198 0.438 0.309 0.000 0.000
0.000 0.000 0.000 0.000 0.000 0.000 0.000 0.000 0.000 0.000 0.000 0.000 0.000 0.000 0.000 0.000 0.000 0.000 0.000 0.000 0.000 0.000 0.000 0.000 0.000 0.000 0.000 0.000 0.000 0.002 0.478 0.870 1.015 0.003 0.307 1.420 1.217 0.001 0.000 0.001 0.000 0.002 0.002 0.001 0.002 0.001 0.001 0.001 0.000 0.321 0.419 0.166 0.002 0.000
0.000 0.000 0.000 0.000 0.000 0.000 0.000 0.000 0.000 0.000 0.000 0.000 0.000 0.000 0.000 0.000 0.000 0.000 0.000 0.000 0.000 0.000 0.000 0.000 0.000 0.000 0.000 0.000 0.000 0.000 0.089 0.483 0.820 1.398 1.892 1.525 0.312 0.000 0.000 0.001 0.002 0.000 0.000 0.000 0.001 0.002 0.103 0.002 0.001 0.281 0.344 0.172 0.043 0.000
0.000 0.000 0.000 0.000 0.000 0.000 0.000 0.000 0.000 0.000 0.000 0.000 0.000 0.000 0.000 0.000 0.000 0.000 0.000 0.000 0.000 0.000 0.000 0.000 0.000 0.000 0.000 0.000 0.000 0.000 0.000 0.240 0.564 0.825 1.454 0.903 0.002 0.002 0.000 0.001 0.000 0.001 0.001 0.001 0.002 0.002 0.002 0.002 0.015 0.367 0.466 0.333 0.098 0.001
0.000 0.000 0.000 0.000 0.000 0.000 0.000 0.000 0.000 0.000 0.000 0.000 0.000 0.000 0.000 0.000 0.000 0.000 0.000 0.000 0.000 0.000 0.000 0.000 0.000 0.000 0.000 0.000 0.000 0.000 0.000 0.003 0.305 0.701 1.044 0.941 0.383 0.033 0.002 0.000 0.000 0.001 0.001 0.002 0.001 0.001 0.001 0.056 0.015 0.498 0.390 0.425 0.164 0.026
0.000 0.000 0.000 0.000 0.000 0.000 0.000 0.000 0.000 0.000 0.000 0.000 0.000 0.000 0.000 0.000 0.000 0.000 0.000 0.000 0.000 0.000 0.000 0.000 0.000 0.000 0.000 0.000 0.000 0.000 0.000 0.001 0.322 0.721 0.765 0.503 0.521 0.036 0.002 0.000 0.002 0.002 0.002 0.000 0.002 0.041 0.001 0.007 0.071 0.221 0.270 0.451 0.296 0.050
0.000 0.000 0.000 0.000 0.000 0.000 0.000 0.000 0.000 0.000 0.000 0.000 0.000 0.000 0.000 0.000 0.000 0.000 0.000 0.000 0.000 0.000 0.000 0.000 0.000 0.000 0.000 0.000 0.000 0.000 0.000 0.003 0.101 0.359 0.592 0.613 0.434 0.083 0.002 0.001 0.088 0.001 0.001 0.001 0.076 0.020 0.001 0.029 0.407 0.470 0.510 0.333 0.440 0.279
0.000 0.000 0.000 0.000 0.000 0.000 0.000 0.000 0.000 0.000 0.000 0.000 0.000 0.000 0.000 0.000 0.000 0.000 0.000 0.000 0.000 0.000 0.000 0.000 0.000 0.000 0.000 0.000 0.000 0.000 0.000 0.000 0.004 0.047 0.405 0.599 0.572 0.493 0.002 0.020 0.002 0.002 0.002 0.148 0.002 0.002 0.001 0.038 0.839 0.873 0.628 0.329 0.610 0.550
0.000 0.000 0.000 0.000 0.000 0.000 0.000 0.000 0.000 0.000 0.000 0.000 0.000 0.000 0.000 0.000 0.000 0.000 0.000 0.000 0.000 0.000 0.000 0.000 0.000 0.000 0.000 0.000 0.000 0.000 0.000 0.000 0.000 0.001 0.095 0.520 0.565 0.605 0.486 0.207 0.000 0.000 0.000 0.001 0.002 0.002 0.002 0.017 0.860 1.038 0.403 0.383 0.697 0.637
0.000 0.000 0.000 0.000 0.000 0.000 0.000 0.000 0.000 0.000 0.000 0.000 0.000 0.000 0.000 0.000 0.000 0.000 0.000 0.000 0.000 0.000 0.000 0.000 0.000 0.000 0.000 0.000 0.000 0.000 0.000 0.000 0.000 0.000 0.001 0.331 0.626 0.598 0.356 0.002 0.002 0.001 0.001 0.001 0.002 0.000 0.000 0.013 0.820 0.378 0.007 0.115 0.445 0.712
0.000 0.000 0.000 0.000 0.000 0.000 0.000 0.000 0.000 0.000 0.000 0.000 0.000 0.000 0.000 0.000 0.000 0.000 0.000 0.000 0.000 0.000 0.000 0.000 0.000 0.000 0.000 0.000 0.000 0.000 0.000 0.000 0.000 0.000 0.000 0.101 0.508 0.555 0.312 0.000 0.000 0.001 0.002 0.001 0.002 0.001 0.002 0.002 0.004 0.037 0.159 0.063 0.419 0.863
0.000 0.000 0.000 0.000 0.000 0.000 0.000 0.000 0.000 0.000 0.000 0.000 0.000 0.000 0.000 0.000 0.000 0.000 0.000 0.000 0.000 0.000 0.000 0.000 0.000 0.000 0.000 0.000 0.000 0.000 0.000 0.000 0.000 0.000 0.000 0.000 0.137 0.446 0.389 0.025 0.001 0.000 0.001 0.002 0.002 0.002 0.001 0.001 0.080 0.608 0.623 0.306 0.555 0.696
0.000 0.000 0.000 0.000 0.000 0.000 0.000 0.000 0.000 0.000 0.000 0.000 0.000 0.000 0.000 0.000 0.000 0.000 0.000 0.000 0.000 0.000 0.000 0.000 0.000 0.000 0.000 0.000 0.000 0.000 0.000 0.000 0.000 0.000 0.000 0.000 0.002 0.285 0.314 0.220 0.002 0.001 0.001 0.000 0.002 0.002 0.002 0.015 0.241 0.966 0.718 0.175 0.190 0.214
0.000 0.000 0.000 0.000 0.000 0.000 0.000 0.000 0.000 0.000 0.000 0.000 0.000 0.000 0.000 0.000 0.000 0.000 0.000 0.000 0.000 0.000 0.000 0.000 0.000 0.000 0.000 0.000 0.000 0.000 0.000 0.000 0.000 0.000 0.000 0.000 0.000 0.208 0.322 0.203 0.005 0.041 0.038 0.002 0.001 0.000 0.002 0.001 0.577 0.667 0.517 0.157 0.010 0.212
0.000 0.000 0.000 0.000 0.000 0.000 0.000 0.000 0.000 0.000 0.000 0.000 0.000 0.000 0.000 0.000 0.000 0.000 0.000 0.000 0.000 0.000 0.000 0.000 0.000 0.000 0.000 0.000 0.000 0.000 0.000 0.000 0.000 0.000 0.000 0.000 0.000 0.030 0.318 0.333 0.463 0.003 0.411 0.001 0.001 0.002 0.002 0.002 0.187 0.454 0.462 0.002 0.035 0.036
0.000 0.000 0.000 0.000 0.000 0.000 0.000 0.000 0.000 0.000 0.000 0.000 0.000 0.000 0.000 0.000 0.000 0.000 0.000 0.000 0.000 0.000 0.000 0.000 0.000 0.000 0.000 0.000 0.000 0.000 0.000 0.000 0.000 0.000 0.000 0.000 0.000 0.002 0.275 0.544 0.460 0.613 0.570 0.172 0.001 0.002 0.002 0.002 0.023 0.341 0.002 0.002 0.002 0.002
0.000 0.000 0.000 0.000 0.000 0.000 0.000 0.000 0.000 0.000 0.000 0.000 0.000 0.000 0.000 0.000 0.000 0.000 0.000 0.000 0.000 0.000 0.000 0.000 0.000 0.000 0.000 0.000 0.000 0.000 0.000 0.000 0.000 0.000 0.000 0.000 0.000 0.010 0.092 0.370 0.269 0.585 0.020 0.012 0.000 0.000 0.001 0.006 0.338 0.123 0.003 0.001 0.002 0.002
0.000 0.000 0.000 0.000 0.000 0.000 0.000 0.000 0.000 0.000 0.000 0.000 0.000 0.000 0.000 0.000 0.000 0.000 0.000 0.000 0.000 0.000 0.000 0.000 0.000 0.000 0.000 0.000 0.000 0.000 0.000 0.000 0.000 0.000 0.000 0.000 0.000 0.000 0.035 0.002 0.456 0.331 0.001 0.001 0.002 0.000 0.001 0.140 0.504 0.077 0.119 0.001 0.001 0.001
0.000 0.000 0.000 0.000 0.000 0.000 0.000 0.000 0.000 0.000 0.000 0.000 0.000 0.000 0.000 0.000 0.000 0.000 0.000 0.000 0.000 0.000 0.000 0.000 0.000 0.000 0.000 0.000 0.000 0.000 0.000 0.000 0.000 0.000 0.000 0.000 0.000 0.000 0.000 0.108 0.451 0.326 0.002 0.002 0.000 0.002 0.021 0.064 0.506 0.483 0.377 0.000 0.001 0.001
0.000 0.000 0.000 0.000 0.000 0.000 0.000 0.000 0.000 0.000 0.000 0.000 0.000 0.000 0.000 0.000 0.000 0.000 0.000 0.000 0.000 0.000 0.000 0.000 0.000 0.000 0.000 0.000 0.000 0.000 0.000 0.000 0.000 0.000 0.000 0.000 0.000 0.000 0.000 0.116 0.286 0.293 0.002 0.000 0.036 0.005 0.347 0.353 1.027 0.779 0.002 0.010 0.001 0.000
0.000 0.000 0.000 0.000 0.000 0.000 0.000 0.000 0.000 0.000 0.000 0.000 0.000 0.000 0.000 0.000 0.000 0.000 0.000 0.000 0.000 0.000 0.000 0.000 0.000 0.000 0.000 0.000 0.000 0.000 0.000 0.000 0.000 0.000 0.000 0.000 0.000 0.000 0.000 0.049 0.045 0.243 0.002 0.021 1.985 1.890 1.946 2.088 1.192 0.200 0.002 0.001 0.001 0.001
0.000 0.000 0.000 0.000 0.000 0.000 0.000 0.000 0.000 0.000 0.000 0.000 0.000 0.000 0.000 0.000 0.000 0.000 0.000 0.000 0.000 0.000 0.000 0.000 0.000 0.000 0.000 0.000 0.000 0.000 0.000 0.000 0.000 0.000 0.000 0.000 0.000 0.000 0.000 0.001 0.065 0.006 0.001 0.509 1.820 3.239 2.926 2.473 0.844 0.204 0.002 0.002 0.001 0.001
0.000 0.000 0.000 0.000 0.000 0.000 0.000 0.000 0.000 0.000 0.000 0.000 0.000 0.000 0.000 0.000 0.000 0.000 0.000 0.000 0.000 0.000 0.000 0.000 0.000 0.000 0.000 0.000 0.000 0.000 0.000 0.000 0.000 0.000 0.000 0.000 0.000 0.000 0.000 0.000 0.026 0.012 0.019 0.787 1.264 2.231 2.180 1.313 0.874 0.134 0.002 0.039 0.001 0.001
0.000 0.000 0.000 0.000 0.000 0.000 0.000 0.000 0.000 0.000 0.000 0.000 0.000 0.000 0.000 0.000 0.000 0.000 0.000 0.000 0.000 0.000 0.000 0.000 0.000 0.000 0.000 0.000 0.000 0.000 0.000 0.000 0.000 0.000 0.000 0.000 0.000 0.000 0.000 0.000 0.000 0.002 0.504 0.689 0.726 1.355 0.990 1.145 1.737 1.197 0.780 0.026 0.002 0.001
0.000 0.000 0.000 0.000 0.000 0.000 0.000 0.000 0.000 0.000 0.000 0.000 0.000 0.000 0.000 0.000 0.000 0.000 0.000 0.000 0.000 0.000 0.000 0.000 0.000 0.000 0.000 0.000 0.000 0.000 0.000 0.000 0.000 0.000 0.000 0.000 0.000 0.000 0.000 0.000 0.001 0.272 0.565 0.564 0.541 0.623 0.267 0.580 1.991 1.890 1.536 0.456 0.020 0.002
0.000 0.000 0.000 0.000 0.000 0.000 0.000 0.000 0.000 0.000 0.000 0.000 0.000 0.000 0.000 0.000 0.000 0.000 0.000 0.000 0.000 0.000 0.000 0.000 0.000 0.000 0.000 0.000 0.000 0.000 0.000 0.000 0.000 0.000 0.000 0.000 0.000 0.000 0.000 0.000 0.007 0.223 0.387 0.392 0.410 0.513 0.029 0.031 0.964 1.214 1.320 0.893 0.084 0.001
0.000 0.000 0.000 0.000 0.000 0.000 0.000 0.000 0.000 0.000 0.000 0.000 0.000 0.000 0.000 0.000 0.000 0.000 0.000 0.000 0.000 0.000 0.000 0.000 0.000 0.000 0.000 0.000 0.000 0.000 0.000 0.000 0.000 0.000 0.000 0.000 0.000 0.000 0.000 0.000 0.000 0.001 0.075 0.285 0.370 0.450 0.040 0.005 0.595 0.855 0.958 0.848 0.485 0.098
0.000 0.000 0.000 0.000 0.000 0.000 0.000 0.000 0.000 0.000 0.000 0.000 0.000 0.000 0.000 0.000 0.000 0.000 0.000 0.000 0.000 0.000 0.000 0.000 0.000 0.000 0.000 0.000 0.000 0.000 0.000 0.000 0.000 0.000 0.000 0.000 0.000 0.000 0.000 0.000 0.000 0.000 0.000 0.179 0.270 0.229 0.086 0.582 0.849 1.061 0.741 0.556 0.749 0.259
0.000 0.000 0.000 0.000 0.000 0.000 0.000 0.000 0.000 0.000 0.000 0.000 0.000 0.000 0.000 0.000 0.000 0.000 0.000 0.000 0.000 0.000 0.000 0.000 0.000 0.000 0.000 0.000 0.000 0.000 0.000 0.000 0.000 0.000 0.000 0.000 0.000 0.000 0.000 0.000 0.000 0.000 0.000 0.010 0.126 0.002 0.468 1.420 1.314 0.827 0.702 0.408 0.703 0.235
0.000 0.000 0.000 0.000 0.000 0.000 0.000 0.000 0.000 0.000 0.000 0.000 0.000 0.000 0.000 0.000 0.000 0.000 0.000 0.000 0.000 0.000 0.000 0.000 0.000 0.000 0.000 0.000 0.000 0.000 0.000 0.000 0.000 0.000 0.000 0.000 0.000 0.000 0.000 0.000 0.000 0.000 0.000 0.000 0.168 0.286 0.684 1.342 1.319 0.790 0.627 0.332 0.251 0.266
0.000 0.000 0.000 0.000 0.000 0.000 0.000 0.000 0.000 0.000 0.000 0.000 0.000 0.000 0.000 0.000 0.000 0.000 0.000 0.000 0.000 0.000 0.000 0.000 0.000 0.000 0.000 0.000 0.000 0.000 0.000 0.000 0.000 0.000 0.000 0.000 0.000 0.000 0.000 0.000 0.000 0.000 0.000 0.000 0.123 0.358 0.605 0.883 1.337 1.230 0.646 0.552 0.133 0.194
