ncols        57
nrows        137
xllcorner    409527.8
yllcorner    6870869.1
cellsize     5.00
NODATA_value -9999
0.000 0.000 0.000 0.000 0.000 0.000 0.000 0.000 0.000 0.000 0.000 0.000 0.000 0.000 0.000 0.000 0.000 0.000 0.000 0.000 0.000 0.000 0.000 0.000 0.000 0.000 0.000 0.000 0.000 0.000 0.000 0.000 0.000 0.000 0.000 0.000 0.000 0.000 0.000 0.000 0.000 0.000 0.000 0.000 0.000 0.000 0.000 0.000 0.000 0.000 0.000 0.000 0.000 0.000 0.000 0.000 0.000
0.000 0.000 0.000 0.001 0.794 27.147 103.685 78.731 91.025 79.249 44.063 11.253 0.286 0.000 0.000 0.000 0.000 0.000 0.000 0.000 0.000 0.000 0.000 0.000 0.000 0.000 0.000 0.000 0.000 0.000 0.000 0.000 0.000 0.000 0.000 0.000 0.000 0.000 0.000 0.000 0.000 0.000 0.000 0.000 0.000 0.000 0.000 0.000 0.000 0.000 0.000 0.000 0.000 0.000 0.000 0.000 0.000
0.000 0.000 0.394 24.122 89.772 93.311 96.487 113.465 69.751 88.492 94.070 80.528 52.987 2.280 0.000 0.000 0.000 0.000 0.000 0.000 0.000 0.000 0.000 0.000 0.000 0.000 0.000 0.000 0.000 0.000 0.000 0.000 0.000 0.000 0.000 0.000 0.000 0.000 0.000 0.000 0.000 0.000 0.000 0.000 0.000 0.000 0.000 0.000 0.000 0.000 0.000 0.000 0.000 0.000 0.000 0.000 0.000
0.000 0.059 35.180 93.942 100.393 101.613 109.084 119.488 94.327 86.023 108.543 86.691 83.038 54.558 3.608 0.000 0.000 0.000 0.000 0.000 0.000 0.000 0.000 0.000 0.000 0.000 0.000 0.000 0.000 0.000 0.000 0.000 0.000 0.000 0.000 0.000 0.000 0.000 0.000 0.000 0.000 0.000 0.000 0.000 0.000 0.000 0.000 0.000 0.000 0.000 0.000 0.000 0.000 0.000 0.000 0.000 0.000
0.000 2.672 98.077 107.827 106.521 111.908 126.284 131.811 135.971 65.101 83.700 102.677 89.153 71.261 49.468 1.335 0.000 0.000 0.000 0.000 0.000 0.000 0.000 0.000 0.000 0.000 0.000 0.000 0.000 0.000 0.000 0.000 0.000 0.000 0.000 0.000 0.000 0.000 0.000 0.000 0.000 0.000 0.000 0.000 0.000 0.000 0.000 0.000 0.000 0.000 0.000 0.000 0.000 0.000 0.000 0.000 0.000
0.002 21.766 101.701 111.867 122.763 137.097 125.714 135.989 128.169 110.594 71.174 105.785 109.030 102.882 75.720 30.640 0.004 0.000 0.000 0.000 0.000 0.000 0.000 0.000 0.000 0.000 0.000 0.000 0.000 0.000 0.000 0.000 0.000 0.000 0.000 0.000 0.000 0.000 0.000 0.000 0.000 0.000 0.000 0.000 0.000 0.000 0.000 0.000 0.000 0.000 0.000 0.000 0.000 0.000 0.000 0.000 0.000
0.346 92.203 110.202 129.494 132.459 147.800 147.200 138.185 118.186 156.837 126.418 152.670 168.903 100.059 76.578 49.268 4.975 0.000 0.000 0.000 0.000 0.000 0.000 0.000 0.000 0.000 0.000 0.000 0.000 0.000 0.000 0.000 0.000 0.000 0.000 0.000 0.000 0.000 0.000 0.000 0.000 0.000 0.000 0.000 0.000 0.000 0.000 0.000 0.000 0.000 0.000 0.000 0.000 0.000 0.000 0.000 0.000
1.852 96.400 115.231 128.263 151.000 156.379 143.955 134.293 127.426 163.683 175.511 125.946 168.029 109.662 78.697 47.544 25.459 0.004 0.000 0.000 0.000 0.000 0.000 0.000 0.000 0.000 0.000 0.000 0.000 0.000 0.000 0.000 0.000 0.000 0.000 0.000 0.000 0.000 0.000 0.000 0.000 0.000 0.000 0.000 0.000 0.000 0.000 0.000 0.000 0.000 0.000 0.000 0.000 0.000 0.000 0.000 0.000
3.732 93.933 128.437 125.236 145.612 145.397 128.644 139.054 133.729 157.170 152.543 136.435 145.526 121.663 93.373 57.294 39.489 3.250 0.000 0.000 0.000 0.000 0.000 0.000 0.000 0.000 0.000 0.000 0.000 0.000 0.000 0.000 0.000 0.000 0.000 0.000 0.000 0.000 0.000 0.000 0.000 0.000 0.000 0.000 0.000 0.000 0.000 0.000 0.000 0.000 0.000 0.000 0.000 0.000 0.000 0.000 0.000
4.799 98.743 126.748 135.674 147.952 155.900 134.873 133.227 180.081 162.493 147.784 186.764 125.545 143.835 88.823 65.807 42.335 15.359 0.000 0.000 0.000 0.000 0.000 0.000 0.000 0.000 0.000 0.000 0.000 0.000 0.000 0.000 0.000 0.000 0.000 0.000 0.000 0.000 0.000 0.000 0.000 0.000 0.000 0.000 0.000 0.000 0.000 0.000 0.000 0.000 0.000 0.000 0.000 0.000 0.000 0.000 0.000
4.037 86.015 116.297 141.698 149.720 147.060 159.920 174.523 171.564 163.494 166.456 146.070 158.789 142.130 86.352 73.605 50.371 28.227 0.078 0.000 0.000 0.000 0.000 0.000 0.000 0.000 0.000 0.000 0.000 0.000 0.000 0.000 0.000 0.000 0.000 0.000 0.000 0.000 0.000 0.000 0.000 0.000 0.000 0.000 0.000 0.000 0.000 0.000 0.000 0.000 0.000 0.000 0.000 0.000 0.000 0.000 0.000
3.432 84.278 105.094 128.820 140.900 136.684 147.711 184.014 173.439 145.558 133.114 179.452 207.955 138.917 92.474 78.481 55.247 37.196 5.206 0.000 0.000 0.000 0.000 0.000 0.000 0.000 0.000 0.000 0.000 0.000 0.000 0.000 0.000 0.000 0.000 0.000 0.000 0.000 0.000 0.000 0.000 0.000 0.000 0.000 0.000 0.000 0.000 0.000 0.000 0.000 0.000 0.000 0.000 0.000 0.000 0.000 0.000
1.419 77.675 100.011 123.333 131.259 123.067 136.267 187.336 144.701 146.835 167.028 179.245 178.610 126.456 105.271 91.972 68.019 44.545 12.665 0.000 0.000 0.000 0.000 0.000 0.000 0.000 0.000 0.000 0.000 0.000 0.000 0.000 0.000 0.000 0.000 0.000 0.000 0.000 0.000 0.000 0.000 0.000 0.000 0.000 0.000 0.000 0.000 0.000 0.000 0.000 0.000 0.000 0.000 0.000 0.000 0.000 0.000
0.395 59.463 95.480 122.070 126.882 130.517 151.419 169.917 171.544 165.167 132.957 148.179 152.665 123.821 128.390 100.168 76.367 52.201 21.337 0.016 0.000 0.000 0.000 0.000 0.000 0.000 0.000 0.000 0.000 0.000 0.000 0.000 0.000 0.000 0.000 0.000 0.000 0.000 0.000 0.000 0.000 0.000 0.000 0.000 0.000 0.000 0.000 0.000 0.000 0.000 0.000 0.000 0.000 0.000 0.000 0.000 0.000
0.103 36.589 82.197 106.748 141.352 143.528 151.561 149.152 160.533 134.270 107.488 126.637 166.458 136.593 120.621 94.647 81.446 60.079 23.921 2.173 0.000 0.000 0.000 0.000 0.000 0.000 0.000 0.000 0.000 0.000 0.000 0.000 0.000 0.000 0.000 0.000 0.000 0.000 0.000 0.000 0.000 0.000 0.000 0.000 0.000 0.000 0.000 0.000 0.000 0.000 0.000 0.000 0.000 0.000 0.000 0.000 0.000
0.019 20.329 74.442 94.157 122.746 143.620 155.681 162.052 145.627 115.419 131.007 147.518 180.674 142.228 133.067 101.526 96.480 60.749 27.699 6.797 0.000 0.000 0.000 0.000 0.000 0.000 0.000 0.000 0.000 0.000 0.000 0.000 0.000 0.000 0.000 0.000 0.000 0.000 0.000 0.000 0.000 0.000 0.000 0.000 0.000 0.000 0.000 0.000 0.000 0.000 0.000 0.000 0.000 0.000 0.000 0.000 0.000
0.001 8.231 67.757 91.451 118.872 117.179 150.475 142.979 122.902 110.391 118.036 135.848 169.091 149.057 129.822 124.537 104.514 69.800 27.438 10.011 0.566 0.000 0.000 0.000 0.000 0.000 0.000 0.000 0.000 0.000 0.000 0.000 0.000 0.000 0.000 0.000 0.000 0.000 0.000 0.000 0.000 0.000 0.000 0.000 0.000 0.000 0.000 0.000 0.000 0.000 0.000 0.000 0.000 0.000 0.000 0.000 0.000
0.000 1.967 47.059 85.602 116.472 132.132 133.496 122.538 113.966 118.073 140.686 168.566 151.016 159.173 133.382 109.957 99.752 60.662 26.699 17.925 6.041 0.000 0.000 0.000 0.000 0.000 0.000 0.000 0.000 0.000 0.000 0.000 0.000 0.000 0.000 0.000 0.000 0.000 0.000 0.000 0.000 0.000 0.000 0.000 0.000 0.000 0.000 0.000 0.000 0.000 0.000 0.000 0.000 0.000 0.000 0.000 0.000
0.000 0.232 25.617 69.229 96.338 119.031 115.318 125.182 106.932 132.664 116.683 150.760 151.485 149.127 143.062 133.085 94.476 56.529 36.184 23.406 10.951 0.222 0.000 0.000 0.000 0.000 0.000 0.000 0.000 0.000 0.000 0.000 0.000 0.000 0.000 0.000 0.000 0.000 0.000 0.000 0.000 0.000 0.000 0.000 0.000 0.000 0.000 0.000 0.000 0.000 0.000 0.000 0.000 0.000 0.000 0.000 0.000
0.000 0.008 9.282 56.214 85.555 99.196 113.996 113.985 132.003 119.145 134.876 125.576 144.958 158.237 165.651 113.142 85.851 60.395 40.775 28.061 15.874 3.044 0.000 0.000 0.000 0.000 0.000 0.000 0.000 0.000 0.000 0.000 0.000 0.000 0.000 0.000 0.000 0.000 0.000 0.000 0.000 0.000 0.000 0.000 0.000 0.000 0.000 0.000 0.000 0.000 0.000 0.000 0.000 0.000 0.000 0.000 0.000
0.000 0.000 1.733 33.247 63.497 84.748 109.153 118.292 129.279 134.866 140.867 102.962 133.089 151.561 154.788 100.100 81.939 69.870 53.594 32.410 19.283 5.489 0.026 0.000 0.000 0.000 0.000 0.000 0.000 0.000 0.000 0.000 0.000 0.000 0.000 0.000 0.000 0.000 0.000 0.000 0.000 0.000 0.000 0.000 0.000 0.000 0.000 0.000 0.000 0.000 0.000 0.000 0.000 0.000 0.000 0.000 0.000
0.000 0.000 0.176 17.067 55.105 90.338 108.698 138.231 128.370 148.360 135.800 144.002 157.408 156.022 146.872 102.570 96.570 98.175 65.893 33.837 23.795 9.037 1.932 0.000 0.000 0.000 0.000 0.000 0.000 0.000 0.000 0.000 0.000 0.000 0.000 0.000 0.000 0.000 0.000 0.000 0.000 0.000 0.000 0.000 0.000 0.000 0.000 0.000 0.000 0.000 0.000 0.000 0.000 0.000 0.000 0.000 0.000
0.000 0.000 0.003 4.390 35.542 63.298 94.189 122.064 136.927 153.130 131.341 112.465 146.279 165.429 137.713 108.987 116.614 109.395 58.296 45.232 25.508 14.426 6.541 0.000 0.000 0.000 0.000 0.000 0.000 0.000 0.000 0.000 0.000 0.000 0.000 0.000 0.000 0.000 0.000 0.000 0.000 0.000 0.000 0.000 0.000 0.000 0.000 0.000 0.000 0.000 0.000 0.000 0.000 0.000 0.000 0.000 0.000
0.000 0.000 0.000 0.362 16.068 50.444 84.468 101.296 130.261 126.682 118.662 125.598 120.039 153.040 136.032 128.349 131.097 116.543 77.592 64.273 25.821 20.965 10.793 0.127 0.000 0.000 0.000 0.000 0.000 0.000 0.000 0.000 0.000 0.000 0.000 0.000 0.000 0.000 0.000 0.000 0.000 0.000 0.000 0.000 0.000 0.000 0.000 0.000 0.000 0.000 0.000 0.000 0.000 0.000 0.000 0.000 0.000
0.000 0.000 0.000 0.001 2.576 24.321 51.107 99.388 104.560 105.026 113.541 126.903 158.253 155.674 139.565 133.744 137.728 134.395 97.373 58.641 33.487 26.729 13.962 2.431 0.000 0.000 0.000 0.000 0.000 0.000 0.000 0.000 0.000 0.000 0.000 0.000 0.000 0.000 0.000 0.000 0.000 0.000 0.000 0.000 0.000 0.000 0.000 0.000 0.000 0.000 0.000 0.000 0.000 0.000 0.000 0.000 0.000
0.000 0.000 0.000 0.000 0.110 9.919 37.913 68.032 94.375 114.007 123.547 142.409 120.379 130.956 135.907 121.440 130.190 125.131 84.791 58.983 56.873 31.125 15.905 5.398 0.000 0.000 0.000 0.000 0.000 0.000 0.000 0.000 0.000 0.000 0.000 0.000 0.000 0.000 0.000 0.000 0.000 0.000 0.000 0.000 0.000 0.000 0.000 0.000 0.000 0.000 0.000 0.000 0.000 0.000 0.000 0.000 0.000
0.000 0.000 0.000 0.000 0.000 1.115 17.103 51.261 78.944 97.012 110.547 108.433 88.986 139.461 113.730 111.860 129.457 129.196 90.820 96.948 69.323 31.249 15.330 10.093 0.012 0.000 0.000 0.000 0.000 0.000 0.000 0.000 0.000 0.000 0.000 0.000 0.000 0.000 0.000 0.000 0.000 0.000 0.000 0.000 0.000 0.000 0.000 0.000 0.000 0.000 0.000 0.000 0.000 0.000 0.000 0.000 0.000
0.000 0.000 0.000 0.000 0.000 0.005 2.598 19.485 50.733 89.274 102.074 87.323 103.783 148.422 137.613 117.784 132.444 115.965 93.623 111.306 65.612 28.731 21.509 14.645 1.493 0.000 0.000 0.000 0.000 0.000 0.000 0.000 0.000 0.000 0.000 0.000 0.000 0.000 0.000 0.000 0.000 0.000 0.000 0.000 0.000 0.000 0.000 0.000 0.000 0.000 0.000 0.000 0.000 0.000 0.000 0.000 0.000
0.000 0.000 0.000 0.000 0.000 0.000 0.065 5.150 25.656 54.563 78.032 108.459 122.591 117.787 131.496 130.057 117.137 108.565 102.538 98.937 65.934 37.259 28.698 15.664 4.365 0.000 0.000 0.000 0.000 0.000 0.000 0.000 0.000 0.000 0.000 0.000 0.000 0.000 0.000 0.000 0.000 0.000 0.000 0.000 0.000 0.000 0.000 0.000 0.000 0.000 0.000 0.000 0.000 0.000 0.000 0.000 0.000
0.000 0.000 0.000 0.000 0.000 0.000 0.000 0.257 8.897 31.648 62.386 89.700 105.393 110.747 128.926 120.156 97.844 100.708 104.717 106.559 85.465 59.112 30.177 17.338 6.025 0.103 0.000 0.000 0.000 0.000 0.000 0.000 0.000 0.000 0.000 0.000 0.000 0.000 0.000 0.000 0.000 0.000 0.000 0.000 0.000 0.000 0.000 0.000 0.000 0.000 0.000 0.000 0.000 0.000 0.000 0.000 0.000
0.000 0.000 0.000 0.000 0.000 0.000 0.000 0.001 1.323 14.841 40.666 66.340 86.357 98.820 109.633 120.210 135.421 98.095 115.987 119.750 109.179 68.394 32.073 15.984 8.067 2.697 0.000 0.000 0.000 0.000 0.000 0.000 0.000 0.000 0.000 0.000 0.000 0.000 0.000 0.000 0.000 0.000 0.000 0.000 0.000 0.000 0.000 0.000 0.000 0.000 0.000 0.000 0.000 0.000 0.000 0.000 0.000
0.000 0.000 0.000 0.000 0.000 0.000 0.000 0.000 0.114 6.229 27.187 55.642 76.934 93.918 107.443 128.759 121.738 97.564 117.182 131.304 100.973 74.930 35.524 15.974 11.303 6.970 0.364 0.000 0.000 0.000 0.000 0.000 0.000 0.000 0.000 0.000 0.000 0.000 0.000 0.000 0.000 0.000 0.000 0.000 0.000 0.000 0.000 0.000 0.000 0.000 0.000 0.000 0.000 0.000 0.000 0.000 0.000
0.000 0.000 0.000 0.000 0.000 0.000 0.000 0.000 0.002 1.762 15.381 40.228 64.771 110.757 125.768 121.916 116.362 109.239 127.872 112.946 86.494 69.990 42.462 20.419 14.157 9.116 2.441 0.000 0.000 0.000 0.000 0.000 0.000 0.000 0.000 0.000 0.000 0.000 0.000 0.000 0.000 0.000 0.000 0.000 0.000 0.000 0.000 0.000 0.000 0.000 0.000 0.000 0.000 0.000 0.000 0.000 0.000
0.000 0.000 0.000 0.000 0.000 0.000 0.000 0.000 0.000 0.298 8.966 30.981 56.710 83.426 111.844 107.355 119.099 110.877 88.239 102.522 81.177 72.109 54.267 23.385 17.085 11.122 5.266 0.005 0.000 0.000 0.000 0.000 0.000 0.000 0.000 0.000 0.000 0.000 0.000 0.000 0.000 0.000 0.000 0.000 0.000 0.000 0.000 0.000 0.000 0.000 0.000 0.000 0.000 0.000 0.000 0.000 0.000
0.000 0.000 0.000 0.000 0.000 0.000 0.000 0.000 0.000 0.021 3.679 22.207 45.546 76.408 94.175 110.479 111.669 100.721 98.736 88.988 91.629 73.211 55.132 32.068 20.410 14.833 9.450 0.849 0.000 0.000 0.000 0.000 0.000 0.000 0.000 0.000 0.000 0.000 0.000 0.000 0.000 0.000 0.000 0.000 0.000 0.000 0.000 0.000 0.000 0.000 0.000 0.000 0.000 0.000 0.000 0.000 0.000
0.000 0.000 0.000 0.000 0.000 0.000 0.000 0.000 0.000 0.000 0.687 13.461 35.153 57.318 89.037 122.579 120.563 109.088 101.599 78.080 75.624 78.181 75.234 39.783 22.142 16.929 11.422 3.548 0.000 0.000 0.000 0.000 0.000 0.000 0.000 0.000 0.000 0.000 0.000 0.000 0.000 0.000 0.000 0.000 0.000 0.000 0.000 0.000 0.000 0.000 0.000 0.000 0.000 0.000 0.000 0.000 0.000
0.000 0.000 0.000 0.000 0.000 0.000 0.000 0.000 0.000 0.000 0.053 5.965 26.512 47.651 74.758 109.222 139.146 152.573 101.596 72.592 65.314 80.766 60.937 45.492 25.548 18.808 12.671 6.039 0.000 0.000 0.000 0.000 0.000 0.000 0.000 0.000 0.000 0.000 0.000 0.000 0.000 0.000 0.000 0.000 0.000 0.000 0.000 0.000 0.000 0.000 0.000 0.000 0.000 0.000 0.000 0.000 0.000
0.000 0.000 0.000 0.000 0.000 0.000 0.000 0.000 0.000 0.000 0.000 0.849 18.426 34.412 59.664 91.500 131.277 156.566 149.179 112.964 99.470 82.156 58.760 64.972 29.268 18.992 16.333 8.248 0.000 0.000 0.000 0.000 0.000 0.000 0.000 0.000 0.000 0.000 0.000 0.000 0.000 0.000 0.000 0.000 0.000 0.000 0.000 0.000 0.000 0.000 0.000 0.000 0.000 0.000 0.000 0.000 0.000
0.000 0.000 0.000 0.000 0.000 0.000 0.000 0.000 0.000 0.000 0.000 0.076 12.003 30.812 47.789 79.292 116.254 137.317 144.926 138.591 144.884 122.178 93.711 62.940 38.939 24.342 16.471 11.627 0.037 0.000 0.000 0.000 0.000 0.000 0.000 0.000 0.000 0.000 0.000 0.000 0.000 0.000 0.000 0.000 0.000 0.000 0.000 0.000 0.000 0.000 0.000 0.000 0.000 0.000 0.000 0.000 0.000
0.000 0.000 0.000 0.000 0.000 0.000 0.000 0.000 0.000 0.000 0.000 0.010 5.494 23.106 40.567 66.216 91.990 111.760 141.787 156.593 142.046 120.318 108.023 77.858 44.761 27.152 15.011 13.183 1.375 0.000 0.000 0.000 0.000 0.000 0.000 0.000 0.000 0.000 0.000 0.000 0.000 0.000 0.000 0.000 0.000 0.000 0.000 0.000 0.000 0.000 0.000 0.000 0.000 0.000 0.000 0.000 0.000
0.000 0.000 0.000 0.000 0.000 0.000 0.000 0.000 0.000 0.000 0.000 0.001 1.926 16.101 31.685 52.977 80.991 103.939 127.806 139.382 130.859 122.105 113.694 81.822 53.210 25.874 17.730 13.591 5.656 0.000 0.000 0.000 0.000 0.000 0.000 0.000 0.000 0.000 0.000 0.000 0.000 0.000 0.000 0.000 0.000 0.000 0.000 0.000 0.000 0.000 0.000 0.000 0.000 0.000 0.000 0.000 0.000
0.000 0.000 0.000 0.000 0.000 0.000 0.000 0.000 0.000 0.000 0.000 0.000 0.474 10.249 25.324 38.797 62.683 96.790 122.028 120.411 128.169 141.098 118.734 100.823 72.050 33.891 13.780 15.676 12.538 0.000 0.000 0.000 0.000 0.000 0.000 0.000 0.000 0.000 0.000 0.000 0.000 0.000 0.000 0.000 0.000 0.000 0.000 0.000 0.000 0.000 0.000 0.000 0.000 0.000 0.000 0.000 0.000
0.000 0.000 0.000 0.000 0.000 0.000 0.000 0.000 0.000 0.000 0.000 0.000 0.020 5.194 18.248 29.482 51.250 85.774 106.275 123.423 112.143 120.222 100.907 106.507 62.139 32.626 22.754 24.879 14.573 0.000 0.000 0.000 0.000 0.000 0.000 0.000 0.000 0.000 0.000 0.000 0.000 0.000 0.000 0.000 0.000 0.000 0.000 0.000 0.000 0.000 0.000 0.000 0.000 0.000 0.000 0.000 0.000
0.000 0.000 0.000 0.000 0.000 0.000 0.000 0.000 0.000 0.000 0.000 0.000 0.000 1.409 13.225 21.412 39.851 71.538 105.008 105.406 115.118 123.918 115.125 97.840 63.860 36.588 25.470 24.908 17.454 0.000 0.000 0.000 0.000 0.000 0.000 0.000 0.000 0.000 0.000 0.000 0.000 0.000 0.000 0.000 0.000 0.000 0.000 0.000 0.000 0.000 0.000 0.000 0.000 0.000 0.000 0.000 0.000
0.000 0.000 0.000 0.000 0.000 0.000 0.000 0.000 0.000 0.000 0.000 0.000 0.000 0.127 9.199 18.287 30.116 53.085 79.800 92.538 111.819 101.102 102.728 89.113 69.728 38.026 21.916 23.290 18.760 0.000 0.000 0.000 0.000 0.000 0.000 0.000 0.000 0.000 0.000 0.000 0.000 0.000 0.000 0.000 0.000 0.000 0.000 0.000 0.000 0.000 0.000 0.000 0.000 0.000 0.000 0.000 0.000
0.000 0.000 0.000 0.000 0.000 0.000 0.000 0.000 0.000 0.000 0.000 0.000 0.000 0.017 5.527 14.571 20.148 33.352 58.590 98.804 89.772 112.099 106.105 84.505 67.345 36.590 30.235 21.932 15.317 0.350 0.000 0.000 0.000 0.000 0.000 0.000 0.000 0.000 0.000 0.000 0.000 0.000 0.000 0.000 0.000 0.000 0.000 0.000 0.000 0.000 0.000 0.000 0.000 0.000 0.000 0.000 0.000
0.000 0.000 0.000 0.000 0.000 0.000 0.000 0.000 0.000 0.000 0.000 0.000 0.000 0.001 2.329 12.133 16.292 24.299 47.497 79.789 91.133 92.453 101.240 89.873 55.656 39.579 31.845 21.957 16.060 3.727 0.000 0.000 0.000 0.000 0.000 0.000 0.000 0.000 0.000 0.000 0.000 0.000 0.000 0.000 0.000 0.000 0.000 0.000 0.000 0.000 0.000 0.000 0.000 0.000 0.000 0.000 0.000
0.000 0.000 0.000 0.000 0.000 0.000 0.000 0.000 0.000 0.000 0.000 0.000 0.000 0.000 0.473 9.155 12.127 14.595 28.177 55.762 77.007 88.031 96.179 75.593 54.904 43.049 46.246 23.101 16.976 8.050 0.022 0.000 0.000 0.000 0.000 0.000 0.000 0.000 0.000 0.000 0.000 0.000 0.000 0.000 0.000 0.000 0.000 0.000 0.000 0.000 0.000 0.000 0.000 0.000 0.000 0.000 0.000
0.000 0.000 0.000 0.000 0.000 0.000 0.000 0.000 0.000 0.000 0.000 0.000 0.000 0.000 0.020 6.543 11.569 12.319 18.574 39.899 70.038 84.098 84.223 67.141 47.181 58.949 47.801 25.334 19.235 10.131 2.644 0.069 0.000 0.000 0.000 0.000 0.000 0.000 0.000 0.000 0.000 0.000 0.000 0.000 0.000 0.000 0.000 0.000 0.000 0.000 0.000 0.000 0.000 0.000 0.000 0.000 0.000
0.000 0.000 0.000 0.000 0.000 0.000 0.000 0.000 0.000 0.000 0.000 0.000 0.000 0.000 0.000 3.099 10.214 10.834 13.465 24.373 53.968 61.990 69.591 55.914 51.286 74.046 52.589 29.312 14.169 9.167 9.481 3.571 0.012 0.000 0.000 0.000 0.000 0.000 0.000 0.000 0.000 0.000 0.000 0.000 0.000 0.000 0.000 0.000 0.000 0.000 0.000 0.000 0.000 0.000 0.000 0.000 0.000
0.000 0.000 0.000 0.000 0.000 0.000 0.000 0.000 0.000 0.000 0.000 0.000 0.000 0.000 0.000 1.262 8.348 11.022 9.586 11.655 31.221 57.610 58.781 56.723 75.758 79.257 57.173 31.884 14.217 11.585 13.983 8.056 1.495 0.000 0.000 0.000 0.000 0.000 0.000 0.000 0.000 0.000 0.000 0.000 0.000 0.000 0.000 0.000 0.000 0.000 0.000 0.000 0.000 0.000 0.000 0.000 0.000
0.000 0.000 0.000 0.000 0.000 0.000 0.000 0.000 0.000 0.000 0.000 0.000 0.000 0.000 0.000 0.541 5.593 9.495 8.128 8.813 21.293 55.831 64.996 71.939 78.856 83.037 57.168 29.562 15.656 14.567 13.190 9.887 4.396 0.000 0.000 0.000 0.000 0.000 0.000 0.000 0.000 0.000 0.000 0.000 0.000 0.000 0.000 0.000 0.000 0.000 0.000 0.000 0.000 0.000 0.000 0.000 0.000
0.000 0.000 0.000 0.000 0.000 0.000 0.000 0.000 0.000 0.000 0.000 0.000 0.000 0.000 0.000 0.125 3.290 7.074 7.661 6.740 8.982 46.883 56.699 66.996 62.193 78.574 50.408 33.553 19.187 14.170 11.753 11.864 6.119 0.174 0.000 0.000 0.000 0.000 0.000 0.000 0.000 0.000 0.000 0.000 0.000 0.000 0.000 0.000 0.000 0.000 0.000 0.000 0.000 0.000 0.000 0.000 0.000
0.000 0.000 0.000 0.000 0.000 0.000 0.000 0.000 0.000 0.000 0.000 0.000 0.000 0.000 0.000 0.032 1.534 4.748 5.618 6.354 4.937 26.191 50.048 61.510 58.341 70.158 55.415 40.454 20.908 11.824 15.566 12.455 9.328 2.360 0.000 0.000 0.000 0.000 0.000 0.000 0.000 0.000 0.000 0.000 0.000 0.000 0.000 0.000 0.000 0.000 0.000 0.000 0.000 0.000 0.000 0.000 0.000
0.000 0.000 0.000 0.000 0.000 0.000 0.000 0.000 0.000 0.000 0.000 0.000 0.000 0.000 0.000 0.000 0.509 3.182 6.325 6.581 4.584 10.054 42.874 50.168 61.174 63.283 59.892 47.777 24.010 15.357 20.526 17.664 12.886 5.043 0.003 0.000 0.000 0.000 0.000 0.000 0.000 0.000 0.000 0.000 0.000 0.000 0.000 0.000 0.000 0.000 0.000 0.000 0.000 0.000 0.000 0.000 0.000
0.000 0.000 0.000 0.000 0.000 0.000 0.000 0.000 0.000 0.000 0.000 0.000 0.000 0.000 0.000 0.000 0.291 3.380 5.787 5.525 4.662 3.277 33.325 43.256 54.280 65.120 65.338 54.722 27.833 18.341 20.440 16.965 14.381 8.880 0.616 0.000 0.000 0.000 0.000 0.000 0.000 0.000 0.000 0.000 0.000 0.000 0.000 0.000 0.000 0.000 0.000 0.000 0.000 0.000 0.000 0.000 0.000
0.000 0.000 0.000 0.000 0.000 0.000 0.000 0.000 0.000 0.000 0.000 0.000 0.000 0.000 0.000 0.000 0.015 2.360 4.197 5.240 5.103 4.844 23.114 41.873 52.721 69.545 69.896 62.001 33.471 20.990 19.921 17.267 15.672 9.527 2.976 0.003 0.000 0.000 0.000 0.000 0.000 0.000 0.000 0.000 0.000 0.000 0.000 0.000 0.000 0.000 0.000 0.000 0.000 0.000 0.000 0.000 0.000
0.000 0.000 0.000 0.000 0.000 0.000 0.000 0.000 0.000 0.000 0.000 0.000 0.000 0.000 0.000 0.000 0.001 1.143 3.744 5.022 5.484 6.620 19.966 43.322 56.883 66.705 78.128 66.720 46.373 23.472 17.491 14.334 12.690 10.017 5.571 0.371 0.000 0.000 0.000 0.000 0.000 0.000 0.000 0.000 0.000 0.000 0.000 0.000 0.000 0.000 0.000 0.000 0.000 0.000 0.000 0.000 0.000
0.000 0.000 0.000 0.000 0.000 0.000 0.000 0.000 0.000 0.000 0.000 0.000 0.000 0.000 0.000 0.000 0.001 0.532 2.996 4.529 5.033 6.561 19.512 42.441 67.938 88.283 87.654 71.945 53.763 18.885 13.297 13.916 13.836 14.409 6.949 1.521 0.022 0.000 0.000 0.000 0.000 0.000 0.000 0.000 0.000 0.000 0.000 0.000 0.000 0.000 0.000 0.000 0.000 0.000 0.000 0.000 0.000
0.000 0.000 0.000 0.000 0.000 0.000 0.000 0.000 0.000 0.000 0.000 0.000 0.000 0.000 0.000 0.000 0.000 0.414 2.997 3.943 4.240 5.982 12.777 33.442 57.186 70.322 71.539 68.964 56.339 20.197 13.087 12.877 16.831 15.406 6.548 3.702 0.919 0.000 0.000 0.000 0.000 0.000 0.000 0.000 0.000 0.000 0.000 0.000 0.000 0.000 0.000 0.000 0.000 0.000 0.000 0.000 0.000
0.000 0.000 0.000 0.000 0.000 0.000 0.000 0.000 0.000 0.000 0.000 0.000 0.000 0.000 0.000 0.000 0.000 0.155 2.693 3.096 4.312 6.589 12.420 23.974 60.580 71.386 56.152 77.890 49.434 25.582 13.311 15.058 16.792 12.384 8.795 9.180 3.274 0.221 0.000 0.000 0.000 0.000 0.000 0.000 0.000 0.000 0.000 0.000 0.000 0.000 0.000 0.000 0.000 0.000 0.000 0.000 0.000
0.000 0.000 0.000 0.000 0.000 0.000 0.000 0.000 0.000 0.000 0.000 0.000 0.000 0.000 0.000 0.000 0.000 0.013 1.297 2.333 4.150 5.127 10.010 13.931 31.404 60.134 66.487 65.495 50.859 30.616 13.344 14.797 14.690 15.763 15.664 16.451 5.743 1.698 0.093 0.000 0.000 0.000 0.000 0.000 0.000 0.000 0.000 0.000 0.000 0.000 0.000 0.000 0.000 0.000 0.000 0.000 0.000
0.000 0.000 0.000 0.000 0.000 0.000 0.000 0.000 0.000 0.000 0.000 0.000 0.000 0.000 0.000 0.000 0.000 0.001 0.841 2.082 3.446 3.914 7.277 9.903 12.180 39.938 53.312 59.103 53.168 34.797 15.298 13.468 15.683 18.003 19.770 18.981 7.661 0.874 1.635 0.000 0.000 0.000 0.000 0.000 0.000 0.000 0.000 0.000 0.000 0.000 0.000 0.000 0.000 0.000 0.000 0.000 0.000
0.000 0.000 0.000 0.000 0.000 0.000 0.000 0.000 0.000 0.000 0.000 0.000 0.000 0.000 0.000 0.000 0.000 0.002 1.055 3.502 3.589 4.074 4.499 5.828 7.649 28.342 56.159 62.485 56.744 38.747 19.870 13.428 16.076 16.716 21.402 13.964 8.289 0.961 3.395 0.019 0.000 0.000 0.000 0.000 0.000 0.000 0.000 0.000 0.000 0.000 0.000 0.000 0.000 0.000 0.000 0.000 0.000
0.000 0.000 0.000 0.000 0.000 0.000 0.000 0.000 0.000 0.000 0.000 0.000 0.000 0.000 0.000 0.000 0.000 0.041 1.764 3.566 4.064 3.958 4.866 5.922 6.675 12.498 54.778 60.775 64.026 42.837 24.751 15.738 15.101 19.010 25.163 16.434 11.204 4.645 4.026 0.532 0.000 0.000 0.000 0.000 0.000 0.000 0.000 0.000 0.000 0.000 0.000 0.000 0.000 0.000 0.000 0.000 0.000
0.000 0.000 0.000 0.000 0.000 0.000 0.000 0.000 0.000 0.000 0.000 0.000 0.000 0.000 0.000 0.000 0.000 0.218 2.025 2.970 4.340 4.437 5.262 6.667 7.857 10.686 55.729 69.414 57.833 46.486 30.581 19.247 13.905 17.302 18.212 20.965 13.476 7.334 4.037 1.742 0.000 0.000 0.000 0.000 0.000 0.000 0.000 0.000 0.000 0.000 0.000 0.000 0.000 0.000 0.000 0.000 0.000
0.000 0.000 0.000 0.000 0.000 0.000 0.000 0.000 0.000 0.000 0.000 0.000 0.000 0.000 0.000 0.000 0.000 0.015 1.728 3.514 4.073 3.410 5.530 8.287 7.818 11.508 47.322 73.296 63.070 46.420 36.244 25.557 15.649 16.152 16.031 19.722 12.358 10.259 5.593 3.303 0.135 0.000 0.000 0.000 0.000 0.000 0.000 0.000 0.000 0.000 0.000 0.000 0.000 0.000 0.000 0.000 0.000
0.000 0.000 0.000 0.000 0.000 0.000 0.000 0.000 0.000 0.000 0.000 0.000 0.000 0.000 0.000 0.000 0.000 0.011 1.533 3.318 3.343 2.861 5.068 8.769 7.169 11.720 43.127 74.563 81.132 65.274 42.784 33.255 16.908 16.723 18.814 19.449 14.726 11.675 7.138 4.365 1.490 0.000 0.000 0.000 0.000 0.000 0.000 0.000 0.000 0.000 0.000 0.000 0.000 0.000 0.000 0.000 0.000
0.000 0.000 0.000 0.000 0.000 0.000 0.000 0.000 0.000 0.000 0.000 0.000 0.000 0.000 0.000 0.000 0.000 0.000 1.009 3.352 3.972 4.110 4.830 7.574 8.106 11.692 40.934 65.907 82.244 78.104 55.121 36.120 21.941 15.981 16.469 14.583 16.672 14.591 9.539 6.264 2.560 0.041 0.000 0.000 0.000 0.000 0.000 0.000 0.000 0.000 0.000 0.000 0.000 0.000 0.000 0.000 0.000
0.000 0.000 0.000 0.000 0.000 0.000 0.000 0.000 0.000 0.000 0.000 0.000 0.000 0.000 0.000 0.000 0.000 0.001 0.767 2.897 4.054 4.745 4.284 5.836 8.599 12.594 37.904 68.387 82.689 86.507 75.912 41.448 22.741 14.649 16.344 16.910 17.744 17.543 12.990 8.142 3.648 1.105 0.000 0.000 0.000 0.000 0.000 0.000 0.000 0.000 0.000 0.000 0.000 0.000 0.000 0.000 0.000
0.000 0.000 0.000 0.000 0.000 0.000 0.000 0.000 0.000 0.000 0.000 0.000 0.000 0.000 0.000 0.000 0.000 0.000 0.706 2.149 3.626 3.821 4.141 5.677 8.364 13.359 29.013 69.880 88.314 84.329 67.042 39.507 18.624 15.612 15.250 17.605 20.486 18.433 16.928 10.003 7.258 3.491 0.034 0.000 0.000 0.000 0.000 0.000 0.000 0.000 0.000 0.000 0.000 0.000 0.000 0.000 0.000
0.000 0.000 0.000 0.000 0.000 0.000 0.000 0.000 0.000 0.000 0.000 0.000 0.000 0.000 0.000 0.000 0.000 0.006 0.692 2.263 3.118 2.968 3.392 5.029 7.624 12.652 24.499 63.669 84.891 85.927 82.302 56.980 24.572 18.721 15.889 19.076 21.289 23.720 17.902 15.972 11.064 4.955 1.043 0.000 0.000 0.000 0.000 0.000 0.000 0.000 0.000 0.000 0.000 0.000 0.000 0.000 0.000
0.000 0.000 0.000 0.000 0.000 0.000 0.000 0.000 0.000 0.000 0.000 0.000 0.000 0.000 0.000 0.000 0.000 0.001 0.511 2.222 2.641 3.119 3.604 5.190 7.919 11.434 19.049 48.161 69.438 86.086 75.778 55.802 33.030 19.717 18.999 20.780 22.897 22.681 21.326 20.817 12.081 5.657 2.936 0.000 0.000 0.000 0.000 0.000 0.000 0.000 0.000 0.000 0.000 0.000 0.000 0.000 0.000
0.000 0.000 0.000 0.000 0.000 0.000 0.000 0.000 0.000 0.000 0.000 0.000 0.000 0.000 0.000 0.000 0.000 0.000 0.230 2.369 2.728 3.089 3.561 4.991 7.197 9.940 16.884 39.086 74.579 85.105 67.500 59.011 28.358 22.291 22.825 21.276 20.681 21.558 24.007 21.652 11.074 8.427 4.566 0.179 0.000 0.000 0.000 0.000 0.000 0.000 0.000 0.000 0.000 0.000 0.000 0.000 0.000
0.000 0.000 0.000 0.000 0.000 0.000 0.000 0.000 0.000 0.000 0.000 0.000 0.000 0.000 0.000 0.000 0.000 0.000 0.002 1.535 2.888 2.806 3.135 4.079 6.139 9.460 16.937 34.317 75.491 70.896 77.516 51.657 30.508 23.921 15.612 14.768 16.334 21.968 27.144 18.755 12.638 11.564 6.422 1.111 0.000 0.000 0.000 0.000 0.000 0.000 0.000 0.000 0.000 0.000 0.000 0.000 0.000
0.000 0.000 0.000 0.000 0.000 0.000 0.000 0.000 0.000 0.000 0.000 0.000 0.000 0.000 0.000 0.000 0.000 0.000 0.004 0.714 2.951 2.978 3.628 4.727 5.017 10.890 16.392 29.688 56.894 77.896 64.574 48.734 35.547 18.519 12.799 14.374 18.257 24.868 20.977 18.536 18.761 15.844 7.112 3.422 0.064 0.000 0.000 0.000 0.000 0.000 0.000 0.000 0.000 0.000 0.000 0.000 0.000
0.000 0.000 0.000 0.000 0.000 0.000 0.000 0.000 0.000 0.000 0.000 0.000 0.000 0.000 0.000 0.000 0.000 0.000 0.013 1.132 3.405 3.747 3.390 3.886 7.333 9.484 14.929 23.644 60.829 69.877 65.267 61.951 40.713 24.601 18.303 17.666 21.038 21.202 19.226 23.554 19.431 13.134 9.832 5.727 1.242 0.001 0.000 0.000 0.000 0.000 0.000 0.000 0.000 0.000 0.000 0.000 0.000
0.000 0.000 0.000 0.000 0.000 0.000 0.000 0.000 0.000 0.000 0.000 0.000 0.000 0.000 0.000 0.000 0.000 0.000 0.033 1.244 3.415 4.129 2.542 4.144 6.013 2.566 9.503 22.489 47.135 65.266 75.228 65.260 42.799 27.442 22.156 22.306 18.617 21.041 22.572 20.968 18.625 13.505 11.805 6.865 4.800 0.603 0.000 0.000 0.000 0.000 0.000 0.000 0.000 0.000 0.000 0.000 0.000
0.000 0.000 0.000 0.000 0.000 0.000 0.000 0.000 0.000 0.000 0.000 0.000 0.000 0.000 0.000 0.000 0.000 0.000 0.001 0.309 2.493 4.379 2.915 3.070 3.095 2.498 7.985 21.696 46.863 68.057 76.679 71.281 51.653 32.122 28.919 22.924 19.514 22.148 20.112 17.861 17.410 14.425 13.441 11.586 8.633 3.502 0.000 0.000 0.000 0.000 0.000 0.000 0.000 0.000 0.000 0.000 0.000
0.000 0.000 0.000 0.000 0.000 0.000 0.000 0.000 0.000 0.000 0.000 0.000 0.000 0.000 0.000 0.000 0.000 0.000 0.000 0.083 1.837 4.608 3.503 2.613 2.651 3.197 9.834 19.960 44.872 62.450 71.215 68.111 42.937 38.846 31.471 19.388 20.076 17.739 12.051 15.793 17.572 18.711 17.912 13.940 8.980 5.826 0.000 0.000 0.000 0.000 0.000 0.000 0.000 0.000 0.000 0.000 0.000
0.000 0.000 0.000 0.000 0.000 0.000 0.000 0.000 0.000 0.000 0.000 0.000 0.000 0.000 0.000 0.000 0.000 0.000 0.000 0.000 0.111 4.055 3.676 2.271 2.276 4.991 10.629 20.281 42.102 67.659 69.310 57.349 44.085 45.237 31.753 24.208 21.215 15.314 11.827 14.420 19.181 20.331 17.907 14.531 10.923 6.807 0.000 0.000 0.000 0.000 0.000 0.000 0.000 0.000 0.000 0.000 0.000
0.000 0.000 0.000 0.000 0.000 0.000 0.000 0.000 0.000 0.000 0.000 0.000 0.000 0.000 0.000 0.000 0.000 0.000 0.000 0.000 0.331 2.083 3.115 1.428 2.678 4.893 9.190 17.960 32.516 51.703 61.887 54.904 54.595 54.830 34.340 24.366 18.176 12.950 12.603 16.086 19.477 18.608 17.181 14.464 11.899 6.956 0.049 0.000 0.000 0.000 0.000 0.000 0.000 0.000 0.000 0.000 0.000
0.000 0.000 0.000 0.000 0.000 0.000 0.000 0.000 0.000 0.000 0.000 0.000 0.000 0.000 0.000 0.000 0.000 0.000 0.000 0.000 0.000 1.421 1.728 1.880 3.306 4.148 7.158 14.677 27.946 40.315 61.622 54.830 63.416 51.829 37.617 28.430 21.054 16.875 12.999 14.905 17.388 18.250 18.714 17.276 10.613 5.183 0.201 0.000 0.000 0.000 0.000 0.000 0.000 0.000 0.000 0.000 0.000
0.000 0.000 0.000 0.000 0.000 0.000 0.000 0.000 0.000 0.000 0.000 0.000 0.000 0.000 0.000 0.000 0.000 0.000 0.000 0.000 0.000 0.213 1.939 2.573 3.340 4.065 5.372 11.281 21.186 38.665 49.008 62.220 62.225 59.151 43.563 33.615 21.692 13.943 10.275 10.640 12.028 16.323 16.133 13.649 5.062 3.058 0.050 0.000 0.000 0.000 0.000 0.000 0.000 0.000 0.000 0.000 0.000
0.000 0.000 0.000 0.000 0.000 0.000 0.000 0.000 0.000 0.000 0.000 0.000 0.000 0.000 0.000 0.000 0.000 0.000 0.000 0.000 0.000 0.084 1.361 2.700 3.323 3.670 3.730 9.326 18.864 33.904 50.857 54.696 65.605 56.759 46.505 34.517 18.170 11.579 7.955 7.866 10.016 13.416 12.669 9.545 6.031 4.343 0.282 0.000 0.000 0.000 0.000 0.000 0.000 0.000 0.000 0.000 0.000
0.000 0.000 0.000 0.000 0.000 0.000 0.000 0.000 0.000 0.000 0.000 0.000 0.000 0.000 0.000 0.000 0.000 0.000 0.000 0.000 0.000 0.016 0.637 1.883 3.051 2.714 3.318 6.562 15.627 27.078 41.188 52.065 52.537 51.297 45.590 29.716 13.682 9.845 8.119 6.737 8.497 9.251 10.325 11.034 8.626 4.700 2.285 0.000 0.000 0.000 0.000 0.000 0.000 0.000 0.000 0.000 0.000
0.000 0.000 0.000 0.000 0.000 0.000 0.000 0.000 0.000 0.000 0.000 0.000 0.000 0.000 0.000 0.000 0.000 0.000 0.000 0.000 0.000 0.000 0.152 1.048 2.273 2.428 2.883 4.319 10.129 17.865 30.837 45.788 47.009 40.688 37.432 23.483 15.973 13.898 8.027 6.922 7.030 6.028 9.197 11.631 7.435 4.979 2.999 0.000 0.000 0.000 0.000 0.000 0.000 0.000 0.000 0.000 0.000
0.000 0.000 0.000 0.000 0.000 0.000 0.000 0.000 0.000 0.000 0.000 0.000 0.000 0.000 0.000 0.000 0.000 0.000 0.000 0.000 0.000 0.000 0.008 0.401 1.851 2.124 2.349 3.372 7.276 14.520 24.139 36.982 40.721 43.070 37.301 27.099 21.152 13.935 8.868 7.794 6.332 6.602 9.576 9.939 8.043 5.482 2.445 0.012 0.000 0.000 0.000 0.000 0.000 0.000 0.000 0.000 0.000
0.000 0.000 0.000 0.000 0.000 0.000 0.000 0.000 0.000 0.000 0.000 0.000 0.000 0.000 0.000 0.000 0.000 0.000 0.000 0.000 0.000 0.000 0.000 0.072 1.339 1.864 2.066 2.990 4.148 9.588 16.056 24.099 32.705 34.574 33.528 29.070 26.851 14.948 11.469 7.950 7.374 7.152 7.172 9.880 8.555 5.572 2.608 0.859 0.000 0.000 0.000 0.000 0.000 0.000 0.000 0.000 0.000
0.000 0.000 0.000 0.000 0.000 0.000 0.000 0.000 0.000 0.000 0.000 0.000 0.000 0.000 0.000 0.000 0.000 0.000 0.000 0.000 0.000 0.000 0.000 0.047 0.822 1.551 1.989 2.527 3.381 5.843 10.858 20.779 29.846 30.695 33.534 31.622 23.188 18.240 12.138 8.702 6.916 4.960 4.345 8.167 8.361 6.131 2.409 1.568 0.000 0.000 0.000 0.000 0.000 0.000 0.000 0.000 0.000
0.000 0.000 0.000 0.000 0.000 0.000 0.000 0.000 0.000 0.000 0.000 0.000 0.000 0.000 0.000 0.000 0.000 0.000 0.000 0.000 0.000 0.000 0.000 0.012 0.417 1.257 1.671 2.161 2.157 3.866 8.080 13.800 21.951 27.958 34.127 32.654 21.906 18.805 11.566 8.803 4.178 3.074 2.188 6.751 8.339 6.791 2.095 1.291 0.011 0.000 0.000 0.000 0.000 0.000 0.000 0.000 0.000
0.000 0.000 0.000 0.000 0.000 0.000 0.000 0.000 0.000 0.000 0.000 0.000 0.000 0.000 0.000 0.000 0.000 0.000 0.000 0.000 0.000 0.000 0.000 0.008 0.180 0.707 1.238 1.802 1.596 2.822 6.247 11.159 18.105 28.643 32.210 29.664 24.567 21.482 12.475 6.142 2.998 2.154 3.552 6.908 8.921 7.270 2.833 1.623 0.516 0.000 0.000 0.000 0.000 0.000 0.000 0.000 0.000
0.000 0.000 0.000 0.000 0.000 0.000 0.000 0.000 0.000 0.000 0.000 0.000 0.000 0.000 0.000 0.000 0.000 0.000 0.000 0.000 0.000 0.000 0.000 0.000 0.210 0.499 1.099 1.601 2.119 2.507 5.090 10.412 16.695 30.147 34.927 24.716 27.085 19.812 9.736 4.779 3.442 3.335 4.884 6.567 9.102 7.727 3.209 2.187 1.371 0.117 0.000 0.000 0.000 0.000 0.000 0.000 0.000
0.000 0.000 0.000 0.000 0.000 0.000 0.000 0.000 0.000 0.000 0.000 0.000 0.000 0.000 0.000 0.000 0.000 0.000 0.000 0.000 0.000 0.000 0.000 0.000 0.000 0.185 0.924 1.437 1.940 2.401 4.319 8.988 14.282 24.950 31.632 27.351 23.547 19.032 8.234 3.984 3.327 3.940 4.260 6.096 9.117 7.123 3.047 2.561 2.112 1.339 0.001 0.000 0.000 0.000 0.000 0.000 0.000
0.000 0.000 0.000 0.000 0.000 0.000 0.000 0.000 0.000 0.000 0.000 0.000 0.000 0.000 0.000 0.000 0.000 0.000 0.000 0.000 0.000 0.000 0.000 0.000 0.000 0.034 0.600 1.379 1.264 2.146 3.520 7.984 11.611 15.807 25.616 21.788 17.941 14.119 6.628 4.389 3.626 3.699 3.191 5.533 8.157 6.531 3.006 2.542 2.211 1.730 0.125 0.000 0.000 0.000 0.000 0.000 0.000
0.000 0.000 0.000 0.000 0.000 0.000 0.000 0.000 0.000 0.000 0.000 0.000 0.000 0.000 0.000 0.000 0.000 0.000 0.000 0.000 0.000 0.000 0.000 0.000 0.000 0.003 0.344 1.003 1.200 1.978 2.717 5.012 8.230 10.934 19.685 15.868 13.083 9.579 7.483 5.973 5.074 3.919 4.115 4.129 5.944 6.356 2.993 2.276 2.034 1.633 0.672 0.029 0.000 0.000 0.000 0.000 0.000
0.000 0.000 0.000 0.000 0.000 0.000 0.000 0.000 0.000 0.000 0.000 0.000 0.000 0.000 0.000 0.000 0.000 0.000 0.000 0.000 0.000 0.000 0.000 0.000 0.000 0.000 0.195 0.863 1.438 1.700 2.081 3.457 5.222 4.673 12.313 8.992 9.298 8.196 8.946 7.256 4.469 4.149 4.553 4.191 5.465 6.273 2.450 1.831 1.873 1.764 1.358 0.904 0.000 0.000 0.000 0.000 0.000
0.000 0.000 0.000 0.000 0.000 0.000 0.000 0.000 0.000 0.000 0.000 0.000 0.000 0.000 0.000 0.000 0.000 0.000 0.000 0.000 0.000 0.000 0.000 0.000 0.000 0.000 0.258 0.796 1.175 1.282 1.557 2.444 2.645 4.328 7.928 7.594 6.909 8.695 8.589 5.365 3.190 5.262 3.440 4.602 4.760 5.157 2.086 1.757 1.746 1.629 1.782 2.054 0.113 0.000 0.000 0.000 0.000
0.000 0.000 0.000 0.000 0.000 0.000 0.000 0.000 0.000 0.000 0.000 0.000 0.000 0.000 0.000 0.000 0.000 0.000 0.000 0.000 0.000 0.000 0.000 0.000 0.000 0.000 0.072 0.464 0.798 1.160 1.163 1.450 2.274 1.392 5.946 6.597 6.851 8.136 6.502 3.273 4.195 3.890 0.609 2.711 4.863 4.414 2.612 1.836 1.646 1.607 1.825 1.610 1.044 0.000 0.000 0.000 0.000
0.000 0.000 0.000 0.000 0.000 0.000 0.000 0.000 0.000 0.000 0.000 0.000 0.000 0.000 0.000 0.000 0.000 0.000 0.000 0.000 0.000 0.000 0.000 0.000 0.000 0.000 0.009 0.183 0.446 0.888 0.987 0.877 1.258 4.050 7.417 6.165 6.274 5.678 4.452 1.904 3.057 2.190 0.366 0.806 4.302 4.189 2.963 1.751 1.515 1.516 1.375 0.841 1.455 0.000 0.000 0.000 0.000
0.000 0.000 0.000 0.000 0.000 0.000 0.000 0.000 0.000 0.000 0.000 0.000 0.000 0.000 0.000 0.000 0.000 0.000 0.000 0.000 0.000 0.000 0.000 0.000 0.000 0.000 0.000 0.001 0.032 0.307 0.577 0.563 0.003 3.194 4.682 4.221 4.940 3.609 2.703 1.176 2.598 2.668 2.235 2.023 2.797 3.758 2.627 1.612 1.364 1.188 1.222 1.383 1.211 0.007 0.000 0.000 0.000
0.000 0.000 0.000 0.000 0.000 0.000 0.000 0.000 0.000 0.000 0.000 0.000 0.000 0.000 0.000 0.000 0.000 0.000 0.000 0.000 0.000 0.000 0.000 0.000 0.000 0.000 0.000 0.000 0.000 0.103 0.592 0.891 1.357 2.240 2.576 2.458 2.919 2.741 3.567 3.058 3.916 4.458 3.604 2.133 1.917 2.460 2.294 1.489 1.225 1.093 1.040 1.039 0.768 0.101 0.000 0.000 0.000
0.000 0.000 0.000 0.000 0.000 0.000 0.000 0.000 0.000 0.000 0.000 0.000 0.000 0.000 0.000 0.000 0.000 0.000 0.000 0.000 0.000 0.000 0.000 0.000 0.000 0.000 0.000 0.000 0.000 0.014 0.482 0.931 0.968 0.671 1.142 1.104 2.522 2.462 4.134 3.448 4.672 3.915 2.402 1.628 1.158 1.687 2.032 1.454 1.127 0.968 0.797 0.706 0.954 0.422 0.000 0.000 0.000
0.000 0.000 0.000 0.000 0.000 0.000 0.000 0.000 0.000 0.000 0.000 0.000 0.000 0.000 0.000 0.000 0.000 0.000 0.000 0.000 0.000 0.000 0.000 0.000 0.000 0.000 0.000 0.000 0.000 0.000 0.079 0.582 0.729 0.001 0.186 0.773 1.589 1.696 2.273 3.054 3.831 2.080 0.922 1.050 0.259 0.488 0.820 1.263 0.978 0.745 0.594 0.818 1.503 0.777 0.000 0.000 0.000
0.000 0.000 0.000 0.000 0.000 0.000 0.000 0.000 0.000 0.000 0.000 0.000 0.000 0.000 0.000 0.000 0.000 0.000 0.000 0.000 0.000 0.000 0.000 0.000 0.000 0.000 0.000 0.000 0.000 0.000 0.000 0.037 0.702 0.991 0.230 1.200 1.274 0.597 1.173 2.086 2.035 0.904 0.373 0.055 0.002 0.001 0.172 1.026 0.761 0.545 0.416 0.646 1.120 0.760 0.001 0.000 0.000
0.000 0.000 0.000 0.000 0.000 0.000 0.000 0.000 0.000 0.000 0.000 0.000 0.000 0.000 0.000 0.000 0.000 0.000 0.000 0.000 0.000 0.000 0.000 0.000 0.000 0.000 0.000 0.000 0.000 0.000 0.000 0.078 0.478 1.182 1.527 1.849 0.950 0.141 0.486 1.530 1.905 0.685 0.141 0.001 0.000 0.001 0.002 0.253 0.579 0.251 0.001 0.213 0.266 0.468 0.112 0.000 0.000
0.000 0.000 0.000 0.000 0.000 0.000 0.000 0.000 0.000 0.000 0.000 0.000 0.000 0.000 0.000 0.000 0.000 0.000 0.000 0.000 0.000 0.000 0.000 0.000 0.000 0.000 0.000 0.000 0.000 0.000 0.000 0.000 0.301 0.909 1.730 1.549 0.030 0.002 0.052 1.457 0.592 0.001 0.000 0.000 0.001 0.002 0.007 0.155 0.335 0.001 0.002 0.002 0.177 0.423 0.339 0.000 0.000
0.000 0.000 0.000 0.000 0.000 0.000 0.000 0.000 0.000 0.000 0.000 0.000 0.000 0.000 0.000 0.000 0.000 0.000 0.000 0.000 0.000 0.000 0.000 0.000 0.000 0.000 0.000 0.000 0.000 0.000 0.000 0.000 0.003 0.435 0.768 0.895 0.002 0.156 1.276 1.111 0.001 0.000 0.001 0.000 0.002 0.002 0.001 0.002 0.001 0.002 0.001 0.001 0.287 0.395 0.169 0.005 0.000
0.000 0.000 0.000 0.000 0.000 0.000 0.000 0.000 0.000 0.000 0.000 0.000 0.000 0.000 0.000 0.000 0.000 0.000 0.000 0.000 0.000 0.000 0.000 0.000 0.000 0.000 0.000 0.000 0.000 0.000 0.000 0.000 0.000 0.086 0.435 0.723 1.212 1.643 1.367 0.280 0.000 0.000 0.001 0.002 0.000 0.000 0.000 0.001 0.002 0.088 0.002 0.001 0.243 0.313 0.167 0.054 0.000
0.000 0.000 0.000 0.000 0.000 0.000 0.000 0.000 0.000 0.000 0.000 0.000 0.000 0.000 0.000 0.000 0.000 0.000 0.000 0.000 0.000 0.000 0.000 0.000 0.000 0.000 0.000 0.000 0.000 0.000 0.000 0.000 0.000 0.000 0.222 0.502 0.718 1.262 0.815 0.004 0.002 0.000 0.001 0.000 0.001 0.001 0.001 0.002 0.002 0.002 0.002 0.016 0.323 0.423 0.310 0.101 0.001
0.000 0.000 0.000 0.000 0.000 0.000 0.000 0.000 0.000 0.000 0.000 0.000 0.000 0.000 0.000 0.000 0.000 0.000 0.000 0.000 0.000 0.000 0.000 0.000 0.000 0.000 0.000 0.000 0.000 0.000 0.000 0.000 0.000 0.000 0.003 0.277 0.623 0.913 0.829 0.350 0.027 0.002 0.000 0.000 0.001 0.001 0.002 0.001 0.002 0.002 0.000 0.018 0.446 0.349 0.387 0.159 0.032
0.000 0.000 0.000 0.000 0.000 0.000 0.000 0.000 0.000 0.000 0.000 0.000 0.000 0.000 0.000 0.000 0.000 0.000 0.000 0.000 0.000 0.000 0.000 0.000 0.000 0.000 0.000 0.000 0.000 0.000 0.000 0.000 0.000 0.000 0.001 0.301 0.642 0.677 0.452 0.469 0.018 0.002 0.000 0.001 0.002 0.002 0.000 0.000 0.018 0.002 0.024 0.029 0.174 0.231 0.409 0.272 0.050
0.000 0.000 0.000 0.000 0.000 0.000 0.000 0.000 0.000 0.000 0.000 0.000 0.000 0.000 0.000 0.000 0.000 0.000 0.000 0.000 0.000 0.000 0.000 0.000 0.000 0.000 0.000 0.000 0.000 0.000 0.000 0.000 0.000 0.000 0.004 0.101 0.332 0.530 0.547 0.387 0.052 0.002 0.001 0.040 0.001 0.001 0.002 0.040 0.007 0.002 0.010 0.342 0.414 0.462 0.294 0.399 0.260
0.000 0.000 0.000 0.000 0.000 0.000 0.000 0.000 0.000 0.000 0.000 0.000 0.000 0.000 0.000 0.000 0.000 0.000 0.000 0.000 0.000 0.000 0.000 0.000 0.000 0.000 0.000 0.000 0.000 0.000 0.000 0.000 0.000 0.000 0.000 0.005 0.047 0.369 0.536 0.512 0.440 0.001 0.002 0.002 0.002 0.002 0.105 0.002 0.002 0.001 0.003 0.747 0.799 0.580 0.287 0.551 0.496
0.000 0.000 0.000 0.000 0.000 0.000 0.000 0.000 0.000 0.000 0.000 0.000 0.000 0.000 0.000 0.000 0.000 0.000 0.000 0.000 0.000 0.000 0.000 0.000 0.000 0.000 0.000 0.000 0.000 0.000 0.000 0.000 0.000 0.000 0.000 0.000 0.001 0.091 0.468 0.505 0.540 0.439 0.186 0.000 0.000 0.000 0.001 0.002 0.002 0.002 0.004 0.756 0.961 0.368 0.339 0.630 0.570
0.000 0.000 0.000 0.000 0.000 0.000 0.000 0.000 0.000 0.000 0.000 0.000 0.000 0.000 0.000 0.000 0.000 0.000 0.000 0.000 0.000 0.000 0.000 0.000 0.000 0.000 0.000 0.000 0.000 0.000 0.000 0.000 0.000 0.000 0.000 0.000 0.000 0.002 0.305 0.560 0.535 0.324 0.002 0.002 0.001 0.001 0.001 0.002 0.000 0.000 0.009 0.737 0.337 0.018 0.084 0.399 0.634
0.000 0.000 0.000 0.000 0.000 0.000 0.000 0.000 0.000 0.000 0.000 0.000 0.000 0.000 0.000 0.000 0.000 0.000 0.000 0.000 0.000 0.000 0.000 0.000 0.000 0.000 0.000 0.000 0.000 0.000 0.000 0.000 0.000 0.000 0.000 0.000 0.000 0.000 0.098 0.460 0.500 0.286 0.000 0.000 0.001 0.002 0.001 0.002 0.001 0.002 0.002 0.002 0.014 0.119 0.035 0.374 0.766
0.000 0.000 0.000 0.000 0.000 0.000 0.000 0.000 0.000 0.000 0.000 0.000 0.000 0.000 0.000 0.000 0.000 0.000 0.000 0.000 0.000 0.000 0.000 0.000 0.000 0.000 0.000 0.000 0.000 0.000 0.000 0.000 0.000 0.000 0.000 0.000 0.000 0.000 0.000 0.130 0.404 0.356 0.017 0.001 0.000 0.001 0.002 0.002 0.002 0.001 0.002 0.006 0.529 0.565 0.274 0.507 0.624
0.000 0.000 0.000 0.000 0.000 0.000 0.000 0.000 0.000 0.000 0.000 0.000 0.000 0.000 0.000 0.000 0.000 0.000 0.000 0.000 0.000 0.000 0.000 0.000 0.000 0.000 0.000 0.000 0.000 0.000 0.000 0.000 0.000 0.000 0.000 0.000 0.000 0.000 0.000 0.002 0.261 0.288 0.201 0.001 0.001 0.001 0.000 0.002 0.002 0.002 0.035 0.104 0.870 0.658 0.158 0.171 0.190
0.000 0.000 0.000 0.000 0.000 0.000 0.000 0.000 0.000 0.000 0.000 0.000 0.000 0.000 0.000 0.000 0.000 0.000 0.000 0.000 0.000 0.000 0.000 0.000 0.000 0.000 0.000 0.000 0.000 0.000 0.000 0.000 0.000 0.000 0.000 0.000 0.000 0.000 0.000 0.000 0.193 0.295 0.177 0.026 0.002 0.003 0.002 0.001 0.000 0.002 0.003 0.447 0.589 0.475 0.149 0.014 0.189
0.000 0.000 0.000 0.000 0.000 0.000 0.000 0.000 0.000 0.000 0.000 0.000 0.000 0.000 0.000 0.000 0.000 0.000 0.000 0.000 0.000 0.000 0.000 0.000 0.000 0.000 0.000 0.000 0.000 0.000 0.000 0.000 0.000 0.000 0.000 0.000 0.000 0.000 0.000 0.000 0.029 0.291 0.304 0.421 0.012 0.376 0.002 0.001 0.002 0.002 0.002 0.092 0.390 0.425 0.002 0.005 0.024
0.000 0.000 0.000 0.000 0.000 0.000 0.000 0.000 0.000 0.000 0.000 0.000 0.000 0.000 0.000 0.000 0.000 0.000 0.000 0.000 0.000 0.000 0.000 0.000 0.000 0.000 0.000 0.000 0.000 0.000 0.000 0.000 0.000 0.000 0.000 0.000 0.000 0.000 0.000 0.000 0.002 0.253 0.502 0.414 0.553 0.513 0.142 0.001 0.002 0.002 0.002 0.001 0.270 0.002 0.002 0.002 0.002
0.000 0.000 0.000 0.000 0.000 0.000 0.000 0.000 0.000 0.000 0.000 0.000 0.000 0.000 0.000 0.000 0.000 0.000 0.000 0.000 0.000 0.000 0.000 0.000 0.000 0.000 0.000 0.000 0.000 0.000 0.000 0.000 0.000 0.000 0.000 0.000 0.000 0.000 0.000 0.000 0.011 0.086 0.334 0.245 0.531 0.012 0.002 0.000 0.000 0.001 0.002 0.180 0.046 0.019 0.001 0.002 0.002
0.000 0.000 0.000 0.000 0.000 0.000 0.000 0.000 0.000 0.000 0.000 0.000 0.000 0.000 0.000 0.000 0.000 0.000 0.000 0.000 0.000 0.000 0.000 0.000 0.000 0.000 0.000 0.000 0.000 0.000 0.000 0.000 0.000 0.000 0.000 0.000 0.000 0.000 0.000 0.000 0.000 0.035 0.002 0.417 0.303 0.001 0.001 0.002 0.000 0.001 0.021 0.314 0.006 0.100 0.001 0.001 0.001
0.000 0.000 0.000 0.000 0.000 0.000 0.000 0.000 0.000 0.000 0.000 0.000 0.000 0.000 0.000 0.000 0.000 0.000 0.000 0.000 0.000 0.000 0.000 0.000 0.000 0.000 0.000 0.000 0.000 0.000 0.000 0.000 0.000 0.000 0.000 0.000 0.000 0.000 0.000 0.000 0.000 0.000 0.099 0.412 0.299 0.002 0.002 0.000 0.002 0.001 0.002 0.289 0.333 0.367 0.001 0.001 0.001
0.000 0.000 0.000 0.000 0.000 0.000 0.000 0.000 0.000 0.000 0.000 0.000 0.000 0.000 0.000 0.000 0.000 0.000 0.000 0.000 0.000 0.000 0.000 0.000 0.000 0.000 0.000 0.000 0.000 0.000 0.000 0.000 0.000 0.000 0.000 0.000 0.000 0.000 0.000 0.000 0.000 0.000 0.112 0.262 0.270 0.002 0.001 0.028 0.030 0.110 0.120 0.791 0.531 0.002 0.023 0.001 0.000
0.000 0.000 0.000 0.000 0.000 0.000 0.000 0.000 0.000 0.000 0.000 0.000 0.000 0.000 0.000 0.000 0.000 0.000 0.000 0.000 0.000 0.000 0.000 0.000 0.000 0.000 0.000 0.000 0.000 0.000 0.000 0.000 0.000 0.000 0.000 0.000 0.000 0.000 0.000 0.000 0.000 0.000 0.049 0.040 0.225 0.002 0.017 1.763 1.621 1.646 1.845 0.984 0.075 0.002 0.001 0.001 0.001
0.000 0.000 0.000 0.000 0.000 0.000 0.000 0.000 0.000 0.000 0.000 0.000 0.000 0.000 0.000 0.000 0.000 0.000 0.000 0.000 0.000 0.000 0.000 0.000 0.000 0.000 0.000 0.000 0.000 0.000 0.000 0.000 0.000 0.000 0.000 0.000 0.000 0.000 0.000 0.000 0.000 0.000 0.001 0.062 0.003 0.002 0.447 1.611 2.938 2.592 2.199 0.633 0.071 0.001 0.002 0.001 0.001
0.000 0.000 0.000 0.000 0.000 0.000 0.000 0.000 0.000 0.000 0.000 0.000 0.000 0.000 0.000 0.000 0.000 0.000 0.000 0.000 0.000 0.000 0.000 0.000 0.000 0.000 0.000 0.000 0.000 0.000 0.000 0.000 0.000 0.000 0.000 0.000 0.000 0.000 0.000 0.000 0.000 0.000 0.000 0.026 0.008 0.010 0.714 1.130 1.985 1.650 1.081 0.658 0.013 0.018 0.001 0.001 0.001
0.000 0.000 0.000 0.000 0.000 0.000 0.000 0.000 0.000 0.000 0.000 0.000 0.000 0.000 0.000 0.000 0.000 0.000 0.000 0.000 0.000 0.000 0.000 0.000 0.000 0.000 0.000 0.000 0.000 0.000 0.000 0.000 0.000 0.000 0.000 0.000 0.000 0.000 0.000 0.000 0.000 0.000 0.000 0.000 0.002 0.462 0.620 0.651 1.207 0.726 0.909 1.408 0.927 0.610 0.003 0.002 0.002
0.000 0.000 0.000 0.000 0.000 0.000 0.000 0.000 0.000 0.000 0.000 0.000 0.000 0.000 0.000 0.000 0.000 0.000 0.000 0.000 0.000 0.000 0.000 0.000 0.000 0.000 0.000 0.000 0.000 0.000 0.000 0.000 0.000 0.000 0.000 0.000 0.000 0.000 0.000 0.000 0.000 0.000 0.000 0.001 0.255 0.515 0.511 0.491 0.558 0.169 0.431 1.572 1.580 1.232 0.232 0.010 0.002
0.000 0.000 0.000 0.000 0.000 0.000 0.000 0.000 0.000 0.000 0.000 0.000 0.000 0.000 0.000 0.000 0.000 0.000 0.000 0.000 0.000 0.000 0.000 0.000 0.000 0.000 0.000 0.000 0.000 0.000 0.000 0.000 0.000 0.000 0.000 0.000 0.000 0.000 0.000 0.000 0.000 0.000 0.000 0.008 0.212 0.359 0.359 0.375 0.463 0.021 0.025 0.703 0.921 1.016 0.642 0.002 0.002
0.000 0.000 0.000 0.000 0.000 0.000 0.000 0.000 0.000 0.000 0.000 0.000 0.000 0.000 0.000 0.000 0.000 0.000 0.000 0.000 0.000 0.000 0.000 0.000 0.000 0.000 0.000 0.000 0.000 0.000 0.000 0.000 0.000 0.000 0.000 0.000 0.000 0.000 0.000 0.000 0.000 0.000 0.000 0.000 0.002 0.073 0.264 0.338 0.412 0.011 0.042 0.343 0.579 0.655 0.552 0.224 0.049
0.000 0.000 0.000 0.000 0.000 0.000 0.000 0.000 0.000 0.000 0.000 0.000 0.000 0.000 0.000 0.000 0.000 0.000 0.000 0.000 0.000 0.000 0.000 0.000 0.000 0.000 0.000 0.000 0.000 0.000 0.000 0.000 0.000 0.000 0.000 0.000 0.000 0.000 0.000 0.000 0.000 0.000 0.000 0.000 0.000 0.000 0.169 0.249 0.212 0.036 0.415 0.591 0.765 0.423 0.256 0.466 0.197
0.000 0.000 0.000 0.000 0.000 0.000 0.000 0.000 0.000 0.000 0.000 0.000 0.000 0.000 0.000 0.000 0.000 0.000 0.000 0.000 0.000 0.000 0.000 0.000 0.000 0.000 0.000 0.000 0.000 0.000 0.000 0.000 0.000 0.000 0.000 0.000 0.000 0.000 0.000 0.000 0.000 0.000 0.000 0.000 0.000 0.000 0.010 0.117 0.002 0.408 1.244 1.043 0.478 0.350 0.102 0.447 0.171
0.000 0.000 0.000 0.000 0.000 0.000 0.000 0.000 0.000 0.000 0.000 0.000 0.000 0.000 0.000 0.000 0.000 0.000 0.000 0.000 0.000 0.000 0.000 0.000 0.000 0.000 0.000 0.000 0.000 0.000 0.000 0.000 0.000 0.000 0.000 0.000 0.000 0.000 0.000 0.000 0.000 0.000 0.000 0.000 0.000 0.000 0.000 0.159 0.262 0.629 1.198 1.064 0.458 0.223 0.018 0.061 0.197
0.000 0.000 0.000 0.000 0.000 0.000 0.000 0.000 0.000 0.000 0.000 0.000 0.000 0.000 0.000 0.000 0.000 0.000 0.000 0.000 0.000 0.000 0.000 0.000 0.000 0.000 0.000 0.000 0.000 0.000 0.000 0.000 0.000 0.000 0.000 0.000 0.000 0.000 0.000 0.000 0.000 0.000 0.000 0.000 0.000 0.000 0.000 0.118 0.327 0.550 0.799 1.123 0.854 0.261 0.096 0.012 0.118
