ncols        36
nrows        67
xllcorner    409677.8
yllcorner    6870774.1
cellsize     5.00
NODATA_value -9999
0.000 0.000 0.000 0.000 0.000 0.000 0.000 0.000 0.000 0.000 0.000 0.000 0.000 0.000 0.000 0.000 0.000 0.000 0.000 0.000 0.000 0.000 0.000 0.000 0.000 0.000 0.000 0.000 0.000 0.000 0.000 0.000 0.000 0.000 0.000 0.000
0.000 0.000 0.000 0.024 4.831 40.283 55.367 60.667 61.800 33.218 11.736 1.187 0.011 0.000 0.000 0.000 0.000 0.000 0.000 0.000 0.000 0.000 0.000 0.000 0.000 0.000 0.000 0.000 0.000 0.000 0.000 0.000 0.000 0.000 0.000 0.000
0.000 0.000 0.072 14.308 63.583 63.711 61.653 71.150 67.572 59.664 46.312 45.142 21.327 1.309 0.000 0.000 0.000 0.000 0.000 0.000 0.000 0.000 0.000 0.000 0.000 0.000 0.000 0.000 0.000 0.000 0.000 0.000 0.000 0.000 0.000 0.000
0.000 0.001 7.531 60.155 67.650 69.233 78.257 75.178 70.965 65.207 53.519 47.497 45.930 39.332 0.662 0.000 0.000 0.000 0.000 0.000 0.000 0.000 0.000 0.000 0.000 0.000 0.000 0.000 0.000 0.000 0.000 0.000 0.000 0.000 0.000 0.000
0.000 0.620 58.631 67.807 70.990 82.776 86.727 81.828 72.473 68.117 62.921 60.353 53.802 38.869 28.086 0.001 0.000 0.000 0.000 0.000 0.000 0.000 0.000 0.000 0.000 0.000 0.000 0.000 0.000 0.000 0.000 0.000 0.000 0.000 0.000 0.000
0.000 8.261 56.737 65.103 73.441 83.197 84.542 78.525 64.791 71.630 66.950 68.297 54.297 49.544 37.939 2.856 0.000 0.000 0.000 0.000 0.000 0.000 0.000 0.000 0.000 0.000 0.000 0.000 0.000 0.000 0.000 0.000 0.000 0.000 0.000 0.000
0.041 39.714 58.172 68.186 69.225 79.613 79.344 73.883 68.150 77.867 78.813 72.905 66.508 51.943 37.144 20.424 0.001 0.000 0.000 0.000 0.000 0.000 0.000 0.000 0.000 0.000 0.000 0.000 0.000 0.000 0.000 0.000 0.000 0.000 0.000 0.000
0.589 51.599 57.728 55.187 69.560 69.161 74.967 69.173 81.554 89.500 84.130 74.120 68.262 53.825 43.380 30.969 1.627 0.000 0.000 0.000 0.000 0.000 0.000 0.000 0.000 0.000 0.000 0.000 0.000 0.000 0.000 0.000 0.000 0.000 0.000 0.000
1.736 45.745 54.624 61.123 63.197 67.027 72.945 79.246 88.500 87.970 70.015 98.991 74.093 53.507 44.426 30.502 10.228 0.049 0.000 0.000 0.000 0.000 0.000 0.000 0.000 0.000 0.000 0.000 0.000 0.000 0.000 0.000 0.000 0.000 0.000 0.000
2.790 42.811 47.539 50.912 57.541 70.304 77.999 88.727 82.967 77.851 79.483 92.183 64.028 55.502 43.845 33.411 18.516 3.551 0.002 0.000 0.000 0.000 0.000 0.000 0.000 0.000 0.000 0.000 0.000 0.000 0.000 0.000 0.000 0.000 0.000 0.000
2.149 41.456 50.092 53.286 68.562 76.300 76.601 83.179 74.824 75.178 80.559 79.001 61.960 50.916 50.620 34.621 23.920 10.915 1.111 0.000 0.000 0.000 0.000 0.000 0.000 0.000 0.000 0.000 0.000 0.000 0.000 0.000 0.000 0.000 0.000 0.000
0.908 29.590 39.662 58.491 66.566 72.015 80.280 73.260 65.274 61.809 72.916 73.611 61.665 59.276 51.784 39.780 29.469 15.737 6.290 0.325 0.000 0.000 0.000 0.000 0.000 0.000 0.000 0.000 0.000 0.000 0.000 0.000 0.000 0.000 0.000 0.000
0.186 27.304 39.390 49.094 59.784 68.589 66.264 67.917 60.149 68.003 77.306 89.759 80.799 62.169 53.993 38.362 30.603 17.887 10.736 3.777 0.044 0.000 0.000 0.000 0.000 0.000 0.000 0.000 0.000 0.000 0.000 0.000 0.000 0.000 0.000 0.000
0.007 10.719 38.800 49.546 52.951 61.815 69.751 65.844 71.905 69.831 81.862 89.206 70.802 56.523 50.354 39.985 35.859 20.758 13.488 7.514 1.426 0.000 0.000 0.000 0.000 0.000 0.000 0.000 0.000 0.000 0.000 0.000 0.000 0.000 0.000 0.000
0.000 1.160 28.261 34.318 46.688 54.326 63.894 65.924 64.214 67.762 84.579 74.863 63.517 54.204 50.370 40.687 35.728 26.762 14.455 8.432 3.256 0.280 0.000 0.000 0.000 0.000 0.000 0.000 0.000 0.000 0.000 0.000 0.000 0.000 0.000 0.000
0.000 0.022 12.600 30.691 44.816 52.639 60.335 60.977 60.345 62.967 64.636 59.633 51.946 53.341 40.492 37.663 36.200 29.893 17.327 8.451 4.587 1.691 0.006 0.000 0.000 0.000 0.000 0.000 0.000 0.000 0.000 0.000 0.000 0.000 0.000 0.000
0.000 0.000 1.736 27.750 37.429 52.375 56.735 54.158 57.296 60.509 67.580 56.126 53.786 42.498 40.870 40.135 39.093 31.024 20.165 9.612 3.722 2.389 0.232 0.000 0.000 0.000 0.000 0.000 0.000 0.000 0.000 0.000 0.000 0.000 0.000 0.000
0.000 0.000 0.040 11.433 35.501 49.242 53.317 49.943 52.409 54.566 59.068 50.894 43.815 40.212 45.771 41.760 40.341 33.619 25.318 10.541 4.761 2.737 1.247 0.039 0.000 0.000 0.000 0.000 0.000 0.000 0.000 0.000 0.000 0.000 0.000 0.000
0.000 0.000 0.000 0.802 19.307 34.932 37.870 44.264 50.416 56.387 44.042 42.920 39.780 42.769 47.977 41.143 41.986 36.688 26.611 15.370 6.717 3.178 3.169 0.687 0.000 0.000 0.000 0.000 0.000 0.000 0.000 0.000 0.000 0.000 0.000 0.000
0.000 0.000 0.000 0.012 5.311 21.763 37.106 50.699 59.599 51.247 46.854 41.984 41.913 43.646 40.697 44.193 42.723 37.197 28.026 20.856 9.106 4.371 3.962 2.138 0.056 0.000 0.000 0.000 0.000 0.000 0.000 0.000 0.000 0.000 0.000 0.000
0.000 0.000 0.000 0.000 0.476 12.423 29.915 43.699 43.932 43.892 39.892 41.785 42.592 43.925 45.692 45.467 44.909 40.050 32.692 25.265 12.078 5.826 4.985 3.589 0.867 0.000 0.000 0.000 0.000 0.000 0.000 0.000 0.000 0.000 0.000 0.000
0.000 0.000 0.000 0.000 0.003 2.574 13.753 34.599 44.988 40.546 44.875 39.931 46.799 38.708 47.325 44.812 45.587 40.094 34.615 26.319 15.802 8.924 6.573 4.118 2.735 0.096 0.000 0.000 0.000 0.000 0.000 0.000 0.000 0.000 0.000 0.000
0.000 0.000 0.000 0.000 0.000 0.210 7.335 17.249 28.917 39.199 36.686 38.879 35.947 44.636 47.069 44.241 44.897 40.016 38.102 29.127 21.013 13.281 7.764 4.641 3.483 1.053 0.003 0.000 0.000 0.000 0.000 0.000 0.000 0.000 0.000 0.000
0.000 0.000 0.000 0.000 0.000 0.001 0.806 7.993 17.105 29.861 35.243 38.950 38.735 42.065 43.677 41.294 43.014 42.723 40.009 31.273 24.308 18.028 10.210 6.329 3.884 2.677 0.412 0.001 0.000 0.000 0.000 0.000 0.000 0.000 0.000 0.000
0.000 0.000 0.000 0.000 0.000 0.000 0.007 2.342 10.101 23.161 30.996 32.941 35.906 40.026 39.274 38.291 44.226 41.821 37.377 31.758 27.873 23.469 14.546 8.242 4.582 3.594 2.320 0.278 0.000 0.000 0.000 0.000 0.000 0.000 0.000 0.000
0.000 0.000 0.000 0.000 0.000 0.000 0.000 0.109 5.067 10.981 25.112 30.487 32.292 32.179 34.459 39.815 41.734 37.784 35.716 33.349 30.171 28.283 21.135 9.929 5.552 4.398 3.595 1.732 0.067 0.000 0.000 0.000 0.000 0.000 0.000 0.000
0.000 0.000 0.000 0.000 0.000 0.000 0.000 0.000 1.275 6.899 11.981 24.929 27.697 27.428 29.909 34.306 37.603 40.705 33.254 33.917 31.503 29.908 25.857 12.154 6.583 4.275 4.217 3.500 0.901 0.014 0.000 0.000 0.000 0.000 0.000 0.000
0.000 0.000 0.000 0.000 0.000 0.000 0.000 0.000 0.043 3.031 5.020 15.159 20.695 26.396 29.853 36.761 32.560 32.718 34.475 34.419 32.299 30.043 21.498 16.871 8.625 5.006 5.068 4.138 2.427 0.516 0.002 0.000 0.000 0.000 0.000 0.000
0.000 0.000 0.000 0.000 0.000 0.000 0.000 0.000 0.000 0.310 3.078 5.634 16.599 22.219 26.815 30.862 32.482 35.201 33.348 37.215 31.406 31.598 27.110 21.429 12.774 6.496 4.896 3.590 3.636 1.836 0.198 0.000 0.000 0.000 0.000 0.000
0.000 0.000 0.000 0.000 0.000 0.000 0.000 0.000 0.000 0.002 1.556 2.719 13.207 20.091 25.984 28.596 32.609 32.918 35.568 33.760 31.911 31.496 30.057 24.592 15.076 7.634 4.135 4.098 4.201 2.883 1.055 0.002 0.001 0.000 0.000 0.000
0.000 0.000 0.000 0.000 0.000 0.000 0.000 0.000 0.000 0.000 0.750 2.135 5.428 16.236 24.737 29.122 29.570 33.665 30.623 31.347 31.741 34.118 30.131 24.861 16.589 9.484 5.208 4.384 3.903 3.005 2.042 1.012 0.182 0.000 0.000 0.000
0.000 0.000 0.000 0.000 0.000 0.000 0.000 0.000 0.000 0.000 0.078 1.852 3.247 10.729 19.325 25.676 27.958 28.542 31.191 32.778 32.945 33.875 28.722 25.553 17.573 10.085 6.569 4.118 3.469 2.681 2.551 2.347 1.187 0.038 0.000 0.000
0.000 0.000 0.000 0.000 0.000 0.000 0.000 0.000 0.000 0.000 0.002 1.303 3.411 6.683 14.222 22.704 24.543 29.176 28.319 32.591 32.386 30.827 29.779 23.142 16.305 11.801 8.428 4.348 3.301 2.289 2.657 2.987 2.308 0.798 0.022 0.000
0.000 0.000 0.000 0.000 0.000 0.000 0.000 0.000 0.000 0.000 0.001 0.280 2.431 2.705 7.845 14.382 21.425 21.861 26.621 29.190 32.375 31.479 29.189 23.244 17.817 13.600 9.850 5.609 3.151 2.667 3.331 3.223 2.945 1.943 0.665 0.000
0.000 0.000 0.000 0.000 0.000 0.000 0.000 0.000 0.000 0.000 0.000 0.028 0.106 2.687 3.128 6.985 14.879 20.644 25.775 30.918 32.114 32.244 28.526 24.932 18.876 14.567 10.698 7.191 3.505 2.746 3.587 3.605 3.245 2.571 1.485 0.031
0.000 0.000 0.000 0.000 0.000 0.000 0.000 0.000 0.000 0.000 0.000 0.000 0.517 2.399 1.649 2.918 10.836 18.830 25.330 29.810 31.577 30.951 28.493 27.302 18.487 15.438 12.376 8.298 4.643 3.694 3.955 3.836 3.372 2.657 2.335 1.274
0.000 0.000 0.000 0.000 0.000 0.000 0.000 0.000 0.000 0.000 0.000 0.000 0.158 1.401 1.386 0.897 5.926 16.661 24.992 27.993 28.372 31.063 29.349 26.404 18.036 16.975 13.428 9.637 7.031 4.658 4.361 4.130 3.514 2.698 2.765 2.028
0.000 0.000 0.000 0.000 0.000 0.000 0.000 0.000 0.000 0.000 0.000 0.000 0.014 0.366 1.139 1.308 3.601 17.149 21.979 28.204 29.504 31.074 28.165 21.119 21.252 17.670 14.013 11.251 8.227 5.439 4.250 4.308 3.805 3.432 3.148 2.642
0.000 0.000 0.000 0.000 0.000 0.000 0.000 0.000 0.000 0.000 0.000 0.000 0.000 0.143 0.525 1.168 4.851 11.746 22.501 26.535 32.722 29.530 28.187 25.889 22.172 18.241 16.090 12.721 9.159 7.030 5.222 4.986 5.205 3.952 3.647 2.852
0.000 0.000 0.000 0.000 0.000 0.000 0.000 0.000 0.000 0.000 0.000 0.000 0.000 0.010 0.318 1.185 4.450 7.654 16.207 23.566 26.241 27.815 26.527 24.248 23.088 19.655 16.757 14.735 10.825 8.371 7.574 5.724 5.675 4.930 4.056 3.218
0.000 0.000 0.000 0.000 0.000 0.000 0.000 0.000 0.000 0.000 0.000 0.000 0.000 0.000 0.099 2.558 4.405 5.034 9.866 16.103 22.987 25.821 26.473 25.614 22.744 21.659 19.083 15.929 13.217 10.489 8.836 7.838 7.286 5.706 4.132 4.344
0.000 0.000 0.000 0.000 0.000 0.000 0.000 0.000 0.000 0.000 0.000 0.000 0.000 0.000 0.473 2.610 3.280 3.152 6.024 12.277 18.859 26.234 27.465 27.119 23.645 20.466 20.950 19.025 16.150 11.925 10.560 9.640 8.666 7.490 5.623 5.143
0.000 0.000 0.000 0.000 0.000 0.000 0.000 0.000 0.000 0.000 0.000 0.000 0.000 0.000 0.112 1.067 1.845 1.900 3.241 7.066 14.454 21.669 25.084 25.933 24.151 21.211 21.687 20.099 17.748 13.684 12.357 14.333 11.556 9.327 7.348 5.116
0.000 0.000 0.000 0.000 0.000 0.000 0.000 0.000 0.000 0.000 0.000 0.000 0.000 0.000 0.000 0.055 1.030 1.707 1.955 4.451 9.421 17.861 21.593 23.868 23.578 21.423 21.658 20.867 18.728 16.849 16.250 18.750 15.484 11.687 8.408 5.189
0.000 0.000 0.000 0.000 0.000 0.000 0.000 0.000 0.000 0.000 0.000 0.000 0.000 0.000 0.000 0.000 0.403 1.197 1.072 2.219 7.790 14.341 20.315 22.372 22.264 21.262 21.956 21.691 20.291 18.696 21.335 23.923 18.764 15.023 8.765 3.884
0.000 0.000 0.000 0.000 0.000 0.000 0.000 0.000 0.000 0.000 0.000 0.000 0.000 0.000 0.000 0.000 0.006 0.470 0.468 1.981 6.004 11.724 17.729 20.782 21.433 21.286 20.600 21.397 21.587 21.712 22.740 26.715 23.182 16.294 6.422 3.468
0.000 0.000 0.000 0.000 0.000 0.000 0.000 0.000 0.000 0.000 0.000 0.000 0.000 0.000 0.000 0.000 0.000 0.409 1.280 2.363 4.109 7.877 14.519 19.836 20.713 20.227 19.808 20.917 21.822 22.235 21.937 27.319 24.838 16.846 7.192 5.663
0.000 0.000 0.000 0.000 0.000 0.000 0.000 0.000 0.000 0.000 0.000 0.000 0.000 0.000 0.000 0.000 0.000 0.154 1.379 2.561 2.873 4.872 11.019 17.877 20.659 19.151 18.962 20.005 21.783 21.378 23.692 29.874 27.656 17.330 9.467 6.957
0.000 0.000 0.000 0.000 0.000 0.000 0.000 0.000 0.000 0.000 0.000 0.000 0.000 0.000 0.000 0.000 0.000 0.009 1.342 2.429 2.659 3.594 7.447 17.161 21.761 20.001 18.014 19.729 20.235 20.543 25.699 30.317 25.493 17.560 11.678 7.386
0.000 0.000 0.000 0.000 0.000 0.000 0.000 0.000 0.000 0.000 0.000 0.000 0.000 0.000 0.000 0.000 0.000 0.000 0.441 1.866 2.322 3.400 3.832 12.859 21.007 20.033 18.259 19.817 20.252 22.170 28.498 30.440 24.892 19.339 13.670 7.197
0.000 0.000 0.000 0.000 0.000 0.000 0.000 0.000 0.000 0.000 0.000 0.000 0.000 0.000 0.000 0.000 0.000 0.000 0.068 1.044 2.106 3.297 2.897 8.872 21.059 21.328 18.442 19.579 19.751 22.181 28.676 27.883 26.364 20.687 13.842 7.182
0.000 0.000 0.000 0.000 0.000 0.000 0.000 0.000 0.000 0.000 0.000 0.000 0.000 0.000 0.000 0.000 0.000 0.000 0.002 0.455 1.553 3.087 2.767 5.151 17.990 20.241 16.800 16.137 17.614 21.027 27.555 29.284 25.684 17.644 13.486 7.900
0.000 0.000 0.000 0.000 0.000 0.000 0.000 0.000 0.000 0.000 0.000 0.000 0.000 0.000 0.000 0.000 0.000 0.000 0.000 0.069 0.983 2.176 2.745 4.090 15.255 19.111 15.800 13.353 14.703 19.067 24.304 25.215 19.532 14.072 13.743 7.813
0.000 0.000 0.000 0.000 0.000 0.000 0.000 0.000 0.000 0.000 0.000 0.000 0.000 0.000 0.000 0.000 0.000 0.000 0.000 0.000 0.426 1.942 2.680 3.232 10.772 18.745 14.808 11.821 13.645 16.848 20.162 20.845 16.680 14.068 10.949 6.800
0.000 0.000 0.000 0.000 0.000 0.000 0.000 0.000 0.000 0.000 0.000 0.000 0.000 0.000 0.000 0.000 0.000 0.000 0.000 0.000 0.034 2.404 2.618 2.846 7.580 16.572 14.133 11.551 12.450 14.812 19.943 20.181 15.638 12.866 10.932 6.928
0.000 0.000 0.000 0.000 0.000 0.000 0.000 0.000 0.000 0.000 0.000 0.000 0.000 0.000 0.000 0.000 0.000 0.000 0.000 0.000 0.005 2.132 2.810 3.166 5.749 14.278 14.063 10.514 10.073 13.912 18.986 15.317 12.430 12.763 12.434 7.589
0.000 0.000 0.000 0.000 0.000 0.000 0.000 0.000 0.000 0.000 0.000 0.000 0.000 0.000 0.000 0.000 0.000 0.000 0.000 0.000 0.002 1.932 2.465 2.985 5.243 12.742 13.521 9.247 8.017 10.669 11.201 10.819 12.093 12.579 9.278 7.465
0.000 0.000 0.000 0.000 0.000 0.000 0.000 0.000 0.000 0.000 0.000 0.000 0.000 0.000 0.000 0.000 0.000 0.000 0.000 0.000 0.003 1.377 2.173 3.022 4.698 10.115 11.820 9.094 5.733 7.126 8.897 9.744 10.406 9.472 8.423 6.907
0.000 0.000 0.000 0.000 0.000 0.000 0.000 0.000 0.000 0.000 0.000 0.000 0.000 0.000 0.000 0.000 0.000 0.000 0.000 0.000 0.003 1.223 1.593 3.027 4.099 7.649 11.211 7.494 4.131 5.843 7.073 7.888 7.944 9.055 10.356 6.231
0.000 0.000 0.000 0.000 0.000 0.000 0.000 0.000 0.000 0.000 0.000 0.000 0.000 0.000 0.000 0.000 0.000 0.000 0.000 0.000 0.002 1.182 1.574 2.758 3.487 5.072 9.861 7.289 3.510 5.339 6.292 7.798 9.122 10.788 8.794 5.396
0.000 0.000 0.000 0.000 0.000 0.000 0.000 0.000 0.000 0.000 0.000 0.000 0.000 0.000 0.000 0.000 0.000 0.000 0.000 0.000 0.003 1.077 1.599 2.602 3.538 4.816 8.991 7.069 3.487 4.682 6.918 9.721 11.085 9.654 7.128 6.538
0.000 0.000 0.000 0.000 0.000 0.000 0.000 0.000 0.000 0.000 0.000 0.000 0.000 0.000 0.000 0.000 0.000 0.000 0.000 0.000 0.007 1.166 1.499 2.572 3.116 4.202 8.733 5.976 4.205 6.107 9.514 10.072 9.530 8.462 7.710 7.224
0.000 0.000 0.000 0.000 0.000 0.000 0.000 0.000 0.000 0.000 0.000 0.000 0.000 0.000 0.000 0.000 0.000 0.000 0.000 0.000 0.003 1.177 1.569 2.635 3.181 3.378 7.526 6.245 5.017 6.177 8.737 8.793 8.601 9.115 8.135 7.275
0.000 0.000 0.000 0.000 0.000 0.000 0.000 0.000 0.000 0.000 0.000 0.000 0.000 0.000 0.000 0.000 0.000 0.000 0.000 0.000 0.003 1.200 1.682 2.419 2.960 2.670 6.264 6.615 5.316 6.332 7.013 6.738 8.503 8.212 7.494 6.838
0.000 0.000 0.000 0.000 0.000 0.000 0.000 0.000 0.000 0.000 0.000 0.000 0.000 0.000 0.000 0.000 0.000 0.000 0.000 0.000 0.003 1.090 1.477 2.285 2.550 2.449 4.077 7.165 5.695 5.779 5.729 6.761 7.578 7.522 6.423 6.504
0.000 0.000 0.000 0.000 0.000 0.000 0.000 0.000 0.000 0.000 0.000 0.000 0.000 0.000 0.000 0.000 0.000 0.000 0.000 0.000 0.001 1.239 1.541 2.326 2.034 2.026 2.414 5.948 4.099 4.577 4.993 5.806 6.627 7.377 6.828 7.406
0.000 0.000 0.000 0.000 0.000 0.000 0.000 0.000 0.000 0.000 0.000 0.000 0.000 0.000 0.000 0.000 0.000 0.000 0.000 0.000 0.000 1.090 1.735 1.788 1.566 1.573 2.164 3.874 2.886 3.309 3.410 5.254 6.466 7.237 6.512 5.788
