ncols        32
nrows        41
xllcorner    409812.8
yllcorner    6870604.1
cellsize     5.00
NODATA_value -9999
0.000 0.000 0.000 0.000 0.000 0.000 0.000 0.000 0.000 0.000 0.000 0.000 0.000 0.000 0.000 0.000 0.000 0.000 0.000 0.000 0.000 0.000 0.000 0.000 0.000 0.000 0.000 0.000 0.000 0.000 0.000 0.000
0.000 0.000 0.000 0.000 0.000 0.000 0.000 0.000 0.000 0.013 3.449 41.457 86.553 84.521 66.456 16.439 0.244 0.000 0.000 0.000 0.000 0.000 0.000 0.000 0.000 0.000 0.000 0.000 0.000 0.000 0.000 0.000
0.000 0.000 0.000 0.000 0.000 0.000 0.000 0.000 0.279 27.168 95.860 97.338 93.969 94.367 85.604 77.815 63.618 2.928 0.000 0.000 0.000 0.000 0.000 0.000 0.000 0.000 0.000 0.000 0.000 0.000 0.000 0.000
0.000 0.000 0.000 0.000 0.000 0.000 0.000 0.023 20.473 90.371 100.178 105.916 106.649 103.533 100.986 95.321 83.414 83.797 5.784 0.000 0.000 0.000 0.000 0.000 0.000 0.000 0.000 0.000 0.000 0.000 0.000 0.000
0.000 0.000 0.000 0.000 0.000 0.000 0.000 3.525 92.036 102.325 112.556 117.173 116.583 116.954 117.203 108.490 91.330 75.477 75.689 4.049 0.000 0.000 0.000 0.000 0.000 0.000 0.000 0.000 0.000 0.000 0.000 0.000
0.000 0.000 0.000 0.000 0.000 0.000 0.012 40.894 99.251 110.655 119.847 125.998 128.344 128.723 124.032 109.009 95.261 93.492 83.975 57.952 1.241 0.000 0.000 0.000 0.000 0.000 0.000 0.000 0.000 0.000 0.000 0.000
0.000 0.000 0.000 0.000 0.000 0.000 0.845 94.497 104.205 120.795 127.358 132.204 137.558 128.192 122.016 112.666 105.710 113.898 103.360 74.519 40.255 0.038 0.000 0.000 0.000 0.000 0.000 0.000 0.000 0.000 0.000 0.000
0.000 0.000 0.000 0.000 0.000 0.000 5.218 91.472 106.482 125.884 133.195 128.693 135.192 124.320 122.775 123.948 117.848 131.869 106.900 91.699 62.126 15.123 0.000 0.000 0.000 0.000 0.000 0.000 0.000 0.000 0.000 0.000
0.000 0.000 0.000 0.000 0.000 0.000 10.208 95.761 109.063 121.586 128.959 139.683 133.368 141.666 135.601 116.656 128.599 128.554 109.039 102.425 76.789 58.597 0.941 0.000 0.000 0.000 0.000 0.000 0.000 0.000 0.000 0.000
0.000 0.000 0.000 0.000 0.000 0.000 11.256 92.790 100.641 111.098 131.546 148.898 143.748 135.123 130.301 126.040 145.092 134.008 117.461 117.831 93.533 61.264 36.875 0.065 0.000 0.000 0.000 0.000 0.000 0.000 0.000 0.000
0.000 0.000 0.000 0.000 0.000 0.000 8.201 82.948 94.838 116.644 143.879 141.876 134.372 126.260 130.587 140.818 139.345 127.525 128.274 122.326 98.605 73.959 51.703 25.231 0.001 0.000 0.000 0.000 0.000 0.000 0.000 0.000
0.000 0.000 0.000 0.000 0.000 0.000 4.875 69.135 90.741 119.906 128.736 131.027 129.112 136.309 140.832 142.420 130.930 129.833 147.937 119.855 108.109 84.665 79.540 68.662 6.244 0.000 0.000 0.000 0.000 0.000 0.000 0.000
0.000 0.000 0.000 0.000 0.000 0.000 1.738 70.199 83.753 99.367 113.203 125.676 136.054 133.431 143.543 143.839 145.413 157.893 142.408 126.809 114.340 105.395 102.902 87.283 58.975 0.324 0.000 0.000 0.000 0.000 0.000 0.000
0.000 0.000 0.000 0.000 0.000 0.000 0.254 39.318 77.205 93.627 102.761 113.256 126.146 142.215 146.378 143.353 150.010 152.613 148.000 136.354 130.987 125.123 127.263 108.006 72.653 14.893 0.005 0.000 0.000 0.000 0.000 0.000
0.000 0.000 0.000 0.000 0.000 0.000 0.012 16.870 63.661 72.756 95.857 109.802 133.991 126.065 132.257 146.519 143.179 144.777 146.367 143.063 128.823 141.513 132.005 129.715 78.715 36.157 3.019 0.000 0.000 0.000 0.000 0.000
0.000 0.000 0.000 0.000 0.000 0.000 0.102 17.233 59.962 64.410 85.961 107.558 109.894 133.597 136.233 137.125 150.169 153.847 149.550 142.527 152.234 151.077 149.135 133.166 83.005 42.752 19.013 0.148 0.000 0.000 0.000 0.000
0.000 0.000 0.000 0.000 0.173 15.329 65.173 60.032 56.406 61.003 69.378 79.955 105.858 121.668 123.727 130.455 138.954 158.629 153.557 161.009 160.919 157.623 152.981 130.291 101.740 61.172 31.277 4.782 0.002 0.000 0.000 0.000
0.000 0.000 0.000 0.506 55.773 77.954 74.908 71.181 70.965 66.064 63.632 73.219 85.981 98.601 118.493 134.629 150.221 155.922 159.045 170.803 169.458 171.256 161.170 141.089 109.495 66.092 39.314 17.273 1.390 0.000 0.000 0.000
0.000 0.000 0.429 71.564 82.816 83.701 88.699 85.392 84.779 78.253 67.997 70.280 79.994 90.289 109.861 122.848 132.285 155.224 165.824 157.422 181.960 185.275 155.434 145.916 109.572 84.753 50.206 24.898 6.850 0.312 0.000 0.000
0.000 0.141 37.380 83.840 95.102 100.141 98.526 97.986 93.339 87.025 87.683 81.992 83.996 86.899 97.249 116.069 143.183 147.875 158.198 172.292 182.807 177.247 151.765 136.565 112.335 89.703 56.414 26.118 12.945 5.565 0.242 0.000
0.000 4.087 78.639 92.680 104.658 109.051 109.443 105.174 97.012 101.255 94.649 90.892 87.419 85.805 96.947 114.564 126.218 140.917 157.651 175.459 182.785 161.106 139.593 141.119 111.866 83.349 63.462 29.707 21.535 13.198 3.019 0.109
0.037 40.207 86.043 104.001 116.814 115.794 116.948 115.350 117.994 104.175 104.053 103.562 96.054 95.850 91.736 110.591 121.446 146.081 150.070 168.291 165.370 148.453 154.478 134.237 110.909 87.135 62.333 37.972 30.279 17.659 7.096 2.123
1.080 84.668 94.897 105.200 114.235 117.544 115.724 121.601 111.658 109.198 108.032 102.374 97.897 90.889 96.621 115.435 130.868 139.813 165.406 163.404 159.465 160.042 136.980 120.236 110.191 92.261 69.050 49.552 41.267 20.110 12.111 7.475
4.786 78.112 89.006 121.132 115.922 111.803 137.970 120.871 114.393 116.156 113.631 104.315 102.116 94.263 106.556 100.850 114.981 132.347 147.836 144.994 153.244 146.157 137.160 128.429 111.373 93.179 73.669 60.111 46.942 24.634 16.853 9.700
9.212 69.777 89.179 111.753 106.468 120.742 125.411 113.909 117.251 118.358 112.401 106.412 99.430 100.857 98.478 94.234 105.221 126.120 132.110 141.758 148.736 146.639 140.281 124.553 105.510 95.806 72.283 58.219 45.373 34.018 17.905 9.090
11.035 68.795 90.113 100.916 110.752 116.594 111.761 113.174 115.107 120.307 114.313 103.588 95.412 96.147 86.822 88.338 105.323 122.285 131.990 133.786 141.459 140.536 130.687 123.206 103.754 92.238 81.812 66.562 56.708 36.346 19.909 10.854
9.125 63.428 85.330 98.888 102.240 103.107 106.477 108.620 109.198 111.513 104.754 94.415 99.376 96.552 93.545 93.253 110.428 129.931 135.211 121.663 132.192 144.262 126.669 107.106 104.164 98.907 75.817 66.721 53.443 41.917 23.520 10.445
6.141 62.248 75.043 86.182 90.786 101.127 98.731 102.105 105.553 98.067 91.186 94.470 93.570 89.713 96.398 90.108 92.297 120.714 127.414 125.281 121.284 126.067 122.998 110.144 103.477 89.191 76.758 66.009 56.660 43.341 27.570 12.858
2.909 51.950 68.339 81.909 86.820 92.625 94.945 98.604 95.815 97.832 88.704 95.899 86.286 86.047 94.675 88.635 98.669 100.294 110.197 112.418 121.968 119.896 114.810 111.816 99.982 81.455 73.431 66.375 67.092 45.061 33.975 15.352
0.966 33.788 56.147 63.905 81.269 89.962 88.144 92.040 93.295 98.260 90.692 84.440 83.494 89.665 75.921 70.420 80.207 100.399 113.754 111.154 109.782 124.595 107.395 91.459 84.908 79.399 71.915 72.924 57.281 49.784 33.210 19.036
0.239 20.854 44.447 59.911 66.892 76.664 85.474 89.738 87.443 85.966 82.894 82.224 84.460 70.081 67.108 57.077 72.147 84.315 101.950 105.591 112.167 105.504 91.319 86.991 79.066 72.292 68.937 69.206 52.480 43.972 38.413 22.433
0.037 12.078 38.222 50.791 66.780 77.337 82.019 84.128 85.928 87.220 72.827 74.516 68.038 68.218 78.824 71.464 73.809 77.532 88.862 83.505 90.100 90.167 87.991 80.395 73.564 69.553 68.067 63.852 54.007 52.528 44.559 24.525
0.003 5.156 29.795 43.439 58.397 68.047 73.439 75.883 77.077 72.738 64.979 70.407 70.263 63.660 59.129 53.470 56.953 70.180 82.744 93.776 87.339 93.849 78.681 71.117 67.591 64.024 65.117 60.257 53.632 52.223 42.629 28.208
0.000 1.564 21.191 37.462 49.986 59.566 68.699 70.317 74.534 57.746 56.911 61.304 51.912 43.492 45.605 49.659 55.453 61.368 69.587 73.738 79.916 76.570 67.106 61.857 60.556 60.819 61.211 55.504 50.695 49.493 42.443 28.510
0.000 0.304 13.737 27.431 41.245 52.741 59.923 61.414 67.738 71.922 58.197 44.473 35.346 31.740 49.468 57.772 43.294 49.704 66.236 73.128 77.342 68.025 58.824 55.527 55.784 57.811 55.693 47.793 51.149 47.808 41.451 25.035
0.000 0.029 6.855 21.991 29.727 46.364 52.418 62.000 69.025 52.572 38.474 33.529 23.834 30.572 54.382 40.941 38.580 46.738 55.818 63.337 59.973 61.956 54.764 51.921 54.188 57.253 55.581 54.430 52.072 49.245 37.289 20.991
0.000 0.001 2.276 15.921 22.728 31.539 42.727 53.739 51.463 40.872 26.961 22.596 26.538 25.644 33.443 35.344 30.989 41.123 47.850 54.300 61.356 58.589 55.409 47.483 49.304 51.182 48.095 48.413 46.098 38.163 24.423 16.225
0.000 0.000 0.455 10.762 18.803 23.411 30.868 39.962 38.096 26.639 24.486 23.109 18.018 15.061 19.071 24.057 23.152 23.784 36.345 47.672 63.992 68.397 46.928 39.548 36.788 39.957 40.515 36.680 31.593 21.770 18.496 13.420
0.000 0.000 0.044 5.517 15.010 18.657 21.545 24.251 22.784 23.412 21.117 13.769 11.654 11.147 13.679 16.048 13.802 15.695 19.332 26.544 44.775 46.597 35.869 20.693 22.709 26.414 32.182 29.522 19.660 15.736 14.291 13.675
0.000 0.000 0.002 2.229 11.658 15.905 16.354 18.040 19.881 21.246 15.891 14.066 10.726 10.205 11.214 11.971 11.173 11.115 14.557 16.403 21.374 31.426 22.485 14.676 14.876 16.929 16.772 16.193 14.571 15.408 16.138 14.896
0.000 0.000 0.000 0.707 9.269 14.181 13.536 14.531 15.443 12.101 9.711 7.520 8.159 8.106 8.721 8.851 7.855 8.056 8.129 9.146 10.355 12.543 9.566 8.924 8.417 10.294 11.018 10.314 10.826 11.830 12.645 8.398
