ncols        61
nrows        150
xllcorner    409507.8
yllcorner    6870879.1
cellsize     5.00
NODATA_value -9999
0.000 0.000 0.000 0.000 0.000 0.000 0.000 0.000 0.000 0.000 0.000 0.000 0.000 0.000 0.000 0.000 0.000 0.000 0.000 0.000 0.000 0.000 0.000 0.000 0.000 0.000 0.000 0.000 0.000 0.000 0.000 0.000 0.000 0.000 0.000 0.000 0.000 0.000 0.000 0.000 0.000 0.000 0.000 0.000 0.000 0.000 0.000 0.000 0.000 0.000 0.000 0.000 0.000 0.000 0.000 0.000 0.000 0.000 0.000 0.000 0.000
0.000 0.000 0.865 69.750 88.125 104.167 39.089 0.364 0.000 0.000 0.000 0.000 0.000 0.000 0.000 0.000 0.000 0.000 0.000 0.000 0.000 0.000 0.000 0.000 0.000 0.000 0.000 0.000 0.000 0.000 0.000 0.000 0.000 0.000 0.000 0.000 0.000 0.000 0.000 0.000 0.000 0.000 0.000 0.000 0.000 0.000 0.000 0.000 0.000 0.000 0.000 0.000 0.000 0.000 0.000 0.000 0.000 0.000 0.000 0.000 0.000
0.000 0.236 74.528 75.683 90.264 100.254 79.735 50.258 0.302 0.000 0.000 0.000 0.000 0.000 0.000 0.000 0.000 0.000 0.000 0.000 0.000 0.000 0.000 0.000 0.000 0.000 0.000 0.000 0.000 0.000 0.000 0.000 0.000 0.000 0.000 0.000 0.000 0.000 0.000 0.000 0.000 0.000 0.000 0.000 0.000 0.000 0.000 0.000 0.000 0.000 0.000 0.000 0.000 0.000 0.000 0.000 0.000 0.000 0.000 0.000 0.000
0.000 6.029 80.538 78.391 90.330 100.744 104.155 79.074 41.726 0.021 0.000 0.000 0.000 0.000 0.000 0.000 0.000 0.000 0.000 0.000 0.000 0.000 0.000 0.000 0.000 0.000 0.000 0.000 0.000 0.000 0.000 0.000 0.000 0.000 0.000 0.000 0.000 0.000 0.000 0.000 0.000 0.000 0.000 0.000 0.000 0.000 0.000 0.000 0.000 0.000 0.000 0.000 0.000 0.000 0.000 0.000 0.000 0.000 0.000 0.000 0.000
0.016 46.407 96.652 98.438 97.342 113.801 118.968 89.728 79.319 14.787 0.000 0.000 0.000 0.000 0.000 0.000 0.000 0.000 0.000 0.000 0.000 0.000 0.000 0.000 0.000 0.000 0.000 0.000 0.000 0.000 0.000 0.000 0.000 0.000 0.000 0.000 0.000 0.000 0.000 0.000 0.000 0.000 0.000 0.000 0.000 0.000 0.000 0.000 0.000 0.000 0.000 0.000 0.000 0.000 0.000 0.000 0.000 0.000 0.000 0.000 0.000
0.619 96.936 100.787 114.557 110.269 127.209 139.593 114.373 100.672 61.611 2.577 0.000 0.000 0.000 0.000 0.000 0.000 0.000 0.000 0.000 0.000 0.000 0.000 0.000 0.000 0.000 0.000 0.000 0.000 0.000 0.000 0.000 0.000 0.000 0.000 0.000 0.000 0.000 0.000 0.000 0.000 0.000 0.000 0.000 0.000 0.000 0.000 0.000 0.000 0.000 0.000 0.000 0.000 0.000 0.000 0.000 0.000 0.000 0.000 0.000 0.000
2.820 92.367 109.190 118.837 117.192 125.363 134.898 130.045 115.500 75.091 32.045 0.064 0.000 0.000 0.000 0.000 0.000 0.000 0.000 0.000 0.000 0.000 0.000 0.000 0.000 0.000 0.000 0.000 0.000 0.000 0.000 0.000 0.000 0.000 0.000 0.000 0.000 0.000 0.000 0.000 0.000 0.000 0.000 0.000 0.000 0.000 0.000 0.000 0.000 0.000 0.000 0.000 0.000 0.000 0.000 0.000 0.000 0.000 0.000 0.000 0.000
7.810 93.934 133.448 136.498 110.167 112.209 122.950 145.407 127.937 85.088 59.878 9.696 0.002 0.000 0.000 0.000 0.000 0.000 0.000 0.000 0.000 0.000 0.000 0.000 0.000 0.000 0.000 0.000 0.000 0.000 0.000 0.000 0.000 0.000 0.000 0.000 0.000 0.000 0.000 0.000 0.000 0.000 0.000 0.000 0.000 0.000 0.000 0.000 0.000 0.000 0.000 0.000 0.000 0.000 0.000 0.000 0.000 0.000 0.000 0.000 0.000
20.261 108.953 129.733 139.157 125.996 121.161 127.803 142.270 135.690 94.794 57.317 34.264 3.337 0.004 0.000 0.000 0.000 0.000 0.000 0.000 0.000 0.000 0.000 0.000 0.000 0.000 0.000 0.000 0.000 0.000 0.000 0.000 0.000 0.000 0.000 0.000 0.000 0.000 0.000 0.000 0.000 0.000 0.000 0.000 0.000 0.000 0.000 0.000 0.000 0.000 0.000 0.000 0.000 0.000 0.000 0.000 0.000 0.000 0.000 0.000 0.000
31.691 117.275 139.478 141.108 119.296 128.401 153.676 146.674 135.786 90.486 65.515 48.677 23.568 4.399 0.032 0.000 0.000 0.000 0.000 0.000 0.000 0.000 0.000 0.000 0.000 0.000 0.000 0.000 0.000 0.000 0.000 0.000 0.000 0.000 0.000 0.000 0.000 0.000 0.000 0.000 0.000 0.000 0.000 0.000 0.000 0.000 0.000 0.000 0.000 0.000 0.000 0.000 0.000 0.000 0.000 0.000 0.000 0.000 0.000 0.000 0.000
27.172 111.707 157.290 169.435 153.276 173.485 166.886 135.428 129.194 80.044 74.122 58.088 38.296 29.260 7.352 0.128 0.000 0.000 0.000 0.000 0.000 0.000 0.000 0.000 0.000 0.000 0.000 0.000 0.000 0.000 0.000 0.000 0.000 0.000 0.000 0.000 0.000 0.000 0.000 0.000 0.000 0.000 0.000 0.000 0.000 0.000 0.000 0.000 0.000 0.000 0.000 0.000 0.000 0.000 0.000 0.000 0.000 0.000 0.000 0.000 0.000
18.473 91.838 145.305 174.674 190.974 187.515 147.313 146.657 112.573 81.465 81.876 92.093 55.104 49.496 28.526 10.294 0.433 0.000 0.000 0.000 0.000 0.000 0.000 0.000 0.000 0.000 0.000 0.000 0.000 0.000 0.000 0.000 0.000 0.000 0.000 0.000 0.000 0.000 0.000 0.000 0.000 0.000 0.000 0.000 0.000 0.000 0.000 0.000 0.000 0.000 0.000 0.000 0.000 0.000 0.000 0.000 0.000 0.000 0.000 0.000 0.000
10.485 82.634 124.081 157.725 169.240 182.972 162.219 116.583 103.296 88.108 93.787 102.191 67.858 50.375 41.064 28.577 13.322 1.201 0.001 0.000 0.000 0.000 0.000 0.000 0.000 0.000 0.000 0.000 0.000 0.000 0.000 0.000 0.000 0.000 0.000 0.000 0.000 0.000 0.000 0.000 0.000 0.000 0.000 0.000 0.000 0.000 0.000 0.000 0.000 0.000 0.000 0.000 0.000 0.000 0.000 0.000 0.000 0.000 0.000 0.000 0.000
4.321 67.340 127.198 157.720 159.798 173.689 156.963 103.770 104.114 90.212 95.988 100.919 91.846 57.876 46.668 38.523 25.532 14.212 1.525 0.000 0.000 0.000 0.000 0.000 0.000 0.000 0.000 0.000 0.000 0.000 0.000 0.000 0.000 0.000 0.000 0.000 0.000 0.000 0.000 0.000 0.000 0.000 0.000 0.000 0.000 0.000 0.000 0.000 0.000 0.000 0.000 0.000 0.000 0.000 0.000 0.000 0.000 0.000 0.000 0.000 0.000
1.307 48.253 105.066 142.709 143.168 168.863 152.968 137.399 98.562 74.903 67.035 91.302 106.986 78.647 47.821 40.432 31.655 27.376 10.621 0.066 0.000 0.000 0.000 0.000 0.000 0.000 0.000 0.000 0.000 0.000 0.000 0.000 0.000 0.000 0.000 0.000 0.000 0.000 0.000 0.000 0.000 0.000 0.000 0.000 0.000 0.000 0.000 0.000 0.000 0.000 0.000 0.000 0.000 0.000 0.000 0.000 0.000 0.000 0.000 0.000 0.000
0.422 36.892 88.072 137.567 158.489 171.946 196.863 158.427 114.732 76.338 56.061 95.775 106.807 96.376 54.535 43.738 38.706 29.460 18.956 3.549 0.000 0.000 0.000 0.000 0.000 0.000 0.000 0.000 0.000 0.000 0.000 0.000 0.000 0.000 0.000 0.000 0.000 0.000 0.000 0.000 0.000 0.000 0.000 0.000 0.000 0.000 0.000 0.000 0.000 0.000 0.000 0.000 0.000 0.000 0.000 0.000 0.000 0.000 0.000 0.000 0.000
0.201 28.068 88.864 127.824 160.986 175.987 208.562 195.407 160.734 147.140 160.585 83.802 128.787 93.633 66.935 62.986 43.973 25.206 23.590 6.915 0.013 0.000 0.000 0.000 0.000 0.000 0.000 0.000 0.000 0.000 0.000 0.000 0.000 0.000 0.000 0.000 0.000 0.000 0.000 0.000 0.000 0.000 0.000 0.000 0.000 0.000 0.000 0.000 0.000 0.000 0.000 0.000 0.000 0.000 0.000 0.000 0.000 0.000 0.000 0.000 0.000
0.108 21.995 74.574 129.897 153.904 192.173 192.694 189.714 173.544 175.981 140.321 155.743 82.692 97.424 84.330 58.329 46.856 34.317 23.156 11.773 2.070 0.000 0.000 0.000 0.000 0.000 0.000 0.000 0.000 0.000 0.000 0.000 0.000 0.000 0.000 0.000 0.000 0.000 0.000 0.000 0.000 0.000 0.000 0.000 0.000 0.000 0.000 0.000 0.000 0.000 0.000 0.000 0.000 0.000 0.000 0.000 0.000 0.000 0.000 0.000 0.000
0.053 15.740 65.979 120.125 170.615 164.819 174.342 183.128 169.447 152.181 160.171 142.572 94.314 87.833 93.631 59.623 54.917 33.756 21.012 16.147 6.997 0.000 0.000 0.000 0.000 0.000 0.000 0.000 0.000 0.000 0.000 0.000 0.000 0.000 0.000 0.000 0.000 0.000 0.000 0.000 0.000 0.000 0.000 0.000 0.000 0.000 0.000 0.000 0.000 0.000 0.000 0.000 0.000 0.000 0.000 0.000 0.000 0.000 0.000 0.000 0.000
0.016 9.466 51.568 113.708 146.672 166.640 152.882 173.067 150.114 138.887 154.334 151.670 134.112 55.448 69.295 69.085 54.025 38.644 26.259 21.373 10.220 0.517 0.000 0.000 0.000 0.000 0.000 0.000 0.000 0.000 0.000 0.000 0.000 0.000 0.000 0.000 0.000 0.000 0.000 0.000 0.000 0.000 0.000 0.000 0.000 0.000 0.000 0.000 0.000 0.000 0.000 0.000 0.000 0.000 0.000 0.000 0.000 0.000 0.000 0.000 0.000
0.002 4.007 40.380 88.769 136.085 168.692 176.070 157.512 157.500 166.682 136.075 145.302 119.927 90.621 53.612 71.518 64.731 56.120 37.678 22.489 11.509 5.295 0.000 0.000 0.000 0.000 0.000 0.000 0.000 0.000 0.000 0.000 0.000 0.000 0.000 0.000 0.000 0.000 0.000 0.000 0.000 0.000 0.000 0.000 0.000 0.000 0.000 0.000 0.000 0.000 0.000 0.000 0.000 0.000 0.000 0.000 0.000 0.000 0.000 0.000 0.000
0.000 1.302 25.162 70.799 111.094 153.981 174.185 179.612 161.991 165.110 152.724 142.075 109.555 130.607 93.192 102.185 99.933 54.750 38.367 21.574 11.473 8.115 0.000 0.000 0.000 0.000 0.000 0.000 0.000 0.000 0.000 0.000 0.000 0.000 0.000 0.000 0.000 0.000 0.000 0.000 0.000 0.000 0.000 0.000 0.000 0.000 0.000 0.000 0.000 0.000 0.000 0.000 0.000 0.000 0.000 0.000 0.000 0.000 0.000 0.000 0.000
0.000 0.306 19.532 58.494 103.871 150.246 169.430 161.501 177.333 167.201 141.303 129.660 118.040 136.452 130.330 84.165 102.152 59.282 39.618 22.269 14.293 10.084 0.097 0.000 0.000 0.000 0.000 0.000 0.000 0.000 0.000 0.000 0.000 0.000 0.000 0.000 0.000 0.000 0.000 0.000 0.000 0.000 0.000 0.000 0.000 0.000 0.000 0.000 0.000 0.000 0.000 0.000 0.000 0.000 0.000 0.000 0.000 0.000 0.000 0.000 0.000
0.000 0.045 11.107 48.062 103.680 125.813 173.946 151.534 159.248 148.785 121.998 127.981 121.263 131.638 112.670 90.302 88.354 67.154 46.808 26.589 16.008 10.445 2.677 0.000 0.000 0.000 0.000 0.000 0.000 0.000 0.000 0.000 0.000 0.000 0.000 0.000 0.000 0.000 0.000 0.000 0.000 0.000 0.000 0.000 0.000 0.000 0.000 0.000 0.000 0.000 0.000 0.000 0.000 0.000 0.000 0.000 0.000 0.000 0.000 0.000 0.000
0.000 0.003 3.664 33.699 77.445 125.686 153.228 158.079 158.104 157.756 128.779 120.862 160.527 137.246 110.903 123.547 75.712 81.145 44.034 29.927 17.149 10.550 6.176 0.000 0.000 0.000 0.000 0.000 0.000 0.000 0.000 0.000 0.000 0.000 0.000 0.000 0.000 0.000 0.000 0.000 0.000 0.000 0.000 0.000 0.000 0.000 0.000 0.000 0.000 0.000 0.000 0.000 0.000 0.000 0.000 0.000 0.000 0.000 0.000 0.000 0.000
0.000 0.000 0.723 22.169 66.627 96.095 128.406 151.959 155.177 144.626 151.476 160.631 151.551 136.260 126.885 97.448 98.808 80.197 42.925 33.387 19.702 13.412 9.188 0.000 0.000 0.000 0.000 0.000 0.000 0.000 0.000 0.000 0.000 0.000 0.000 0.000 0.000 0.000 0.000 0.000 0.000 0.000 0.000 0.000 0.000 0.000 0.000 0.000 0.000 0.000 0.000 0.000 0.000 0.000 0.000 0.000 0.000 0.000 0.000 0.000 0.000
0.000 0.000 0.073 10.781 47.120 87.773 108.975 129.423 138.891 130.906 135.970 167.011 152.073 121.926 102.369 123.368 131.937 81.100 48.049 36.772 22.164 16.274 9.922 0.111 0.000 0.000 0.000 0.000 0.000 0.000 0.000 0.000 0.000 0.000 0.000 0.000 0.000 0.000 0.000 0.000 0.000 0.000 0.000 0.000 0.000 0.000 0.000 0.000 0.000 0.000 0.000 0.000 0.000 0.000 0.000 0.000 0.000 0.000 0.000 0.000 0.000
0.000 0.000 0.000 4.261 33.430 65.413 96.898 117.462 123.554 114.526 123.847 167.919 125.146 122.236 129.966 126.490 116.793 73.572 57.414 45.024 28.495 20.399 10.381 2.396 0.000 0.000 0.000 0.000 0.000 0.000 0.000 0.000 0.000 0.000 0.000 0.000 0.000 0.000 0.000 0.000 0.000 0.000 0.000 0.000 0.000 0.000 0.000 0.000 0.000 0.000 0.000 0.000 0.000 0.000 0.000 0.000 0.000 0.000 0.000 0.000 0.000
0.000 0.000 0.000 0.718 29.109 56.603 88.121 111.357 115.667 119.603 137.719 150.615 148.041 137.731 103.494 107.049 101.339 75.870 72.180 50.870 33.021 23.188 12.613 5.468 0.000 0.000 0.000 0.000 0.000 0.000 0.000 0.000 0.000 0.000 0.000 0.000 0.000 0.000 0.000 0.000 0.000 0.000 0.000 0.000 0.000 0.000 0.000 0.000 0.000 0.000 0.000 0.000 0.000 0.000 0.000 0.000 0.000 0.000 0.000 0.000 0.000
0.000 0.000 0.000 0.027 17.408 38.919 70.591 92.650 125.183 128.931 136.378 131.215 138.270 110.327 83.428 92.201 115.104 86.120 70.902 50.948 37.036 27.020 12.104 6.406 0.035 0.000 0.000 0.000 0.000 0.000 0.000 0.000 0.000 0.000 0.000 0.000 0.000 0.000 0.000 0.000 0.000 0.000 0.000 0.000 0.000 0.000 0.000 0.000 0.000 0.000 0.000 0.000 0.000 0.000 0.000 0.000 0.000 0.000 0.000 0.000 0.000
0.000 0.000 0.000 0.010 9.330 28.220 57.100 77.967 104.187 124.887 137.483 141.993 125.858 94.681 103.782 109.687 128.656 92.604 80.409 57.992 45.985 28.614 13.949 6.759 0.882 0.000 0.000 0.000 0.000 0.000 0.000 0.000 0.000 0.000 0.000 0.000 0.000 0.000 0.000 0.000 0.000 0.000 0.000 0.000 0.000 0.000 0.000 0.000 0.000 0.000 0.000 0.000 0.000 0.000 0.000 0.000 0.000 0.000 0.000 0.000 0.000
0.000 0.000 0.000 0.003 5.690 21.657 42.651 71.963 97.218 98.404 129.085 123.673 105.282 92.224 95.337 105.727 122.652 99.849 82.001 73.620 53.221 33.176 12.632 6.451 4.889 0.112 0.000 0.000 0.000 0.000 0.000 0.000 0.000 0.000 0.000 0.000 0.000 0.000 0.000 0.000 0.000 0.000 0.000 0.000 0.000 0.000 0.000 0.000 0.000 0.000 0.000 0.000 0.000 0.000 0.000 0.000 0.000 0.000 0.000 0.000 0.000
0.000 0.000 0.000 0.000 2.137 15.213 33.364 63.364 91.821 108.873 112.396 103.774 96.288 100.494 115.473 131.985 111.639 109.874 86.513 66.063 51.315 28.085 11.040 10.092 8.324 2.211 0.000 0.000 0.000 0.000 0.000 0.000 0.000 0.000 0.000 0.000 0.000 0.000 0.000 0.000 0.000 0.000 0.000 0.000 0.000 0.000 0.000 0.000 0.000 0.000 0.000 0.000 0.000 0.000 0.000 0.000 0.000 0.000 0.000 0.000 0.000
0.000 0.000 0.000 0.000 0.679 9.608 24.923 46.577 72.826 95.054 94.658 105.177 90.920 112.746 97.611 120.580 114.532 106.272 97.093 82.500 50.162 25.130 14.990 12.202 8.299 4.032 0.001 0.000 0.000 0.000 0.000 0.000 0.000 0.000 0.000 0.000 0.000 0.000 0.000 0.000 0.000 0.000 0.000 0.000 0.000 0.000 0.000 0.000 0.000 0.000 0.000 0.000 0.000 0.000 0.000 0.000 0.000 0.000 0.000 0.000 0.000
0.000 0.000 0.000 0.000 0.023 4.908 19.328 36.332 62.915 75.301 91.599 93.880 110.964 100.384 113.635 101.178 113.380 115.291 115.443 70.317 47.099 28.209 17.383 13.674 9.176 4.974 0.381 0.000 0.000 0.000 0.000 0.000 0.000 0.000 0.000 0.000 0.000 0.000 0.000 0.000 0.000 0.000 0.000 0.000 0.000 0.000 0.000 0.000 0.000 0.000 0.000 0.000 0.000 0.000 0.000 0.000 0.000 0.000 0.000 0.000 0.000
0.000 0.000 0.000 0.000 0.000 0.841 9.352 24.007 43.536 63.716 85.949 97.125 107.704 113.940 118.266 84.631 106.437 114.188 110.149 61.714 45.013 35.102 24.533 14.909 10.573 4.728 2.119 0.000 0.000 0.000 0.000 0.000 0.000 0.000 0.000 0.000 0.000 0.000 0.000 0.000 0.000 0.000 0.000 0.000 0.000 0.000 0.000 0.000 0.000 0.000 0.000 0.000 0.000 0.000 0.000 0.000 0.000 0.000 0.000 0.000 0.000
0.000 0.000 0.000 0.000 0.000 0.091 4.042 16.930 36.321 66.575 84.073 111.345 106.276 124.313 113.147 118.225 125.990 120.729 106.831 66.837 56.864 51.727 31.561 14.538 12.578 5.832 4.628 0.025 0.000 0.000 0.000 0.000 0.000 0.000 0.000 0.000 0.000 0.000 0.000 0.000 0.000 0.000 0.000 0.000 0.000 0.000 0.000 0.000 0.000 0.000 0.000 0.000 0.000 0.000 0.000 0.000 0.000 0.000 0.000 0.000 0.000
0.000 0.000 0.000 0.000 0.000 0.003 0.938 10.218 25.674 43.292 71.283 95.696 111.692 127.382 108.836 92.475 117.426 130.459 101.787 75.000 72.371 60.163 28.543 19.882 13.554 9.308 7.435 1.289 0.000 0.000 0.000 0.000 0.000 0.000 0.000 0.000 0.000 0.000 0.000 0.000 0.000 0.000 0.000 0.000 0.000 0.000 0.000 0.000 0.000 0.000 0.000 0.000 0.000 0.000 0.000 0.000 0.000 0.000 0.000 0.000 0.000
0.000 0.000 0.000 0.000 0.000 0.000 0.132 4.378 15.918 35.281 62.409 78.173 103.615 103.718 96.917 102.452 98.007 122.949 104.475 91.886 85.131 68.072 41.115 28.527 13.439 13.027 8.945 2.995 0.000 0.000 0.000 0.000 0.000 0.000 0.000 0.000 0.000 0.000 0.000 0.000 0.000 0.000 0.000 0.000 0.000 0.000 0.000 0.000 0.000 0.000 0.000 0.000 0.000 0.000 0.000 0.000 0.000 0.000 0.000 0.000 0.000
0.000 0.000 0.000 0.000 0.000 0.000 0.001 0.499 7.783 19.487 36.551 74.698 81.337 84.444 92.596 104.170 127.865 125.992 109.706 99.062 93.771 82.172 52.770 27.617 17.734 15.884 9.806 4.618 0.001 0.000 0.000 0.000 0.000 0.000 0.000 0.000 0.000 0.000 0.000 0.000 0.000 0.000 0.000 0.000 0.000 0.000 0.000 0.000 0.000 0.000 0.000 0.000 0.000 0.000 0.000 0.000 0.000 0.000 0.000 0.000 0.000
0.000 0.000 0.000 0.000 0.000 0.000 0.000 0.021 1.629 12.033 28.542 48.576 72.061 90.108 99.450 115.652 96.331 105.900 109.284 92.973 92.634 81.276 46.610 27.603 28.776 17.682 10.835 6.603 0.344 0.000 0.000 0.000 0.000 0.000 0.000 0.000 0.000 0.000 0.000 0.000 0.000 0.000 0.000 0.000 0.000 0.000 0.000 0.000 0.000 0.000 0.000 0.000 0.000 0.000 0.000 0.000 0.000 0.000 0.000 0.000 0.000
0.000 0.000 0.000 0.000 0.000 0.000 0.000 0.000 0.187 4.907 16.492 38.326 58.677 75.279 88.066 86.681 70.240 112.570 92.048 87.105 96.615 89.160 53.042 47.540 33.669 16.200 10.024 9.157 2.954 0.000 0.000 0.000 0.000 0.000 0.000 0.000 0.000 0.000 0.000 0.000 0.000 0.000 0.000 0.000 0.000 0.000 0.000 0.000 0.000 0.000 0.000 0.000 0.000 0.000 0.000 0.000 0.000 0.000 0.000 0.000 0.000
0.000 0.000 0.000 0.000 0.000 0.000 0.000 0.000 0.001 0.469 5.939 16.572 37.889 67.549 79.414 67.939 83.405 119.307 111.089 93.562 102.218 82.395 59.579 61.372 27.706 14.097 13.421 10.747 5.231 0.003 0.000 0.000 0.000 0.000 0.000 0.000 0.000 0.000 0.000 0.000 0.000 0.000 0.000 0.000 0.000 0.000 0.000 0.000 0.000 0.000 0.000 0.000 0.000 0.000 0.000 0.000 0.000 0.000 0.000 0.000 0.000
0.000 0.000 0.000 0.000 0.000 0.000 0.000 0.000 0.000 0.003 1.546 7.838 20.870 40.901 59.046 83.093 96.666 92.373 105.666 104.201 93.800 81.081 68.634 56.680 30.025 18.944 17.299 10.904 5.920 0.291 0.000 0.000 0.000 0.000 0.000 0.000 0.000 0.000 0.000 0.000 0.000 0.000 0.000 0.000 0.000 0.000 0.000 0.000 0.000 0.000 0.000 0.000 0.000 0.000 0.000 0.000 0.000 0.000 0.000 0.000 0.000
0.000 0.000 0.000 0.000 0.000 0.000 0.000 0.000 0.000 0.000 0.023 2.496 10.252 23.760 46.267 67.421 80.835 85.773 103.359 95.789 79.739 77.045 75.276 66.767 43.415 28.747 17.371 11.357 5.676 2.557 0.032 0.000 0.000 0.000 0.000 0.000 0.000 0.000 0.000 0.000 0.000 0.000 0.000 0.000 0.000 0.000 0.000 0.000 0.000 0.000 0.000 0.000 0.000 0.000 0.000 0.000 0.000 0.000 0.000 0.000 0.000
0.000 0.000 0.000 0.000 0.000 0.000 0.000 0.000 0.000 0.000 0.000 0.254 3.766 11.982 29.310 49.215 63.689 75.503 85.980 96.446 110.513 76.436 87.577 81.323 61.383 30.762 17.089 9.710 5.948 5.300 1.322 0.000 0.000 0.000 0.000 0.000 0.000 0.000 0.000 0.000 0.000 0.000 0.000 0.000 0.000 0.000 0.000 0.000 0.000 0.000 0.000 0.000 0.000 0.000 0.000 0.000 0.000 0.000 0.000 0.000 0.000
0.000 0.000 0.000 0.000 0.000 0.000 0.000 0.000 0.000 0.000 0.000 0.003 1.549 7.112 18.684 40.764 55.974 70.599 84.177 102.104 98.911 77.800 93.381 95.365 61.980 35.660 17.518 9.660 8.295 7.196 3.114 0.000 0.000 0.000 0.000 0.000 0.000 0.000 0.000 0.000 0.000 0.000 0.000 0.000 0.000 0.000 0.000 0.000 0.000 0.000 0.000 0.000 0.000 0.000 0.000 0.000 0.000 0.000 0.000 0.000 0.000
0.000 0.000 0.000 0.000 0.000 0.000 0.000 0.000 0.000 0.000 0.000 0.000 0.219 4.017 11.093 28.553 47.522 80.988 95.131 93.842 93.006 88.757 103.945 86.577 56.998 37.395 19.968 12.491 10.158 7.633 3.748 0.037 0.000 0.000 0.000 0.000 0.000 0.000 0.000 0.000 0.000 0.000 0.000 0.000 0.000 0.000 0.000 0.000 0.000 0.000 0.000 0.000 0.000 0.000 0.000 0.000 0.000 0.000 0.000 0.000 0.000
0.000 0.000 0.000 0.000 0.000 0.000 0.000 0.000 0.000 0.000 0.000 0.000 0.009 1.537 7.681 21.873 41.755 59.430 82.557 80.836 93.303 89.825 71.661 80.750 56.829 44.153 26.484 14.243 12.401 9.077 5.395 1.241 0.000 0.000 0.000 0.000 0.000 0.000 0.000 0.000 0.000 0.000 0.000 0.000 0.000 0.000 0.000 0.000 0.000 0.000 0.000 0.000 0.000 0.000 0.000 0.000 0.000 0.000 0.000 0.000 0.000
0.000 0.000 0.000 0.000 0.000 0.000 0.000 0.000 0.000 0.000 0.000 0.000 0.000 0.347 4.327 16.146 33.991 53.557 66.118 81.976 86.116 79.613 80.169 71.341 67.109 48.100 30.458 18.973 15.096 12.135 8.351 2.743 0.000 0.000 0.000 0.000 0.000 0.000 0.000 0.000 0.000 0.000 0.000 0.000 0.000 0.000 0.000 0.000 0.000 0.000 0.000 0.000 0.000 0.000 0.000 0.000 0.000 0.000 0.000 0.000 0.000
0.000 0.000 0.000 0.000 0.000 0.000 0.000 0.000 0.000 0.000 0.000 0.000 0.000 0.019 1.555 10.392 27.008 41.180 62.907 89.879 92.079 87.324 82.551 62.583 57.653 54.988 47.619 21.238 16.626 14.639 10.541 4.406 0.000 0.000 0.000 0.000 0.000 0.000 0.000 0.000 0.000 0.000 0.000 0.000 0.000 0.000 0.000 0.000 0.000 0.000 0.000 0.000 0.000 0.000 0.000 0.000 0.000 0.000 0.000 0.000 0.000
0.000 0.000 0.000 0.000 0.000 0.000 0.000 0.000 0.000 0.000 0.000 0.000 0.000 0.000 0.321 5.470 21.537 35.343 53.626 80.391 106.549 120.305 82.158 58.297 50.393 59.351 39.782 25.297 18.937 17.430 12.606 6.807 0.001 0.000 0.000 0.000 0.000 0.000 0.000 0.000 0.000 0.000 0.000 0.000 0.000 0.000 0.000 0.000 0.000 0.000 0.000 0.000 0.000 0.000 0.000 0.000 0.000 0.000 0.000 0.000 0.000
0.000 0.000 0.000 0.000 0.000 0.000 0.000 0.000 0.000 0.000 0.000 0.000 0.000 0.000 0.006 1.286 16.514 26.831 43.715 67.927 100.791 124.329 120.345 92.228 79.571 62.223 40.261 38.596 20.164 18.236 17.083 9.354 0.347 0.000 0.000 0.000 0.000 0.000 0.000 0.000 0.000 0.000 0.000 0.000 0.000 0.000 0.000 0.000 0.000 0.000 0.000 0.000 0.000 0.000 0.000 0.000 0.000 0.000 0.000 0.000 0.000
0.000 0.000 0.000 0.000 0.000 0.000 0.000 0.000 0.000 0.000 0.000 0.000 0.000 0.000 0.000 0.384 12.519 25.535 35.838 59.093 88.864 109.338 117.102 114.366 117.006 94.782 66.172 39.022 24.534 22.537 17.476 13.107 2.487 0.000 0.000 0.000 0.000 0.000 0.000 0.000 0.000 0.000 0.000 0.000 0.000 0.000 0.000 0.000 0.000 0.000 0.000 0.000 0.000 0.000 0.000 0.000 0.000 0.000 0.000 0.000 0.000
0.000 0.000 0.000 0.000 0.000 0.000 0.000 0.000 0.000 0.000 0.000 0.000 0.000 0.000 0.000 0.183 7.865 20.220 30.909 48.387 69.595 87.899 114.754 129.398 115.547 95.991 80.382 49.372 26.858 23.607 15.898 15.444 5.239 0.000 0.000 0.000 0.000 0.000 0.000 0.000 0.000 0.000 0.000 0.000 0.000 0.000 0.000 0.000 0.000 0.000 0.000 0.000 0.000 0.000 0.000 0.000 0.000 0.000 0.000 0.000 0.000
0.000 0.000 0.000 0.000 0.000 0.000 0.000 0.000 0.000 0.000 0.000 0.000 0.000 0.000 0.000 0.057 5.093 15.709 25.152 39.192 60.148 81.050 103.253 114.389 107.206 99.011 88.051 55.305 31.565 20.411 18.624 16.345 11.179 0.000 0.000 0.000 0.000 0.000 0.000 0.000 0.000 0.000 0.000 0.000 0.000 0.000 0.000 0.000 0.000 0.000 0.000 0.000 0.000 0.000 0.000 0.000 0.000 0.000 0.000 0.000 0.000
0.000 0.000 0.000 0.000 0.000 0.000 0.000 0.000 0.000 0.000 0.000 0.000 0.000 0.000 0.000 0.001 2.879 12.101 21.250 28.811 45.475 74.848 97.695 98.923 105.708 115.116 93.760 70.596 43.922 22.773 13.209 16.539 16.997 0.000 0.000 0.000 0.000 0.000 0.000 0.000 0.000 0.000 0.000 0.000 0.000 0.000 0.000 0.000 0.000 0.000 0.000 0.000 0.000 0.000 0.000 0.000 0.000 0.000 0.000 0.000 0.000
0.000 0.000 0.000 0.000 0.000 0.000 0.000 0.000 0.000 0.000 0.000 0.000 0.000 0.000 0.000 0.000 0.557 8.817 16.688 22.495 38.620 65.259 85.020 100.714 93.095 99.240 80.338 77.304 39.048 19.811 21.769 23.838 16.040 0.000 0.000 0.000 0.000 0.000 0.000 0.000 0.000 0.000 0.000 0.000 0.000 0.000 0.000 0.000 0.000 0.000 0.000 0.000 0.000 0.000 0.000 0.000 0.000 0.000 0.000 0.000 0.000
0.000 0.000 0.000 0.000 0.000 0.000 0.000 0.000 0.000 0.000 0.000 0.000 0.000 0.000 0.000 0.000 0.007 5.009 13.833 17.293 30.545 53.628 82.618 85.558 95.785 102.569 92.318 73.468 41.323 20.775 20.297 21.795 15.227 0.118 0.000 0.000 0.000 0.000 0.000 0.000 0.000 0.000 0.000 0.000 0.000 0.000 0.000 0.000 0.000 0.000 0.000 0.000 0.000 0.000 0.000 0.000 0.000 0.000 0.000 0.000 0.000
0.000 0.000 0.000 0.000 0.000 0.000 0.000 0.000 0.000 0.000 0.000 0.000 0.000 0.000 0.000 0.000 0.000 1.572 11.458 15.915 23.736 39.766 59.538 74.607 92.465 82.762 83.196 67.471 46.463 20.119 14.448 19.085 15.918 2.974 0.000 0.000 0.000 0.000 0.000 0.000 0.000 0.000 0.000 0.000 0.000 0.000 0.000 0.000 0.000 0.000 0.000 0.000 0.000 0.000 0.000 0.000 0.000 0.000 0.000 0.000 0.000
0.000 0.000 0.000 0.000 0.000 0.000 0.000 0.000 0.000 0.000 0.000 0.000 0.000 0.000 0.000 0.000 0.000 0.492 8.619 13.663 16.394 25.373 42.152 77.187 73.220 91.306 85.777 65.451 46.098 20.539 17.828 16.722 15.249 6.342 0.004 0.000 0.000 0.000 0.000 0.000 0.000 0.000 0.000 0.000 0.000 0.000 0.000 0.000 0.000 0.000 0.000 0.000 0.000 0.000 0.000 0.000 0.000 0.000 0.000 0.000 0.000
0.000 0.000 0.000 0.000 0.000 0.000 0.000 0.000 0.000 0.000 0.000 0.000 0.000 0.000 0.000 0.000 0.000 0.067 5.622 12.279 13.575 18.939 35.055 60.355 73.551 75.267 81.500 69.489 37.003 22.767 18.377 15.340 16.014 7.627 0.981 0.001 0.000 0.000 0.000 0.000 0.000 0.000 0.000 0.000 0.000 0.000 0.000 0.000 0.000 0.000 0.000 0.000 0.000 0.000 0.000 0.000 0.000 0.000 0.000 0.000 0.000
0.000 0.000 0.000 0.000 0.000 0.000 0.000 0.000 0.000 0.000 0.000 0.000 0.000 0.000 0.000 0.000 0.000 0.002 1.980 10.073 10.361 11.617 21.069 39.483 61.103 71.458 76.479 57.763 37.512 26.287 26.451 14.699 15.727 9.003 4.306 0.666 0.000 0.000 0.000 0.000 0.000 0.000 0.000 0.000 0.000 0.000 0.000 0.000 0.000 0.000 0.000 0.000 0.000 0.000 0.000 0.000 0.000 0.000 0.000 0.000 0.000
0.000 0.000 0.000 0.000 0.000 0.000 0.000 0.000 0.000 0.000 0.000 0.000 0.000 0.000 0.000 0.000 0.000 0.000 0.106 8.085 10.080 9.742 14.269 28.931 53.364 67.516 66.074 51.051 31.091 37.698 26.829 15.469 17.237 9.020 6.999 3.817 0.120 0.000 0.000 0.000 0.000 0.000 0.000 0.000 0.000 0.000 0.000 0.000 0.000 0.000 0.000 0.000 0.000 0.000 0.000 0.000 0.000 0.000 0.000 0.000 0.000
0.000 0.000 0.000 0.000 0.000 0.000 0.000 0.000 0.000 0.000 0.000 0.000 0.000 0.000 0.000 0.000 0.000 0.000 0.000 5.045 9.105 8.735 10.215 17.054 36.335 47.511 53.735 40.943 36.611 49.769 31.940 18.099 11.944 8.539 11.206 7.735 1.936 0.000 0.000 0.000 0.000 0.000 0.000 0.000 0.000 0.000 0.000 0.000 0.000 0.000 0.000 0.000 0.000 0.000 0.000 0.000 0.000 0.000 0.000 0.000 0.000
0.000 0.000 0.000 0.000 0.000 0.000 0.000 0.000 0.000 0.000 0.000 0.000 0.000 0.000 0.000 0.000 0.000 0.000 0.000 2.900 7.636 9.050 7.367 8.353 20.333 43.495 44.842 43.051 55.703 55.589 38.158 19.919 11.884 11.079 14.024 8.907 4.517 0.000 0.000 0.000 0.000 0.000 0.000 0.000 0.000 0.000 0.000 0.000 0.000 0.000 0.000 0.000 0.000 0.000 0.000 0.000 0.000 0.000 0.000 0.000 0.000
0.000 0.000 0.000 0.000 0.000 0.000 0.000 0.000 0.000 0.000 0.000 0.000 0.000 0.000 0.000 0.000 0.000 0.000 0.000 1.733 5.484 7.888 6.426 6.632 13.417 40.912 49.850 54.801 58.190 59.710 39.989 19.078 12.841 13.663 12.277 9.660 5.291 0.025 0.000 0.000 0.000 0.000 0.000 0.000 0.000 0.000 0.000 0.000 0.000 0.000 0.000 0.000 0.000 0.000 0.000 0.000 0.000 0.000 0.000 0.000 0.000
0.000 0.000 0.000 0.000 0.000 0.000 0.000 0.000 0.000 0.000 0.000 0.000 0.000 0.000 0.000 0.000 0.000 0.000 0.001 0.649 3.636 5.972 6.058 5.251 5.814 29.548 43.690 50.529 46.128 57.809 34.448 22.033 15.114 12.783 10.491 10.834 5.510 1.033 0.000 0.000 0.000 0.000 0.000 0.000 0.000 0.000 0.000 0.000 0.000 0.000 0.000 0.000 0.000 0.000 0.000 0.000 0.000 0.000 0.000 0.000 0.000
0.000 0.000 0.000 0.000 0.000 0.000 0.000 0.000 0.000 0.000 0.000 0.000 0.000 0.000 0.000 0.000 0.000 0.000 0.000 0.278 2.120 4.052 4.418 5.103 3.923 15.615 38.786 45.672 43.839 52.925 39.500 27.389 15.691 10.310 13.882 11.262 8.901 3.595 0.001 0.000 0.000 0.000 0.000 0.000 0.000 0.000 0.000 0.000 0.000 0.000 0.000 0.000 0.000 0.000 0.000 0.000 0.000 0.000 0.000 0.000 0.000
0.000 0.000 0.000 0.000 0.000 0.000 0.000 0.000 0.000 0.000 0.000 0.000 0.000 0.000 0.000 0.000 0.000 0.000 0.000 0.000 1.051 2.784 5.062 5.333 3.648 5.256 33.491 37.150 46.072 48.748 44.434 33.459 17.260 13.415 18.430 16.154 12.201 5.468 0.430 0.000 0.000 0.000 0.000 0.000 0.000 0.000 0.000 0.000 0.000 0.000 0.000 0.000 0.000 0.000 0.000 0.000 0.000 0.000 0.000 0.000 0.000
0.000 0.000 0.000 0.000 0.000 0.000 0.000 0.000 0.000 0.000 0.000 0.000 0.000 0.000 0.000 0.000 0.000 0.000 0.000 0.000 0.594 3.119 4.571 4.502 3.724 2.320 26.214 32.718 41.495 51.342 50.072 39.679 19.050 15.941 18.327 15.397 13.330 8.416 1.951 0.002 0.000 0.000 0.000 0.000 0.000 0.000 0.000 0.000 0.000 0.000 0.000 0.000 0.000 0.000 0.000 0.000 0.000 0.000 0.000 0.000 0.000
0.000 0.000 0.000 0.000 0.000 0.000 0.000 0.000 0.000 0.000 0.000 0.000 0.000 0.000 0.000 0.000 0.000 0.000 0.000 0.000 0.055 2.387 3.316 4.330 4.090 3.780 19.280 32.843 41.495 55.778 55.008 46.270 23.409 18.026 17.908 15.674 14.428 9.099 3.950 0.351 0.000 0.000 0.000 0.000 0.000 0.000 0.000 0.000 0.000 0.000 0.000 0.000 0.000 0.000 0.000 0.000 0.000 0.000 0.000 0.000 0.000
0.000 0.000 0.000 0.000 0.000 0.000 0.000 0.000 0.000 0.000 0.000 0.000 0.000 0.000 0.000 0.000 0.000 0.000 0.000 0.000 0.003 1.316 2.942 4.178 4.422 5.370 18.480 35.394 45.416 54.894 63.188 51.171 34.221 19.032 15.509 13.000 11.429 9.353 5.740 1.328 0.009 0.000 0.000 0.000 0.000 0.000 0.000 0.000 0.000 0.000 0.000 0.000 0.000 0.000 0.000 0.000 0.000 0.000 0.000 0.000 0.000
0.000 0.000 0.000 0.000 0.000 0.000 0.000 0.000 0.000 0.000 0.000 0.000 0.000 0.000 0.000 0.000 0.000 0.000 0.000 0.000 0.005 0.612 2.333 3.789 3.978 5.291 19.363 36.246 54.722 72.150 70.647 55.459 40.253 14.015 11.698 12.434 12.458 13.354 6.729 2.268 0.812 0.106 0.000 0.000 0.000 0.000 0.000 0.000 0.000 0.000 0.000 0.000 0.000 0.000 0.000 0.000 0.000 0.000 0.000 0.000 0.000
0.000 0.000 0.000 0.000 0.000 0.000 0.000 0.000 0.000 0.000 0.000 0.000 0.000 0.000 0.000 0.000 0.000 0.000 0.000 0.000 0.000 0.445 2.375 3.256 3.313 4.871 12.349 30.390 46.637 56.897 57.295 53.518 42.620 14.172 11.256 11.386 15.098 13.971 6.057 4.203 3.151 2.562 0.006 0.000 0.000 0.000 0.000 0.000 0.000 0.000 0.000 0.000 0.000 0.000 0.000 0.000 0.000 0.000 0.000 0.000 0.000
0.000 0.000 0.000 0.000 0.000 0.000 0.000 0.000 0.000 0.000 0.000 0.000 0.000 0.000 0.000 0.000 0.000 0.000 0.000 0.000 0.001 0.184 2.139 2.476 3.400 5.331 10.694 23.219 50.083 54.797 43.059 60.630 37.687 17.661 11.121 13.169 14.969 10.985 7.876 8.838 5.488 5.727 0.353 0.000 0.000 0.000 0.000 0.000 0.000 0.000 0.000 0.000 0.000 0.000 0.000 0.000 0.000 0.000 0.000 0.000 0.000
0.000 0.000 0.000 0.000 0.000 0.000 0.000 0.000 0.000 0.000 0.000 0.000 0.000 0.000 0.000 0.000 0.000 0.000 0.000 0.000 0.000 0.020 0.963 1.729 3.214 3.927 7.655 12.183 28.858 45.092 49.142 49.500 39.116 21.371 10.326 12.963 12.924 13.943 13.968 14.685 6.155 3.918 0.520 0.000 0.000 0.000 0.000 0.000 0.000 0.000 0.000 0.000 0.000 0.000 0.000 0.000 0.000 0.000 0.000 0.000 0.000
0.000 0.000 0.000 0.000 0.000 0.000 0.000 0.000 0.000 0.000 0.000 0.000 0.000 0.000 0.000 0.000 0.000 0.000 0.000 0.000 0.000 0.001 0.565 1.488 2.569 2.942 5.040 7.044 11.487 29.436 37.878 44.383 41.346 25.632 11.083 11.443 13.717 15.679 17.491 16.967 6.844 1.073 2.555 0.016 0.000 0.000 0.000 0.000 0.000 0.000 0.000 0.000 0.000 0.000 0.000 0.000 0.000 0.000 0.000 0.000 0.000
0.000 0.000 0.000 0.000 0.000 0.000 0.000 0.000 0.000 0.000 0.000 0.000 0.000 0.000 0.000 0.000 0.000 0.000 0.000 0.000 0.000 0.002 0.780 2.825 2.755 3.063 2.857 3.521 4.893 21.601 38.618 46.215 44.464 28.978 14.188 10.827 13.890 14.238 18.703 12.303 7.319 0.939 3.718 0.390 0.000 0.000 0.000 0.000 0.000 0.000 0.000 0.000 0.000 0.000 0.000 0.000 0.000 0.000 0.000 0.000 0.000
0.000 0.000 0.000 0.000 0.000 0.000 0.000 0.000 0.000 0.000 0.000 0.000 0.000 0.000 0.000 0.000 0.000 0.000 0.000 0.000 0.000 0.023 1.510 2.838 3.193 3.018 3.328 3.655 4.168 7.998 34.951 44.482 50.130 32.149 17.579 12.244 12.751 16.376 21.712 13.985 9.748 4.137 3.853 0.927 0.000 0.000 0.000 0.000 0.000 0.000 0.000 0.000 0.000 0.000 0.000 0.000 0.000 0.000 0.000 0.000 0.000
0.000 0.000 0.000 0.000 0.000 0.000 0.000 0.000 0.000 0.000 0.000 0.000 0.000 0.000 0.000 0.000 0.000 0.000 0.000 0.000 0.000 0.279 1.856 2.357 3.449 3.391 3.810 4.495 5.112 5.610 30.905 49.891 44.262 35.215 23.282 14.685 11.389 14.638 15.299 17.891 11.375 6.360 3.853 2.152 0.022 0.000 0.000 0.000 0.000 0.000 0.000 0.000 0.000 0.000 0.000 0.000 0.000 0.000 0.000 0.000 0.000
0.000 0.000 0.000 0.000 0.000 0.000 0.000 0.000 0.000 0.000 0.000 0.000 0.000 0.000 0.000 0.000 0.000 0.000 0.000 0.000 0.000 0.024 1.694 2.901 3.191 2.476 4.053 5.994 4.933 6.351 20.730 52.478 49.520 36.302 28.153 19.652 12.543 13.379 13.419 16.838 10.171 8.724 4.996 3.287 0.705 0.000 0.000 0.000 0.000 0.000 0.000 0.000 0.000 0.000 0.000 0.000 0.000 0.000 0.000 0.000 0.000
0.000 0.000 0.000 0.000 0.000 0.000 0.000 0.000 0.000 0.000 0.000 0.000 0.000 0.000 0.000 0.000 0.000 0.000 0.000 0.000 0.000 0.020 1.737 2.787 2.571 1.985 3.695 6.461 4.443 6.482 17.915 52.595 65.209 52.203 33.450 25.287 13.471 13.621 15.529 15.990 11.801 9.700 6.091 4.136 2.208 0.043 0.000 0.000 0.000 0.000 0.000 0.000 0.000 0.000 0.000 0.000 0.000 0.000 0.000 0.000 0.000
0.000 0.000 0.000 0.000 0.000 0.000 0.000 0.000 0.000 0.000 0.000 0.000 0.000 0.000 0.000 0.000 0.000 0.000 0.000 0.000 0.000 0.000 1.288 2.900 3.161 3.112 3.482 5.442 5.186 6.389 17.500 45.158 66.268 63.322 43.756 28.583 17.400 12.867 13.187 11.600 13.230 11.998 7.979 5.710 2.919 0.371 0.000 0.000 0.000 0.000 0.000 0.000 0.000 0.000 0.000 0.000 0.000 0.000 0.000 0.000 0.000
0.000 0.000 0.000 0.000 0.000 0.000 0.000 0.000 0.000 0.000 0.000 0.000 0.000 0.000 0.000 0.000 0.000 0.000 0.000 0.000 0.000 0.003 0.895 2.495 3.217 3.658 3.142 4.110 5.652 7.008 17.213 45.060 66.476 70.364 60.294 31.699 17.302 11.699 12.851 13.238 14.109 14.243 10.729 7.054 3.610 1.845 0.010 0.000 0.000 0.000 0.000 0.000 0.000 0.000 0.000 0.000 0.000 0.000 0.000 0.000 0.000
0.000 0.000 0.000 0.000 0.000 0.000 0.000 0.000 0.000 0.000 0.000 0.000 0.000 0.000 0.000 0.000 0.000 0.000 0.000 0.000 0.000 0.001 0.864 1.886 2.888 2.914 3.021 4.024 5.513 7.832 15.048 42.171 70.662 68.619 52.394 29.869 13.682 12.696 12.168 14.015 16.242 14.991 13.786 8.450 6.766 4.011 0.783 0.000 0.000 0.000 0.000 0.000 0.000 0.000 0.000 0.000 0.000 0.000 0.000 0.000 0.000
0.000 0.000 0.000 0.000 0.000 0.000 0.000 0.000 0.000 0.000 0.000 0.000 0.000 0.000 0.000 0.000 0.000 0.000 0.000 0.000 0.000 0.025 0.861 2.092 2.468 2.257 2.456 3.530 5.166 7.855 13.376 32.063 67.130 69.802 64.556 43.626 18.380 15.051 12.939 15.375 17.149 19.136 14.428 13.305 9.870 5.134 2.283 0.001 0.000 0.000 0.000 0.000 0.000 0.000 0.000 0.000 0.000 0.000 0.000 0.000 0.000
0.000 0.000 0.000 0.000 0.000 0.000 0.000 0.000 0.000 0.000 0.000 0.000 0.000 0.000 0.000 0.000 0.000 0.000 0.000 0.000 0.000 0.006 0.733 2.146 2.090 2.395 2.653 3.789 5.562 7.327 10.870 22.183 51.646 69.044 59.210 42.004 23.709 15.442 15.553 17.084 18.470 17.999 17.097 16.953 10.214 5.476 3.808 0.230 0.000 0.000 0.000 0.000 0.000 0.000 0.000 0.000 0.000 0.000 0.000 0.000 0.000
0.000 0.000 0.000 0.000 0.000 0.000 0.000 0.000 0.000 0.000 0.000 0.000 0.000 0.000 0.000 0.000 0.000 0.000 0.000 0.000 0.000 0.001 0.401 2.386 2.201 2.390 2.594 3.526 5.110 6.587 10.432 18.557 53.404 67.269 52.999 43.343 18.370 16.789 18.031 17.189 16.407 16.876 19.085 17.077 8.816 7.565 4.970 1.251 0.000 0.000 0.000 0.000 0.000 0.000 0.000 0.000 0.000 0.000 0.000 0.000 0.000
0.000 0.000 0.000 0.000 0.000 0.000 0.000 0.000 0.000 0.000 0.000 0.000 0.000 0.000 0.000 0.000 0.000 0.000 0.000 0.000 0.000 0.000 0.006 1.619 2.389 2.187 2.298 2.934 4.294 6.494 11.419 18.902 51.916 53.499 60.392 37.598 19.493 16.775 11.484 11.463 12.841 17.447 21.064 14.244 9.703 9.603 6.185 2.123 0.218 0.000 0.000 0.000 0.000 0.000 0.000 0.000 0.000 0.000 0.000 0.000 0.000
0.000 0.000 0.000 0.000 0.000 0.000 0.000 0.000 0.000 0.000 0.000 0.000 0.000 0.000 0.000 0.000 0.000 0.000 0.000 0.000 0.000 0.000 0.022 0.768 2.451 2.378 2.677 3.431 3.481 7.886 10.947 15.840 35.316 57.649 48.454 36.014 22.477 12.190 9.256 11.014 14.601 19.703 15.855 14.146 14.460 12.159 6.181 4.403 1.912 0.148 0.000 0.000 0.000 0.000 0.000 0.000 0.000 0.000 0.000 0.000 0.000
0.000 0.000 0.000 0.000 0.000 0.000 0.000 0.000 0.000 0.000 0.000 0.000 0.000 0.000 0.000 0.000 0.000 0.000 0.000 0.000 0.000 0.000 0.046 1.162 2.861 3.063 2.489 2.785 5.258 6.790 9.765 12.273 36.005 51.109 49.469 46.106 25.753 15.903 13.015 13.496 16.578 16.762 14.948 18.026 14.543 9.431 7.658 5.665 3.510 2.449 0.000 0.000 0.000 0.000 0.000 0.000 0.000 0.000 0.000 0.000 0.000
0.000 0.000 0.000 0.000 0.000 0.000 0.000 0.000 0.000 0.000 0.000 0.000 0.000 0.000 0.000 0.000 0.000 0.000 0.000 0.000 0.000 0.000 0.118 1.339 2.881 3.439 1.893 2.995 4.270 1.741 5.760 11.894 27.131 46.920 56.678 48.397 27.535 17.129 15.472 16.509 14.522 16.815 17.817 15.829 13.705 9.361 8.341 5.430 5.986 4.007 0.000 0.000 0.000 0.000 0.000 0.000 0.000 0.000 0.000 0.000 0.000
0.000 0.000 0.000 0.000 0.000 0.000 0.000 0.000 0.000 0.000 0.000 0.000 0.000 0.000 0.000 0.000 0.000 0.000 0.000 0.000 0.000 0.000 0.005 0.465 2.162 3.657 2.244 2.215 2.313 1.517 4.571 11.407 25.012 47.978 56.912 51.639 32.806 18.947 19.382 16.241 14.912 17.642 15.559 13.414 12.856 10.055 9.295 8.705 7.827 5.282 0.000 0.000 0.000 0.000 0.000 0.000 0.000 0.000 0.000 0.000 0.000
0.000 0.000 0.000 0.000 0.000 0.000 0.000 0.000 0.000 0.000 0.000 0.000 0.000 0.000 0.000 0.000 0.000 0.000 0.000 0.000 0.000 0.000 0.001 0.160 1.687 3.887 2.751 1.893 1.966 2.087 6.195 11.429 23.654 42.606 52.168 48.076 26.418 21.226 19.774 13.240 14.819 14.082 9.218 11.715 13.210 13.611 12.323 9.918 7.464 6.732 0.000 0.000 0.000 0.000 0.000 0.000 0.000 0.000 0.000 0.000 0.000
0.000 0.000 0.000 0.000 0.000 0.000 0.000 0.000 0.000 0.000 0.000 0.000 0.000 0.000 0.000 0.000 0.000 0.000 0.000 0.000 0.000 0.000 0.000 0.001 0.351 3.451 2.951 1.696 1.669 3.505 6.960 12.510 22.968 41.041 50.890 40.303 27.505 23.590 18.846 15.855 14.932 11.879 9.297 10.995 14.757 15.174 12.586 9.949 8.557 6.963 0.044 0.000 0.000 0.000 0.000 0.000 0.000 0.000 0.000 0.000 0.000
0.000 0.000 0.000 0.000 0.000 0.000 0.000 0.000 0.000 0.000 0.000 0.000 0.000 0.000 0.000 0.000 0.000 0.000 0.000 0.000 0.000 0.000 0.000 0.000 0.516 1.898 2.553 1.056 1.965 3.400 5.949 11.247 19.594 29.669 45.042 38.960 34.911 27.743 18.859 15.117 12.463 10.145 10.126 12.629 15.290 14.421 12.770 10.186 8.663 6.676 0.418 0.000 0.000 0.000 0.000 0.000 0.000 0.000 0.000 0.000 0.000
0.000 0.000 0.000 0.000 0.000 0.000 0.000 0.000 0.000 0.000 0.000 0.000 0.000 0.000 0.000 0.000 0.000 0.000 0.000 0.000 0.000 0.000 0.000 0.000 0.000 1.383 1.478 1.426 2.471 2.920 4.760 9.056 17.351 23.007 43.426 39.326 40.732 25.831 19.340 16.773 14.191 13.072 10.436 11.830 13.669 14.491 14.460 12.538 7.095 4.766 0.391 0.000 0.000 0.000 0.000 0.000 0.000 0.000 0.000 0.000 0.000
0.000 0.000 0.000 0.000 0.000 0.000 0.000 0.000 0.000 0.000 0.000 0.000 0.000 0.000 0.000 0.000 0.000 0.000 0.000 0.000 0.000 0.000 0.000 0.000 0.000 0.331 1.703 2.003 2.492 2.916 3.558 7.276 13.357 22.588 32.205 43.674 40.225 29.389 20.744 18.376 13.665 10.385 8.076 8.517 9.570 13.148 12.801 10.253 3.097 2.525 0.095 0.000 0.000 0.000 0.000 0.000 0.000 0.000 0.000 0.000 0.000
0.000 0.000 0.000 0.000 0.000 0.000 0.000 0.000 0.000 0.000 0.000 0.000 0.000 0.000 0.000 0.000 0.000 0.000 0.000 0.000 0.000 0.000 0.000 0.000 0.000 0.180 1.304 2.145 2.533 2.653 2.585 6.129 12.474 21.162 30.352 37.756 42.081 28.368 21.488 16.783 9.804 7.927 6.014 6.218 8.068 10.771 9.989 7.321 4.501 3.488 0.782 0.000 0.000 0.000 0.000 0.000 0.000 0.000 0.000 0.000 0.000
0.000 0.000 0.000 0.000 0.000 0.000 0.000 0.000 0.000 0.000 0.000 0.000 0.000 0.000 0.000 0.000 0.000 0.000 0.000 0.000 0.000 0.000 0.000 0.000 0.000 0.057 0.722 1.566 2.354 2.000 2.407 4.480 10.462 17.192 23.093 34.803 33.949 26.499 20.155 11.648 5.860 6.311 5.906 5.166 6.803 7.315 7.951 8.623 6.637 3.822 2.857 0.000 0.000 0.000 0.000 0.000 0.000 0.000 0.000 0.000 0.000
0.000 0.000 0.000 0.000 0.000 0.000 0.000 0.000 0.000 0.000 0.000 0.000 0.000 0.000 0.000 0.000 0.000 0.000 0.000 0.000 0.000 0.000 0.000 0.000 0.000 0.001 0.235 0.948 1.798 1.795 2.103 3.027 7.077 11.719 17.526 27.191 30.264 22.989 16.512 9.013 7.046 8.634 5.534 5.110 5.406 4.637 7.225 8.858 5.492 4.032 3.258 0.002 0.000 0.000 0.000 0.000 0.000 0.000 0.000 0.000 0.000
0.000 0.000 0.000 0.000 0.000 0.000 0.000 0.000 0.000 0.000 0.000 0.000 0.000 0.000 0.000 0.000 0.000 0.000 0.000 0.000 0.000 0.000 0.000 0.000 0.000 0.000 0.021 0.440 1.506 1.585 1.730 2.474 4.968 9.924 14.929 20.086 25.206 23.350 16.649 10.908 10.020 8.199 6.063 5.528 4.699 5.179 7.634 7.410 5.893 4.317 2.392 0.228 0.000 0.000 0.000 0.000 0.000 0.000 0.000 0.000 0.000
0.000 0.000 0.000 0.000 0.000 0.000 0.000 0.000 0.000 0.000 0.000 0.000 0.000 0.000 0.000 0.000 0.000 0.000 0.000 0.000 0.000 0.000 0.000 0.000 0.000 0.000 0.000 0.118 1.144 1.399 1.526 2.205 2.984 6.570 9.964 12.665 19.436 19.171 15.428 12.272 12.062 8.665 7.905 5.629 5.378 5.344 5.624 7.406 6.209 4.271 2.328 1.518 0.000 0.000 0.000 0.000 0.000 0.000 0.000 0.000 0.000
0.000 0.000 0.000 0.000 0.000 0.000 0.000 0.000 0.000 0.000 0.000 0.000 0.000 0.000 0.000 0.000 0.000 0.000 0.000 0.000 0.000 0.000 0.000 0.000 0.000 0.000 0.000 0.085 0.768 1.180 1.483 1.873 2.467 4.033 6.851 11.181 16.449 16.760 16.302 13.560 9.659 10.176 8.115 6.204 4.989 3.687 3.246 5.974 6.040 4.728 2.085 1.731 0.000 0.000 0.000 0.000 0.000 0.000 0.000 0.000 0.000
0.000 0.000 0.000 0.000 0.000 0.000 0.000 0.000 0.000 0.000 0.000 0.000 0.000 0.000 0.000 0.000 0.000 0.000 0.000 0.000 0.000 0.000 0.000 0.000 0.000 0.000 0.000 0.030 0.433 0.978 1.255 1.607 1.596 2.667 5.302 8.202 10.909 15.479 18.089 13.587 9.250 10.305 7.794 6.237 2.932 2.162 1.433 4.905 6.140 5.232 1.766 1.262 0.038 0.000 0.000 0.000 0.000 0.000 0.000 0.000 0.000
0.000 0.000 0.000 0.000 0.000 0.000 0.000 0.000 0.000 0.000 0.000 0.000 0.000 0.000 0.000 0.000 0.000 0.000 0.000 0.000 0.000 0.000 0.000 0.000 0.000 0.000 0.000 0.024 0.215 0.586 0.952 1.351 1.182 1.958 3.938 7.134 9.977 15.736 19.292 12.104 11.040 11.514 8.186 4.285 2.012 1.385 2.506 5.157 6.707 5.639 2.376 1.457 0.756 0.004 0.000 0.000 0.000 0.000 0.000 0.000 0.000
0.000 0.000 0.000 0.000 0.000 0.000 0.000 0.000 0.000 0.000 0.000 0.000 0.000 0.000 0.000 0.000 0.000 0.000 0.000 0.000 0.000 0.000 0.000 0.000 0.000 0.000 0.000 0.000 0.240 0.436 0.868 1.197 1.566 1.771 3.359 6.930 9.994 17.334 20.497 11.149 12.251 9.697 6.130 3.265 2.373 2.288 3.505 4.921 6.952 6.011 2.659 1.863 1.437 0.585 0.000 0.000 0.000 0.000 0.000 0.000 0.000
0.000 0.000 0.000 0.000 0.000 0.000 0.000 0.000 0.000 0.000 0.000 0.000 0.000 0.000 0.000 0.000 0.000 0.000 0.000 0.000 0.000 0.000 0.000 0.000 0.000 0.000 0.000 0.000 0.000 0.190 0.759 1.082 1.429 1.691 2.816 6.354 9.161 15.754 18.435 13.245 10.600 9.071 4.490 2.669 2.227 2.701 2.975 4.632 7.096 5.510 2.492 2.128 1.942 1.791 0.125 0.000 0.000 0.000 0.000 0.000 0.000
0.000 0.000 0.000 0.000 0.000 0.000 0.000 0.000 0.000 0.000 0.000 0.000 0.000 0.000 0.000 0.000 0.000 0.000 0.000 0.000 0.000 0.000 0.000 0.000 0.000 0.000 0.000 0.000 0.000 0.043 0.542 1.046 0.938 1.525 2.419 5.517 7.564 10.412 14.883 10.984 7.444 6.041 3.249 3.095 2.505 2.525 2.224 4.168 6.304 5.024 2.439 2.076 1.906 1.809 0.611 0.007 0.000 0.000 0.000 0.000 0.000
0.000 0.000 0.000 0.000 0.000 0.000 0.000 0.000 0.000 0.000 0.000 0.000 0.000 0.000 0.000 0.000 0.000 0.000 0.000 0.000 0.000 0.000 0.000 0.000 0.000 0.000 0.000 0.000 0.000 0.005 0.376 0.775 0.895 1.424 1.895 3.551 5.615 6.780 11.190 7.735 5.089 3.573 4.745 4.537 3.662 2.703 2.891 3.134 4.604 4.947 2.412 1.839 1.688 1.514 0.954 0.250 0.001 0.000 0.000 0.000 0.000
0.000 0.000 0.000 0.000 0.000 0.000 0.000 0.000 0.000 0.000 0.000 0.000 0.000 0.000 0.000 0.000 0.000 0.000 0.000 0.000 0.000 0.000 0.000 0.000 0.000 0.000 0.000 0.000 0.000 0.000 0.237 0.685 1.067 1.236 1.495 2.428 3.699 3.219 6.628 4.486 3.603 3.668 6.102 5.621 3.215 2.937 3.332 3.292 4.315 4.932 1.944 1.463 1.513 1.510 1.368 1.341 0.386 0.000 0.000 0.000 0.000
0.000 0.000 0.000 0.000 0.000 0.000 0.000 0.000 0.000 0.000 0.000 0.000 0.000 0.000 0.000 0.000 0.000 0.000 0.000 0.000 0.000 0.000 0.000 0.000 0.000 0.000 0.000 0.000 0.000 0.000 0.262 0.645 0.878 0.953 1.132 1.733 1.875 2.643 4.021 4.108 3.718 5.585 5.751 4.004 2.385 3.749 2.535 3.638 3.815 4.070 1.621 1.389 1.389 1.335 1.554 2.049 1.715 0.000 0.000 0.000 0.000
0.000 0.000 0.000 0.000 0.000 0.000 0.000 0.000 0.000 0.000 0.000 0.000 0.000 0.000 0.000 0.000 0.000 0.000 0.000 0.000 0.000 0.000 0.000 0.000 0.000 0.000 0.000 0.000 0.000 0.000 0.097 0.403 0.626 0.885 0.873 1.066 1.611 0.423 3.273 4.584 4.621 5.515 3.882 2.189 3.261 2.922 0.308 2.188 4.016 3.514 2.016 1.429 1.292 1.286 1.498 1.431 1.873 0.008 0.000 0.000 0.000
0.000 0.000 0.000 0.000 0.000 0.000 0.000 0.000 0.000 0.000 0.000 0.000 0.000 0.000 0.000 0.000 0.000 0.000 0.000 0.000 0.000 0.000 0.000 0.000 0.000 0.000 0.000 0.000 0.000 0.000 0.017 0.181 0.377 0.696 0.751 0.673 0.925 2.931 4.368 4.539 4.592 3.752 2.114 0.887 2.307 1.627 0.044 0.584 3.612 3.422 2.278 1.352 1.172 1.188 1.123 0.754 1.577 0.001 0.000 0.000 0.000
0.000 0.000 0.000 0.000 0.000 0.000 0.000 0.000 0.000 0.000 0.000 0.000 0.000 0.000 0.000 0.000 0.000 0.000 0.000 0.000 0.000 0.000 0.000 0.000 0.000 0.000 0.000 0.000 0.000 0.000 0.000 0.001 0.036 0.261 0.457 0.448 0.002 2.291 2.711 3.066 3.532 2.275 1.175 0.323 1.959 2.163 1.952 1.802 2.450 3.125 2.016 1.237 1.047 0.923 0.973 1.157 1.188 0.089 0.000 0.000 0.000
0.000 0.000 0.000 0.000 0.000 0.000 0.000 0.000 0.000 0.000 0.000 0.000 0.000 0.000 0.000 0.000 0.000 0.000 0.000 0.000 0.000 0.000 0.000 0.000 0.000 0.000 0.000 0.000 0.000 0.000 0.000 0.000 0.000 0.097 0.470 0.681 1.010 1.718 1.213 1.612 2.063 1.779 2.538 2.266 3.071 3.629 3.182 1.982 1.732 2.110 1.794 1.138 0.938 0.846 0.824 0.846 0.737 0.222 0.000 0.000 0.000
0.000 0.000 0.000 0.000 0.000 0.000 0.000 0.000 0.000 0.000 0.000 0.000 0.000 0.000 0.000 0.000 0.000 0.000 0.000 0.000 0.000 0.000 0.000 0.000 0.000 0.000 0.000 0.000 0.000 0.000 0.000 0.000 0.000 0.016 0.391 0.709 0.724 0.508 0.415 0.465 1.791 1.763 3.208 2.678 3.681 3.236 2.207 1.568 1.049 1.479 1.637 1.115 0.861 0.752 0.645 0.589 0.866 0.526 0.000 0.000 0.000
0.000 0.000 0.000 0.000 0.000 0.000 0.000 0.000 0.000 0.000 0.000 0.000 0.000 0.000 0.000 0.000 0.000 0.000 0.000 0.000 0.000 0.000 0.000 0.000 0.000 0.000 0.000 0.000 0.000 0.000 0.000 0.000 0.000 0.001 0.076 0.464 0.565 0.000 0.002 0.291 1.086 1.222 1.701 2.433 3.054 1.785 0.857 0.991 0.224 0.396 0.676 0.985 0.756 0.591 0.492 0.682 1.323 0.778 0.000 0.000 0.000
0.000 0.000 0.000 0.000 0.000 0.000 0.000 0.000 0.000 0.000 0.000 0.000 0.000 0.000 0.000 0.000 0.000 0.000 0.000 0.000 0.000 0.000 0.000 0.000 0.000 0.000 0.000 0.000 0.000 0.000 0.000 0.000 0.000 0.000 0.000 0.030 0.545 0.725 0.001 0.794 0.908 0.330 0.825 1.709 1.709 0.805 0.328 0.044 0.002 0.001 0.129 0.830 0.601 0.445 0.349 0.550 0.990 0.724 0.015 0.000 0.000
0.000 0.000 0.000 0.000 0.000 0.000 0.000 0.000 0.000 0.000 0.000 0.000 0.000 0.000 0.000 0.000 0.000 0.000 0.000 0.000 0.000 0.000 0.000 0.000 0.000 0.000 0.000 0.000 0.000 0.000 0.000 0.000 0.000 0.000 0.000 0.076 0.386 0.871 1.134 1.408 0.719 0.008 0.289 1.303 1.578 0.614 0.106 0.001 0.000 0.001 0.005 0.199 0.481 0.211 0.001 0.179 0.239 0.449 0.206 0.000 0.000
0.000 0.000 0.000 0.000 0.000 0.000 0.000 0.000 0.000 0.000 0.000 0.000 0.000 0.000 0.000 0.000 0.000 0.000 0.000 0.000 0.000 0.000 0.000 0.000 0.000 0.000 0.000 0.000 0.000 0.000 0.000 0.000 0.000 0.000 0.000 0.000 0.254 0.700 1.287 1.213 0.002 0.000 0.015 1.327 0.508 0.001 0.000 0.000 0.001 0.002 0.002 0.130 0.284 0.001 0.002 0.002 0.142 0.389 0.364 0.000 0.000
0.000 0.000 0.000 0.000 0.000 0.000 0.000 0.000 0.000 0.000 0.000 0.000 0.000 0.000 0.000 0.000 0.000 0.000 0.000 0.000 0.000 0.000 0.000 0.000 0.000 0.000 0.000 0.000 0.000 0.000 0.000 0.000 0.000 0.000 0.000 0.000 0.003 0.359 0.604 0.706 0.010 0.010 1.138 1.008 0.001 0.000 0.001 0.000 0.002 0.002 0.001 0.002 0.002 0.002 0.001 0.002 0.230 0.349 0.168 0.020 0.000
0.000 0.000 0.000 0.000 0.000 0.000 0.000 0.000 0.000 0.000 0.000 0.000 0.000 0.000 0.000 0.000 0.000 0.000 0.000 0.000 0.000 0.000 0.000 0.000 0.000 0.000 0.000 0.000 0.000 0.000 0.000 0.000 0.000 0.000 0.000 0.000 0.000 0.080 0.354 0.565 0.928 1.289 1.174 0.250 0.000 0.000 0.001 0.002 0.000 0.000 0.001 0.001 0.001 0.065 0.002 0.002 0.181 0.259 0.158 0.075 0.000
0.000 0.000 0.000 0.000 0.000 0.000 0.000 0.000 0.000 0.000 0.000 0.000 0.000 0.000 0.000 0.000 0.000 0.000 0.000 0.000 0.000 0.000 0.000 0.000 0.000 0.000 0.000 0.000 0.000 0.000 0.000 0.000 0.000 0.000 0.000 0.000 0.000 0.000 0.190 0.401 0.552 0.971 0.680 0.007 0.001 0.000 0.001 0.000 0.001 0.001 0.001 0.002 0.002 0.002 0.002 0.018 0.251 0.352 0.269 0.102 0.004
0.000 0.000 0.000 0.000 0.000 0.000 0.000 0.000 0.000 0.000 0.000 0.000 0.000 0.000 0.000 0.000 0.000 0.000 0.000 0.000 0.000 0.000 0.000 0.000 0.000 0.000 0.000 0.000 0.000 0.000 0.000 0.000 0.000 0.000 0.000 0.000 0.000 0.000 0.003 0.230 0.495 0.704 0.653 0.312 0.010 0.002 0.000 0.000 0.001 0.001 0.002 0.001 0.002 0.002 0.000 0.009 0.364 0.281 0.323 0.148 0.043
0.000 0.000 0.000 0.000 0.000 0.000 0.000 0.000 0.000 0.000 0.000 0.000 0.000 0.000 0.000 0.000 0.000 0.000 0.000 0.000 0.000 0.000 0.000 0.000 0.000 0.000 0.000 0.000 0.000 0.000 0.000 0.000 0.000 0.000 0.000 0.000 0.000 0.000 0.001 0.261 0.513 0.534 0.366 0.376 0.008 0.002 0.000 0.002 0.002 0.002 0.000 0.001 0.010 0.002 0.022 0.002 0.104 0.168 0.339 0.231 0.050
0.000 0.000 0.000 0.000 0.000 0.000 0.000 0.000 0.000 0.000 0.000 0.000 0.000 0.000 0.000 0.000 0.000 0.000 0.000 0.000 0.000 0.000 0.000 0.000 0.000 0.000 0.000 0.000 0.000 0.000 0.000 0.000 0.000 0.000 0.000 0.000 0.000 0.000 0.006 0.099 0.283 0.426 0.438 0.312 0.017 0.002 0.001 0.002 0.001 0.001 0.001 0.012 0.006 0.002 0.018 0.246 0.328 0.384 0.231 0.330 0.223
0.000 0.000 0.000 0.000 0.000 0.000 0.000 0.000 0.000 0.000 0.000 0.000 0.000 0.000 0.000 0.000 0.000 0.000 0.000 0.000 0.000 0.000 0.000 0.000 0.000 0.000 0.000 0.000 0.000 0.000 0.000 0.000 0.000 0.000 0.000 0.000 0.000 0.000 0.000 0.007 0.047 0.307 0.429 0.412 0.356 0.002 0.015 0.001 0.002 0.002 0.071 0.002 0.002 0.001 0.016 0.609 0.683 0.497 0.219 0.450 0.402
0.000 0.000 0.000 0.000 0.000 0.000 0.000 0.000 0.000 0.000 0.000 0.000 0.000 0.000 0.000 0.000 0.000 0.000 0.000 0.000 0.000 0.000 0.000 0.000 0.000 0.000 0.000 0.000 0.000 0.000 0.000 0.000 0.000 0.000 0.000 0.000 0.000 0.000 0.000 0.000 0.002 0.084 0.380 0.406 0.432 0.362 0.157 0.000 0.000 0.000 0.001 0.002 0.002 0.002 0.004 0.623 0.838 0.311 0.269 0.513 0.457
0.000 0.000 0.000 0.000 0.000 0.000 0.000 0.000 0.000 0.000 0.000 0.000 0.000 0.000 0.000 0.000 0.000 0.000 0.000 0.000 0.000 0.000 0.000 0.000 0.000 0.000 0.000 0.000 0.000 0.000 0.000 0.000 0.000 0.000 0.000 0.000 0.000 0.000 0.000 0.000 0.000 0.002 0.259 0.451 0.429 0.271 0.002 0.002 0.001 0.001 0.001 0.002 0.000 0.000 0.015 0.647 0.274 0.011 0.040 0.323 0.504
0.000 0.000 0.000 0.000 0.000 0.000 0.000 0.000 0.000 0.000 0.000 0.000 0.000 0.000 0.000 0.000 0.000 0.000 0.000 0.000 0.000 0.000 0.000 0.000 0.000 0.000 0.000 0.000 0.000 0.000 0.000 0.000 0.000 0.000 0.000 0.000 0.000 0.000 0.000 0.000 0.000 0.000 0.092 0.379 0.406 0.240 0.000 0.000 0.001 0.002 0.001 0.002 0.001 0.002 0.002 0.020 0.004 0.064 0.003 0.303 0.604
0.000 0.000 0.000 0.000 0.000 0.000 0.000 0.000 0.000 0.000 0.000 0.000 0.000 0.000 0.000 0.000 0.000 0.000 0.000 0.000 0.000 0.000 0.000 0.000 0.000 0.000 0.000 0.000 0.000 0.000 0.000 0.000 0.000 0.000 0.000 0.000 0.000 0.000 0.000 0.000 0.000 0.000 0.001 0.116 0.333 0.297 0.005 0.001 0.000 0.001 0.002 0.002 0.002 0.001 0.001 0.005 0.415 0.473 0.226 0.428 0.503
0.000 0.000 0.000 0.000 0.000 0.000 0.000 0.000 0.000 0.000 0.000 0.000 0.000 0.000 0.000 0.000 0.000 0.000 0.000 0.000 0.000 0.000 0.000 0.000 0.000 0.000 0.000 0.000 0.000 0.000 0.000 0.000 0.000 0.000 0.000 0.000 0.000 0.000 0.000 0.000 0.000 0.000 0.000 0.002 0.219 0.242 0.166 0.001 0.001 0.002 0.000 0.002 0.002 0.002 0.029 0.016 0.727 0.563 0.133 0.141 0.152
0.000 0.000 0.000 0.000 0.000 0.000 0.000 0.000 0.000 0.000 0.000 0.000 0.000 0.000 0.000 0.000 0.000 0.000 0.000 0.000 0.000 0.000 0.000 0.000 0.000 0.000 0.000 0.000 0.000 0.000 0.000 0.000 0.000 0.000 0.000 0.000 0.000 0.000 0.000 0.000 0.000 0.000 0.000 0.000 0.167 0.246 0.133 0.006 0.002 0.024 0.002 0.001 0.000 0.002 0.003 0.309 0.488 0.413 0.134 0.005 0.153
0.000 0.000 0.000 0.000 0.000 0.000 0.000 0.000 0.000 0.000 0.000 0.000 0.000 0.000 0.000 0.000 0.000 0.000 0.000 0.000 0.000 0.000 0.000 0.000 0.000 0.000 0.000 0.000 0.000 0.000 0.000 0.000 0.000 0.000 0.000 0.000 0.000 0.000 0.000 0.000 0.000 0.000 0.000 0.000 0.026 0.243 0.254 0.350 0.003 0.322 0.001 0.001 0.002 0.002 0.001 0.007 0.316 0.369 0.002 0.017 0.008
0.000 0.000 0.000 0.000 0.000 0.000 0.000 0.000 0.000 0.000 0.000 0.000 0.000 0.000 0.000 0.000 0.000 0.000 0.000 0.000 0.000 0.000 0.000 0.000 0.000 0.000 0.000 0.000 0.000 0.000 0.000 0.000 0.000 0.000 0.000 0.000 0.000 0.000 0.000 0.000 0.000 0.000 0.000 0.000 0.002 0.213 0.432 0.338 0.453 0.422 0.110 0.001 0.002 0.002 0.000 0.024 0.192 0.002 0.002 0.002 0.002
0.000 0.000 0.000 0.000 0.000 0.000 0.000 0.000 0.000 0.000 0.000 0.000 0.000 0.000 0.000 0.000 0.000 0.000 0.000 0.000 0.000 0.000 0.000 0.000 0.000 0.000 0.000 0.000 0.000 0.000 0.000 0.000 0.000 0.000 0.000 0.000 0.000 0.000 0.000 0.000 0.000 0.000 0.000 0.000 0.012 0.076 0.272 0.203 0.440 0.002 0.002 0.000 0.000 0.001 0.002 0.012 0.013 0.002 0.001 0.002 0.002
0.000 0.000 0.000 0.000 0.000 0.000 0.000 0.000 0.000 0.000 0.000 0.000 0.000 0.000 0.000 0.000 0.000 0.000 0.000 0.000 0.000 0.000 0.000 0.000 0.000 0.000 0.000 0.000 0.000 0.000 0.000 0.000 0.000 0.000 0.000 0.000 0.000 0.000 0.000 0.000 0.000 0.000 0.000 0.000 0.000 0.033 0.002 0.349 0.255 0.001 0.001 0.002 0.000 0.001 0.002 0.078 0.003 0.074 0.001 0.001 0.001
0.000 0.000 0.000 0.000 0.000 0.000 0.000 0.000 0.000 0.000 0.000 0.000 0.000 0.000 0.000 0.000 0.000 0.000 0.000 0.000 0.000 0.000 0.000 0.000 0.000 0.000 0.000 0.000 0.000 0.000 0.000 0.000 0.000 0.000 0.000 0.000 0.000 0.000 0.000 0.000 0.000 0.000 0.000 0.000 0.000 0.001 0.083 0.344 0.253 0.002 0.002 0.000 0.001 0.001 0.002 0.030 0.150 0.355 0.001 0.001 0.001
0.000 0.000 0.000 0.000 0.000 0.000 0.000 0.000 0.000 0.000 0.000 0.000 0.000 0.000 0.000 0.000 0.000 0.000 0.000 0.000 0.000 0.000 0.000 0.000 0.000 0.000 0.000 0.000 0.000 0.000 0.000 0.000 0.000 0.000 0.000 0.000 0.000 0.000 0.000 0.000 0.000 0.000 0.000 0.000 0.000 0.000 0.103 0.220 0.229 0.002 0.001 0.019 0.004 0.015 0.027 0.473 0.340 0.000 0.023 0.001 0.000
0.000 0.000 0.000 0.000 0.000 0.000 0.000 0.000 0.000 0.000 0.000 0.000 0.000 0.000 0.000 0.000 0.000 0.000 0.000 0.000 0.000 0.000 0.000 0.000 0.000 0.000 0.000 0.000 0.000 0.000 0.000 0.000 0.000 0.000 0.000 0.000 0.000 0.000 0.000 0.000 0.000 0.000 0.000 0.000 0.000 0.000 0.049 0.030 0.192 0.002 0.014 1.383 1.109 1.054 1.485 0.729 0.002 0.002 0.001 0.001 0.001
0.000 0.000 0.000 0.000 0.000 0.000 0.000 0.000 0.000 0.000 0.000 0.000 0.000 0.000 0.000 0.000 0.000 0.000 0.000 0.000 0.000 0.000 0.000 0.000 0.000 0.000 0.000 0.000 0.000 0.000 0.000 0.000 0.000 0.000 0.000 0.000 0.000 0.000 0.000 0.000 0.000 0.000 0.000 0.000 0.000 0.000 0.001 0.057 0.002 0.002 0.344 1.245 2.356 1.797 1.648 0.370 0.007 0.002 0.002 0.001 0.001
0.000 0.000 0.000 0.000 0.000 0.000 0.000 0.000 0.000 0.000 0.000 0.000 0.000 0.000 0.000 0.000 0.000 0.000 0.000 0.000 0.000 0.000 0.000 0.000 0.000 0.000 0.000 0.000 0.000 0.000 0.000 0.000 0.000 0.000 0.000 0.000 0.000 0.000 0.000 0.000 0.000 0.000 0.000 0.000 0.000 0.000 0.000 0.026 0.002 0.002 0.586 0.895 1.586 1.250 0.691 0.324 0.006 0.011 0.002 0.001 0.001
0.000 0.000 0.000 0.000 0.000 0.000 0.000 0.000 0.000 0.000 0.000 0.000 0.000 0.000 0.000 0.000 0.000 0.000 0.000 0.000 0.000 0.000 0.000 0.000 0.000 0.000 0.000 0.000 0.000 0.000 0.000 0.000 0.000 0.000 0.000 0.000 0.000 0.000 0.000 0.000 0.000 0.000 0.000 0.000 0.000 0.000 0.000 0.000 0.002 0.390 0.504 0.523 0.971 0.522 0.520 0.930 0.492 0.252 0.002 0.001 0.002
0.000 0.000 0.000 0.000 0.000 0.000 0.000 0.000 0.000 0.000 0.000 0.000 0.000 0.000 0.000 0.000 0.000 0.000 0.000 0.000 0.000 0.000 0.000 0.000 0.000 0.000 0.000 0.000 0.000 0.000 0.000 0.000 0.000 0.000 0.000 0.000 0.000 0.000 0.000 0.000 0.000 0.000 0.000 0.000 0.000 0.000 0.000 0.002 0.224 0.428 0.420 0.404 0.458 0.070 0.213 1.061 0.998 0.841 0.004 0.005 0.002
0.000 0.000 0.000 0.000 0.000 0.000 0.000 0.000 0.000 0.000 0.000 0.000 0.000 0.000 0.000 0.000 0.000 0.000 0.000 0.000 0.000 0.000 0.000 0.000 0.000 0.000 0.000 0.000 0.000 0.000 0.000 0.000 0.000 0.000 0.000 0.000 0.000 0.000 0.000 0.000 0.000 0.000 0.000 0.000 0.000 0.000 0.000 0.010 0.191 0.307 0.300 0.314 0.380 0.015 0.018 0.302 0.481 0.581 0.280 0.002 0.002
0.000 0.000 0.000 0.000 0.000 0.000 0.000 0.000 0.000 0.000 0.000 0.000 0.000 0.000 0.000 0.000 0.000 0.000 0.000 0.000 0.000 0.000 0.000 0.000 0.000 0.000 0.000 0.000 0.000 0.000 0.000 0.000 0.000 0.000 0.000 0.000 0.000 0.000 0.000 0.000 0.000 0.000 0.000 0.000 0.000 0.000 0.000 0.000 0.002 0.069 0.226 0.284 0.348 0.020 0.028 0.036 0.159 0.250 0.206 0.004 0.002
0.000 0.000 0.000 0.000 0.000 0.000 0.000 0.000 0.000 0.000 0.000 0.000 0.000 0.000 0.000 0.000 0.000 0.000 0.000 0.000 0.000 0.000 0.000 0.000 0.000 0.000 0.000 0.000 0.000 0.000 0.000 0.000 0.000 0.000 0.000 0.000 0.000 0.000 0.000 0.000 0.000 0.000 0.000 0.000 0.000 0.000 0.000 0.000 0.000 0.001 0.150 0.211 0.182 0.011 0.152 0.203 0.245 0.060 0.008 0.234 0.119
0.000 0.000 0.000 0.000 0.000 0.000 0.000 0.000 0.000 0.000 0.000 0.000 0.000 0.000 0.000 0.000 0.000 0.000 0.000 0.000 0.000 0.000 0.000 0.000 0.000 0.000 0.000 0.000 0.000 0.000 0.000 0.000 0.000 0.000 0.000 0.000 0.000 0.000 0.000 0.000 0.000 0.000 0.000 0.000 0.000 0.000 0.000 0.000 0.000 0.000 0.010 0.102 0.002 0.293 0.882 0.584 0.092 0.024 0.002 0.272 0.089
