ncols        38
nrows        84
xllcorner    409642.8
yllcorner    6870789.1
cellsize     5.00
NODATA_value -9999
0.000 0.000 0.000 0.000 0.000 0.000 0.000 0.000 0.000 0.000 0.000 0.000 0.000 0.000 0.000 0.000 0.000 0.000 0.000 0.000 0.000 0.000 0.000 0.000 0.000 0.000 0.000 0.000 0.000 0.000 0.000 0.000 0.000 0.000 0.000 0.000 0.000 0.000
0.000 0.000 0.017 5.987 81.666 88.476 84.373 92.417 17.253 0.014 0.000 0.000 0.000 0.000 0.000 0.000 0.000 0.000 0.000 0.000 0.000 0.000 0.000 0.000 0.000 0.000 0.000 0.000 0.000 0.000 0.000 0.000 0.000 0.000 0.000 0.000 0.000 0.000
0.000 0.004 6.920 89.455 94.536 97.712 101.994 107.722 88.806 32.967 0.239 0.000 0.000 0.000 0.000 0.000 0.000 0.000 0.000 0.000 0.000 0.000 0.000 0.000 0.000 0.000 0.000 0.000 0.000 0.000 0.000 0.000 0.000 0.000 0.000 0.000 0.000 0.000
0.000 1.096 92.802 95.431 104.026 105.544 121.849 118.736 103.918 85.149 44.241 0.581 0.000 0.000 0.000 0.000 0.000 0.000 0.000 0.000 0.000 0.000 0.000 0.000 0.000 0.000 0.000 0.000 0.000 0.000 0.000 0.000 0.000 0.000 0.000 0.000 0.000 0.000
0.004 17.384 90.797 106.438 117.401 127.408 132.289 121.209 120.726 90.370 78.609 49.850 2.554 0.000 0.000 0.000 0.000 0.000 0.000 0.000 0.000 0.000 0.000 0.000 0.000 0.000 0.000 0.000 0.000 0.000 0.000 0.000 0.000 0.000 0.000 0.000 0.000 0.000
0.693 86.283 97.480 123.967 150.260 133.292 127.470 144.940 114.487 103.265 99.429 66.691 51.888 4.294 0.000 0.000 0.000 0.000 0.000 0.000 0.000 0.000 0.000 0.000 0.000 0.000 0.000 0.000 0.000 0.000 0.000 0.000 0.000 0.000 0.000 0.000 0.000 0.000
3.762 83.735 110.467 149.376 146.182 124.531 146.385 135.337 115.077 119.229 97.485 70.861 62.177 54.680 6.953 0.000 0.000 0.000 0.000 0.000 0.000 0.000 0.000 0.000 0.000 0.000 0.000 0.000 0.000 0.000 0.000 0.000 0.000 0.000 0.000 0.000 0.000 0.000
13.700 99.865 135.671 125.670 137.631 138.088 138.809 135.916 141.290 128.552 118.582 96.130 79.538 74.124 53.601 5.269 0.011 0.000 0.000 0.000 0.000 0.000 0.000 0.000 0.000 0.000 0.000 0.000 0.000 0.000 0.000 0.000 0.000 0.000 0.000 0.000 0.000 0.000
13.992 108.759 106.862 121.518 135.734 129.993 138.504 159.478 147.766 125.463 122.597 111.378 106.963 75.524 61.787 46.072 12.878 0.986 0.000 0.000 0.000 0.000 0.000 0.000 0.000 0.000 0.000 0.000 0.000 0.000 0.000 0.000 0.000 0.000 0.000 0.000 0.000 0.000
9.412 87.455 99.181 112.236 140.594 138.021 152.838 170.011 164.789 145.687 132.413 143.422 114.837 88.669 76.976 52.030 44.410 31.392 3.945 0.000 0.000 0.000 0.000 0.000 0.000 0.000 0.000 0.000 0.000 0.000 0.000 0.000 0.000 0.000 0.000 0.000 0.000 0.000
9.861 78.215 88.793 121.583 136.151 148.759 147.013 166.363 160.417 130.432 147.885 153.992 106.351 99.943 73.877 46.319 45.128 43.449 34.955 2.073 0.000 0.000 0.000 0.000 0.000 0.000 0.000 0.000 0.000 0.000 0.000 0.000 0.000 0.000 0.000 0.000 0.000 0.000
7.552 70.723 99.199 133.477 146.495 166.650 166.080 159.437 144.043 124.836 155.536 151.080 130.182 110.635 68.812 49.800 46.469 48.622 50.286 25.583 0.013 0.000 0.000 0.000 0.000 0.000 0.000 0.000 0.000 0.000 0.000 0.000 0.000 0.000 0.000 0.000 0.000 0.000
4.229 61.872 107.784 142.369 152.488 155.542 149.339 143.704 132.434 145.889 175.808 148.856 124.108 101.101 63.952 57.153 57.873 55.333 47.023 39.238 5.664 0.000 0.000 0.000 0.000 0.000 0.000 0.000 0.000 0.000 0.000 0.000 0.000 0.000 0.000 0.000 0.000 0.000
1.247 49.363 94.999 127.142 155.589 149.081 133.262 150.364 128.147 167.324 159.508 143.079 132.516 110.539 86.761 68.634 66.044 58.966 51.640 44.639 24.664 0.000 0.000 0.000 0.000 0.000 0.000 0.000 0.000 0.000 0.000 0.000 0.000 0.000 0.000 0.000 0.000 0.000
0.203 32.152 84.667 132.954 133.004 134.899 143.040 139.531 153.174 160.677 174.357 145.994 144.813 114.044 78.313 67.363 61.309 50.679 53.254 45.230 32.898 0.001 0.000 0.000 0.000 0.000 0.000 0.000 0.000 0.000 0.000 0.000 0.000 0.000 0.000 0.000 0.000 0.000
0.010 12.317 73.993 106.423 131.107 130.438 149.316 156.770 141.912 172.560 162.476 148.413 133.552 98.862 72.472 60.644 57.221 51.475 53.241 42.526 27.293 1.392 0.000 0.000 0.000 0.000 0.000 0.000 0.000 0.000 0.000 0.000 0.000 0.000 0.000 0.000 0.000 0.000
0.000 2.958 46.576 81.599 115.314 134.824 140.587 141.664 144.423 148.101 146.106 143.905 106.912 84.284 65.959 64.348 56.617 54.071 47.700 40.021 30.392 9.186 0.000 0.000 0.000 0.000 0.000 0.000 0.000 0.000 0.000 0.000 0.000 0.000 0.000 0.000 0.000 0.000
0.000 0.810 32.160 77.638 105.363 110.640 119.700 125.239 137.773 137.448 123.306 127.529 93.552 81.297 89.916 66.061 59.878 54.404 41.035 37.960 34.548 12.871 0.000 0.000 0.000 0.000 0.000 0.000 0.000 0.000 0.000 0.000 0.000 0.000 0.000 0.000 0.000 0.000
0.000 0.136 18.185 55.731 89.296 114.084 120.556 129.258 122.342 124.812 130.938 123.541 99.445 91.039 88.115 64.917 69.685 50.731 41.779 45.402 32.370 16.999 0.000 0.000 0.000 0.000 0.000 0.000 0.000 0.000 0.000 0.000 0.000 0.000 0.000 0.000 0.000 0.000
0.000 0.020 9.537 40.257 77.444 90.096 115.026 114.092 101.775 107.765 111.987 111.282 100.420 109.580 85.112 76.319 67.528 58.041 53.740 45.089 34.811 20.062 0.496 0.000 0.000 0.000 0.000 0.000 0.000 0.000 0.000 0.000 0.000 0.000 0.000 0.000 0.000 0.000
0.000 0.002 4.143 29.884 62.482 95.311 99.756 99.027 106.412 106.290 100.596 109.349 108.102 94.370 97.652 84.000 72.153 62.415 44.201 40.199 33.499 20.080 4.621 0.000 0.000 0.000 0.000 0.000 0.000 0.000 0.000 0.000 0.000 0.000 0.000 0.000 0.000 0.000
0.000 0.000 1.242 21.691 48.934 76.719 89.691 94.663 97.565 91.036 90.703 109.987 112.323 83.590 93.704 76.158 81.183 50.751 39.011 30.305 31.267 20.915 7.509 0.000 0.000 0.000 0.000 0.000 0.000 0.000 0.000 0.000 0.000 0.000 0.000 0.000 0.000 0.000
0.000 0.000 0.194 12.652 34.637 56.768 84.206 96.931 88.830 86.105 92.874 99.712 102.335 88.783 100.819 85.444 67.600 42.300 33.315 32.734 33.370 23.512 10.002 0.000 0.000 0.000 0.000 0.000 0.000 0.000 0.000 0.000 0.000 0.000 0.000 0.000 0.000 0.000
0.000 0.000 0.053 7.544 25.910 50.450 71.096 83.230 91.716 90.864 103.057 108.969 89.877 101.325 84.739 70.863 60.107 44.182 37.916 39.411 34.354 25.207 12.720 0.408 0.000 0.000 0.000 0.000 0.000 0.000 0.000 0.000 0.000 0.000 0.000 0.000 0.000 0.000
0.000 0.000 0.003 3.485 19.062 45.009 69.263 92.165 78.328 87.637 106.360 100.631 101.584 98.659 83.533 63.879 54.737 46.802 43.607 42.003 33.019 26.482 13.536 2.993 0.000 0.000 0.000 0.000 0.000 0.000 0.000 0.000 0.000 0.000 0.000 0.000 0.000 0.000
0.000 0.000 0.000 0.775 12.886 25.784 56.198 75.103 91.594 87.771 79.268 88.940 87.486 81.591 70.074 50.280 53.103 45.830 44.358 34.123 35.312 27.012 13.544 4.739 0.062 0.000 0.000 0.000 0.000 0.000 0.000 0.000 0.000 0.000 0.000 0.000 0.000 0.000
0.000 0.000 0.000 0.063 6.887 17.798 38.466 70.019 69.092 74.138 72.972 76.573 75.061 68.708 58.054 51.077 55.792 52.533 45.085 39.683 31.592 23.525 14.147 6.152 1.569 0.000 0.000 0.000 0.000 0.000 0.000 0.000 0.000 0.000 0.000 0.000 0.000 0.000
0.000 0.000 0.000 0.002 3.134 14.649 28.254 48.055 64.048 68.765 46.874 64.948 57.190 58.442 50.514 58.922 62.281 53.547 44.282 38.496 29.623 24.190 15.528 6.319 2.996 0.318 0.000 0.000 0.000 0.000 0.000 0.000 0.000 0.000 0.000 0.000 0.000 0.000
0.000 0.000 0.000 0.000 0.788 9.498 17.879 39.254 51.571 52.780 53.366 53.919 52.783 53.757 56.846 59.969 57.091 40.493 56.206 38.885 28.794 23.132 15.100 6.197 4.210 2.141 0.015 0.000 0.000 0.000 0.000 0.000 0.000 0.000 0.000 0.000 0.000 0.000
0.000 0.000 0.000 0.000 0.060 3.257 10.869 18.360 37.965 39.254 35.782 42.425 52.864 56.076 60.659 52.122 45.152 44.575 48.600 27.294 25.173 22.065 15.025 7.710 5.630 3.493 0.916 0.001 0.000 0.000 0.000 0.000 0.000 0.000 0.000 0.000 0.000 0.000
0.000 0.000 0.000 0.000 0.001 0.427 5.739 12.730 29.800 39.727 39.870 50.249 54.832 52.736 52.595 44.280 41.834 42.395 36.961 25.545 20.363 22.257 15.032 9.190 6.097 4.459 2.768 0.338 0.000 0.000 0.000 0.000 0.000 0.000 0.000 0.000 0.000 0.000
0.000 0.000 0.000 0.000 0.000 0.002 0.842 5.160 15.578 23.508 39.828 43.931 47.383 52.477 43.445 36.338 32.754 37.136 34.079 26.135 22.637 19.410 15.550 9.421 6.145 4.879 3.344 1.915 0.003 0.000 0.000 0.000 0.000 0.000 0.000 0.000 0.000 0.000
0.000 0.000 0.000 0.000 0.000 0.000 0.082 4.023 11.950 23.184 28.985 34.464 39.837 38.388 37.893 33.453 36.342 39.298 40.355 32.028 22.258 17.829 13.340 9.392 6.139 4.879 3.838 2.751 0.374 0.000 0.000 0.000 0.000 0.000 0.000 0.000 0.000 0.000
0.000 0.000 0.000 0.000 0.000 0.000 0.003 2.046 9.651 19.580 26.895 27.470 32.458 37.713 35.252 38.452 35.957 40.287 36.440 24.997 18.558 14.876 12.414 10.327 6.398 4.972 3.904 2.358 1.104 0.013 0.000 0.000 0.000 0.000 0.000 0.000 0.000 0.000
0.000 0.000 0.000 0.000 0.000 0.000 0.000 0.043 3.033 7.724 12.771 21.134 25.879 31.186 31.973 30.956 32.688 38.251 27.182 19.346 15.864 12.877 10.792 9.457 6.552 4.498 3.112 1.966 1.821 0.390 0.000 0.000 0.000 0.000 0.000 0.000 0.000 0.000
0.000 0.000 0.000 0.000 0.000 0.000 0.000 0.000 0.157 5.592 11.720 18.124 23.221 26.772 26.272 26.200 26.835 24.957 18.558 14.137 12.674 9.268 9.025 9.038 7.005 4.141 2.361 1.554 1.619 0.985 0.000 0.000 0.000 0.000 0.000 0.000 0.000 0.000
0.000 0.000 0.000 0.000 0.000 0.000 0.000 0.000 0.023 2.225 8.800 13.774 20.744 22.381 20.953 22.643 23.800 24.202 16.190 12.778 8.842 9.844 9.780 9.504 6.824 3.734 1.572 0.369 0.840 0.407 0.069 0.000 0.000 0.000 0.000 0.000 0.000 0.000
0.000 0.000 0.000 0.000 0.000 0.000 0.000 0.000 0.000 0.675 5.184 10.581 15.055 17.247 17.055 18.504 19.613 18.225 12.573 9.143 8.841 11.171 10.171 9.785 7.619 4.140 0.849 0.409 0.277 0.646 0.401 0.000 0.000 0.000 0.000 0.000 0.000 0.000
0.000 0.000 0.000 0.000 0.000 0.000 0.000 0.000 0.000 0.000 1.414 4.823 7.061 9.391 14.249 17.532 17.688 11.075 9.611 8.691 10.040 10.858 10.104 10.307 8.253 4.461 1.641 0.525 0.241 1.186 0.700 0.019 0.000 0.000 0.000 0.000 0.000 0.000
0.000 0.000 0.000 0.000 0.000 0.000 0.000 0.000 0.000 0.000 0.092 1.989 4.416 8.058 15.404 18.663 14.892 11.806 9.663 9.995 10.187 9.776 11.266 10.716 8.470 5.501 2.953 0.565 0.477 1.343 1.051 0.163 0.000 0.000 0.000 0.000 0.000 0.000
0.000 0.000 0.000 0.000 0.000 0.000 0.000 0.000 0.000 0.000 0.000 0.593 2.893 5.147 8.503 11.179 11.702 10.470 9.945 10.881 10.421 12.055 11.748 11.630 9.457 7.135 3.782 0.523 0.661 1.646 1.478 0.672 0.014 0.000 0.000 0.000 0.000 0.000
0.000 0.000 0.000 0.000 0.000 0.000 0.000 0.000 0.000 0.000 0.000 0.006 1.123 3.188 5.783 7.197 10.699 11.826 10.001 10.758 9.859 12.560 11.678 11.851 9.543 7.797 4.175 1.572 1.546 2.065 1.537 1.282 0.178 0.000 0.000 0.000 0.000 0.000
0.000 0.000 0.000 0.000 0.000 0.000 0.000 0.000 0.000 0.000 0.000 0.000 0.530 2.943 3.634 3.233 7.974 8.972 9.995 7.929 11.675 11.957 11.335 11.556 10.034 9.007 5.516 3.102 2.267 1.972 1.515 1.455 0.701 0.020 0.000 0.000 0.000 0.000
0.000 0.000 0.000 0.000 0.000 0.000 0.000 0.000 0.000 0.000 0.000 0.000 0.028 0.781 2.276 2.677 3.913 8.445 10.176 9.518 10.123 10.231 10.220 11.236 10.881 9.089 6.275 4.323 3.300 2.615 2.101 1.435 1.272 0.450 0.035 0.000 0.000 0.000
0.000 0.000 0.000 0.000 0.000 0.000 0.000 0.000 0.000 0.000 0.000 0.000 0.000 0.023 1.134 2.374 2.796 5.355 8.240 8.626 8.354 8.163 9.636 11.451 9.991 7.852 6.650 5.787 4.674 3.614 2.504 1.599 1.750 1.430 0.525 0.018 0.000 0.000
0.000 0.000 0.000 0.000 0.000 0.000 0.000 0.000 0.000 0.000 0.000 0.000 0.000 0.000 0.120 1.804 2.263 3.367 7.035 7.333 5.738 6.532 9.578 9.745 8.933 7.484 7.301 6.842 5.945 4.309 2.281 1.808 2.050 1.890 1.297 0.278 0.001 0.000
0.000 0.000 0.000 0.000 0.000 0.000 0.000 0.000 0.000 0.000 0.000 0.000 0.000 0.000 0.000 0.782 2.372 2.372 1.877 5.363 5.079 5.696 8.312 8.529 8.937 7.069 7.698 7.358 7.469 4.269 1.609 1.612 1.676 2.179 1.924 0.817 0.119 0.000
0.000 0.000 0.000 0.000 0.000 0.000 0.000 0.000 0.000 0.000 0.000 0.000 0.000 0.000 0.000 0.086 1.552 1.882 1.120 2.926 5.107 6.402 8.674 7.055 7.288 7.925 8.409 7.592 7.119 4.390 2.884 1.758 1.772 2.630 2.134 1.417 0.567 0.034
0.000 0.000 0.000 0.000 0.000 0.000 0.000 0.000 0.000 0.000 0.000 0.000 0.000 0.000 0.000 0.000 0.237 1.388 1.116 1.622 4.410 6.236 7.121 8.022 8.542 8.335 9.223 7.724 8.255 6.857 4.338 2.344 2.051 2.216 1.861 1.902 1.148 0.270
0.000 0.000 0.000 0.000 0.000 0.000 0.000 0.000 0.000 0.000 0.000 0.000 0.000 0.000 0.000 0.000 0.002 0.767 0.893 1.066 4.713 7.067 7.686 8.225 8.395 8.840 8.007 8.101 8.778 8.279 5.696 2.355 1.454 1.294 2.139 2.192 1.536 0.686
0.000 0.000 0.000 0.000 0.000 0.000 0.000 0.000 0.000 0.000 0.000 0.000 0.000 0.000 0.000 0.000 0.000 0.456 0.913 0.828 3.666 7.008 8.529 7.542 8.174 7.292 8.015 8.720 9.850 8.012 5.569 2.507 0.977 1.369 2.134 2.067 1.558 1.067
0.000 0.000 0.000 0.000 0.000 0.000 0.000 0.000 0.000 0.000 0.000 0.000 0.000 0.000 0.000 0.000 0.000 0.053 0.889 0.964 2.816 5.211 7.877 7.035 6.820 7.835 9.069 9.495 9.340 7.444 5.432 1.944 0.561 1.069 1.550 1.718 1.357 1.286
0.000 0.000 0.000 0.000 0.000 0.000 0.000 0.000 0.000 0.000 0.000 0.000 0.000 0.000 0.000 0.000 0.000 0.002 0.706 1.576 2.083 3.760 6.542 6.093 6.154 6.894 9.007 9.367 8.583 7.523 4.206 1.555 0.853 0.714 0.950 1.376 1.010 1.301
0.000 0.000 0.000 0.000 0.000 0.000 0.000 0.000 0.000 0.000 0.000 0.000 0.000 0.000 0.000 0.000 0.000 0.003 0.182 1.135 0.965 2.391 1.950 4.374 3.781 6.667 8.640 10.020 9.394 7.486 4.567 2.158 1.214 0.555 0.469 0.776 1.192 1.629
0.000 0.000 0.000 0.000 0.000 0.000 0.000 0.000 0.000 0.000 0.000 0.000 0.000 0.000 0.000 0.000 0.000 0.000 0.034 0.001 1.295 1.015 0.165 2.188 4.020 7.172 9.913 10.451 10.120 7.752 5.654 2.465 1.253 0.575 0.471 0.241 0.977 1.702
0.000 0.000 0.000 0.000 0.000 0.000 0.000 0.000 0.000 0.000 0.000 0.000 0.000 0.000 0.000 0.000 0.000 0.000 0.000 0.284 1.266 0.810 0.000 1.546 4.128 7.837 9.972 10.400 10.118 8.476 6.598 2.401 1.637 0.916 0.207 0.114 1.298 1.825
0.000 0.000 0.000 0.000 0.000 0.000 0.000 0.000 0.000 0.000 0.000 0.000 0.000 0.000 0.000 0.000 0.000 0.000 0.000 0.154 0.765 0.745 0.020 0.002 5.366 8.456 9.890 10.019 10.920 9.285 5.787 2.887 2.300 1.058 0.461 0.628 1.232 1.832
0.000 0.000 0.000 0.000 0.000 0.000 0.000 0.000 0.000 0.000 0.000 0.000 0.000 0.000 0.000 0.000 0.000 0.000 0.000 0.031 0.175 0.600 0.273 0.031 7.345 8.863 10.997 11.774 11.474 9.086 5.488 5.040 2.686 1.437 0.940 0.475 0.520 1.205
0.000 0.000 0.000 0.000 0.000 0.000 0.000 0.000 0.000 0.000 0.000 0.000 0.000 0.000 0.000 0.000 0.000 0.000 0.000 0.000 0.106 0.156 0.184 1.859 5.956 9.903 10.990 13.125 11.071 9.869 8.148 6.036 3.671 2.343 1.353 0.601 0.662 0.879
0.000 0.000 0.000 0.000 0.000 0.000 0.000 0.000 0.000 0.000 0.000 0.000 0.000 0.000 0.000 0.000 0.000 0.000 0.000 0.000 0.017 0.112 0.365 2.249 3.908 7.026 9.223 10.121 10.684 9.633 8.344 7.175 5.172 3.435 2.272 1.023 0.777 0.833
0.000 0.000 0.000 0.000 0.000 0.000 0.000 0.000 0.000 0.000 0.000 0.000 0.000 0.000 0.000 0.000 0.000 0.000 0.000 0.000 0.000 0.002 1.371 2.226 2.456 4.763 6.083 8.767 10.659 10.680 9.999 7.999 6.627 5.296 3.549 2.429 1.140 0.522
0.000 0.000 0.000 0.000 0.000 0.000 0.000 0.000 0.000 0.000 0.000 0.000 0.000 0.000 0.000 0.000 0.000 0.000 0.000 0.000 0.000 0.453 1.518 1.715 1.598 2.939 4.492 7.021 11.008 11.518 11.293 9.164 6.954 6.883 5.665 3.999 1.416 0.254
0.000 0.000 0.000 0.000 0.000 0.000 0.000 0.000 0.000 0.000 0.000 0.000 0.000 0.000 0.000 0.000 0.000 0.000 0.000 0.000 0.000 0.244 0.793 1.052 1.086 1.837 2.824 5.170 8.812 10.208 10.784 9.984 8.246 7.661 6.467 4.678 2.261 0.364
0.000 0.000 0.000 0.000 0.000 0.000 0.000 0.000 0.000 0.000 0.000 0.000 0.000 0.000 0.000 0.000 0.000 0.000 0.000 0.000 0.000 0.000 0.074 0.654 0.970 1.136 2.269 3.861 7.464 8.806 9.816 9.858 9.045 8.187 7.125 5.199 3.418 1.181
0.000 0.000 0.000 0.000 0.000 0.000 0.000 0.000 0.000 0.000 0.000 0.000 0.000 0.000 0.000 0.000 0.000 0.000 0.000 0.000 0.000 0.000 0.000 0.315 0.683 0.574 1.373 4.571 6.760 8.651 9.165 9.216 9.507 8.714 7.632 6.011 3.937 2.206
0.000 0.000 0.000 0.000 0.000 0.000 0.000 0.000 0.000 0.000 0.000 0.000 0.000 0.000 0.000 0.000 0.000 0.000 0.000 0.000 0.000 0.000 0.000 0.008 0.282 0.139 1.335 4.482 6.561 7.801 8.693 8.899 9.645 8.422 7.574 6.314 3.790 2.081
0.000 0.000 0.000 0.000 0.000 0.000 0.000 0.000 0.000 0.000 0.000 0.000 0.000 0.000 0.000 0.000 0.000 0.000 0.000 0.000 0.000 0.000 0.000 0.000 0.305 0.724 1.484 3.209 5.255 7.040 8.561 8.780 8.980 8.416 7.423 6.144 3.014 1.795
0.000 0.000 0.000 0.000 0.000 0.000 0.000 0.000 0.000 0.000 0.000 0.000 0.000 0.000 0.000 0.000 0.000 0.000 0.000 0.000 0.000 0.000 0.000 0.000 0.160 0.853 1.516 1.942 3.716 6.365 8.405 9.364 8.770 8.380 7.252 5.706 2.045 2.114
0.000 0.000 0.000 0.000 0.000 0.000 0.000 0.000 0.000 0.000 0.000 0.000 0.000 0.000 0.000 0.000 0.000 0.000 0.000 0.000 0.000 0.000 0.000 0.000 0.017 0.952 1.436 1.532 2.601 5.486 8.781 10.412 9.594 8.593 7.620 5.097 1.899 2.618
0.000 0.000 0.000 0.000 0.000 0.000 0.000 0.000 0.000 0.000 0.000 0.000 0.000 0.000 0.000 0.000 0.000 0.000 0.000 0.000 0.000 0.000 0.000 0.000 0.000 0.433 1.169 1.344 2.223 2.853 7.220 10.551 10.157 9.647 8.332 5.684 2.742 3.381
0.000 0.000 0.000 0.000 0.000 0.000 0.000 0.000 0.000 0.000 0.000 0.000 0.000 0.000 0.000 0.000 0.000 0.000 0.000 0.000 0.000 0.000 0.000 0.000 0.000 0.112 0.745 1.224 2.152 1.818 5.846 10.793 11.043 10.212 8.333 5.839 3.285 3.514
0.000 0.000 0.000 0.000 0.000 0.000 0.000 0.000 0.000 0.000 0.000 0.000 0.000 0.000 0.000 0.000 0.000 0.000 0.000 0.000 0.000 0.000 0.000 0.000 0.000 0.005 0.408 0.947 1.969 1.719 4.057 9.242 10.319 9.361 6.872 4.782 3.356 3.505
0.000 0.000 0.000 0.000 0.000 0.000 0.000 0.000 0.000 0.000 0.000 0.000 0.000 0.000 0.000 0.000 0.000 0.000 0.000 0.000 0.000 0.000 0.000 0.000 0.000 0.000 0.099 0.670 1.296 1.752 2.696 7.714 9.741 8.783 6.097 4.007 3.173 3.166
0.000 0.000 0.000 0.000 0.000 0.000 0.000 0.000 0.000 0.000 0.000 0.000 0.000 0.000 0.000 0.000 0.000 0.000 0.000 0.000 0.000 0.000 0.000 0.000 0.000 0.000 0.000 0.350 1.185 1.704 2.024 5.570 9.447 8.085 6.145 4.456 2.962 2.739
0.000 0.000 0.000 0.000 0.000 0.000 0.000 0.000 0.000 0.000 0.000 0.000 0.000 0.000 0.000 0.000 0.000 0.000 0.000 0.000 0.000 0.000 0.000 0.000 0.000 0.000 0.000 0.048 1.530 1.714 1.809 4.258 7.988 7.636 6.674 4.467 2.998 3.610
0.000 0.000 0.000 0.000 0.000 0.000 0.000 0.000 0.000 0.000 0.000 0.000 0.000 0.000 0.000 0.000 0.000 0.000 0.000 0.000 0.000 0.000 0.000 0.000 0.000 0.000 0.000 0.009 1.382 1.853 2.118 3.573 6.659 7.508 6.160 3.627 3.433 3.401
0.000 0.000 0.000 0.000 0.000 0.000 0.000 0.000 0.000 0.000 0.000 0.000 0.000 0.000 0.000 0.000 0.000 0.000 0.000 0.000 0.000 0.000 0.000 0.000 0.000 0.000 0.000 0.004 1.265 1.638 1.991 3.421 5.482 6.621 5.400 2.931 2.288 1.193
0.000 0.000 0.000 0.000 0.000 0.000 0.000 0.000 0.000 0.000 0.000 0.000 0.000 0.000 0.000 0.000 0.000 0.000 0.000 0.000 0.000 0.000 0.000 0.000 0.000 0.000 0.000 0.006 0.881 1.443 2.063 3.008 3.740 5.061 5.125 1.794 1.159 0.853
0.000 0.000 0.000 0.000 0.000 0.000 0.000 0.000 0.000 0.000 0.000 0.000 0.000 0.000 0.000 0.000 0.000 0.000 0.000 0.000 0.000 0.000 0.000 0.000 0.000 0.000 0.000 0.006 0.788 1.021 2.047 2.427 2.441 3.656 3.605 0.884 1.031 0.915
0.000 0.000 0.000 0.000 0.000 0.000 0.000 0.000 0.000 0.000 0.000 0.000 0.000 0.000 0.000 0.000 0.000 0.000 0.000 0.000 0.000 0.000 0.000 0.000 0.000 0.000 0.000 0.004 0.756 1.026 1.797 1.993 1.931 2.243 3.333 0.531 0.764 0.624
0.000 0.000 0.000 0.000 0.000 0.000 0.000 0.000 0.000 0.000 0.000 0.000 0.000 0.000 0.000 0.000 0.000 0.000 0.000 0.000 0.000 0.000 0.000 0.000 0.000 0.000 0.000 0.006 0.696 1.042 1.602 1.982 2.258 1.787 2.830 0.443 0.656 1.499
0.000 0.000 0.000 0.000 0.000 0.000 0.000 0.000 0.000 0.000 0.000 0.000 0.000 0.000 0.000 0.000 0.000 0.000 0.000 0.000 0.000 0.000 0.000 0.000 0.000 0.000 0.000 0.011 0.756 0.953 1.486 1.618 1.882 1.699 1.006 0.915 1.704 3.023
0.000 0.000 0.000 0.000 0.000 0.000 0.000 0.000 0.000 0.000 0.000 0.000 0.000 0.000 0.000 0.000 0.000 0.000 0.000 0.000 0.000 0.000 0.000 0.000 0.000 0.000 0.000 0.007 0.768 0.970 1.399 1.575 1.252 1.106 0.583 1.180 1.859 2.735
0.000 0.000 0.000 0.000 0.000 0.000 0.000 0.000 0.000 0.000 0.000 0.000 0.000 0.000 0.000 0.000 0.000 0.000 0.000 0.000 0.000 0.000 0.000 0.000 0.000 0.000 0.000 0.005 0.774 0.981 1.054 1.302 0.767 0.757 0.484 0.608 2.064 2.013
