ncols        35
nrows        74
xllcorner    409662.8
yllcorner    6870784.1
cellsize     5.00
NODATA_value -9999
0.000 0.000 0.000 0.000 0.000 0.000 0.000 0.000 0.000 0.000 0.000 0.000 0.000 0.000 0.000 0.000 0.000 0.000 0.000 0.000 0.000 0.000 0.000 0.000 0.000 0.000 0.000 0.000 0.000 0.000 0.000 0.000 0.000 0.000 0.000
0.000 0.001 1.764 46.190 69.449 78.766 88.843 83.127 62.629 12.454 0.126 0.000 0.000 0.000 0.000 0.000 0.000 0.000 0.000 0.000 0.000 0.000 0.000 0.000 0.000 0.000 0.000 0.000 0.000 0.000 0.000 0.000 0.000 0.000 0.000
0.000 1.815 70.600 74.680 72.952 97.486 100.249 93.004 86.906 75.553 41.382 2.250 0.005 0.000 0.000 0.000 0.000 0.000 0.000 0.000 0.000 0.000 0.000 0.000 0.000 0.000 0.000 0.000 0.000 0.000 0.000 0.000 0.000 0.000 0.000
0.341 66.938 74.798 83.129 93.668 110.318 122.405 109.789 108.569 85.901 60.222 61.085 18.909 1.542 0.010 0.000 0.000 0.000 0.000 0.000 0.000 0.000 0.000 0.000 0.000 0.000 0.000 0.000 0.000 0.000 0.000 0.000 0.000 0.000 0.000
5.494 68.650 86.464 96.958 101.065 129.660 129.130 123.328 114.984 87.037 65.704 56.452 56.377 46.166 18.142 1.690 0.000 0.000 0.000 0.000 0.000 0.000 0.000 0.000 0.000 0.000 0.000 0.000 0.000 0.000 0.000 0.000 0.000 0.000 0.000
20.120 75.648 91.169 99.912 109.248 121.854 128.467 128.637 100.839 82.140 67.490 67.570 61.096 56.084 47.330 35.535 2.493 0.000 0.000 0.000 0.000 0.000 0.000 0.000 0.000 0.000 0.000 0.000 0.000 0.000 0.000 0.000 0.000 0.000 0.000
38.437 71.266 86.171 99.699 114.233 118.723 115.469 120.909 93.606 84.293 94.263 74.569 71.146 62.621 45.310 38.959 30.649 0.000 0.000 0.000 0.000 0.000 0.000 0.000 0.000 0.000 0.000 0.000 0.000 0.000 0.000 0.000 0.000 0.000 0.000
46.214 76.920 88.520 106.395 108.992 113.433 124.935 120.642 100.974 96.354 97.046 76.790 87.285 63.752 51.097 49.185 33.515 0.186 0.000 0.000 0.000 0.000 0.000 0.000 0.000 0.000 0.000 0.000 0.000 0.000 0.000 0.000 0.000 0.000 0.000
46.885 67.594 89.824 99.583 95.654 104.196 111.460 113.117 103.983 117.575 95.337 91.346 87.246 76.201 69.162 52.487 36.850 11.347 0.000 0.000 0.000 0.000 0.000 0.000 0.000 0.000 0.000 0.000 0.000 0.000 0.000 0.000 0.000 0.000 0.000
45.620 73.101 82.555 90.177 101.714 105.149 102.834 114.129 113.985 103.993 110.926 101.488 93.840 84.402 61.479 50.677 39.004 21.961 0.000 0.000 0.000 0.000 0.000 0.000 0.000 0.000 0.000 0.000 0.000 0.000 0.000 0.000 0.000 0.000 0.000
36.027 67.939 78.710 88.438 96.504 93.744 95.053 117.202 121.033 93.013 108.414 93.043 106.615 71.601 56.743 42.467 39.476 27.021 0.023 0.000 0.000 0.000 0.000 0.000 0.000 0.000 0.000 0.000 0.000 0.000 0.000 0.000 0.000 0.000 0.000
27.945 57.409 79.124 92.194 89.398 90.248 99.000 108.837 114.182 99.565 117.594 105.355 90.481 61.448 49.497 45.820 43.643 28.696 3.535 0.000 0.000 0.000 0.000 0.000 0.000 0.000 0.000 0.000 0.000 0.000 0.000 0.000 0.000 0.000 0.000
22.578 56.062 73.064 83.650 93.261 95.545 110.477 120.259 103.026 117.029 101.042 88.980 81.806 63.323 55.415 55.047 45.877 31.138 10.315 0.000 0.000 0.000 0.000 0.000 0.000 0.000 0.000 0.000 0.000 0.000 0.000 0.000 0.000 0.000 0.000
14.049 57.940 75.344 94.369 81.136 94.231 116.745 111.657 117.617 116.850 100.706 80.125 73.572 66.434 63.602 58.879 44.160 33.900 14.059 0.003 0.000 0.000 0.000 0.000 0.000 0.000 0.000 0.000 0.000 0.000 0.000 0.000 0.000 0.000 0.000
5.244 44.690 68.855 82.910 96.392 95.200 90.787 101.222 103.682 99.800 86.007 64.448 70.648 63.452 64.773 49.974 49.063 35.471 16.347 1.129 0.000 0.000 0.000 0.000 0.000 0.000 0.000 0.000 0.000 0.000 0.000 0.000 0.000 0.000 0.000
1.286 33.688 61.803 83.304 77.438 83.957 85.812 88.609 90.454 86.263 74.509 65.461 73.621 71.957 64.648 57.818 44.946 31.460 17.347 4.938 0.003 0.000 0.000 0.000 0.000 0.000 0.000 0.000 0.000 0.000 0.000 0.000 0.000 0.000 0.000
0.187 20.428 58.440 64.256 76.631 80.338 58.287 78.924 71.820 75.103 65.423 77.079 82.856 73.826 62.923 55.600 42.552 33.033 19.307 7.035 0.704 0.000 0.000 0.000 0.000 0.000 0.000 0.000 0.000 0.000 0.000 0.000 0.000 0.000 0.000
0.006 6.539 39.128 62.467 66.006 66.974 66.857 66.404 66.868 69.531 74.440 80.786 77.934 57.657 81.602 57.823 41.043 31.942 20.175 8.168 3.448 0.102 0.000 0.000 0.000 0.000 0.000 0.000 0.000 0.000 0.000 0.000 0.000 0.000 0.000
0.000 1.130 22.066 44.295 53.227 51.878 49.394 55.467 68.010 73.054 81.714 72.437 65.040 64.324 72.524 45.163 38.737 30.475 20.468 10.167 6.358 2.006 0.006 0.000 0.000 0.000 0.000 0.000 0.000 0.000 0.000 0.000 0.000 0.000 0.000
0.000 0.038 9.129 34.527 47.124 53.684 53.779 67.381 72.726 69.743 72.882 62.618 61.281 63.103 58.510 42.422 33.187 32.788 20.737 12.231 8.039 4.418 0.848 0.000 0.000 0.000 0.000 0.000 0.000 0.000 0.000 0.000 0.000 0.000 0.000
0.000 0.000 1.001 16.414 28.577 36.631 56.964 62.285 65.327 71.517 61.512 52.279 47.830 55.453 53.431 42.178 37.555 31.193 22.712 13.106 8.643 6.010 2.861 0.217 0.000 0.000 0.000 0.000 0.000 0.000 0.000 0.000 0.000 0.000 0.000
0.000 0.000 0.053 9.165 27.135 36.622 43.628 51.961 58.586 55.008 54.725 47.584 52.623 58.388 64.004 53.401 38.247 30.859 21.034 13.915 8.900 6.686 4.414 2.009 0.001 0.000 0.000 0.000 0.000 0.000 0.000 0.000 0.000 0.000 0.000
0.000 0.000 0.001 2.528 19.141 34.540 43.154 43.846 50.011 56.254 51.817 56.195 53.078 60.949 60.869 44.414 33.571 27.685 21.284 17.321 9.471 7.227 5.240 2.493 0.303 0.000 0.000 0.000 0.000 0.000 0.000 0.000 0.000 0.000 0.000
0.000 0.000 0.000 0.024 6.062 19.083 25.140 35.966 41.672 48.876 49.641 47.644 49.879 60.915 48.870 37.531 30.852 26.363 20.590 16.713 10.348 6.851 4.540 2.514 1.555 0.009 0.000 0.000 0.000 0.000 0.000 0.000 0.000 0.000 0.000
0.000 0.000 0.000 0.000 0.260 12.162 21.666 32.566 38.904 44.110 43.433 42.697 43.888 42.898 35.594 29.300 28.060 20.694 18.708 17.106 12.191 6.980 3.815 2.417 1.807 0.279 0.000 0.000 0.000 0.000 0.000 0.000 0.000 0.000 0.000
0.000 0.000 0.000 0.000 0.009 4.054 15.914 24.917 36.714 39.314 36.554 38.761 40.797 43.865 32.572 28.772 21.540 21.297 20.241 18.713 13.259 6.998 3.340 1.175 1.338 0.386 0.005 0.000 0.000 0.000 0.000 0.000 0.000 0.000 0.000
0.000 0.000 0.000 0.000 0.000 0.540 9.006 18.983 30.990 34.295 31.839 33.476 35.152 37.045 28.008 22.567 20.712 23.813 21.217 19.705 15.207 9.100 2.869 1.428 0.918 0.879 0.233 0.000 0.000 0.000 0.000 0.000 0.000 0.000 0.000
0.000 0.000 0.000 0.000 0.000 0.000 1.824 9.715 15.719 21.036 26.924 31.460 33.660 24.190 22.714 20.725 22.340 24.187 21.128 20.892 17.002 10.350 4.589 1.940 0.991 1.781 0.741 0.003 0.000 0.000 0.000 0.000 0.000 0.000 0.000
0.000 0.000 0.000 0.000 0.000 0.000 0.069 3.490 9.075 17.788 29.928 35.595 29.469 25.491 22.187 22.248 22.490 21.064 22.911 21.633 17.733 12.115 7.543 2.473 1.463 2.106 1.450 0.124 0.000 0.000 0.000 0.000 0.000 0.000 0.000
0.000 0.000 0.000 0.000 0.000 0.000 0.000 0.735 5.558 11.242 19.059 23.784 24.001 21.654 21.938 22.948 22.541 24.174 23.633 23.085 19.564 15.054 9.511 3.095 1.918 2.595 2.127 0.771 0.003 0.000 0.000 0.000 0.000 0.000 0.000
0.000 0.000 0.000 0.000 0.000 0.000 0.000 0.006 1.778 5.725 11.372 20.714 21.828 23.979 21.048 24.060 20.341 24.876 23.346 23.512 19.833 16.483 10.579 5.081 3.246 3.304 2.328 1.791 0.152 0.000 0.000 0.000 0.000 0.000 0.000
0.000 0.000 0.000 0.000 0.000 0.000 0.000 0.000 0.477 4.487 6.660 8.499 19.071 18.853 20.204 17.775 23.326 24.253 22.888 23.103 20.291 18.612 12.765 7.823 4.604 3.492 2.435 2.094 0.855 0.010 0.000 0.000 0.000 0.000 0.000
0.000 0.000 0.000 0.000 0.000 0.000 0.000 0.000 0.009 0.884 3.578 5.513 12.166 17.797 20.170 19.616 21.259 21.882 21.120 22.325 21.827 19.391 14.252 10.039 6.567 4.532 3.309 2.196 1.743 0.458 0.010 0.000 0.000 0.000 0.000
0.000 0.000 0.000 0.000 0.000 0.000 0.000 0.000 0.000 0.015 1.522 3.966 6.216 14.047 16.706 17.916 19.267 18.999 19.756 22.894 21.002 17.816 14.908 12.522 9.358 6.212 4.061 2.501 2.368 1.787 0.460 0.003 0.000 0.000 0.000
0.000 0.000 0.000 0.000 0.000 0.000 0.000 0.000 0.000 0.000 0.117 2.669 4.067 7.674 14.990 15.641 14.860 16.381 20.264 20.921 19.081 17.142 16.014 14.284 12.715 7.920 4.208 2.899 2.811 2.495 1.511 0.186 0.000 0.000 0.000
0.000 0.000 0.000 0.000 0.000 0.000 0.000 0.000 0.000 0.000 0.000 0.972 3.591 4.354 10.191 12.668 12.832 14.324 17.661 18.864 20.102 16.200 16.609 15.190 14.215 9.458 3.961 2.975 2.480 2.895 2.513 0.889 0.059 0.000 0.000
0.000 0.000 0.000 0.000 0.000 0.000 0.000 0.000 0.000 0.000 0.000 0.067 2.091 2.684 3.172 8.794 12.542 14.923 18.829 16.276 16.431 17.291 17.421 15.768 14.318 9.368 6.374 3.541 2.742 3.471 2.857 1.808 0.579 0.013 0.000
0.000 0.000 0.000 0.000 0.000 0.000 0.000 0.000 0.000 0.000 0.000 0.000 0.268 1.925 1.680 6.830 10.590 13.814 15.838 17.054 18.271 17.344 19.015 15.732 15.780 13.057 9.435 4.862 3.317 3.063 2.469 2.535 1.428 0.255 0.000
0.000 0.000 0.000 0.000 0.000 0.000 0.000 0.000 0.000 0.000 0.000 0.000 0.002 1.023 1.289 3.612 9.963 14.109 15.517 17.299 17.516 18.569 17.125 16.259 16.263 15.032 11.207 5.947 3.081 2.123 2.815 2.921 2.032 0.841 0.002
0.000 0.000 0.000 0.000 0.000 0.000 0.000 0.000 0.000 0.000 0.000 0.000 0.000 0.564 1.265 1.887 7.889 13.639 16.274 15.808 17.672 15.830 16.397 16.736 17.967 14.982 11.272 6.371 3.069 2.442 2.862 2.722 2.088 1.439 0.827
0.000 0.000 0.000 0.000 0.000 0.000 0.000 0.000 0.000 0.000 0.000 0.000 0.000 0.063 1.202 1.450 5.128 10.357 14.527 14.790 14.950 16.440 17.659 17.770 17.630 14.305 11.469 6.265 2.999 2.498 2.304 2.304 1.840 1.783 1.688
0.000 0.000 0.000 0.000 0.000 0.000 0.000 0.000 0.000 0.000 0.000 0.000 0.000 0.002 0.916 2.166 3.497 7.136 12.444 12.825 14.637 14.760 17.551 17.537 16.241 14.842 10.039 5.759 3.796 2.721 1.875 1.971 1.457 1.851 2.088
0.000 0.000 0.000 0.000 0.000 0.000 0.000 0.000 0.000 0.000 0.000 0.000 0.000 0.001 0.219 1.542 1.488 4.211 6.622 10.271 10.292 13.909 16.096 17.998 17.097 14.763 10.509 6.762 4.635 2.949 1.716 1.462 1.707 2.325 2.240
0.000 0.000 0.000 0.000 0.000 0.000 0.000 0.000 0.000 0.000 0.000 0.000 0.000 0.000 0.032 0.002 1.752 1.650 1.841 6.268 9.902 13.853 17.462 18.189 17.886 14.836 11.977 7.412 5.016 3.278 2.208 1.130 1.571 2.489 2.485
0.000 0.000 0.000 0.000 0.000 0.000 0.000 0.000 0.000 0.000 0.000 0.000 0.000 0.000 0.000 0.370 1.679 1.066 0.188 3.934 9.164 13.967 17.027 17.913 17.473 15.409 13.533 7.404 5.680 4.101 2.275 1.290 2.101 2.706 2.596
0.000 0.000 0.000 0.000 0.000 0.000 0.000 0.000 0.000 0.000 0.000 0.000 0.000 0.000 0.000 0.158 1.001 0.965 0.001 0.924 8.919 14.025 16.187 16.528 18.082 16.364 12.760 7.818 6.735 4.609 2.989 2.424 2.371 2.868 2.750
0.000 0.000 0.000 0.000 0.000 0.000 0.000 0.000 0.000 0.000 0.000 0.000 0.000 0.000 0.000 0.023 0.244 0.784 0.554 0.949 9.869 13.068 16.800 18.011 18.465 15.871 10.970 10.498 7.348 5.206 3.925 2.635 1.985 2.432 2.707
0.000 0.000 0.000 0.000 0.000 0.000 0.000 0.000 0.000 0.000 0.000 0.000 0.000 0.000 0.000 0.000 0.121 0.271 0.464 2.733 7.702 13.643 16.071 19.850 17.640 16.451 14.474 11.636 8.396 6.618 4.793 3.110 2.667 2.535 2.883
0.000 0.000 0.000 0.000 0.000 0.000 0.000 0.000 0.000 0.000 0.000 0.000 0.000 0.000 0.000 0.000 0.013 0.177 0.622 3.002 5.113 9.598 13.699 15.591 16.747 15.733 14.102 12.807 10.034 7.763 6.223 4.082 3.287 3.192 2.715
0.000 0.000 0.000 0.000 0.000 0.000 0.000 0.000 0.000 0.000 0.000 0.000 0.000 0.000 0.000 0.000 0.000 0.013 1.802 3.026 3.324 6.320 9.194 13.528 15.994 16.401 15.722 13.339 11.771 9.907 7.678 6.013 4.416 3.962 3.060
0.000 0.000 0.000 0.000 0.000 0.000 0.000 0.000 0.000 0.000 0.000 0.000 0.000 0.000 0.000 0.000 0.000 0.476 1.949 2.299 2.139 3.999 6.919 11.014 16.326 17.272 17.123 14.523 11.741 11.704 10.284 8.233 5.279 4.235 2.614
0.000 0.000 0.000 0.000 0.000 0.000 0.000 0.000 0.000 0.000 0.000 0.000 0.000 0.000 0.000 0.000 0.000 0.192 0.921 1.357 1.396 2.350 4.251 8.384 13.355 15.576 16.378 15.293 13.015 12.608 11.413 9.569 6.804 5.347 4.214
0.000 0.000 0.000 0.000 0.000 0.000 0.000 0.000 0.000 0.000 0.000 0.000 0.000 0.000 0.000 0.000 0.000 0.000 0.066 0.805 1.250 1.440 3.116 5.955 11.240 13.452 15.017 15.037 13.757 13.098 12.367 10.711 9.279 7.962 5.481
0.000 0.000 0.000 0.000 0.000 0.000 0.000 0.000 0.000 0.000 0.000 0.000 0.000 0.000 0.000 0.000 0.000 0.000 0.000 0.355 0.876 0.751 1.677 6.025 9.709 12.931 14.045 14.144 14.097 13.698 13.249 12.206 10.992 11.146 6.641
0.000 0.000 0.000 0.000 0.000 0.000 0.000 0.000 0.000 0.000 0.000 0.000 0.000 0.000 0.000 0.000 0.000 0.000 0.000 0.007 0.353 0.249 1.528 5.242 8.928 11.528 13.148 13.606 14.255 13.182 13.358 13.340 13.234 11.750 6.918
0.000 0.000 0.000 0.000 0.000 0.000 0.000 0.000 0.000 0.000 0.000 0.000 0.000 0.000 0.000 0.000 0.000 0.000 0.000 0.000 0.350 0.930 1.799 3.559 6.587 10.041 12.696 13.195 13.434 13.042 13.301 13.657 13.354 11.321 6.983
0.000 0.000 0.000 0.000 0.000 0.000 0.000 0.000 0.000 0.000 0.000 0.000 0.000 0.000 0.000 0.000 0.000 0.000 0.000 0.000 0.161 1.061 1.921 2.292 4.267 8.632 11.894 13.456 12.830 12.843 13.044 13.686 12.548 12.563 7.868
0.000 0.000 0.000 0.000 0.000 0.000 0.000 0.000 0.000 0.000 0.000 0.000 0.000 0.000 0.000 0.000 0.000 0.000 0.000 0.000 0.013 1.122 1.827 1.969 3.017 6.671 11.939 14.410 13.578 12.694 13.302 12.859 12.167 13.185 8.024
0.000 0.000 0.000 0.000 0.000 0.000 0.000 0.000 0.000 0.000 0.000 0.000 0.000 0.000 0.000 0.000 0.000 0.000 0.000 0.000 0.000 0.447 1.452 1.727 2.719 3.385 9.598 14.103 13.822 13.453 13.833 13.294 13.242 11.170 7.785
0.000 0.000 0.000 0.000 0.000 0.000 0.000 0.000 0.000 0.000 0.000 0.000 0.000 0.000 0.000 0.000 0.000 0.000 0.000 0.000 0.000 0.093 0.876 1.571 2.634 2.240 7.618 14.147 14.723 13.831 13.676 12.992 12.806 10.147 6.925
0.000 0.000 0.000 0.000 0.000 0.000 0.000 0.000 0.000 0.000 0.000 0.000 0.000 0.000 0.000 0.000 0.000 0.000 0.000 0.000 0.000 0.003 0.437 1.190 2.427 2.130 4.857 11.980 13.732 12.523 11.108 11.024 11.443 9.242 7.345
0.000 0.000 0.000 0.000 0.000 0.000 0.000 0.000 0.000 0.000 0.000 0.000 0.000 0.000 0.000 0.000 0.000 0.000 0.000 0.000 0.000 0.000 0.088 0.803 1.640 2.146 3.202 10.001 12.854 11.650 9.268 8.671 9.488 7.930 6.049
0.000 0.000 0.000 0.000 0.000 0.000 0.000 0.000 0.000 0.000 0.000 0.000 0.000 0.000 0.000 0.000 0.000 0.000 0.000 0.000 0.000 0.000 0.000 0.388 1.485 2.092 2.457 7.239 12.464 10.742 8.566 7.877 6.883 6.432 4.872
0.000 0.000 0.000 0.000 0.000 0.000 0.000 0.000 0.000 0.000 0.000 0.000 0.000 0.000 0.000 0.000 0.000 0.000 0.000 0.000 0.000 0.000 0.000 0.042 1.890 2.084 2.190 5.591 10.727 10.168 8.784 7.092 5.931 6.938 4.894
0.000 0.000 0.000 0.000 0.000 0.000 0.000 0.000 0.000 0.000 0.000 0.000 0.000 0.000 0.000 0.000 0.000 0.000 0.000 0.000 0.000 0.000 0.000 0.007 1.694 2.248 2.519 4.460 9.032 10.081 8.111 5.696 6.104 6.564 2.999
0.000 0.000 0.000 0.000 0.000 0.000 0.000 0.000 0.000 0.000 0.000 0.000 0.000 0.000 0.000 0.000 0.000 0.000 0.000 0.000 0.000 0.000 0.000 0.003 1.543 1.980 2.378 4.130 7.629 9.389 7.186 4.604 4.682 3.351 1.815
0.000 0.000 0.000 0.000 0.000 0.000 0.000 0.000 0.000 0.000 0.000 0.000 0.000 0.000 0.000 0.000 0.000 0.000 0.000 0.000 0.000 0.000 0.000 0.005 1.082 1.741 2.449 3.627 5.555 7.852 7.004 3.176 2.997 2.916 2.275
0.000 0.000 0.000 0.000 0.000 0.000 0.000 0.000 0.000 0.000 0.000 0.000 0.000 0.000 0.000 0.000 0.000 0.000 0.000 0.000 0.000 0.000 0.000 0.005 0.964 1.248 2.449 3.054 3.683 6.771 5.453 2.130 2.730 2.986 2.661
0.000 0.000 0.000 0.000 0.000 0.000 0.000 0.000 0.000 0.000 0.000 0.000 0.000 0.000 0.000 0.000 0.000 0.000 0.000 0.000 0.000 0.000 0.000 0.003 0.928 1.248 2.205 2.586 2.861 4.274 5.240 1.761 2.619 2.719 3.032
0.000 0.000 0.000 0.000 0.000 0.000 0.000 0.000 0.000 0.000 0.000 0.000 0.000 0.000 0.000 0.000 0.000 0.000 0.000 0.000 0.000 0.000 0.000 0.004 0.851 1.272 2.052 2.640 3.100 3.017 4.863 1.808 2.492 3.856 4.744
0.000 0.000 0.000 0.000 0.000 0.000 0.000 0.000 0.000 0.000 0.000 0.000 0.000 0.000 0.000 0.000 0.000 0.000 0.000 0.000 0.000 0.000 0.000 0.009 0.927 1.188 2.015 2.303 2.675 2.758 3.509 2.510 3.705 5.978 5.131
0.000 0.000 0.000 0.000 0.000 0.000 0.000 0.000 0.000 0.000 0.000 0.000 0.000 0.000 0.000 0.000 0.000 0.000 0.000 0.000 0.000 0.000 0.000 0.005 0.943 1.251 2.030 2.355 2.005 2.027 3.372 3.116 3.787 5.360 4.275
0.000 0.000 0.000 0.000 0.000 0.000 0.000 0.000 0.000 0.000 0.000 0.000 0.000 0.000 0.000 0.000 0.000 0.000 0.000 0.000 0.000 0.000 0.000 0.004 0.963 1.324 1.714 2.078 1.421 1.500 3.036 2.916 3.814 3.975 3.034
0.000 0.000 0.000 0.000 0.000 0.000 0.000 0.000 0.000 0.000 0.000 0.000 0.000 0.000 0.000 0.000 0.000 0.000 0.000 0.000 0.000 0.000 0.000 0.004 0.868 1.062 1.394 1.548 1.145 0.967 1.794 1.946 3.045 2.943 3.140
