ncols        32
nrows        37
xllcorner    409847.8
yllcorner    6870514.1
cellsize     5.00
NODATA_value -9999
0.000 0.000 0.000 0.000 0.000 0.000 0.000 0.000 0.000 0.000 0.000 0.000 0.000 0.000 0.000 0.013 0.571 3.587 6.875 6.610 2.902 0.526 0.025 0.000 0.000 0.000 0.000 0.000 0.000 0.000 0.000 0.000
0.000 0.000 0.000 0.000 0.000 0.000 0.000 0.000 0.000 0.000 0.000 0.000 0.000 0.202 10.795 53.502 65.682 67.668 68.735 67.007 67.478 62.697 23.796 3.666 0.112 0.000 0.000 0.000 0.000 0.000 0.000 0.000
0.000 0.000 0.000 0.000 0.000 0.000 0.000 0.000 0.000 0.000 0.000 0.000 0.545 54.670 62.911 67.909 71.357 74.950 81.189 77.950 76.164 72.835 67.383 57.804 21.127 1.920 0.010 0.000 0.000 0.000 0.000 0.000
0.000 0.000 0.000 0.000 0.000 0.000 0.000 0.000 0.000 0.000 0.000 0.187 50.074 68.775 72.755 77.264 81.697 84.537 92.350 96.117 92.843 94.939 80.276 72.274 57.238 30.211 5.990 0.122 0.000 0.000 0.000 0.000
0.000 0.000 0.000 0.000 0.000 0.000 0.000 0.000 0.000 0.000 0.000 5.489 67.295 77.297 84.551 85.379 86.363 96.215 107.108 100.892 103.434 98.812 96.879 87.224 62.941 51.340 29.091 9.908 0.525 0.001 0.000 0.000
0.000 0.000 0.000 0.000 0.000 0.000 0.000 0.000 0.000 0.000 0.154 66.284 74.606 84.009 91.489 95.865 96.508 104.747 108.977 109.788 109.251 107.803 104.113 92.358 78.639 65.067 38.341 27.975 11.752 1.567 0.012 0.000
0.000 0.000 0.000 0.000 0.000 0.000 0.000 0.000 0.000 0.000 2.370 67.009 80.009 93.746 99.199 105.163 108.649 109.279 107.134 113.996 115.478 128.628 103.886 110.798 90.452 73.899 58.574 34.436 21.599 13.004 2.874 0.078
0.000 0.000 0.000 0.000 0.000 0.000 0.000 0.000 0.000 0.000 8.541 71.942 86.181 97.790 112.681 111.841 105.498 106.768 111.870 117.560 134.521 123.012 117.057 102.083 107.337 85.193 73.974 43.101 24.221 21.920 12.164 3.905
0.000 0.000 0.000 0.000 0.000 0.000 0.000 0.000 0.000 0.000 16.260 73.682 92.291 105.576 109.662 111.729 113.441 109.759 110.650 118.958 135.594 114.889 108.561 112.099 114.951 95.845 80.971 50.014 27.681 22.208 14.630 10.559
0.000 0.000 0.000 0.000 0.000 0.000 0.000 0.000 0.000 0.001 20.516 71.759 82.660 99.261 109.175 122.554 119.744 112.992 113.888 122.762 130.248 117.518 127.362 126.113 107.620 104.138 76.939 59.415 31.722 21.298 14.727 12.910
0.000 0.000 0.000 0.000 0.000 0.000 0.000 0.000 0.000 0.002 20.399 72.958 92.488 101.626 123.818 125.174 122.105 116.627 113.537 123.890 126.516 119.515 129.189 120.132 104.804 103.621 86.370 71.432 33.965 20.802 14.865 12.137
0.000 0.000 0.000 0.000 0.000 0.000 0.000 0.000 0.000 0.002 20.156 68.093 83.550 100.374 114.022 121.555 122.256 118.576 118.067 123.585 120.387 116.376 124.346 118.913 116.776 102.776 95.058 74.046 35.823 19.847 15.225 10.866
0.000 0.000 0.000 0.000 0.000 0.000 0.000 0.000 0.000 0.005 25.530 70.944 89.159 103.424 109.352 117.978 124.642 123.870 124.490 121.406 107.718 122.547 121.939 118.462 117.980 100.315 95.849 65.552 36.489 20.809 15.396 10.467
0.000 0.000 0.000 0.000 0.000 0.000 0.000 0.000 0.000 0.056 61.161 69.564 88.890 92.190 106.854 118.634 130.099 136.820 138.497 132.230 129.826 128.886 130.392 110.866 115.438 93.632 87.714 61.809 42.446 21.258 16.211 11.999
0.000 0.000 0.000 0.000 0.000 0.000 0.000 0.000 0.000 0.406 58.286 70.936 89.815 102.226 105.746 130.059 132.446 143.828 144.060 131.571 130.360 122.944 113.586 109.329 102.983 86.477 95.188 68.651 50.965 25.352 18.610 11.003
0.000 0.000 0.000 0.000 0.000 0.000 0.000 0.002 0.028 8.323 56.339 79.420 97.280 119.461 129.603 122.783 130.182 133.581 136.793 135.208 123.558 107.221 96.262 106.644 95.944 104.308 99.754 76.616 62.887 34.013 18.769 9.224
0.000 0.000 0.000 0.001 0.739 15.277 29.642 35.191 39.621 52.223 57.532 74.125 98.256 108.618 111.313 114.352 113.288 133.446 132.855 141.839 135.900 110.581 92.431 93.953 102.532 109.605 98.653 88.638 77.411 44.916 16.396 8.164
0.000 0.000 0.035 11.833 75.698 72.992 74.543 69.799 62.977 58.240 62.555 82.305 96.900 105.847 97.790 104.112 116.137 130.763 144.470 142.014 141.099 126.289 107.200 110.726 122.089 110.333 91.858 88.786 89.601 46.125 16.898 7.902
0.000 0.001 5.192 75.505 80.632 86.567 87.941 83.347 76.672 69.066 72.627 81.418 95.905 99.239 92.213 101.993 118.881 127.658 142.781 152.756 148.973 149.508 113.416 109.286 98.250 97.424 87.935 94.334 76.022 44.207 20.311 6.417
0.000 0.492 78.166 83.423 91.285 98.590 101.514 97.721 84.927 82.807 87.504 89.715 102.522 98.883 97.261 101.367 114.335 131.110 146.464 157.592 159.055 152.971 115.688 90.671 91.306 86.537 100.172 99.194 64.977 50.204 19.715 7.295
0.000 6.890 78.611 92.263 105.874 114.912 118.243 104.405 99.834 96.497 97.515 101.118 114.427 110.108 101.635 110.045 111.876 140.101 159.723 157.038 162.328 187.790 128.074 101.893 92.253 104.513 105.103 85.833 66.825 47.501 26.850 12.444
0.008 33.449 84.098 99.708 111.275 123.289 120.047 117.857 112.374 103.707 103.988 105.071 118.456 119.389 114.526 108.180 140.804 174.057 163.736 168.214 172.642 184.728 132.718 119.199 112.312 106.248 95.038 78.678 64.879 50.726 40.520 14.508
0.218 77.732 82.958 99.560 116.812 124.400 130.220 128.608 112.872 100.260 103.490 109.769 121.220 132.463 119.190 120.505 134.825 173.482 156.518 165.368 176.810 178.056 135.304 109.911 90.386 84.203 83.010 72.727 66.323 52.210 42.371 11.527
0.891 76.659 100.666 117.572 118.712 134.479 141.311 123.932 114.596 107.220 121.303 117.963 128.315 133.127 125.963 140.466 166.006 167.846 168.365 169.716 163.826 181.484 146.867 101.009 99.618 85.407 78.099 66.133 57.724 62.708 47.521 16.345
1.571 79.818 101.020 126.781 140.766 142.333 134.679 119.607 111.161 103.756 122.783 119.223 134.877 147.761 148.030 161.398 163.866 172.783 168.803 166.940 170.313 189.096 159.489 105.654 97.465 83.540 74.116 62.387 67.008 68.988 53.926 17.288
1.651 75.366 102.546 125.718 138.408 133.511 133.266 124.255 128.492 136.651 134.553 125.136 131.983 153.872 161.592 154.611 166.492 175.121 159.781 167.077 167.145 202.807 148.069 102.448 88.887 70.504 69.584 70.939 80.783 77.689 54.956 18.549
1.119 67.907 97.880 114.000 142.770 140.390 130.563 142.839 146.619 140.977 143.774 132.443 148.429 176.587 162.770 149.094 156.274 166.744 185.582 173.798 183.946 194.817 141.848 98.575 77.453 80.252 71.239 80.459 82.545 78.197 60.857 22.679
0.534 50.607 84.946 118.051 130.733 137.030 148.333 132.027 149.217 139.482 136.185 135.110 171.020 187.323 178.328 184.566 209.706 185.305 191.936 181.839 156.494 175.332 139.774 100.248 70.448 64.788 76.750 78.915 81.644 76.969 64.958 24.442
0.195 38.565 91.655 122.844 140.749 149.707 149.836 143.064 161.696 149.485 138.892 138.071 176.883 193.689 179.039 183.159 206.509 212.455 203.081 162.566 155.045 166.219 137.290 91.396 72.888 60.440 63.790 74.752 72.831 70.633 59.673 35.014
0.045 24.568 79.581 120.529 143.945 155.335 140.908 159.673 160.947 130.685 138.051 138.846 175.349 192.752 180.450 192.572 202.916 196.891 206.336 171.904 149.436 164.547 134.733 93.015 67.789 59.413 62.425 66.427 66.187 71.100 87.166 40.354
0.006 12.433 63.112 104.326 135.439 142.522 144.299 151.863 142.814 143.668 151.713 144.040 178.322 186.526 166.802 173.630 178.800 172.036 197.116 175.186 151.736 161.144 125.108 75.707 60.756 50.280 58.396 57.154 56.458 83.590 86.335 25.823
0.000 4.690 48.165 88.014 116.580 127.938 136.425 144.906 150.260 124.903 128.262 120.470 162.863 195.008 181.300 181.960 246.156 243.599 205.167 165.463 154.100 186.622 119.555 63.373 50.993 38.525 45.512 40.157 44.573 55.249 54.407 16.827
0.000 1.318 35.952 68.063 98.350 115.159 127.022 120.827 124.634 128.763 149.993 158.274 226.323 238.492 237.020 225.255 207.373 174.779 191.464 134.510 109.729 133.005 89.739 43.734 41.009 34.051 31.291 36.682 38.765 38.233 32.803 12.640
0.000 0.310 25.010 45.196 78.509 108.877 109.659 107.461 139.111 133.427 85.642 88.525 204.768 200.351 157.792 140.539 140.231 141.812 128.155 73.187 47.441 91.610 66.793 33.027 28.704 18.854 27.127 31.755 20.492 20.955 32.293 10.379
0.000 0.100 17.553 32.958 57.994 80.195 89.966 122.496 112.379 76.792 55.169 43.228 126.120 114.569 84.250 72.833 54.754 75.004 67.979 36.346 36.748 72.155 43.596 24.104 20.999 21.898 24.604 18.629 17.911 13.783 15.914 7.449
0.000 0.078 13.736 26.878 36.229 50.696 45.593 39.205 47.166 39.468 32.268 25.402 90.249 41.652 50.664 42.244 30.964 31.234 31.039 29.243 28.585 35.336 26.032 22.236 26.236 20.956 15.707 14.859 10.721 7.435 7.672 6.554
0.000 0.108 11.145 25.041 32.520 39.013 34.336 34.044 26.925 19.690 20.615 23.782 32.311 20.676 17.303 18.350 19.391 19.640 14.403 12.821 13.762 19.601 18.276 20.628 15.250 11.784 9.261 9.732 7.953 6.896 5.841 6.675
