ncols        41
nrows        108
xllcorner    409612.8
yllcorner    6870834.1
cellsize     5.00
NODATA_value -9999
0.000 0.000 0.000 0.000 0.000 0.000 0.000 0.000 0.000 0.000 0.000 0.000 0.000 0.000 0.000 0.000 0.000 0.000 0.000 0.000 0.000 0.000 0.000 0.000 0.000 0.000 0.000 0.000 0.000 0.000 0.000 0.000 0.000 0.000 0.000 0.000 0.000 0.000 0.000 0.000 0.000
0.000 0.000 0.466 58.448 89.144 80.809 65.174 0.094 0.000 0.000 0.000 0.000 0.000 0.000 0.000 0.000 0.000 0.000 0.000 0.000 0.000 0.000 0.000 0.000 0.000 0.000 0.000 0.000 0.000 0.000 0.000 0.000 0.000 0.000 0.000 0.000 0.000 0.000 0.000 0.000 0.000
0.000 0.303 66.558 105.229 107.715 101.636 88.139 52.578 0.000 0.000 0.000 0.000 0.000 0.000 0.000 0.000 0.000 0.000 0.000 0.000 0.000 0.000 0.000 0.000 0.000 0.000 0.000 0.000 0.000 0.000 0.000 0.000 0.000 0.000 0.000 0.000 0.000 0.000 0.000 0.000 0.000
0.000 12.494 106.604 114.183 119.359 122.400 111.618 86.362 6.133 0.000 0.000 0.000 0.000 0.000 0.000 0.000 0.000 0.000 0.000 0.000 0.000 0.000 0.000 0.000 0.000 0.000 0.000 0.000 0.000 0.000 0.000 0.000 0.000 0.000 0.000 0.000 0.000 0.000 0.000 0.000 0.000
0.035 72.094 114.223 124.934 131.389 134.693 123.843 100.388 71.695 0.012 0.000 0.000 0.000 0.000 0.000 0.000 0.000 0.000 0.000 0.000 0.000 0.000 0.000 0.000 0.000 0.000 0.000 0.000 0.000 0.000 0.000 0.000 0.000 0.000 0.000 0.000 0.000 0.000 0.000 0.000 0.000
0.479 109.671 116.360 136.033 155.065 145.734 148.545 131.734 88.976 13.767 0.000 0.000 0.000 0.000 0.000 0.000 0.000 0.000 0.000 0.000 0.000 0.000 0.000 0.000 0.000 0.000 0.000 0.000 0.000 0.000 0.000 0.000 0.000 0.000 0.000 0.000 0.000 0.000 0.000 0.000 0.000
1.446 104.796 126.919 132.444 146.301 135.493 156.918 122.731 97.193 58.813 0.164 0.000 0.000 0.000 0.000 0.000 0.000 0.000 0.000 0.000 0.000 0.000 0.000 0.000 0.000 0.000 0.000 0.000 0.000 0.000 0.000 0.000 0.000 0.000 0.000 0.000 0.000 0.000 0.000 0.000 0.000
1.614 107.753 122.768 141.365 156.035 155.147 146.950 123.955 106.734 75.158 22.489 0.000 0.000 0.000 0.000 0.000 0.000 0.000 0.000 0.000 0.000 0.000 0.000 0.000 0.000 0.000 0.000 0.000 0.000 0.000 0.000 0.000 0.000 0.000 0.000 0.000 0.000 0.000 0.000 0.000 0.000
0.817 97.929 116.964 144.900 139.352 146.950 139.436 131.416 107.620 79.448 55.309 0.000 0.000 0.000 0.000 0.000 0.000 0.000 0.000 0.000 0.000 0.000 0.000 0.000 0.000 0.000 0.000 0.000 0.000 0.000 0.000 0.000 0.000 0.000 0.000 0.000 0.000 0.000 0.000 0.000 0.000
0.207 68.730 128.599 128.013 156.462 156.263 132.829 125.790 101.012 102.542 66.208 0.001 0.000 0.000 0.000 0.000 0.000 0.000 0.000 0.000 0.000 0.000 0.000 0.000 0.000 0.000 0.000 0.000 0.000 0.000 0.000 0.000 0.000 0.000 0.000 0.000 0.000 0.000 0.000 0.000 0.000
0.018 30.694 114.451 136.606 139.550 153.836 143.161 109.448 103.718 103.196 68.283 3.965 0.000 0.000 0.000 0.000 0.000 0.000 0.000 0.000 0.000 0.000 0.000 0.000 0.000 0.000 0.000 0.000 0.000 0.000 0.000 0.000 0.000 0.000 0.000 0.000 0.000 0.000 0.000 0.000 0.000
0.000 8.827 90.613 121.756 137.296 152.009 128.424 107.317 103.106 134.008 74.485 23.304 0.000 0.000 0.000 0.000 0.000 0.000 0.000 0.000 0.000 0.000 0.000 0.000 0.000 0.000 0.000 0.000 0.000 0.000 0.000 0.000 0.000 0.000 0.000 0.000 0.000 0.000 0.000 0.000 0.000
0.000 2.081 86.114 113.106 138.700 140.430 119.684 96.922 129.652 126.577 81.622 36.363 0.000 0.000 0.000 0.000 0.000 0.000 0.000 0.000 0.000 0.000 0.000 0.000 0.000 0.000 0.000 0.000 0.000 0.000 0.000 0.000 0.000 0.000 0.000 0.000 0.000 0.000 0.000 0.000 0.000
0.000 1.072 64.155 91.785 117.437 126.811 108.232 96.410 150.355 127.810 92.966 40.271 0.000 0.000 0.000 0.000 0.000 0.000 0.000 0.000 0.000 0.000 0.000 0.000 0.000 0.000 0.000 0.000 0.000 0.000 0.000 0.000 0.000 0.000 0.000 0.000 0.000 0.000 0.000 0.000 0.000
0.000 2.737 50.774 68.883 116.593 117.227 106.610 134.050 151.785 128.698 99.341 43.681 0.000 0.000 0.000 0.000 0.000 0.000 0.000 0.000 0.000 0.000 0.000 0.000 0.000 0.000 0.000 0.000 0.000 0.000 0.000 0.000 0.000 0.000 0.000 0.000 0.000 0.000 0.000 0.000 0.000
0.000 5.662 49.723 73.886 120.567 135.400 137.078 138.694 153.063 122.458 91.894 48.560 0.203 0.000 0.000 0.000 0.000 0.000 0.000 0.000 0.000 0.000 0.000 0.000 0.000 0.000 0.000 0.000 0.000 0.000 0.000 0.000 0.000 0.000 0.000 0.000 0.000 0.000 0.000 0.000 0.000
0.002 7.311 41.900 74.059 116.354 127.360 133.980 118.998 139.102 110.247 94.990 60.877 5.071 0.000 0.000 0.000 0.000 0.000 0.000 0.000 0.000 0.000 0.000 0.000 0.000 0.000 0.000 0.000 0.000 0.000 0.000 0.000 0.000 0.000 0.000 0.000 0.000 0.000 0.000 0.000 0.000
0.003 8.073 36.888 65.073 94.562 122.941 130.134 113.586 126.146 113.365 103.593 68.547 11.272 0.000 0.000 0.000 0.000 0.000 0.000 0.000 0.000 0.000 0.000 0.000 0.000 0.000 0.000 0.000 0.000 0.000 0.000 0.000 0.000 0.000 0.000 0.000 0.000 0.000 0.000 0.000 0.000
0.006 8.770 38.200 63.020 84.943 119.805 119.681 121.697 114.616 114.654 111.262 75.537 23.852 0.019 0.000 0.000 0.000 0.000 0.000 0.000 0.000 0.000 0.000 0.000 0.000 0.000 0.000 0.000 0.000 0.000 0.000 0.000 0.000 0.000 0.000 0.000 0.000 0.000 0.000 0.000 0.000
0.010 9.777 35.856 60.501 76.238 107.495 108.951 111.208 115.741 118.567 116.999 80.788 36.480 3.179 0.000 0.000 0.000 0.000 0.000 0.000 0.000 0.000 0.000 0.000 0.000 0.000 0.000 0.000 0.000 0.000 0.000 0.000 0.000 0.000 0.000 0.000 0.000 0.000 0.000 0.000 0.000
0.012 10.293 34.773 59.001 77.150 93.437 109.098 106.823 122.045 121.630 124.453 86.426 48.460 12.726 0.000 0.000 0.000 0.000 0.000 0.000 0.000 0.000 0.000 0.000 0.000 0.000 0.000 0.000 0.000 0.000 0.000 0.000 0.000 0.000 0.000 0.000 0.000 0.000 0.000 0.000 0.000
0.010 10.448 34.336 56.148 79.394 88.956 116.684 118.348 113.956 129.902 126.292 107.061 68.456 22.044 0.679 0.000 0.000 0.000 0.000 0.000 0.000 0.000 0.000 0.000 0.000 0.000 0.000 0.000 0.000 0.000 0.000 0.000 0.000 0.000 0.000 0.000 0.000 0.000 0.000 0.000 0.000
0.013 9.470 31.728 55.301 81.427 110.396 125.915 147.367 155.913 148.978 134.584 115.323 67.085 26.243 7.482 0.035 0.000 0.000 0.000 0.000 0.000 0.000 0.000 0.000 0.000 0.000 0.000 0.000 0.000 0.000 0.000 0.000 0.000 0.000 0.000 0.000 0.000 0.000 0.000 0.000 0.000
0.020 8.540 30.139 46.389 67.282 93.598 123.598 139.370 139.729 126.578 126.720 115.252 66.976 30.497 16.341 6.080 0.497 0.000 0.000 0.000 0.000 0.000 0.000 0.000 0.000 0.000 0.000 0.000 0.000 0.000 0.000 0.000 0.000 0.000 0.000 0.000 0.000 0.000 0.000 0.000 0.000
0.010 8.248 25.482 42.911 71.820 101.019 124.692 166.655 161.618 109.046 140.499 102.233 73.484 35.361 25.147 19.042 12.449 1.599 0.001 0.000 0.000 0.000 0.000 0.000 0.000 0.000 0.000 0.000 0.000 0.000 0.000 0.000 0.000 0.000 0.000 0.000 0.000 0.000 0.000 0.000 0.000
0.001 6.673 21.650 40.268 67.277 90.959 110.318 143.436 151.804 137.047 125.103 101.697 76.409 42.504 28.326 23.420 21.961 15.695 1.972 0.000 0.000 0.000 0.000 0.000 0.000 0.000 0.000 0.000 0.000 0.000 0.000 0.000 0.000 0.000 0.000 0.000 0.000 0.000 0.000 0.000 0.000
0.001 5.444 15.544 33.096 50.285 84.934 108.372 130.334 137.493 125.316 117.234 101.963 79.938 49.092 29.422 26.113 25.832 25.679 15.561 0.108 0.000 0.000 0.000 0.000 0.000 0.000 0.000 0.000 0.000 0.000 0.000 0.000 0.000 0.000 0.000 0.000 0.000 0.000 0.000 0.000 0.000
0.003 4.966 14.674 27.277 48.786 66.052 89.732 121.535 140.720 137.422 124.132 104.809 82.818 56.497 34.560 28.159 25.529 30.906 18.210 5.112 0.000 0.000 0.000 0.000 0.000 0.000 0.000 0.000 0.000 0.000 0.000 0.000 0.000 0.000 0.000 0.000 0.000 0.000 0.000 0.000 0.000
0.021 4.525 14.606 21.832 39.080 62.351 84.900 106.504 126.691 141.813 119.406 115.671 87.601 59.762 41.701 29.373 30.541 36.987 22.281 14.242 0.657 0.000 0.000 0.000 0.000 0.000 0.000 0.000 0.000 0.000 0.000 0.000 0.000 0.000 0.000 0.000 0.000 0.000 0.000 0.000 0.000
0.005 3.452 11.517 18.420 36.436 56.032 77.431 109.754 128.760 153.424 135.218 107.587 90.447 67.973 48.310 30.759 29.842 27.700 28.866 19.430 6.447 0.076 0.000 0.000 0.000 0.000 0.000 0.000 0.000 0.000 0.000 0.000 0.000 0.000 0.000 0.000 0.000 0.000 0.000 0.000 0.000
0.000 2.087 10.983 16.364 26.921 52.267 76.985 109.871 128.589 141.057 139.527 110.406 88.242 74.036 56.783 35.886 29.702 25.716 28.267 17.852 13.223 2.766 0.000 0.000 0.000 0.000 0.000 0.000 0.000 0.000 0.000 0.000 0.000 0.000 0.000 0.000 0.000 0.000 0.000 0.000 0.000
0.000 0.894 9.012 12.713 20.105 44.457 74.817 93.323 127.082 136.546 142.517 134.932 116.069 82.241 67.518 37.960 32.758 31.545 29.360 21.058 16.181 7.472 0.420 0.000 0.000 0.000 0.000 0.000 0.000 0.000 0.000 0.000 0.000 0.000 0.000 0.000 0.000 0.000 0.000 0.000 0.000
0.000 0.197 7.498 12.022 17.414 38.212 68.817 88.176 119.840 140.068 129.454 134.798 133.139 99.649 69.550 47.062 33.910 29.768 22.650 23.663 19.907 12.010 4.093 0.000 0.000 0.000 0.000 0.000 0.000 0.000 0.000 0.000 0.000 0.000 0.000 0.000 0.000 0.000 0.000 0.000 0.000
0.000 0.156 6.060 11.641 16.654 26.154 52.748 82.843 112.404 146.273 137.281 134.803 144.982 133.151 79.872 49.780 32.754 30.867 26.228 24.804 23.771 16.526 8.144 0.148 0.000 0.000 0.000 0.000 0.000 0.000 0.000 0.000 0.000 0.000 0.000 0.000 0.000 0.000 0.000 0.000 0.000
0.000 0.065 3.880 9.887 13.877 22.231 45.276 76.935 109.525 133.349 148.830 143.981 140.022 118.327 77.677 44.231 34.254 28.910 28.432 28.851 25.083 21.598 11.699 3.544 0.000 0.000 0.000 0.000 0.000 0.000 0.000 0.000 0.000 0.000 0.000 0.000 0.000 0.000 0.000 0.000 0.000
0.000 0.036 2.726 8.365 10.564 16.489 35.356 62.577 99.860 132.833 150.640 139.440 141.933 142.361 105.189 56.512 42.190 29.706 30.916 30.724 32.318 22.970 19.094 9.571 0.041 0.000 0.000 0.000 0.000 0.000 0.000 0.000 0.000 0.000 0.000 0.000 0.000 0.000 0.000 0.000 0.000
0.000 0.008 1.725 6.641 10.055 14.455 24.918 55.480 90.851 118.281 133.150 121.414 144.252 129.550 104.767 75.669 46.399 36.139 33.616 33.611 31.396 27.880 25.712 13.106 1.659 0.000 0.000 0.000 0.000 0.000 0.000 0.000 0.000 0.000 0.000 0.000 0.000 0.000 0.000 0.000 0.000
0.000 0.001 0.953 5.662 9.271 13.462 23.707 44.844 75.902 108.520 128.984 135.333 144.459 115.705 109.587 67.781 54.306 47.445 37.038 31.774 30.541 31.919 27.623 12.985 5.829 0.034 0.000 0.000 0.000 0.000 0.000 0.000 0.000 0.000 0.000 0.000 0.000 0.000 0.000 0.000 0.000
0.000 0.000 0.216 4.468 7.799 10.652 16.204 32.806 65.490 106.827 154.304 139.705 126.847 133.838 95.265 71.466 62.884 40.122 30.456 26.280 31.136 36.935 25.198 15.720 11.371 1.700 0.000 0.000 0.000 0.000 0.000 0.000 0.000 0.000 0.000 0.000 0.000 0.000 0.000 0.000 0.000
0.000 0.000 0.041 3.451 6.966 10.998 16.473 24.052 57.325 114.584 136.239 116.153 141.234 116.395 90.118 80.412 54.805 35.413 30.785 29.343 36.082 29.806 25.136 23.797 17.677 4.316 0.000 0.000 0.000 0.000 0.000 0.000 0.000 0.000 0.000 0.000 0.000 0.000 0.000 0.000 0.000
0.000 0.000 0.057 3.135 7.104 10.352 13.594 24.028 51.059 96.452 115.323 126.178 126.395 113.975 110.565 86.610 68.391 49.602 37.375 36.407 32.404 27.529 32.693 26.275 16.375 9.219 0.321 0.000 0.000 0.000 0.000 0.000 0.000 0.000 0.000 0.000 0.000 0.000 0.000 0.000 0.000
0.000 0.000 0.020 2.153 6.081 7.202 13.208 19.983 32.551 74.448 105.144 108.965 118.865 131.263 113.977 84.821 71.390 58.417 50.395 34.387 33.034 32.481 30.337 26.825 18.570 13.213 2.544 0.000 0.000 0.000 0.000 0.000 0.000 0.000 0.000 0.000 0.000 0.000 0.000 0.000 0.000
0.000 0.000 0.001 1.106 5.178 6.888 10.455 9.333 27.010 56.342 98.622 111.482 126.452 135.368 124.502 99.571 79.085 76.909 57.196 38.949 37.358 30.896 26.810 26.140 21.438 17.901 9.640 0.006 0.000 0.000 0.000 0.000 0.000 0.000 0.000 0.000 0.000 0.000 0.000 0.000 0.000
0.000 0.000 0.000 0.391 4.392 6.985 7.899 8.385 17.827 52.343 85.519 113.433 117.049 127.273 118.894 86.763 89.547 84.629 51.441 43.639 32.582 20.105 24.391 26.823 28.564 26.979 16.821 1.291 0.000 0.000 0.000 0.000 0.000 0.000 0.000 0.000 0.000 0.000 0.000 0.000 0.000
0.000 0.000 0.000 0.001 2.577 6.178 6.152 7.628 18.322 45.925 82.777 117.285 130.122 122.849 103.989 84.322 96.063 83.067 64.832 50.470 30.797 19.302 21.796 29.100 32.156 29.413 21.201 5.986 0.000 0.000 0.000 0.000 0.000 0.000 0.000 0.000 0.000 0.000 0.000 0.000 0.000
0.000 0.000 0.000 0.001 0.597 4.169 4.095 7.952 16.980 36.306 75.299 100.739 109.427 108.852 96.676 99.603 110.916 84.676 64.629 46.604 26.573 20.689 24.323 29.206 30.224 29.774 24.420 10.801 0.000 0.000 0.000 0.000 0.000 0.000 0.000 0.000 0.000 0.000 0.000 0.000 0.000
0.000 0.000 0.000 0.000 0.192 1.753 4.397 8.690 13.342 25.988 63.950 92.046 91.245 110.375 94.495 113.636 100.374 84.178 71.985 53.351 35.448 22.810 23.712 26.697 29.587 33.501 32.282 13.167 0.001 0.000 0.000 0.000 0.000 0.000 0.000 0.000 0.000 0.000 0.000 0.000 0.000
0.000 0.000 0.000 0.000 0.005 1.469 4.880 8.605 12.044 20.913 42.808 73.518 93.628 96.126 109.616 109.420 110.735 87.882 81.109 56.948 33.065 20.335 18.491 19.166 26.592 30.203 29.150 10.026 0.502 0.000 0.000 0.000 0.000 0.000 0.000 0.000 0.000 0.000 0.000 0.000 0.000
0.000 0.000 0.000 0.000 0.000 0.406 4.173 7.569 10.613 12.878 32.210 64.394 92.294 105.001 98.498 115.764 104.096 90.014 77.320 50.627 31.603 17.894 15.404 16.880 22.396 25.133 22.510 12.746 2.763 0.000 0.000 0.000 0.000 0.000 0.000 0.000 0.000 0.000 0.000 0.000 0.000
0.000 0.000 0.000 0.000 0.000 0.039 1.893 6.373 7.219 9.477 21.182 55.425 80.383 91.209 97.315 95.783 92.915 86.727 60.778 40.763 28.402 20.007 14.782 15.773 16.366 21.228 24.974 17.113 3.949 0.000 0.000 0.000 0.000 0.000 0.000 0.000 0.000 0.000 0.000 0.000 0.000
0.000 0.000 0.000 0.000 0.000 0.002 0.668 4.201 6.297 8.171 13.527 33.218 57.516 74.704 89.613 87.679 76.292 74.014 51.696 42.482 40.263 22.057 16.260 14.781 11.827 17.438 26.866 15.317 5.192 0.000 0.000 0.000 0.000 0.000 0.000 0.000 0.000 0.000 0.000 0.000 0.000
0.000 0.000 0.000 0.000 0.000 0.000 0.095 2.879 5.228 6.268 9.065 23.802 49.840 70.251 77.119 78.464 81.160 72.663 56.663 50.413 41.385 24.926 19.510 14.065 12.670 17.820 24.383 16.959 6.892 0.001 0.000 0.000 0.000 0.000 0.000 0.000 0.000 0.000 0.000 0.000 0.000
0.000 0.000 0.000 0.000 0.000 0.000 0.005 1.603 4.410 5.423 7.257 12.157 36.457 55.579 58.512 65.955 66.119 64.327 58.289 61.561 42.377 32.460 20.232 16.843 15.220 15.066 26.113 18.905 8.023 0.441 0.000 0.000 0.000 0.000 0.000 0.000 0.000 0.000 0.000 0.000 0.000
0.000 0.000 0.000 0.000 0.000 0.000 0.001 0.596 3.407 5.045 6.063 9.398 22.023 42.420 58.069 64.345 59.389 63.200 62.296 50.750 49.803 36.937 23.083 17.415 11.459 11.237 24.747 19.902 9.236 1.844 0.000 0.000 0.000 0.000 0.000 0.000 0.000 0.000 0.000 0.000 0.000
0.000 0.000 0.000 0.000 0.000 0.000 0.000 0.173 2.429 4.275 5.256 6.248 14.805 34.128 49.532 52.245 53.985 63.150 64.497 45.965 48.523 35.560 26.847 13.175 9.057 7.455 22.402 20.748 10.599 2.392 0.001 0.000 0.000 0.000 0.000 0.000 0.000 0.000 0.000 0.000 0.000
0.000 0.000 0.000 0.000 0.000 0.000 0.000 0.028 1.032 3.004 4.416 4.766 11.022 26.532 43.087 49.541 55.547 57.086 58.987 49.230 52.024 40.339 23.844 11.544 7.856 9.521 23.106 22.380 11.838 3.752 0.376 0.000 0.000 0.000 0.000 0.000 0.000 0.000 0.000 0.000 0.000
0.000 0.000 0.000 0.000 0.000 0.000 0.000 0.031 0.610 2.505 4.075 5.646 8.529 18.700 40.823 51.421 61.501 60.925 48.966 54.258 43.400 33.250 23.526 13.493 10.485 12.396 22.978 22.970 13.212 4.573 1.937 0.001 0.000 0.000 0.000 0.000 0.000 0.000 0.000 0.000 0.000
0.000 0.000 0.000 0.000 0.000 0.000 0.000 0.000 0.105 1.892 3.608 5.345 8.005 16.738 30.870 46.486 61.280 55.593 54.447 50.669 42.002 29.748 22.627 15.792 13.076 12.771 21.600 22.990 13.111 4.594 3.128 0.339 0.000 0.000 0.000 0.000 0.000 0.000 0.000 0.000 0.000
0.000 0.000 0.000 0.000 0.000 0.000 0.000 0.000 0.009 0.920 3.315 3.566 6.760 12.000 26.044 42.167 42.607 46.784 45.493 39.904 33.838 23.493 23.498 18.279 13.973 10.853 21.388 22.267 12.933 4.719 3.623 1.732 0.001 0.000 0.000 0.000 0.000 0.000 0.000 0.000 0.000
0.000 0.000 0.000 0.000 0.000 0.000 0.000 0.000 0.000 0.260 2.283 3.224 5.909 8.931 15.238 28.933 36.846 38.077 37.616 32.133 26.513 24.827 26.009 22.874 15.587 13.741 17.771 17.969 13.088 4.861 3.540 2.443 0.269 0.000 0.000 0.000 0.000 0.000 0.000 0.000 0.000
0.000 0.000 0.000 0.000 0.000 0.000 0.000 0.000 0.000 0.035 1.739 3.821 5.022 6.024 10.330 17.280 20.195 28.313 25.456 26.590 23.629 28.297 28.862 23.469 16.868 14.456 15.995 17.237 13.498 4.222 3.062 2.755 1.436 0.041 0.000 0.000 0.000 0.000 0.000 0.000 0.000
0.000 0.000 0.000 0.000 0.000 0.000 0.000 0.000 0.000 0.115 1.330 3.029 3.492 4.450 6.748 9.370 22.313 21.923 23.517 24.598 26.877 27.348 24.444 17.051 23.367 13.665 15.475 15.494 12.090 3.832 3.114 2.871 2.009 0.906 0.000 0.000 0.000 0.000 0.000 0.000 0.000
0.000 0.000 0.000 0.000 0.000 0.000 0.000 0.000 0.000 0.009 0.527 1.675 2.851 2.934 3.694 6.664 10.380 16.379 23.310 25.485 27.183 22.061 18.216 19.041 18.907 8.188 10.805 14.217 10.951 4.830 3.452 2.918 2.438 2.003 0.137 0.000 0.000 0.000 0.000 0.000 0.000
0.000 0.000 0.000 0.000 0.000 0.000 0.000 0.000 0.000 0.000 0.087 0.677 1.945 2.408 2.158 5.323 13.916 18.541 22.608 23.170 21.870 17.469 15.975 17.289 13.724 7.852 6.805 12.433 10.043 5.588 3.400 2.892 2.683 1.964 0.631 0.000 0.000 0.000 0.000 0.000 0.000
0.000 0.000 0.000 0.000 0.000 0.000 0.000 0.000 0.000 0.000 0.000 0.015 0.488 1.213 1.270 2.252 11.811 14.045 17.420 21.021 17.091 13.880 12.614 15.564 13.661 9.860 8.180 8.301 9.052 5.209 3.240 2.740 2.301 2.134 1.831 0.042 0.000 0.000 0.000 0.000 0.000
0.000 0.000 0.000 0.000 0.000 0.000 0.000 0.000 0.000 0.000 0.000 0.000 0.107 1.229 2.166 3.561 7.558 9.294 12.580 14.041 14.425 14.021 15.501 17.476 17.121 12.207 7.487 5.914 6.158 4.611 3.090 2.535 2.220 1.987 1.654 0.407 0.000 0.000 0.000 0.000 0.000
0.000 0.000 0.000 0.000 0.000 0.000 0.000 0.000 0.000 0.000 0.000 0.000 0.009 0.911 2.315 2.607 4.756 6.353 8.826 12.526 12.705 15.612 14.979 17.480 13.878 7.773 5.346 3.618 4.062 4.181 3.051 2.415 2.024 1.501 1.124 0.957 0.009 0.000 0.000 0.000 0.000
0.000 0.000 0.000 0.000 0.000 0.000 0.000 0.000 0.000 0.000 0.000 0.000 0.000 0.073 1.187 1.627 0.824 4.213 6.667 9.005 9.779 10.686 12.650 14.395 7.886 3.980 3.675 1.757 1.621 2.377 2.692 2.076 1.509 1.074 1.374 1.833 0.077 0.000 0.000 0.000 0.000
0.000 0.000 0.000 0.000 0.000 0.000 0.000 0.000 0.000 0.000 0.000 0.000 0.000 0.000 0.069 1.575 2.782 3.830 6.195 6.947 6.179 7.430 8.887 7.810 4.011 2.125 1.109 0.002 0.160 1.543 2.234 1.609 1.033 0.722 1.057 1.426 0.382 0.000 0.000 0.000 0.000
0.000 0.000 0.000 0.000 0.000 0.000 0.000 0.000 0.000 0.000 0.000 0.000 0.000 0.000 0.063 0.921 2.959 4.000 5.552 5.087 3.884 5.245 6.764 6.871 2.903 1.668 0.002 0.002 0.181 1.003 1.078 1.157 0.431 0.002 0.361 0.347 0.434 0.000 0.000 0.000 0.000
0.000 0.000 0.000 0.000 0.000 0.000 0.000 0.000 0.000 0.000 0.000 0.000 0.000 0.000 0.000 0.483 2.000 4.040 4.123 2.447 2.372 3.498 4.786 2.571 0.548 0.000 0.000 0.151 0.099 0.639 0.928 0.731 0.000 0.002 0.002 0.330 0.484 0.065 0.000 0.000 0.000
0.000 0.000 0.000 0.000 0.000 0.000 0.000 0.000 0.000 0.000 0.000 0.000 0.000 0.000 0.000 0.001 0.755 1.642 2.044 1.043 2.920 4.364 3.336 0.184 0.000 0.001 0.000 0.002 0.022 0.489 0.605 0.074 0.001 0.001 0.001 0.553 0.542 0.121 0.000 0.000 0.000
0.000 0.000 0.000 0.000 0.000 0.000 0.000 0.000 0.000 0.000 0.000 0.000 0.000 0.000 0.000 0.000 0.099 0.821 1.569 2.882 4.217 3.670 1.684 0.149 0.000 0.003 0.002 0.000 0.249 0.473 0.301 0.200 0.306 0.002 0.002 0.552 0.548 0.185 0.006 0.000 0.000
0.000 0.000 0.000 0.000 0.000 0.000 0.000 0.000 0.000 0.000 0.000 0.000 0.000 0.000 0.000 0.000 0.000 0.350 1.036 1.673 2.945 2.074 0.889 0.402 0.000 0.317 0.002 0.374 0.385 0.731 0.400 0.536 0.076 0.001 0.025 0.691 0.748 0.462 0.069 0.000 0.000
0.000 0.000 0.000 0.000 0.000 0.000 0.000 0.000 0.000 0.000 0.000 0.000 0.000 0.000 0.000 0.000 0.000 0.004 0.498 1.274 2.057 1.910 1.207 0.795 0.169 0.002 0.068 0.822 0.483 0.737 0.262 0.478 0.001 0.001 0.172 0.876 0.686 0.669 0.184 0.005 0.000
0.000 0.000 0.000 0.000 0.000 0.000 0.000 0.000 0.000 0.000 0.000 0.000 0.000 0.000 0.000 0.000 0.000 0.001 0.429 1.287 1.420 0.901 1.023 0.263 0.812 0.000 1.025 0.697 0.375 0.592 0.578 0.749 0.013 0.001 0.493 0.611 0.577 0.729 0.436 0.042 0.001
0.000 0.000 0.000 0.000 0.000 0.000 0.000 0.000 0.000 0.000 0.000 0.000 0.000 0.000 0.000 0.000 0.000 0.000 0.083 0.516 1.030 1.081 0.842 0.697 0.907 0.525 0.807 0.327 0.117 0.742 0.942 0.523 0.016 0.100 0.976 0.956 0.900 0.616 0.693 0.371 0.118
0.000 0.000 0.000 0.000 0.000 0.000 0.000 0.000 0.000 0.000 0.000 0.000 0.000 0.000 0.000 0.000 0.000 0.000 0.001 0.041 0.631 1.051 1.003 1.005 0.758 0.818 0.321 0.001 0.269 0.964 0.366 0.002 0.009 0.466 1.566 1.494 1.044 0.644 0.969 0.870 0.492
0.000 0.000 0.000 0.000 0.000 0.000 0.000 0.000 0.000 0.000 0.000 0.000 0.000 0.000 0.000 0.000 0.000 0.000 0.000 0.000 0.111 0.875 0.985 1.081 0.943 0.799 0.000 0.000 0.052 0.145 0.290 0.002 0.038 0.666 1.716 1.693 0.686 0.717 1.116 1.060 0.862
0.000 0.000 0.000 0.000 0.000 0.000 0.000 0.000 0.000 0.000 0.000 0.000 0.000 0.000 0.000 0.000 0.000 0.000 0.000 0.000 0.001 0.485 1.089 1.044 0.576 0.041 0.002 0.001 0.044 0.029 0.002 0.000 0.054 0.570 1.805 0.870 0.024 0.407 0.779 1.207 1.087
0.000 0.000 0.000 0.000 0.000 0.000 0.000 0.000 0.000 0.000 0.000 0.000 0.000 0.000 0.000 0.000 0.000 0.000 0.000 0.000 0.000 0.106 0.823 0.932 0.490 0.002 0.000 0.001 0.034 0.001 0.002 0.003 0.306 0.398 0.954 0.448 0.555 0.348 0.759 1.479 1.149
0.000 0.000 0.000 0.000 0.000 0.000 0.000 0.000 0.000 0.000 0.000 0.000 0.000 0.000 0.000 0.000 0.000 0.000 0.000 0.000 0.000 0.000 0.177 0.723 0.602 0.116 0.001 0.002 0.000 0.002 0.000 0.123 0.417 0.424 1.413 1.377 1.116 0.596 0.897 1.184 1.015
0.000 0.000 0.000 0.000 0.000 0.000 0.000 0.000 0.000 0.000 0.000 0.000 0.000 0.000 0.000 0.000 0.000 0.000 0.000 0.000 0.000 0.000 0.002 0.436 0.483 0.355 0.042 0.222 0.147 0.066 0.130 0.169 0.001 0.500 1.822 1.920 1.226 0.368 0.360 0.461 1.173
0.000 0.000 0.000 0.000 0.000 0.000 0.000 0.000 0.000 0.000 0.000 0.000 0.000 0.000 0.000 0.000 0.000 0.000 0.000 0.000 0.000 0.000 0.000 0.293 0.500 0.342 0.013 0.447 0.870 0.163 0.034 0.003 0.102 0.987 2.390 1.760 0.956 0.258 0.043 0.437 1.147
0.000 0.000 0.000 0.000 0.000 0.000 0.000 0.000 0.000 0.000 0.000 0.000 0.000 0.000 0.000 0.000 0.000 0.000 0.000 0.000 0.000 0.000 0.000 0.039 0.493 0.513 0.863 0.411 1.394 0.353 0.037 0.030 0.591 1.426 1.778 1.766 0.940 0.001 0.002 0.167 0.734
0.000 0.000 0.000 0.000 0.000 0.000 0.000 0.000 0.000 0.000 0.000 0.000 0.000 0.000 0.000 0.000 0.000 0.000 0.000 0.000 0.000 0.000 0.000 0.002 0.413 0.841 0.797 1.101 1.145 0.882 0.001 0.000 0.440 1.268 1.419 1.538 0.331 0.002 0.002 0.001 0.271
0.000 0.000 0.000 0.000 0.000 0.000 0.000 0.000 0.000 0.000 0.000 0.000 0.000 0.000 0.000 0.000 0.000 0.000 0.000 0.000 0.000 0.000 0.000 0.006 0.124 0.605 0.437 0.945 0.107 0.373 0.000 0.000 0.729 1.752 1.912 1.225 0.357 0.001 0.002 0.002 0.002
0.000 0.000 0.000 0.000 0.000 0.000 0.000 0.000 0.000 0.000 0.000 0.000 0.000 0.000 0.000 0.000 0.000 0.000 0.000 0.000 0.000 0.000 0.000 0.000 0.036 0.001 0.710 0.509 0.001 0.001 0.001 0.184 1.684 2.147 2.272 1.343 1.055 0.001 0.001 0.001 0.002
0.000 0.000 0.000 0.000 0.000 0.000 0.000 0.000 0.000 0.000 0.000 0.000 0.000 0.000 0.000 0.000 0.000 0.000 0.000 0.000 0.000 0.000 0.000 0.000 0.000 0.164 0.703 0.486 0.001 0.001 0.006 0.968 2.070 2.137 2.348 1.894 1.205 0.002 0.001 0.002 0.001
0.000 0.000 0.000 0.000 0.000 0.000 0.000 0.000 0.000 0.000 0.000 0.000 0.000 0.000 0.000 0.000 0.000 0.000 0.000 0.000 0.000 0.000 0.000 0.000 0.000 0.136 0.437 0.433 0.002 0.002 1.091 2.053 2.636 2.523 2.997 2.252 0.003 0.030 0.001 0.000 0.002
0.000 0.000 0.000 0.000 0.000 0.000 0.000 0.000 0.000 0.000 0.000 0.000 0.000 0.000 0.000 0.000 0.000 0.000 0.000 0.000 0.000 0.000 0.000 0.000 0.000 0.045 0.083 0.357 0.040 0.013 3.590 3.922 4.241 4.351 3.350 1.654 0.030 0.207 0.001 0.001 0.000
0.000 0.000 0.000 0.000 0.000 0.000 0.000 0.000 0.000 0.000 0.000 0.000 0.000 0.000 0.000 0.000 0.000 0.000 0.000 0.000 0.000 0.000 0.000 0.000 0.000 0.000 0.081 0.041 0.002 0.901 3.208 5.390 5.001 5.072 3.167 2.120 1.065 0.366 0.000 0.001 0.001
0.000 0.000 0.000 0.000 0.000 0.000 0.000 0.000 0.000 0.000 0.000 0.000 0.000 0.000 0.000 0.000 0.000 0.000 0.000 0.000 0.000 0.000 0.000 0.000 0.000 0.000 0.023 0.042 0.104 1.248 2.115 3.619 3.947 3.435 3.228 2.191 1.463 0.761 0.142 0.000 0.000
0.000 0.000 0.000 0.000 0.000 0.000 0.000 0.000 0.000 0.000 0.000 0.000 0.000 0.000 0.000 0.000 0.000 0.000 0.000 0.000 0.000 0.000 0.000 0.000 0.000 0.000 0.000 0.002 0.774 1.148 1.239 2.313 2.214 2.825 4.013 3.537 2.874 1.486 0.428 0.096 0.002
0.000 0.000 0.000 0.000 0.000 0.000 0.000 0.000 0.000 0.000 0.000 0.000 0.000 0.000 0.000 0.000 0.000 0.000 0.000 0.000 0.000 0.000 0.000 0.000 0.000 0.000 0.000 0.358 0.874 0.914 0.866 1.198 1.220 1.817 4.335 4.330 3.948 2.360 0.672 0.435 0.083
0.000 0.000 0.000 0.000 0.000 0.000 0.000 0.000 0.000 0.000 0.000 0.000 0.000 0.000 0.000 0.000 0.000 0.000 0.000 0.000 0.000 0.000 0.000 0.000 0.000 0.000 0.003 0.264 0.543 0.604 0.630 0.882 0.574 0.748 2.990 3.499 3.723 3.111 1.618 0.657 0.214
0.000 0.000 0.000 0.000 0.000 0.000 0.000 0.000 0.000 0.000 0.000 0.000 0.000 0.000 0.000 0.000 0.000 0.000 0.000 0.000 0.000 0.000 0.000 0.000 0.000 0.000 0.000 0.001 0.080 0.413 0.564 0.682 0.548 0.574 2.417 2.929 3.260 3.137 2.351 1.001 0.444
0.000 0.000 0.000 0.000 0.000 0.000 0.000 0.000 0.000 0.000 0.000 0.000 0.000 0.000 0.000 0.000 0.000 0.000 0.000 0.000 0.000 0.000 0.000 0.000 0.000 0.000 0.000 0.000 0.000 0.233 0.404 0.336 0.500 1.713 2.510 3.135 3.033 2.882 2.987 1.373 0.694
0.000 0.000 0.000 0.000 0.000 0.000 0.000 0.000 0.000 0.000 0.000 0.000 0.000 0.000 0.000 0.000 0.000 0.000 0.000 0.000 0.000 0.000 0.000 0.000 0.000 0.000 0.000 0.000 0.000 0.009 0.177 0.018 0.822 2.417 2.832 2.853 3.058 2.922 3.216 1.476 0.849
0.000 0.000 0.000 0.000 0.000 0.000 0.000 0.000 0.000 0.000 0.000 0.000 0.000 0.000 0.000 0.000 0.000 0.000 0.000 0.000 0.000 0.000 0.000 0.000 0.000 0.000 0.000 0.000 0.000 0.000 0.222 0.428 0.986 2.077 2.589 2.818 3.256 3.222 2.901 1.676 0.962
0.000 0.000 0.000 0.000 0.000 0.000 0.000 0.000 0.000 0.000 0.000 0.000 0.000 0.000 0.000 0.000 0.000 0.000 0.000 0.000 0.000 0.000 0.000 0.000 0.000 0.000 0.000 0.000 0.000 0.000 0.143 0.527 0.909 1.294 2.203 2.974 3.730 4.197 3.254 1.860 1.178
0.000 0.000 0.000 0.000 0.000 0.000 0.000 0.000 0.000 0.000 0.000 0.000 0.000 0.000 0.000 0.000 0.000 0.000 0.000 0.000 0.000 0.000 0.000 0.000 0.000 0.000 0.000 0.000 0.000 0.000 0.024 0.640 0.842 0.882 1.667 3.044 4.201 5.328 4.185 2.336 1.739
0.000 0.000 0.000 0.000 0.000 0.000 0.000 0.000 0.000 0.000 0.000 0.000 0.000 0.000 0.000 0.000 0.000 0.000 0.000 0.000 0.000 0.000 0.000 0.000 0.000 0.000 0.000 0.000 0.000 0.000 0.001 0.363 0.712 0.774 1.364 1.572 3.222 5.871 5.160 3.437 2.660
0.000 0.000 0.000 0.000 0.000 0.000 0.000 0.000 0.000 0.000 0.000 0.000 0.000 0.000 0.000 0.000 0.000 0.000 0.000 0.000 0.000 0.000 0.000 0.000 0.000 0.000 0.000 0.000 0.000 0.000 0.001 0.128 0.499 0.705 1.320 1.138 3.097 6.118 6.070 4.124 2.782
0.000 0.000 0.000 0.000 0.000 0.000 0.000 0.000 0.000 0.000 0.000 0.000 0.000 0.000 0.000 0.000 0.000 0.000 0.000 0.000 0.000 0.000 0.000 0.000 0.000 0.000 0.000 0.000 0.000 0.000 0.000 0.011 0.319 0.568 1.206 1.064 2.407 4.977 5.697 3.989 2.015
0.000 0.000 0.000 0.000 0.000 0.000 0.000 0.000 0.000 0.000 0.000 0.000 0.000 0.000 0.000 0.000 0.000 0.000 0.000 0.000 0.000 0.000 0.000 0.000 0.000 0.000 0.000 0.000 0.000 0.000 0.000 0.000 0.105 0.439 0.772 1.105 1.859 3.433 5.416 3.919 1.532
0.000 0.000 0.000 0.000 0.000 0.000 0.000 0.000 0.000 0.000 0.000 0.000 0.000 0.000 0.000 0.000 0.000 0.000 0.000 0.000 0.000 0.000 0.000 0.000 0.000 0.000 0.000 0.000 0.000 0.000 0.000 0.000 0.000 0.267 0.713 1.062 1.323 2.328 4.964 2.856 1.497
0.000 0.000 0.000 0.000 0.000 0.000 0.000 0.000 0.000 0.000 0.000 0.000 0.000 0.000 0.000 0.000 0.000 0.000 0.000 0.000 0.000 0.000 0.000 0.000 0.000 0.000 0.000 0.000 0.000 0.000 0.000 0.000 0.000 0.057 0.919 1.057 1.090 1.584 2.328 1.637 1.491
