ncols        36
nrows        65
xllcorner    409682.8
yllcorner    6870769.1
cellsize     5.00
NODATA_value -9999
0.000 0.000 0.000 0.000 0.000 0.000 0.000 0.000 0.000 0.000 0.000 0.000 0.000 0.000 0.000 0.000 0.000 0.000 0.000 0.000 0.000 0.000 0.000 0.000 0.000 0.000 0.000 0.000 0.000 0.000 0.000 0.000 0.000 0.000 0.000 0.000
0.000 0.000 0.000 0.002 1.596 32.764 54.686 50.940 48.990 49.787 33.898 9.254 0.366 0.000 0.000 0.000 0.000 0.000 0.000 0.000 0.000 0.000 0.000 0.000 0.000 0.000 0.000 0.000 0.000 0.000 0.000 0.000 0.000 0.000 0.000 0.000
0.000 0.000 0.003 4.308 56.499 56.926 56.484 51.472 56.080 53.420 52.499 43.431 40.186 2.414 0.000 0.000 0.000 0.000 0.000 0.000 0.000 0.000 0.000 0.000 0.000 0.000 0.000 0.000 0.000 0.000 0.000 0.000 0.000 0.000 0.000 0.000
0.000 0.000 1.817 48.605 55.730 58.891 58.969 58.227 66.147 67.098 61.483 54.893 42.403 36.917 0.481 0.000 0.000 0.000 0.000 0.000 0.000 0.000 0.000 0.000 0.000 0.000 0.000 0.000 0.000 0.000 0.000 0.000 0.000 0.000 0.000 0.000
0.000 0.162 44.708 49.836 54.459 61.477 60.727 71.572 79.147 75.302 67.001 61.375 48.058 38.176 21.656 0.003 0.000 0.000 0.000 0.000 0.000 0.000 0.000 0.000 0.000 0.000 0.000 0.000 0.000 0.000 0.000 0.000 0.000 0.000 0.000 0.000
0.000 3.238 44.769 48.701 56.104 63.839 70.826 80.140 81.221 67.133 91.146 68.958 49.865 42.777 34.059 3.414 0.000 0.000 0.000 0.000 0.000 0.000 0.000 0.000 0.000 0.000 0.000 0.000 0.000 0.000 0.000 0.000 0.000 0.000 0.000 0.000
0.000 12.217 41.522 49.041 61.231 70.132 80.238 77.933 74.969 77.316 88.447 63.250 54.747 44.235 34.783 19.744 0.437 0.000 0.000 0.000 0.000 0.000 0.000 0.000 0.000 0.000 0.000 0.000 0.000 0.000 0.000 0.000 0.000 0.000 0.000 0.000
0.000 36.817 43.126 57.648 67.235 71.100 78.086 72.738 74.393 79.681 78.372 63.324 53.304 52.858 38.218 30.972 9.285 0.067 0.000 0.000 0.000 0.000 0.000 0.000 0.000 0.000 0.000 0.000 0.000 0.000 0.000 0.000 0.000 0.000 0.000 0.000
0.000 37.420 47.975 57.786 65.776 75.587 70.980 65.446 63.276 74.190 75.197 64.378 63.143 56.262 44.878 36.087 20.371 4.244 0.012 0.000 0.000 0.000 0.000 0.000 0.000 0.000 0.000 0.000 0.000 0.000 0.000 0.000 0.000 0.000 0.000 0.000
0.000 38.223 43.164 54.479 64.351 64.625 67.528 61.324 69.708 79.308 92.025 84.360 67.186 60.136 44.520 38.412 25.843 12.717 2.099 0.001 0.000 0.000 0.000 0.000 0.000 0.000 0.000 0.000 0.000 0.000 0.000 0.000 0.000 0.000 0.000 0.000
0.000 25.163 43.817 49.312 59.738 68.420 66.269 72.747 72.032 84.639 93.143 75.671 62.257 57.328 47.084 45.193 32.910 18.785 8.212 0.516 0.000 0.000 0.000 0.000 0.000 0.000 0.000 0.000 0.000 0.000 0.000 0.000 0.000 0.000 0.000 0.000
0.000 8.776 33.062 44.843 53.919 64.162 67.183 66.432 70.821 88.418 79.915 69.225 60.544 58.329 48.573 44.697 36.637 21.493 11.380 3.344 0.045 0.000 0.000 0.000 0.000 0.000 0.000 0.000 0.000 0.000 0.000 0.000 0.000 0.000 0.000 0.000
0.000 1.802 29.026 43.496 52.744 61.508 63.309 63.456 66.977 69.587 65.904 58.418 61.008 47.519 45.290 45.104 40.407 29.773 12.297 6.079 1.330 0.000 0.000 0.000 0.000 0.000 0.000 0.000 0.000 0.000 0.000 0.000 0.000 0.000 0.000 0.000
0.000 0.100 20.742 37.834 52.865 58.670 57.333 61.121 65.133 73.466 62.863 61.630 49.792 47.972 48.189 48.442 40.754 28.651 15.187 5.892 2.975 0.136 0.000 0.000 0.000 0.000 0.000 0.000 0.000 0.000 0.000 0.000 0.000 0.000 0.000 0.000
0.000 0.001 4.751 38.451 50.100 55.679 53.694 56.997 59.669 65.266 58.024 51.087 47.257 53.951 50.155 49.708 43.308 35.554 18.169 7.610 4.126 1.386 0.011 0.000 0.000 0.000 0.000 0.000 0.000 0.000 0.000 0.000 0.000 0.000 0.000 0.000
0.000 0.000 0.146 17.645 37.649 41.328 48.476 55.391 62.780 50.423 49.760 46.581 50.218 57.257 49.360 51.476 46.755 36.488 23.057 11.122 4.912 4.052 0.595 0.000 0.000 0.000 0.000 0.000 0.000 0.000 0.000 0.000 0.000 0.000 0.000 0.000
0.000 0.000 0.001 3.526 26.671 41.327 55.317 65.732 57.805 53.953 48.900 49.024 51.724 48.408 53.082 52.184 46.870 37.100 29.942 15.863 6.784 5.272 2.461 0.032 0.000 0.000 0.000 0.000 0.000 0.000 0.000 0.000 0.000 0.000 0.000 0.000
0.000 0.000 0.000 0.183 13.440 39.028 49.467 49.882 50.542 46.363 49.001 49.614 52.433 54.351 54.774 54.736 50.101 42.322 35.424 18.967 9.410 6.716 4.541 0.880 0.000 0.000 0.000 0.000 0.000 0.000 0.000 0.000 0.000 0.000 0.000 0.000
0.000 0.000 0.000 0.001 2.125 17.315 41.341 52.073 46.949 52.582 47.066 54.838 46.177 56.704 54.123 55.611 49.950 44.115 35.760 23.391 14.916 9.083 5.302 3.215 0.070 0.000 0.000 0.000 0.000 0.000 0.000 0.000 0.000 0.000 0.000 0.000
0.000 0.000 0.000 0.000 0.090 7.871 23.274 35.819 46.394 43.686 46.569 43.653 53.731 57.018 53.704 54.920 49.520 48.174 38.374 29.417 19.894 11.311 6.182 4.361 1.126 0.001 0.000 0.000 0.000 0.000 0.000 0.000 0.000 0.000 0.000 0.000
0.000 0.000 0.000 0.000 0.000 0.622 10.666 26.688 36.634 42.204 47.011 47.167 51.390 53.590 50.461 52.545 52.864 50.686 40.538 32.780 25.697 15.290 8.497 4.954 3.200 0.371 0.000 0.000 0.000 0.000 0.000 0.000 0.000 0.000 0.000 0.000
0.000 0.000 0.000 0.000 0.000 0.004 2.700 14.144 30.264 38.023 40.262 44.155 49.790 48.900 46.907 54.328 51.998 47.445 40.622 36.521 32.063 22.768 11.306 5.969 4.320 2.544 0.194 0.000 0.000 0.000 0.000 0.000 0.000 0.000 0.000 0.000
0.000 0.000 0.000 0.000 0.000 0.000 0.102 6.670 16.292 32.993 37.788 40.355 40.573 43.229 49.351 52.061 46.859 45.232 42.377 38.821 37.266 29.023 14.316 7.446 5.373 4.196 1.778 0.037 0.000 0.000 0.000 0.000 0.000 0.000 0.000 0.000
0.000 0.000 0.000 0.000 0.000 0.000 0.000 1.397 9.397 22.729 32.061 35.384 34.669 37.666 42.557 47.060 51.310 41.844 42.859 40.287 38.658 35.238 17.783 9.375 5.444 4.952 3.989 0.866 0.006 0.000 0.000 0.000 0.000 0.000 0.000 0.000
0.000 0.000 0.000 0.000 0.000 0.000 0.000 0.035 3.528 7.905 21.555 27.071 33.404 37.302 45.988 40.741 40.884 43.210 43.062 41.134 38.871 28.788 23.734 12.715 6.600 5.994 4.817 2.715 0.462 0.001 0.000 0.000 0.000 0.000 0.000 0.000
0.000 0.000 0.000 0.000 0.000 0.000 0.000 0.000 0.328 3.909 12.501 22.218 28.317 33.323 38.451 40.095 43.660 41.264 46.511 39.515 40.244 35.295 28.975 18.130 8.961 6.066 4.217 4.208 2.011 0.167 0.000 0.000 0.000 0.000 0.000 0.000
0.000 0.000 0.000 0.000 0.000 0.000 0.000 0.000 0.002 1.909 4.775 18.792 25.715 31.974 35.010 40.063 40.313 43.835 42.009 39.855 39.523 38.591 32.824 21.376 11.750 5.542 4.854 4.875 3.321 1.145 0.002 0.000 0.000 0.000 0.000 0.000
0.000 0.000 0.000 0.000 0.000 0.000 0.000 0.000 0.000 0.849 2.872 10.201 21.303 30.391 35.328 35.975 41.148 37.538 38.470 39.134 42.428 38.500 32.922 23.094 13.869 7.311 5.364 4.562 3.495 2.354 1.083 0.143 0.000 0.000 0.000 0.000
0.000 0.000 0.000 0.000 0.000 0.000 0.000 0.000 0.000 0.084 2.279 4.860 14.114 24.092 31.001 33.925 34.612 37.859 39.728 40.137 42.033 36.339 33.703 24.634 14.895 10.271 5.383 4.191 3.148 2.950 2.659 1.242 0.027 0.000 0.000 0.000
0.000 0.000 0.000 0.000 0.000 0.000 0.000 0.000 0.000 0.002 1.524 4.349 9.091 18.077 27.718 29.693 35.479 34.244 39.329 39.211 37.852 37.421 30.452 22.657 16.917 12.407 6.169 4.210 2.790 3.079 3.406 2.603 0.811 0.014 0.000 0.000
0.000 0.000 0.000 0.000 0.000 0.000 0.000 0.000 0.000 0.000 0.309 2.998 3.634 10.423 18.367 26.476 26.856 32.132 34.958 38.865 38.198 36.351 30.088 24.326 19.128 14.431 8.387 4.385 3.271 3.865 3.680 3.366 2.166 0.650 0.000 0.000
0.000 0.000 0.000 0.000 0.000 0.000 0.000 0.000 0.000 0.000 0.027 0.254 3.269 4.198 9.895 19.017 25.328 30.924 36.802 38.351 38.884 35.208 31.707 25.520 20.320 15.445 10.706 5.319 3.544 4.194 4.122 3.694 2.917 1.637 0.031 0.000
0.000 0.000 0.000 0.000 0.000 0.000 0.000 0.000 0.000 0.000 0.000 0.591 2.774 2.090 5.009 14.601 23.246 30.378 35.468 37.759 37.217 34.863 34.496 24.777 21.178 17.478 12.317 7.068 4.828 4.689 4.420 3.852 3.024 2.632 1.361 0.059
0.000 0.000 0.000 0.000 0.000 0.000 0.000 0.000 0.000 0.000 0.000 0.155 1.603 1.640 1.939 9.158 20.474 30.150 33.454 33.824 37.155 35.656 33.594 23.633 22.911 18.740 13.873 10.237 6.359 5.311 4.800 4.058 3.075 3.153 2.279 0.940
0.000 0.000 0.000 0.000 0.000 0.000 0.000 0.000 0.000 0.000 0.000 0.012 0.428 1.347 1.867 5.594 21.213 26.524 33.747 34.936 37.051 34.156 26.247 27.043 23.596 19.178 15.747 11.948 7.918 5.468 5.090 4.395 3.892 3.569 2.999 1.992
0.000 0.000 0.000 0.000 0.000 0.000 0.000 0.000 0.000 0.000 0.000 0.000 0.152 0.682 1.644 6.189 14.661 27.613 31.904 39.090 35.242 33.843 31.539 27.702 23.785 21.561 17.459 13.004 10.062 7.077 5.974 6.007 4.488 4.125 3.251 2.660
0.000 0.000 0.000 0.000 0.000 0.000 0.000 0.000 0.000 0.000 0.000 0.000 0.008 0.399 1.526 5.240 9.302 20.729 29.115 31.750 33.267 31.745 29.177 28.373 25.018 21.816 19.709 14.943 11.630 10.212 7.110 6.602 5.584 4.557 3.652 3.191
0.000 0.000 0.000 0.000 0.000 0.000 0.000 0.000 0.000 0.000 0.000 0.000 0.000 0.150 2.942 5.090 6.082 13.361 20.264 28.171 30.801 31.369 30.370 27.422 27.164 24.178 20.615 17.464 14.279 11.895 9.805 8.456 6.550 4.637 4.909 3.504
0.000 0.000 0.000 0.000 0.000 0.000 0.000 0.000 0.000 0.000 0.000 0.000 0.000 0.459 2.904 3.760 3.735 7.352 15.803 23.366 31.447 32.491 31.910 28.046 25.206 26.015 23.908 20.702 15.796 13.978 12.034 10.113 8.512 6.284 5.829 3.517
0.000 0.000 0.000 0.000 0.000 0.000 0.000 0.000 0.000 0.000 0.000 0.000 0.000 0.084 1.113 2.075 2.145 3.812 9.034 18.161 26.185 29.858 30.530 28.355 25.537 26.597 24.840 22.312 17.465 15.645 17.501 13.688 10.618 8.281 5.898 3.949
0.000 0.000 0.000 0.000 0.000 0.000 0.000 0.000 0.000 0.000 0.000 0.000 0.000 0.000 0.050 1.131 1.928 2.232 5.453 11.563 21.569 25.751 28.158 27.600 25.290 26.219 25.407 23.022 20.806 19.793 22.557 18.526 13.415 9.664 6.182 4.457
0.000 0.000 0.000 0.000 0.000 0.000 0.000 0.000 0.000 0.000 0.000 0.000 0.000 0.000 0.000 0.420 1.353 1.244 2.634 8.803 16.902 24.167 26.455 26.074 24.653 26.299 26.109 24.503 22.487 25.397 28.592 23.539 17.549 10.536 5.025 3.888
0.000 0.000 0.000 0.000 0.000 0.000 0.000 0.000 0.000 0.000 0.000 0.000 0.000 0.000 0.000 0.006 0.527 0.588 2.285 6.489 13.068 20.995 24.565 25.102 24.409 24.444 25.506 25.757 25.766 26.808 31.276 27.223 19.800 8.440 4.781 4.815
0.000 0.000 0.000 0.000 0.000 0.000 0.000 0.000 0.000 0.000 0.000 0.000 0.000 0.000 0.000 0.000 0.434 1.455 2.650 4.466 8.487 16.781 23.433 24.260 23.103 23.272 24.736 25.830 26.341 25.631 31.681 28.972 20.217 9.966 7.602 6.986
0.000 0.000 0.000 0.000 0.000 0.000 0.000 0.000 0.000 0.000 0.000 0.000 0.000 0.000 0.000 0.000 0.149 1.524 2.860 3.163 5.245 11.898 20.925 24.097 21.768 22.054 23.419 25.646 25.237 27.385 34.409 32.304 20.873 12.016 9.790 6.637
0.000 0.000 0.000 0.000 0.000 0.000 0.000 0.000 0.000 0.000 0.000 0.000 0.000 0.000 0.000 0.000 0.008 1.427 2.703 2.977 3.876 7.716 19.859 25.323 22.632 20.628 22.832 23.630 23.954 29.434 34.782 29.710 21.079 14.851 11.195 5.520
0.000 0.000 0.000 0.000 0.000 0.000 0.000 0.000 0.000 0.000 0.000 0.000 0.000 0.000 0.000 0.000 0.000 0.432 2.046 2.594 3.687 4.070 14.386 24.452 22.635 20.511 22.659 23.322 25.495 32.422 34.915 28.923 23.048 17.396 12.007 4.668
0.000 0.000 0.000 0.000 0.000 0.000 0.000 0.000 0.000 0.000 0.000 0.000 0.000 0.000 0.000 0.000 0.000 0.058 1.109 2.349 3.572 3.214 8.957 24.630 24.152 20.449 22.356 22.600 25.320 32.602 31.873 30.552 24.739 17.562 12.936 6.507
0.000 0.000 0.000 0.000 0.000 0.000 0.000 0.000 0.000 0.000 0.000 0.000 0.000 0.000 0.000 0.000 0.000 0.001 0.456 1.713 3.372 3.071 5.215 21.323 23.165 18.527 18.464 20.180 23.925 31.318 33.560 30.100 21.601 17.189 14.030 7.821
0.000 0.000 0.000 0.000 0.000 0.000 0.000 0.000 0.000 0.000 0.000 0.000 0.000 0.000 0.000 0.000 0.000 0.000 0.061 1.056 2.423 3.026 4.596 18.564 22.088 17.441 15.230 16.839 21.673 27.710 29.182 23.366 17.560 18.054 12.826 8.809
0.000 0.000 0.000 0.000 0.000 0.000 0.000 0.000 0.000 0.000 0.000 0.000 0.000 0.000 0.000 0.000 0.000 0.000 0.000 0.438 2.149 2.953 3.676 13.808 21.917 16.476 13.288 15.544 19.191 23.054 24.269 20.181 17.813 15.441 14.529 10.856
0.000 0.000 0.000 0.000 0.000 0.000 0.000 0.000 0.000 0.000 0.000 0.000 0.000 0.000 0.000 0.000 0.000 0.000 0.000 0.031 2.626 2.856 3.212 10.559 19.735 15.877 12.765 14.201 16.895 22.774 23.704 19.282 16.800 16.229 17.459 11.931
0.000 0.000 0.000 0.000 0.000 0.000 0.000 0.000 0.000 0.000 0.000 0.000 0.000 0.000 0.000 0.000 0.000 0.000 0.000 0.004 2.318 3.057 3.508 6.936 17.244 15.924 11.502 11.593 15.892 22.128 18.694 15.909 17.204 19.492 20.307 13.108
0.000 0.000 0.000 0.000 0.000 0.000 0.000 0.000 0.000 0.000 0.000 0.000 0.000 0.000 0.000 0.000 0.000 0.000 0.000 0.002 2.097 2.678 3.299 6.045 15.646 15.522 10.034 9.342 12.513 13.709 13.961 16.149 18.257 19.493 20.858 10.486
0.000 0.000 0.000 0.000 0.000 0.000 0.000 0.000 0.000 0.000 0.000 0.000 0.000 0.000 0.000 0.000 0.000 0.000 0.000 0.003 1.507 2.367 3.306 5.402 12.732 13.719 9.867 6.813 8.739 11.571 13.703 16.302 17.346 18.769 18.332 8.460
0.000 0.000 0.000 0.000 0.000 0.000 0.000 0.000 0.000 0.000 0.000 0.000 0.000 0.000 0.000 0.000 0.000 0.000 0.000 0.003 1.338 1.752 3.307 4.725 10.451 13.136 8.260 4.990 7.346 10.319 12.658 13.825 16.720 18.080 11.956 8.274
0.000 0.000 0.000 0.000 0.000 0.000 0.000 0.000 0.000 0.000 0.000 0.000 0.000 0.000 0.000 0.000 0.000 0.000 0.000 0.002 1.294 1.722 3.020 3.994 8.333 11.642 8.047 4.221 6.703 8.583 10.300 12.156 14.647 13.211 9.338 9.272
0.000 0.000 0.000 0.000 0.000 0.000 0.000 0.000 0.000 0.000 0.000 0.000 0.000 0.000 0.000 0.000 0.000 0.000 0.000 0.003 1.176 1.745 2.855 4.019 6.959 10.601 7.855 4.088 5.693 8.282 11.551 13.502 12.438 10.295 10.075 9.182
0.000 0.000 0.000 0.000 0.000 0.000 0.000 0.000 0.000 0.000 0.000 0.000 0.000 0.000 0.000 0.000 0.000 0.000 0.000 0.006 1.269 1.637 2.813 3.521 5.659 10.304 6.723 4.758 7.085 10.849 11.719 11.462 10.600 10.340 10.530 9.043
0.000 0.000 0.000 0.000 0.000 0.000 0.000 0.000 0.000 0.000 0.000 0.000 0.000 0.000 0.000 0.000 0.000 0.000 0.000 0.003 1.275 1.703 2.871 3.550 4.505 9.122 6.994 5.551 7.071 9.951 10.283 10.268 11.192 10.557 10.301 9.778
0.000 0.000 0.000 0.000 0.000 0.000 0.000 0.000 0.000 0.000 0.000 0.000 0.000 0.000 0.000 0.000 0.000 0.000 0.000 0.002 1.296 1.819 2.652 3.299 3.551 8.050 7.403 5.891 7.221 8.073 7.920 10.094 10.100 9.697 9.587 9.754
0.000 0.000 0.000 0.000 0.000 0.000 0.000 0.000 0.000 0.000 0.000 0.000 0.000 0.000 0.000 0.000 0.000 0.000 0.000 0.002 1.174 1.608 2.514 2.888 3.220 7.243 8.091 6.407 6.736 6.679 7.948 9.080 9.312 8.407 8.901 9.296
0.000 0.000 0.000 0.000 0.000 0.000 0.000 0.000 0.000 0.000 0.000 0.000 0.000 0.000 0.000 0.000 0.000 0.000 0.000 0.001 1.328 1.685 2.594 2.387 2.747 5.454 7.270 5.148 5.546 6.004 6.993 8.095 9.173 8.807 9.908 8.228
0.000 0.000 0.000 0.000 0.000 0.000 0.000 0.000 0.000 0.000 0.000 0.000 0.000 0.000 0.000 0.000 0.000 0.000 0.000 0.000 1.168 1.933 2.089 1.957 2.247 3.620 5.534 3.841 4.297 4.369 6.501 8.000 9.162 8.473 7.816 7.285
0.000 0.000 0.000 0.000 0.000 0.000 0.000 0.000 0.000 0.000 0.000 0.000 0.000 0.000 0.000 0.000 0.000 0.000 0.000 0.000 0.789 1.491 1.596 1.449 1.594 2.405 3.368 1.993 2.868 4.457 5.905 6.189 6.305 6.570 5.569 5.476
