ncols        37
nrows        39
xllcorner    409867.8
yllcorner    6870454.1
cellsize     5.00
NODATA_value -9999
0.000 0.000 0.000 0.000 0.000 0.000 0.000 0.000 0.000 0.000 0.000 0.000 0.000 0.000 0.000 0.000 0.000 0.000 0.000 0.000 0.000 0.000 0.000 0.000 0.000 0.000 0.000 0.000 0.000 0.000 0.000 0.000 0.000 0.000 0.000 0.000 0.000
0.000 0.000 0.000 0.000 0.000 0.000 0.000 0.000 0.000 0.000 0.000 0.000 0.000 0.000 0.000 0.000 0.000 0.000 0.000 0.000 0.000 0.000 0.451 9.802 47.452 67.977 72.879 73.406 46.728 19.425 4.065 0.223 0.001 0.000 0.000 0.000 0.000
0.000 0.000 0.000 0.000 0.000 0.000 0.000 0.000 0.000 0.000 0.000 0.000 0.000 0.000 0.000 0.000 0.000 0.000 0.000 0.000 0.000 1.758 60.559 63.184 68.820 78.317 83.419 83.065 82.424 66.258 60.997 28.396 6.101 0.575 0.018 0.000 0.000
0.000 0.000 0.000 0.000 0.000 0.000 0.000 0.000 0.000 0.000 0.000 0.000 0.000 0.000 0.000 0.000 0.000 0.000 0.000 0.000 1.924 58.472 64.269 70.400 81.316 92.084 100.373 105.573 102.834 84.516 76.654 70.990 55.150 31.478 10.542 1.728 0.204
0.000 0.000 0.000 0.000 0.000 0.000 0.000 0.000 0.000 0.000 0.000 0.000 0.000 0.000 0.000 0.000 0.000 0.000 0.000 0.625 52.271 58.803 73.675 80.667 95.957 109.762 122.218 114.119 111.416 103.644 94.121 100.556 85.666 54.794 48.557 23.163 14.180
0.000 0.000 0.000 0.000 0.000 0.000 0.000 0.000 0.000 0.000 0.000 0.000 0.000 0.000 0.000 0.000 0.000 0.005 0.352 35.406 52.940 67.557 80.710 86.932 108.173 127.643 124.891 110.455 118.458 123.130 110.545 106.409 101.709 87.891 68.468 31.583 29.451
0.000 0.000 0.000 0.000 0.000 0.000 0.000 0.000 0.000 0.000 0.000 0.000 0.000 0.000 0.000 0.511 14.742 41.293 47.968 46.738 58.438 72.922 84.107 96.013 115.540 133.111 116.435 108.977 119.923 127.849 120.416 116.566 107.037 121.521 74.756 53.002 30.309
0.000 0.000 0.000 0.000 0.000 0.000 0.000 0.000 0.000 0.000 0.000 0.000 0.000 0.001 2.481 55.594 54.985 55.904 56.980 58.102 66.200 70.618 76.671 94.258 122.057 111.203 109.860 108.953 123.391 130.315 130.717 134.008 107.783 132.139 82.288 68.029 32.219
0.000 0.000 0.000 0.000 0.000 0.000 0.000 0.000 0.000 0.000 0.000 0.000 0.000 1.185 59.420 61.582 64.733 68.863 70.442 65.502 59.228 67.902 72.211 94.916 100.790 89.677 103.620 98.974 103.619 132.678 130.990 146.188 133.320 127.132 99.878 65.221 27.454
0.000 0.000 0.000 0.000 0.000 0.000 0.000 0.000 0.000 0.000 0.000 0.000 0.148 54.432 64.367 72.345 75.201 77.391 80.981 65.802 61.765 65.599 82.832 97.816 86.160 91.698 80.442 92.012 107.476 134.204 129.175 154.425 128.476 101.698 90.524 48.102 27.011
0.000 0.000 0.000 0.000 0.000 0.000 0.000 0.000 0.000 0.000 0.000 0.384 39.834 60.370 75.762 80.840 86.490 97.667 92.499 80.549 68.728 79.196 85.653 84.527 81.954 80.860 76.107 112.205 108.696 121.056 149.784 148.401 127.812 97.562 66.624 36.586 28.246
0.000 0.000 0.000 0.000 0.000 0.000 0.000 0.000 0.000 0.000 0.206 60.816 63.445 72.877 83.116 92.077 99.493 103.662 98.714 100.302 85.743 80.896 76.385 73.601 74.254 77.355 94.413 107.495 95.690 110.085 129.658 122.484 109.869 83.364 47.062 30.146 26.557
0.000 0.000 0.000 0.000 0.000 0.000 0.000 0.000 0.000 0.039 48.257 65.735 72.942 81.664 84.769 98.296 110.105 105.528 101.753 99.136 75.441 65.973 67.312 67.524 72.147 68.926 89.458 83.169 95.360 113.269 103.784 113.314 98.746 64.797 32.753 32.772 25.048
0.000 0.000 0.000 0.000 0.000 0.000 0.000 0.000 0.007 19.111 63.179 81.612 93.713 87.888 94.067 104.942 106.808 113.969 110.543 92.819 88.276 69.572 64.253 60.370 60.393 77.468 87.939 99.019 90.926 103.212 100.286 92.589 68.115 34.909 29.602 30.543 22.983
0.000 0.000 0.000 0.000 0.000 0.000 0.000 0.001 3.016 59.039 72.435 100.012 101.281 97.668 97.315 107.122 116.071 124.666 119.975 98.056 91.636 72.005 62.360 56.922 67.090 80.319 88.616 92.703 78.572 68.652 63.799 31.724 29.135 21.288 27.629 29.543 18.148
0.000 0.000 0.000 0.000 0.000 0.000 0.000 0.126 63.188 68.062 82.467 101.438 108.383 104.256 87.174 110.283 119.840 136.956 110.551 96.733 88.652 66.636 61.375 64.145 78.711 85.397 80.865 84.102 75.224 53.780 39.671 27.962 24.730 25.362 27.975 21.571 11.544
0.000 0.000 0.000 0.000 0.000 0.000 0.000 1.829 65.323 84.217 88.911 99.282 103.835 105.691 98.047 114.882 132.287 133.777 107.474 96.393 83.009 79.950 64.491 71.628 78.262 82.647 82.736 92.560 78.979 46.551 34.897 22.476 22.184 24.700 21.687 13.046 10.713
0.000 0.000 0.000 0.000 0.000 0.000 0.005 24.744 79.093 97.986 100.986 123.650 139.417 121.965 98.763 116.912 113.545 124.148 109.788 102.374 82.347 72.577 73.531 71.254 76.122 78.924 82.227 87.479 108.308 42.221 23.240 21.059 18.738 21.439 16.080 13.017 11.058
0.000 0.000 0.000 0.000 0.000 0.000 0.170 75.941 89.561 109.420 104.574 123.357 139.825 140.358 101.212 102.522 113.778 122.539 112.768 99.850 91.640 76.738 68.451 71.411 69.375 71.932 72.033 111.287 96.356 27.771 18.786 17.358 19.002 19.470 15.261 11.760 5.732
0.000 0.000 0.000 0.000 0.000 0.000 2.275 72.326 96.370 116.754 107.523 128.896 138.215 135.580 103.811 104.872 110.570 124.360 115.873 108.328 92.338 84.869 74.607 69.576 66.860 74.632 104.941 106.557 57.471 22.535 17.160 19.064 16.631 15.381 14.369 6.932 3.970
0.000 0.000 0.000 0.000 0.075 12.358 66.978 78.062 103.394 120.200 102.425 117.991 125.156 124.880 105.882 105.230 110.540 124.344 112.637 100.023 92.465 82.838 80.541 69.170 67.798 94.153 91.280 61.006 43.495 20.258 15.451 15.541 10.321 12.156 12.411 3.052 1.776
0.000 0.000 0.004 2.253 45.067 63.132 71.783 76.203 102.794 131.971 111.089 127.336 160.250 153.560 108.832 101.149 108.879 134.623 108.647 102.255 91.741 82.955 76.898 63.023 88.498 83.307 51.167 42.001 39.416 19.278 14.121 12.962 10.063 11.119 5.850 2.178 1.999
0.000 0.042 12.264 66.464 69.836 80.183 98.686 104.772 131.781 158.569 129.469 141.925 136.821 122.370 107.633 94.202 94.355 111.131 96.929 108.055 100.747 85.088 77.412 88.402 84.976 50.076 33.145 37.342 41.068 15.786 14.912 7.711 8.339 6.576 4.430 2.209 0.000
0.000 1.394 64.146 73.066 93.916 115.689 127.696 119.625 125.370 148.656 103.276 105.830 117.691 113.445 94.886 90.207 89.504 100.282 99.003 86.439 74.666 59.572 74.386 76.502 49.133 44.643 38.815 34.009 32.911 12.105 9.552 6.493 6.462 4.300 3.367 0.000 0.000
0.000 11.130 83.814 108.678 127.312 129.925 121.486 108.801 104.408 125.231 82.695 84.810 104.520 99.298 83.108 80.667 94.132 107.771 89.282 72.153 62.648 75.390 77.090 49.906 45.321 37.962 32.908 26.757 31.159 9.527 6.604 5.877 4.982 3.002 2.424 0.000 0.000
0.020 52.957 97.531 112.504 135.370 119.376 111.311 99.400 105.416 111.307 95.955 103.528 97.860 87.772 86.610 88.855 99.851 105.359 80.899 77.794 84.200 75.499 57.297 43.161 31.145 26.359 23.707 24.330 24.820 6.807 6.238 4.469 2.705 2.186 0.000 0.000 0.000
0.463 94.419 118.057 131.824 123.397 112.165 115.496 122.204 110.715 100.346 84.254 90.509 100.368 95.617 79.466 82.297 92.214 107.006 89.011 93.109 65.097 57.522 41.873 33.611 29.137 31.052 26.174 25.694 17.532 5.303 3.444 2.201 2.242 0.000 0.000 0.000 0.000
4.566 98.064 128.090 120.882 130.529 131.280 127.000 106.218 93.460 107.139 103.991 92.288 106.956 103.310 96.922 99.454 106.825 127.195 110.000 76.262 55.499 48.556 25.006 29.552 31.581 28.438 31.265 21.797 5.695 2.953 2.132 2.149 0.000 0.000 0.000 0.000 0.000
39.095 92.074 132.612 134.809 123.606 122.682 111.858 103.864 87.459 97.663 103.376 98.811 100.187 111.999 107.410 113.896 126.927 128.649 91.468 60.780 43.106 40.900 35.589 27.054 24.945 29.290 25.969 14.158 4.154 2.798 2.119 0.000 0.000 0.000 0.000 0.000 0.000
68.835 94.247 132.147 123.622 109.298 110.625 101.684 96.629 86.928 99.652 109.110 111.094 111.070 104.176 95.274 101.217 110.168 107.524 84.576 66.932 52.466 40.425 30.633 18.144 15.320 16.958 20.526 10.590 3.199 1.827 0.000 0.000 0.000 0.000 0.000 0.000 0.000
60.260 89.007 120.470 135.458 120.445 108.477 115.059 111.694 94.342 104.438 105.419 105.208 105.190 94.622 79.278 89.131 92.353 81.620 67.006 38.677 37.864 21.637 9.229 7.127 8.378 4.765 6.059 3.629 1.952 0.000 0.000 0.000 0.000 0.000 0.000 0.000 0.000
36.192 69.284 100.074 135.427 107.381 118.152 117.225 110.699 83.416 97.818 101.558 100.337 96.690 100.669 101.660 93.626 84.048 50.855 44.014 17.455 12.068 8.049 3.219 4.630 4.673 2.982 3.379 2.341 0.000 0.000 0.000 0.000 0.000 0.000 0.000 0.000 0.000
32.383 73.072 114.337 115.793 130.160 105.775 107.281 102.869 86.465 94.706 97.294 107.701 104.745 98.016 90.471 88.575 60.831 19.782 15.840 9.686 6.540 3.695 3.400 3.558 2.790 2.827 2.346 0.000 0.000 0.000 0.000 0.000 0.000 0.000 0.000 0.000 0.000
25.433 30.780 78.689 122.073 108.095 101.569 96.026 87.627 74.634 106.059 117.622 110.402 90.593 73.974 69.303 58.038 23.915 15.831 12.137 10.709 8.738 5.406 3.573 2.388 1.456 0.000 0.000 0.000 0.000 0.000 0.000 0.000 0.000 0.000 0.000 0.000 0.000
15.768 21.863 55.977 89.760 100.870 101.631 90.750 80.341 95.382 114.030 118.598 122.163 101.662 73.048 44.984 27.838 17.373 13.699 14.896 11.437 8.995 4.445 3.374 0.000 0.000 0.000 0.000 0.000 0.000 0.000 0.000 0.000 0.000 0.000 0.000 0.000 0.000
11.734 16.405 19.634 77.688 75.634 107.344 96.033 90.025 91.183 125.192 112.248 91.765 69.897 37.276 28.405 19.956 15.626 14.474 13.619 10.659 8.735 3.593 0.000 0.000 0.000 0.000 0.000 0.000 0.000 0.000 0.000 0.000 0.000 0.000 0.000 0.000 0.000
8.312 12.841 16.716 40.931 48.905 84.569 92.567 78.974 88.472 96.752 112.403 72.482 26.090 19.016 18.949 17.618 14.463 12.258 11.562 10.384 8.647 0.023 0.000 0.000 0.000 0.000 0.000 0.000 0.000 0.000 0.000 0.000 0.000 0.000 0.000 0.000 0.000
5.341 9.666 10.135 17.985 21.446 87.445 49.202 28.515 45.778 87.332 72.316 27.962 19.882 16.409 15.130 14.805 12.441 10.460 11.863 10.264 7.028 0.602 0.001 0.000 0.000 0.000 0.000 0.000 0.000 0.000 0.000 0.000 0.000 0.000 0.000 0.000 0.000
5.140 7.551 9.982 13.804 15.535 29.626 17.961 13.982 15.901 26.640 28.745 17.954 14.707 15.312 14.771 13.936 11.795 10.813 10.833 7.368 5.025 1.249 0.010 0.000 0.000 0.000 0.000 0.000 0.000 0.000 0.000 0.000 0.000 0.000 0.000 0.000 0.000
