ncols        35
nrows        55
xllcorner    409732.8
yllcorner    6870734.1
cellsize     5.00
NODATA_value -9999
0.000 0.000 0.000 0.000 0.000 0.140 2.984 7.665 5.630 1.277 0.045 0.000 0.000 0.000 0.000 0.000 0.000 0.000 0.000 0.000 0.000 0.000 0.000 0.000 0.000 0.000 0.000 0.000 0.000 0.000 0.000 0.000 0.000 0.000 0.000
0.000 0.000 0.000 0.312 13.321 52.455 54.583 52.170 49.571 50.977 36.494 6.374 0.031 0.000 0.000 0.000 0.000 0.000 0.000 0.000 0.000 0.000 0.000 0.000 0.000 0.000 0.000 0.000 0.000 0.000 0.000 0.000 0.000 0.000 0.000
0.000 0.000 0.606 43.342 52.417 57.223 58.754 61.396 58.926 56.342 53.116 52.218 20.159 0.145 0.000 0.000 0.000 0.000 0.000 0.000 0.000 0.000 0.000 0.000 0.000 0.000 0.000 0.000 0.000 0.000 0.000 0.000 0.000 0.000 0.000
0.000 0.331 42.330 54.019 57.960 63.403 68.274 70.925 67.473 64.946 63.775 60.128 50.320 21.657 0.071 0.000 0.000 0.000 0.000 0.000 0.000 0.000 0.000 0.000 0.000 0.000 0.000 0.000 0.000 0.000 0.000 0.000 0.000 0.000 0.000
0.000 8.251 52.114 57.757 62.273 71.354 74.390 75.286 72.922 73.455 74.688 71.925 64.117 46.411 14.205 0.012 0.000 0.000 0.000 0.000 0.000 0.000 0.000 0.000 0.000 0.000 0.000 0.000 0.000 0.000 0.000 0.000 0.000 0.000 0.000
0.101 47.076 52.966 60.389 69.567 76.188 74.838 78.760 79.451 79.948 84.427 82.187 73.738 57.477 46.852 6.949 0.001 0.000 0.000 0.000 0.000 0.000 0.000 0.000 0.000 0.000 0.000 0.000 0.000 0.000 0.000 0.000 0.000 0.000 0.000
1.439 48.840 53.131 61.797 69.446 77.581 83.847 79.266 84.045 85.800 88.394 90.182 77.471 68.620 53.058 35.826 3.066 0.000 0.000 0.000 0.000 0.000 0.000 0.000 0.000 0.000 0.000 0.000 0.000 0.000 0.000 0.000 0.000 0.000 0.000
3.812 46.888 55.543 64.943 78.660 76.507 78.519 85.500 87.400 90.863 93.097 81.942 87.168 77.213 63.881 53.072 28.240 1.672 0.000 0.000 0.000 0.000 0.000 0.000 0.000 0.000 0.000 0.000 0.000 0.000 0.000 0.000 0.000 0.000 0.000
5.222 45.417 55.030 64.362 75.300 79.333 87.662 85.695 98.215 90.720 97.827 96.828 97.159 89.261 75.665 69.979 42.202 22.112 0.988 0.000 0.000 0.000 0.000 0.000 0.000 0.000 0.000 0.000 0.000 0.000 0.000 0.000 0.000 0.000 0.000
4.674 45.998 55.426 66.097 73.646 84.810 86.232 95.521 95.386 94.863 97.789 105.235 106.321 95.687 85.667 71.117 57.480 40.961 16.033 0.737 0.000 0.000 0.000 0.000 0.000 0.000 0.000 0.000 0.000 0.000 0.000 0.000 0.000 0.000 0.000
2.527 41.914 55.484 68.605 78.518 81.504 94.320 88.468 90.995 95.357 106.241 108.437 107.091 97.024 89.037 78.713 73.404 56.844 30.528 11.708 0.698 0.000 0.000 0.000 0.000 0.000 0.000 0.000 0.000 0.000 0.000 0.000 0.000 0.000 0.000
0.813 41.834 49.724 65.940 76.728 82.771 84.477 93.614 96.801 99.420 110.409 104.163 111.859 103.093 87.987 86.103 78.169 68.432 44.518 22.654 10.145 0.535 0.000 0.000 0.000 0.000 0.000 0.000 0.000 0.000 0.000 0.000 0.000 0.000 0.000
0.120 26.200 53.093 61.423 80.424 77.671 91.155 88.935 101.088 100.287 101.811 109.013 104.879 95.808 90.118 91.501 79.473 76.000 54.676 33.101 19.071 8.254 0.230 0.000 0.000 0.000 0.000 0.000 0.000 0.000 0.000 0.000 0.000 0.000 0.000
0.006 10.315 37.160 60.921 71.074 78.922 77.418 87.013 92.340 102.111 103.078 107.230 102.518 99.998 94.795 95.390 84.161 79.695 60.764 52.566 26.174 16.631 5.510 0.078 0.000 0.000 0.000 0.000 0.000 0.000 0.000 0.000 0.000 0.000 0.000
0.000 2.821 34.330 48.512 59.004 66.934 74.220 84.444 98.957 103.490 106.846 104.204 103.831 104.690 97.744 92.602 89.258 84.573 68.714 63.024 43.973 20.207 12.401 3.203 0.005 0.000 0.000 0.000 0.000 0.000 0.000 0.000 0.000 0.000 0.000
0.000 0.338 20.085 38.934 50.519 63.299 69.853 83.128 96.389 105.939 104.859 102.379 109.365 102.803 97.701 96.509 92.317 78.544 77.433 72.591 56.717 28.592 14.751 9.662 1.617 0.000 0.000 0.000 0.000 0.000 0.000 0.000 0.000 0.000 0.000
0.000 0.015 7.613 29.491 42.363 58.924 61.995 83.799 90.488 94.351 107.157 106.266 106.233 95.089 102.070 99.113 91.411 90.066 85.175 81.474 67.242 48.016 18.801 13.250 7.077 0.468 0.000 0.000 0.000 0.000 0.000 0.000 0.000 0.000 0.000
0.000 0.000 1.605 19.082 32.837 44.560 71.970 72.580 89.865 92.052 107.578 107.593 92.636 103.379 104.408 95.415 92.336 93.044 85.944 77.135 70.334 53.539 26.955 15.798 10.797 4.307 0.039 0.000 0.000 0.000 0.000 0.000 0.000 0.000 0.000
0.000 0.000 0.189 11.073 28.570 50.111 69.452 77.132 83.337 101.399 98.837 104.349 109.312 104.463 99.654 102.880 95.238 87.542 88.540 84.469 71.645 69.698 41.532 20.949 12.649 8.210 2.060 0.000 0.000 0.000 0.000 0.000 0.000 0.000 0.000
0.000 0.000 0.002 3.536 15.285 35.836 56.949 66.587 80.625 82.361 89.069 93.129 95.726 107.003 100.391 95.656 99.748 90.665 83.279 89.609 77.959 71.739 52.341 26.707 14.409 10.061 6.049 0.387 0.000 0.000 0.000 0.000 0.000 0.000 0.000
0.000 0.000 0.000 0.742 12.714 25.202 44.766 55.572 61.809 73.542 77.689 84.897 91.367 97.730 108.239 99.999 94.504 90.634 90.267 85.802 81.240 77.925 65.708 34.167 20.176 11.680 7.438 3.315 0.009 0.000 0.000 0.000 0.000 0.000 0.000
0.000 0.000 0.000 0.076 6.322 17.333 31.282 43.722 55.960 63.358 76.215 81.499 89.400 93.024 96.864 102.190 101.465 97.829 87.790 89.935 80.529 74.504 69.548 43.985 27.561 12.821 8.363 6.202 1.150 0.000 0.000 0.000 0.000 0.000 0.000
0.000 0.000 0.000 0.000 0.779 7.514 13.741 30.227 41.105 56.187 65.610 72.702 80.892 87.927 93.373 101.236 99.570 99.433 84.796 79.638 93.253 88.792 75.937 58.804 37.408 15.925 9.744 7.075 5.305 0.151 0.000 0.000 0.000 0.000 0.000
0.000 0.000 0.000 0.000 0.015 2.859 8.626 22.192 36.780 43.816 58.521 63.155 71.652 80.809 88.456 96.139 96.619 93.409 90.657 84.934 98.452 100.653 86.155 67.620 42.976 21.413 10.732 8.294 6.786 1.977 0.005 0.000 0.000 0.000 0.000
0.000 0.000 0.000 0.000 0.000 0.508 4.977 11.719 25.422 42.867 52.203 60.860 65.899 72.252 81.278 93.584 95.613 92.763 86.503 98.067 113.489 103.813 97.473 76.786 44.881 28.021 12.182 10.190 7.322 5.006 0.681 0.000 0.000 0.000 0.000
0.000 0.000 0.000 0.000 0.000 0.004 1.800 5.891 19.140 37.324 51.819 58.310 61.802 66.188 77.180 84.204 89.640 92.314 92.392 97.851 116.010 111.137 101.211 66.525 42.528 32.708 17.363 10.496 7.433 5.862 3.081 0.013 0.000 0.000 0.000
0.000 0.000 0.000 0.000 0.000 0.000 0.747 5.814 11.296 30.482 47.489 56.026 61.257 61.416 70.270 77.485 84.092 88.394 92.185 87.320 108.319 108.216 92.527 61.154 50.780 45.325 22.766 9.765 9.064 6.444 4.923 0.934 0.000 0.000 0.000
0.000 0.000 0.000 0.000 0.000 0.000 0.085 3.930 9.042 14.365 41.867 56.120 59.092 58.924 61.086 71.224 75.876 84.924 85.397 86.740 110.237 116.281 90.338 63.417 60.801 49.051 24.541 11.678 9.622 6.518 6.152 3.712 0.017 0.000 0.000
0.000 0.000 0.000 0.000 0.000 0.000 0.002 2.032 7.249 10.437 22.553 57.027 62.738 60.403 58.638 63.687 70.298 74.927 75.321 86.947 105.546 101.236 84.419 69.401 65.862 48.567 23.602 16.879 10.942 8.945 6.597 5.609 1.200 0.000 0.000
0.000 0.000 0.000 0.000 0.000 0.000 0.000 0.222 4.435 7.577 9.845 57.770 60.258 58.651 54.356 59.892 66.244 69.353 74.886 90.845 103.459 92.953 84.107 73.821 69.527 44.606 31.581 21.992 14.246 9.649 4.605 5.466 3.808 0.024 0.000
0.000 0.000 0.000 0.000 0.000 0.000 0.000 0.008 1.662 6.081 7.829 45.298 59.907 60.680 55.283 58.070 65.474 65.413 71.390 89.958 90.348 93.247 87.258 71.586 63.268 52.355 37.061 29.770 16.721 8.482 5.632 7.214 5.598 1.494 0.000
0.000 0.000 0.000 0.000 0.000 0.000 0.000 0.000 0.320 3.913 7.392 37.323 59.562 57.392 52.266 51.520 55.408 58.418 65.701 85.130 95.090 94.292 77.845 66.598 64.154 55.943 43.952 37.697 19.781 12.125 9.969 8.044 4.661 3.510 0.174
0.000 0.000 0.000 0.000 0.000 0.000 0.000 0.000 0.014 1.806 6.150 29.562 57.701 56.414 48.933 47.002 47.049 48.496 57.988 74.537 84.125 76.316 63.528 70.063 56.159 51.882 49.894 42.676 27.033 15.244 10.933 6.511 5.112 5.090 1.634
0.000 0.000 0.000 0.000 0.000 0.000 0.000 0.000 0.000 0.432 5.012 19.277 51.077 50.860 48.732 42.594 40.857 44.136 50.941 60.522 68.388 64.679 62.208 58.688 56.246 56.023 55.631 44.128 30.384 18.711 11.419 6.947 5.537 4.721 3.432
0.000 0.000 0.000 0.000 0.000 0.000 0.000 0.000 0.000 0.013 5.259 11.782 42.991 49.812 45.606 38.858 38.849 41.335 44.667 57.253 65.683 61.490 56.654 54.655 60.058 61.748 58.539 42.927 35.406 23.857 12.397 7.554 6.518 5.554 4.912
0.000 0.000 0.000 0.000 0.000 0.000 0.000 0.000 0.000 0.002 4.498 10.226 40.555 45.602 42.077 37.148 35.837 35.901 41.910 58.553 54.882 49.777 53.090 60.277 65.735 68.203 56.216 43.798 37.032 25.822 15.248 10.152 7.120 6.285 5.261
0.000 0.000 0.000 0.000 0.000 0.000 0.000 0.000 0.000 0.001 4.081 8.156 35.641 45.076 41.051 35.603 30.471 31.568 36.436 39.506 41.306 46.850 53.051 58.440 66.889 60.474 51.489 47.691 38.514 32.702 21.225 13.909 8.792 7.093 5.740
0.000 0.000 0.000 0.000 0.000 0.000 0.000 0.000 0.000 0.001 3.306 6.907 30.409 41.565 37.670 31.765 29.748 26.741 28.006 33.159 38.182 46.029 49.996 54.067 62.978 54.120 54.595 50.203 44.459 42.090 28.916 16.713 8.724 6.789 5.709
0.000 0.000 0.000 0.000 0.000 0.000 0.000 0.000 0.000 0.001 2.940 5.355 27.784 39.709 35.477 30.380 24.994 22.249 23.985 29.794 35.596 39.709 47.638 62.757 60.796 56.665 54.794 55.645 51.811 49.325 33.026 17.267 8.947 6.947 5.373
0.000 0.000 0.000 0.000 0.000 0.000 0.000 0.000 0.000 0.001 2.825 4.678 23.554 33.437 31.454 27.943 22.498 19.281 22.382 26.298 32.826 38.849 51.061 55.844 50.215 61.177 61.882 58.020 58.205 49.065 34.507 18.498 9.677 7.396 6.202
0.000 0.000 0.000 0.000 0.000 0.000 0.000 0.000 0.000 0.001 2.498 4.423 20.612 33.184 32.063 25.908 21.425 16.340 17.921 21.916 31.849 42.047 45.412 44.729 51.468 59.962 55.860 57.976 68.599 46.070 30.671 22.238 11.776 9.127 7.826
0.000 0.000 0.000 0.000 0.000 0.000 0.000 0.000 0.000 0.002 2.520 3.966 17.976 28.592 30.115 25.298 17.865 14.970 18.490 24.119 29.004 34.010 36.527 41.388 50.614 56.622 59.134 69.962 61.320 43.662 37.081 23.067 15.522 11.552 10.232
0.000 0.000 0.000 0.000 0.000 0.000 0.000 0.000 0.000 0.001 2.364 3.766 15.611 27.138 27.832 23.243 16.729 14.408 15.347 19.600 22.786 27.046 34.913 39.527 47.169 55.293 63.965 63.396 52.678 47.648 35.591 26.903 19.398 14.264 10.545
0.000 0.000 0.000 0.000 0.000 0.000 0.000 0.000 0.000 0.001 2.292 3.763 10.200 24.448 24.268 20.954 15.917 13.582 14.416 16.018 16.284 22.118 28.320 33.766 41.685 52.269 54.520 53.473 48.967 42.163 36.709 30.074 21.695 13.055 9.116
0.000 0.000 0.000 0.000 0.000 0.000 0.000 0.000 0.000 0.001 1.988 3.359 7.286 22.105 22.961 19.840 16.027 14.203 14.167 13.319 15.103 18.355 22.920 27.346 33.172 45.303 49.440 49.153 45.640 42.414 38.349 29.967 19.318 11.622 10.366
0.000 0.000 0.000 0.000 0.000 0.000 0.000 0.000 0.000 0.000 2.051 3.219 6.405 18.998 20.987 17.283 15.666 13.799 12.897 12.724 13.444 15.780 20.226 24.376 32.895 37.453 41.885 44.252 44.321 41.882 35.888 25.965 18.346 13.741 11.909
0.000 0.000 0.000 0.000 0.000 0.000 0.000 0.000 0.000 0.000 1.732 3.552 5.247 17.206 19.319 16.641 13.120 13.328 12.494 10.732 13.117 15.574 20.235 22.674 25.890 31.490 36.121 39.104 41.249 36.084 31.495 25.292 20.417 16.621 12.531
0.000 0.000 0.000 0.000 0.000 0.000 0.000 0.000 0.000 0.000 1.183 3.025 4.474 15.013 17.814 16.153 13.892 11.575 10.940 12.205 13.815 13.947 15.961 20.012 20.925 23.962 29.335 31.105 33.923 30.603 29.950 26.703 22.793 19.064 10.856
0.000 0.000 0.000 0.000 0.000 0.000 0.000 0.000 0.000 0.000 1.203 3.043 3.938 14.424 17.345 13.599 10.983 10.997 13.502 12.958 12.547 10.755 15.545 18.262 17.867 17.320 20.157 27.832 29.465 31.679 30.459 22.719 24.424 19.275 10.058
0.000 0.000 0.000 0.000 0.000 0.000 0.000 0.000 0.000 0.000 0.287 3.011 3.657 12.811 16.405 12.430 10.572 11.772 12.024 12.523 10.395 11.093 16.169 15.408 13.417 12.745 16.781 22.017 26.739 24.936 23.919 23.771 26.377 18.150 9.942
0.000 0.000 0.000 0.000 0.000 0.000 0.000 0.000 0.000 0.000 0.017 2.938 3.756 10.249 14.084 10.898 9.399 12.018 12.881 11.822 10.288 14.164 15.737 11.497 11.280 12.917 14.562 14.877 18.318 20.113 22.060 24.180 22.493 14.555 9.845
0.000 0.000 0.000 0.000 0.000 0.000 0.000 0.000 0.000 0.003 0.813 2.909 3.603 7.069 12.902 9.748 8.650 12.251 12.402 10.952 13.649 16.697 11.824 9.381 10.598 11.516 9.994 10.282 12.646 18.420 20.906 20.575 16.269 13.917 9.360
0.000 0.000 0.000 0.000 0.000 0.000 0.000 0.000 0.000 0.001 0.803 2.655 3.545 6.048 11.407 8.390 9.037 11.676 11.274 13.553 16.857 13.071 8.756 9.460 9.065 7.962 7.541 7.985 9.555 11.547 16.601 16.972 15.192 10.182 5.838
0.000 0.000 0.000 0.000 0.000 0.000 0.000 0.000 0.000 0.000 0.501 2.660 3.160 4.647 9.846 6.595 8.240 10.215 11.508 12.975 10.596 7.200 7.515 7.481 6.254 5.588 5.807 6.170 7.328 7.946 8.397 8.493 7.819 6.358 4.171
0.000 0.000 0.000 0.000 0.000 0.000 0.000 0.000 0.000 0.000 0.131 2.063 2.998 3.446 4.965 4.409 6.968 8.917 9.102 6.923 5.642 5.686 7.010 5.321 2.738 2.591 4.231 5.527 5.439 4.590 4.482 4.923 4.273 3.457 2.555
