ncols        30
nrows        46
xllcorner    409787.8
yllcorner    6870674.1
cellsize     5.00
NODATA_value -9999
0.000 0.000 0.000 0.000 0.000 0.367 11.037 37.503 62.022 58.454 26.088 4.515 0.023 0.000 0.000 0.000 0.000 0.000 0.000 0.000 0.000 0.000 0.000 0.000 0.000 0.000 0.000 0.000 0.000 0.000
0.000 0.000 0.000 0.026 6.498 75.935 77.742 78.519 78.872 85.636 85.501 83.646 36.555 1.143 0.000 0.000 0.000 0.000 0.000 0.000 0.000 0.000 0.000 0.000 0.000 0.000 0.000 0.000 0.000 0.000
0.000 0.000 0.049 14.926 83.524 84.038 86.841 89.494 93.145 104.221 106.670 98.026 83.886 72.338 6.297 0.001 0.000 0.000 0.000 0.000 0.000 0.000 0.000 0.000 0.000 0.000 0.000 0.000 0.000 0.000
0.000 0.001 6.923 82.005 86.157 94.058 97.882 98.466 111.446 128.200 125.157 122.899 105.511 78.517 78.475 10.164 0.003 0.000 0.000 0.000 0.000 0.000 0.000 0.000 0.000 0.000 0.000 0.000 0.000 0.000
0.000 1.188 78.743 82.544 93.627 102.758 108.752 112.152 121.229 141.935 144.151 138.139 106.658 87.275 80.769 82.225 16.024 0.014 0.000 0.000 0.000 0.000 0.000 0.000 0.000 0.000 0.000 0.000 0.000 0.000
0.001 18.650 77.923 90.139 100.354 109.977 116.749 122.123 121.352 145.905 151.999 140.480 111.267 106.328 109.842 91.313 70.128 26.153 0.035 0.000 0.000 0.000 0.000 0.000 0.000 0.000 0.000 0.000 0.000 0.000
0.352 74.200 80.646 93.850 106.855 113.676 124.255 125.474 128.991 158.154 168.702 145.784 121.569 128.382 122.945 96.566 85.906 82.927 30.886 0.025 0.000 0.000 0.000 0.000 0.000 0.000 0.000 0.000 0.000 0.000
3.529 75.116 84.651 99.260 110.183 118.356 123.874 123.120 137.750 163.168 161.727 147.033 135.893 142.261 126.128 100.668 109.179 98.968 86.120 23.907 0.007 0.000 0.000 0.000 0.000 0.000 0.000 0.000 0.000 0.000
9.449 72.466 85.182 99.916 116.004 124.157 126.189 131.392 152.383 169.855 158.441 152.754 148.024 152.323 126.993 119.858 124.347 121.951 107.164 68.558 13.255 0.000 0.000 0.000 0.000 0.000 0.000 0.000 0.000 0.000
14.261 70.334 88.783 104.031 123.314 136.517 131.522 136.086 163.384 160.785 165.761 163.793 150.702 148.751 143.827 132.324 137.835 135.218 113.318 81.338 74.690 3.215 0.000 0.000 0.000 0.000 0.000 0.000 0.000 0.000
14.161 68.106 85.221 101.898 120.109 132.181 132.680 138.132 167.931 180.989 176.058 154.514 145.061 154.809 151.299 147.583 160.524 137.606 128.568 122.906 98.323 42.325 0.202 0.000 0.000 0.000 0.000 0.000 0.000 0.000
9.505 67.081 82.074 95.421 117.068 126.384 124.288 135.372 162.935 174.626 160.284 142.858 154.328 142.757 143.519 157.558 168.176 152.548 140.980 139.552 105.148 62.852 17.218 0.000 0.000 0.000 0.000 0.000 0.000 0.000
3.816 58.872 72.704 93.582 110.579 119.022 124.649 132.158 145.089 160.278 152.334 149.696 144.463 143.080 151.180 168.273 166.450 154.235 148.472 136.001 111.436 83.576 46.913 2.003 0.000 0.000 0.000 0.000 0.000 0.000
0.714 47.890 66.874 85.033 100.514 119.071 129.224 127.645 144.706 164.510 153.335 145.008 137.492 151.529 162.372 173.400 156.223 160.634 152.383 137.421 107.923 95.338 63.134 21.407 0.003 0.000 0.000 0.000 0.000 0.000
0.055 23.164 55.999 73.644 90.923 113.693 122.781 131.889 161.621 148.077 138.709 139.863 155.352 167.140 180.812 166.206 152.185 154.860 141.357 134.829 125.685 98.647 75.436 38.175 2.492 0.000 0.000 0.000 0.000 0.000
0.001 7.142 50.724 65.393 81.206 92.682 112.124 131.039 134.452 130.662 136.436 145.128 155.379 175.976 164.949 155.616 158.558 147.299 151.178 148.545 147.837 116.962 89.376 44.958 14.356 0.001 0.000 0.000 0.000 0.000
0.000 0.938 34.722 53.541 66.077 86.515 96.352 104.844 117.507 124.391 141.250 144.454 144.617 169.492 151.980 161.491 159.167 157.681 174.142 162.509 159.328 121.146 88.215 57.448 21.350 1.123 0.000 0.000 0.000 0.000
0.000 0.058 19.672 48.159 56.105 68.640 79.587 88.945 107.733 119.786 124.893 137.307 174.122 168.569 161.479 157.403 168.949 171.739 195.509 165.543 145.855 117.149 96.391 61.275 24.912 8.349 0.000 0.000 0.000 0.000
0.000 0.005 13.170 45.499 52.494 60.049 69.287 83.148 97.573 113.664 122.555 153.016 161.496 148.531 174.331 180.128 176.394 183.581 185.028 157.641 132.457 109.087 93.663 69.331 29.581 15.497 0.128 0.000 0.000 0.000
0.000 0.176 45.365 49.811 55.728 62.780 64.038 71.700 79.761 107.769 139.046 144.119 142.332 154.817 175.011 163.314 166.187 212.113 172.610 141.229 138.904 109.072 97.140 81.145 37.408 18.087 4.243 0.000 0.000 0.000
0.000 3.833 49.991 57.258 63.094 63.532 65.257 79.633 98.523 107.820 120.815 122.337 132.378 155.240 168.711 171.373 205.759 191.113 158.605 164.678 127.403 116.911 101.634 92.589 52.739 24.214 10.925 0.000 0.000 0.000
0.099 48.809 55.092 64.275 68.742 67.769 71.727 83.967 99.723 104.344 106.493 123.327 131.378 149.868 167.110 192.997 190.538 173.577 170.921 151.168 134.144 127.825 117.178 94.709 59.433 24.877 13.936 0.013 0.000 0.000
1.396 50.297 58.910 67.026 71.988 71.041 76.337 90.699 99.402 90.040 104.261 111.345 118.136 136.943 165.277 170.050 168.301 162.275 152.158 148.086 141.846 131.264 107.437 81.054 59.649 27.858 13.216 0.957 0.000 0.000
5.687 49.571 62.891 70.570 76.978 75.694 83.413 99.846 94.320 95.600 100.884 105.115 106.134 110.572 144.445 158.817 159.244 151.373 150.122 151.349 138.587 114.329 90.981 81.554 61.172 33.150 12.949 4.385 0.000 0.000
14.323 51.991 62.899 71.337 75.659 85.056 88.452 93.814 100.106 95.856 98.161 103.012 100.845 120.880 125.557 136.687 146.547 148.045 150.225 142.761 120.704 100.443 96.243 89.386 61.085 46.242 16.650 7.130 0.055 0.000
24.531 51.443 63.477 70.777 75.945 77.444 91.776 96.679 88.210 97.342 101.702 116.484 108.223 108.318 116.445 123.144 134.071 142.960 132.623 125.019 111.700 100.782 104.980 94.748 64.481 41.581 17.001 5.034 1.658 0.000
30.666 49.839 60.067 69.798 82.646 89.286 89.287 83.106 91.642 102.981 103.698 99.979 104.908 96.690 102.949 111.528 110.287 123.354 114.140 111.890 115.865 103.823 112.718 84.365 66.016 40.691 19.336 5.787 6.660 0.113
30.089 48.444 59.733 69.356 76.465 77.267 78.290 100.713 97.063 100.271 85.522 100.432 104.064 92.549 86.558 89.736 106.571 108.071 122.440 118.731 98.625 103.884 96.917 74.401 63.414 42.509 22.178 9.059 8.652 2.242
25.776 44.558 59.073 69.343 74.142 77.288 81.761 85.825 92.219 85.466 81.549 106.883 98.232 77.340 68.249 79.543 98.586 107.163 105.190 102.477 99.593 111.183 94.298 72.778 65.439 43.768 21.257 10.288 9.266 5.381
21.300 43.397 52.918 63.276 68.316 71.267 82.700 88.370 86.270 75.964 89.718 108.253 81.604 68.003 69.381 78.499 80.528 85.530 87.889 93.947 102.733 98.648 81.505 72.491 60.304 35.118 18.714 10.126 9.807 7.591
17.070 38.600 50.070 60.501 63.456 65.226 83.039 85.985 75.484 79.365 102.430 88.253 67.560 64.577 69.363 62.915 65.138 73.084 86.920 94.488 95.887 83.115 76.509 79.579 48.855 34.634 19.068 16.508 12.805 10.385
12.595 37.026 48.373 54.461 57.474 67.449 80.679 77.406 84.719 104.449 86.012 71.090 72.723 61.380 54.650 51.762 56.226 68.624 76.699 88.778 91.021 89.124 89.998 66.486 47.879 34.928 25.382 21.602 15.896 12.270
8.720 31.592 43.268 51.424 55.477 64.968 73.731 75.317 91.448 78.810 63.391 60.629 63.594 55.988 50.409 45.285 47.300 57.825 72.990 83.393 84.703 85.912 81.395 64.604 48.928 40.003 31.022 26.634 17.304 11.379
5.579 27.821 40.001 46.997 55.530 65.487 77.953 78.119 70.356 61.494 56.448 58.985 56.914 44.109 38.035 41.456 44.744 55.988 58.432 68.842 80.383 76.404 69.291 59.974 48.204 36.673 35.401 27.720 20.459 9.073
3.295 23.963 36.308 43.860 47.867 63.480 64.312 57.781 61.982 57.096 61.359 64.403 47.682 36.397 36.923 38.306 42.463 39.596 55.206 64.923 70.599 76.416 70.298 58.231 47.212 43.947 37.838 31.775 22.633 7.227
1.598 18.917 31.924 40.085 46.038 52.352 54.300 51.518 54.166 55.319 56.949 47.208 35.197 32.847 35.516 32.269 28.787 35.401 45.361 54.051 62.943 67.830 68.516 57.564 52.424 45.456 39.292 32.558 22.627 9.828
0.631 14.659 28.746 32.958 43.862 51.462 46.451 47.654 51.123 48.518 50.558 39.124 33.242 35.158 31.459 26.604 20.651 23.275 33.407 47.353 60.361 70.778 63.263 57.508 53.322 46.517 42.145 33.749 25.143 10.893
0.113 9.430 20.153 30.314 40.905 42.607 40.543 41.864 42.622 44.276 37.796 36.712 32.746 32.263 28.314 20.147 16.142 18.809 25.527 39.698 50.327 56.625 59.563 56.421 46.917 48.670 43.294 31.666 25.960 11.608
0.012 5.482 17.786 26.251 35.449 35.402 37.588 36.338 38.856 43.219 37.662 31.639 30.094 26.646 22.178 17.633 15.610 16.451 19.452 30.206 44.005 58.235 53.160 51.457 49.535 46.814 39.486 29.717 24.533 12.520
0.001 2.535 15.249 21.985 26.047 30.527 29.998 25.556 27.240 33.595 32.224 27.064 24.176 20.380 16.965 14.988 14.544 14.019 15.641 22.208 37.929 44.161 47.937 49.405 48.370 43.744 33.540 27.406 25.172 12.093
0.000 0.886 12.068 18.532 20.571 22.875 24.109 22.921 22.716 23.954 21.956 18.207 17.580 17.516 14.394 14.460 14.461 13.216 14.081 16.314 29.973 39.622 46.230 45.350 44.372 35.062 29.170 29.105 22.949 10.944
0.000 0.194 7.633 15.618 17.434 20.607 22.427 20.977 17.936 17.899 16.231 14.916 15.522 13.521 13.569 13.634 12.568 11.757 10.820 14.485 22.236 37.414 40.554 46.702 40.559 32.603 29.768 24.980 20.422 10.016
0.000 0.022 4.188 13.119 15.887 19.380 18.817 15.537 17.703 15.108 13.175 15.536 13.531 12.654 13.402 13.223 11.922 11.064 10.320 13.311 14.579 25.811 34.161 37.720 32.419 30.024 26.370 24.633 20.893 9.160
0.000 0.001 1.535 9.641 13.976 15.238 13.409 14.475 13.389 10.311 12.353 11.607 11.276 11.790 12.512 12.088 11.224 9.880 10.139 9.940 10.545 16.099 27.672 30.732 29.949 27.505 24.760 22.780 15.329 8.154
0.000 0.000 0.314 6.579 11.896 11.668 11.559 12.846 10.444 9.232 9.566 8.464 9.522 10.140 11.038 10.549 9.381 8.812 8.712 7.521 8.692 11.635 17.889 27.141 25.333 22.587 18.090 13.551 10.658 7.358
0.000 0.000 0.030 3.348 9.200 8.782 9.510 9.826 8.235 6.384 6.436 6.278 7.027 7.787 7.893 7.164 7.176 8.160 7.670 7.745 8.347 8.957 11.598 15.710 14.838 10.836 9.622 8.672 7.241 6.612
