ncols        42
nrows        105
xllcorner    409617.8
yllcorner    6870829.1
cellsize     5.00
NODATA_value -9999
0.000 0.000 0.001 0.917 14.722 10.320 0.045 0.000 0.000 0.000 0.000 0.000 0.000 0.000 0.000 0.000 0.000 0.000 0.000 0.000 0.000 0.000 0.000 0.000 0.000 0.000 0.000 0.000 0.000 0.000 0.000 0.000 0.000 0.000 0.000 0.000 0.000 0.000 0.000 0.000 0.000 0.000
0.000 0.001 3.063 100.599 96.037 96.162 54.587 0.254 0.000 0.000 0.000 0.000 0.000 0.000 0.000 0.000 0.000 0.000 0.000 0.000 0.000 0.000 0.000 0.000 0.000 0.000 0.000 0.000 0.000 0.000 0.000 0.000 0.000 0.000 0.000 0.000 0.000 0.000 0.000 0.000 0.000 0.000
0.000 0.529 94.195 102.346 103.232 113.038 89.902 57.727 0.004 0.000 0.000 0.000 0.000 0.000 0.000 0.000 0.000 0.000 0.000 0.000 0.000 0.000 0.000 0.000 0.000 0.000 0.000 0.000 0.000 0.000 0.000 0.000 0.000 0.000 0.000 0.000 0.000 0.000 0.000 0.000 0.000 0.000
0.000 10.333 100.048 117.018 122.658 119.121 101.076 81.957 18.213 0.000 0.000 0.000 0.000 0.000 0.000 0.000 0.000 0.000 0.000 0.000 0.000 0.000 0.000 0.000 0.000 0.000 0.000 0.000 0.000 0.000 0.000 0.000 0.000 0.000 0.000 0.000 0.000 0.000 0.000 0.000 0.000 0.000
0.003 35.894 108.208 115.287 125.783 122.125 113.692 90.026 79.284 0.261 0.000 0.000 0.000 0.000 0.000 0.000 0.000 0.000 0.000 0.000 0.000 0.000 0.000 0.000 0.000 0.000 0.000 0.000 0.000 0.000 0.000 0.000 0.000 0.000 0.000 0.000 0.000 0.000 0.000 0.000 0.000 0.000
0.030 68.180 103.917 132.239 136.891 123.456 115.652 91.982 86.205 30.671 0.000 0.000 0.000 0.000 0.000 0.000 0.000 0.000 0.000 0.000 0.000 0.000 0.000 0.000 0.000 0.000 0.000 0.000 0.000 0.000 0.000 0.000 0.000 0.000 0.000 0.000 0.000 0.000 0.000 0.000 0.000 0.000
0.055 77.574 112.164 124.950 140.427 134.473 105.237 98.297 94.418 65.607 0.000 0.000 0.000 0.000 0.000 0.000 0.000 0.000 0.000 0.000 0.000 0.000 0.000 0.000 0.000 0.000 0.000 0.000 0.000 0.000 0.000 0.000 0.000 0.000 0.000 0.000 0.000 0.000 0.000 0.000 0.000 0.000
0.025 51.078 106.829 126.670 142.580 124.725 105.459 101.113 124.923 67.966 0.097 0.000 0.000 0.000 0.000 0.000 0.000 0.000 0.000 0.000 0.000 0.000 0.000 0.000 0.000 0.000 0.000 0.000 0.000 0.000 0.000 0.000 0.000 0.000 0.000 0.000 0.000 0.000 0.000 0.000 0.000 0.000
0.003 23.773 103.289 129.845 135.826 118.695 97.424 127.265 121.639 76.988 14.935 0.000 0.000 0.000 0.000 0.000 0.000 0.000 0.000 0.000 0.000 0.000 0.000 0.000 0.000 0.000 0.000 0.000 0.000 0.000 0.000 0.000 0.000 0.000 0.000 0.000 0.000 0.000 0.000 0.000 0.000 0.000
0.000 7.458 88.573 113.955 125.803 109.499 98.017 148.404 125.447 90.285 34.402 0.000 0.000 0.000 0.000 0.000 0.000 0.000 0.000 0.000 0.000 0.000 0.000 0.000 0.000 0.000 0.000 0.000 0.000 0.000 0.000 0.000 0.000 0.000 0.000 0.000 0.000 0.000 0.000 0.000 0.000 0.000
0.000 5.779 65.645 115.050 118.503 108.914 134.343 151.270 128.259 98.956 44.768 0.000 0.000 0.000 0.000 0.000 0.000 0.000 0.000 0.000 0.000 0.000 0.000 0.000 0.000 0.000 0.000 0.000 0.000 0.000 0.000 0.000 0.000 0.000 0.000 0.000 0.000 0.000 0.000 0.000 0.000 0.000
0.018 28.588 67.077 120.508 136.629 138.915 139.593 153.572 123.362 93.196 50.083 0.000 0.000 0.000 0.000 0.000 0.000 0.000 0.000 0.000 0.000 0.000 0.000 0.000 0.000 0.000 0.000 0.000 0.000 0.000 0.000 0.000 0.000 0.000 0.000 0.000 0.000 0.000 0.000 0.000 0.000 0.000
0.267 51.495 70.316 120.345 130.728 137.296 121.575 140.654 112.205 97.216 63.588 0.558 0.000 0.000 0.000 0.000 0.000 0.000 0.000 0.000 0.000 0.000 0.000 0.000 0.000 0.000 0.000 0.000 0.000 0.000 0.000 0.000 0.000 0.000 0.000 0.000 0.000 0.000 0.000 0.000 0.000 0.000
0.988 47.268 67.442 103.731 128.254 134.775 117.017 128.450 115.832 106.467 70.806 7.992 0.000 0.000 0.000 0.000 0.000 0.000 0.000 0.000 0.000 0.000 0.000 0.000 0.000 0.000 0.000 0.000 0.000 0.000 0.000 0.000 0.000 0.000 0.000 0.000 0.000 0.000 0.000 0.000 0.000 0.000
1.649 45.684 69.242 96.993 127.077 125.654 125.783 117.578 117.499 114.763 78.693 20.540 0.000 0.000 0.000 0.000 0.000 0.000 0.000 0.000 0.000 0.000 0.000 0.000 0.000 0.000 0.000 0.000 0.000 0.000 0.000 0.000 0.000 0.000 0.000 0.000 0.000 0.000 0.000 0.000 0.000 0.000
2.543 42.465 69.809 88.880 116.347 116.120 116.259 119.169 121.701 120.980 84.901 38.713 0.124 0.000 0.000 0.000 0.000 0.000 0.000 0.000 0.000 0.000 0.000 0.000 0.000 0.000 0.000 0.000 0.000 0.000 0.000 0.000 0.000 0.000 0.000 0.000 0.000 0.000 0.000 0.000 0.000 0.000
4.543 42.411 70.768 90.706 103.843 117.425 112.505 125.956 125.028 128.821 90.917 54.415 6.375 0.000 0.000 0.000 0.000 0.000 0.000 0.000 0.000 0.000 0.000 0.000 0.000 0.000 0.000 0.000 0.000 0.000 0.000 0.000 0.000 0.000 0.000 0.000 0.000 0.000 0.000 0.000 0.000 0.000
6.709 43.390 69.605 93.732 99.923 126.350 125.409 118.295 133.617 130.894 112.275 73.551 16.837 0.002 0.000 0.000 0.000 0.000 0.000 0.000 0.000 0.000 0.000 0.000 0.000 0.000 0.000 0.000 0.000 0.000 0.000 0.000 0.000 0.000 0.000 0.000 0.000 0.000 0.000 0.000 0.000 0.000
7.881 41.410 70.627 96.975 124.714 137.758 156.547 162.024 153.325 139.626 120.935 73.560 26.452 1.546 0.000 0.000 0.000 0.000 0.000 0.000 0.000 0.000 0.000 0.000 0.000 0.000 0.000 0.000 0.000 0.000 0.000 0.000 0.000 0.000 0.000 0.000 0.000 0.000 0.000 0.000 0.000 0.000
7.765 40.302 60.504 82.407 108.477 137.759 150.217 147.017 131.209 131.802 120.864 73.116 33.388 9.863 0.034 0.000 0.000 0.000 0.000 0.000 0.000 0.000 0.000 0.000 0.000 0.000 0.000 0.000 0.000 0.000 0.000 0.000 0.000 0.000 0.000 0.000 0.000 0.000 0.000 0.000 0.000 0.000
7.830 35.020 56.653 88.992 118.795 141.464 181.041 170.736 114.015 146.220 107.695 79.598 38.926 22.269 5.033 0.044 0.000 0.000 0.000 0.000 0.000 0.000 0.000 0.000 0.000 0.000 0.000 0.000 0.000 0.000 0.000 0.000 0.000 0.000 0.000 0.000 0.000 0.000 0.000 0.000 0.000 0.000
7.202 31.002 54.258 84.730 108.732 127.300 159.782 161.353 143.692 130.772 107.121 82.338 47.420 30.012 16.549 7.551 0.988 0.004 0.000 0.000 0.000 0.000 0.000 0.000 0.000 0.000 0.000 0.000 0.000 0.000 0.000 0.000 0.000 0.000 0.000 0.000 0.000 0.000 0.000 0.000 0.000 0.000
6.097 23.822 46.167 66.480 103.552 126.822 147.149 147.814 132.334 123.019 107.302 85.806 54.596 32.787 25.727 21.834 17.344 3.694 0.000 0.000 0.000 0.000 0.000 0.000 0.000 0.000 0.000 0.000 0.000 0.000 0.000 0.000 0.000 0.000 0.000 0.000 0.000 0.000 0.000 0.000 0.000 0.000
5.404 21.328 39.836 66.443 83.672 107.847 138.361 151.877 145.269 130.218 110.133 88.526 62.232 38.414 30.043 25.634 29.385 15.836 0.731 0.000 0.000 0.000 0.000 0.000 0.000 0.000 0.000 0.000 0.000 0.000 0.000 0.000 0.000 0.000 0.000 0.000 0.000 0.000 0.000 0.000 0.000 0.000
4.595 20.836 35.495 54.447 80.143 103.080 123.113 138.668 150.141 125.202 121.366 93.319 65.309 46.371 31.950 31.484 37.668 24.911 10.708 0.016 0.000 0.000 0.000 0.000 0.000 0.000 0.000 0.000 0.000 0.000 0.000 0.000 0.000 0.000 0.000 0.000 0.000 0.000 0.000 0.000 0.000 0.000
3.162 15.919 29.928 53.098 73.118 94.657 127.550 142.092 162.759 141.568 113.082 95.899 73.799 53.387 34.011 32.544 29.564 29.885 19.716 3.109 0.000 0.000 0.000 0.000 0.000 0.000 0.000 0.000 0.000 0.000 0.000 0.000 0.000 0.000 0.000 0.000 0.000 0.000 0.000 0.000 0.000 0.000
1.753 14.262 23.871 45.170 69.655 95.090 128.470 143.025 150.318 145.751 115.593 93.507 79.761 62.146 39.819 33.267 27.125 29.511 18.975 12.282 0.683 0.000 0.000 0.000 0.000 0.000 0.000 0.000 0.000 0.000 0.000 0.000 0.000 0.000 0.000 0.000 0.000 0.000 0.000 0.000 0.000 0.000
0.637 11.142 17.755 33.818 61.127 93.922 111.087 142.496 146.272 148.866 140.698 122.380 87.974 73.466 41.981 37.159 33.857 31.190 22.639 17.662 6.149 0.018 0.000 0.000 0.000 0.000 0.000 0.000 0.000 0.000 0.000 0.000 0.000 0.000 0.000 0.000 0.000 0.000 0.000 0.000 0.000 0.000
0.128 8.718 15.740 26.183 55.965 88.196 105.749 135.418 150.825 135.874 140.490 139.897 105.956 75.095 51.755 37.861 32.890 24.723 25.710 21.907 12.217 2.166 0.000 0.000 0.000 0.000 0.000 0.000 0.000 0.000 0.000 0.000 0.000 0.000 0.000 0.000 0.000 0.000 0.000 0.000 0.000 0.000
0.090 6.725 14.789 22.856 41.546 69.221 100.397 128.081 158.455 144.320 140.556 152.187 141.162 85.965 54.724 36.897 34.572 28.799 26.891 25.827 17.566 7.187 0.007 0.000 0.000 0.000 0.000 0.000 0.000 0.000 0.000 0.000 0.000 0.000 0.000 0.000 0.000 0.000 0.000 0.000 0.000 0.000
0.032 4.114 12.202 18.401 32.704 60.863 94.539 126.210 145.577 157.062 150.198 146.897 125.407 83.478 48.965 38.524 32.654 31.457 31.217 26.801 22.913 11.913 1.728 0.000 0.000 0.000 0.000 0.000 0.000 0.000 0.000 0.000 0.000 0.000 0.000 0.000 0.000 0.000 0.000 0.000 0.000 0.000
0.013 2.581 10.074 13.517 22.822 49.624 78.079 116.552 146.634 159.948 145.601 148.861 150.575 112.340 61.926 47.369 33.732 34.410 33.205 34.481 24.239 19.722 8.256 0.001 0.000 0.000 0.000 0.000 0.000 0.000 0.000 0.000 0.000 0.000 0.000 0.000 0.000 0.000 0.000 0.000 0.000 0.000
0.002 1.452 7.761 12.470 18.967 37.805 71.318 107.659 131.952 142.734 127.434 151.633 136.777 112.080 82.638 52.006 41.409 37.559 36.339 33.431 29.552 26.493 12.921 0.673 0.000 0.000 0.000 0.000 0.000 0.000 0.000 0.000 0.000 0.000 0.000 0.000 0.000 0.000 0.000 0.000 0.000 0.000
0.000 0.659 6.284 11.238 17.029 32.973 61.516 91.192 122.140 139.117 142.617 152.074 122.335 116.909 74.436 60.342 54.334 41.630 34.517 32.415 33.318 28.567 13.315 4.766 0.001 0.000 0.000 0.000 0.000 0.000 0.000 0.000 0.000 0.000 0.000 0.000 0.000 0.000 0.000 0.000 0.000 0.000
0.000 0.120 4.584 9.286 13.090 21.728 51.394 80.005 121.649 168.414 147.495 134.007 141.656 101.568 78.053 69.272 44.580 34.304 28.638 32.834 38.550 26.099 15.937 10.885 0.675 0.000 0.000 0.000 0.000 0.000 0.000 0.000 0.000 0.000 0.000 0.000 0.000 0.000 0.000 0.000 0.000 0.000
0.000 0.019 3.212 8.032 13.043 20.795 35.007 72.023 132.854 149.452 123.403 149.423 123.535 96.092 87.454 60.823 39.794 34.998 32.168 38.123 31.097 25.915 24.176 17.666 3.477 0.000 0.000 0.000 0.000 0.000 0.000 0.000 0.000 0.000 0.000 0.000 0.000 0.000 0.000 0.000 0.000 0.000
0.000 0.020 2.659 7.851 12.191 16.804 29.859 72.584 111.145 128.011 134.360 133.613 120.600 117.579 93.541 75.297 55.439 43.224 39.399 34.655 28.602 33.678 26.744 16.293 8.521 0.073 0.000 0.000 0.000 0.000 0.000 0.000 0.000 0.000 0.000 0.000 0.000 0.000 0.000 0.000 0.000 0.000
0.000 0.005 1.531 6.350 8.372 15.676 25.440 44.212 87.829 117.316 116.943 125.673 138.949 120.954 90.929 77.870 64.428 56.761 37.611 34.953 33.806 31.286 27.428 18.614 12.964 1.754 0.000 0.000 0.000 0.000 0.000 0.000 0.000 0.000 0.000 0.000 0.000 0.000 0.000 0.000 0.000 0.000
0.000 0.000 0.688 5.045 7.757 12.597 12.381 36.741 68.121 110.800 120.056 133.944 143.434 132.048 106.397 85.705 83.992 62.660 42.771 40.085 32.269 27.715 26.755 21.506 17.359 8.127 0.000 0.000 0.000 0.000 0.000 0.000 0.000 0.000 0.000 0.000 0.000 0.000 0.000 0.000 0.000 0.000
0.000 0.000 0.186 3.935 7.523 9.190 10.661 24.834 63.720 96.736 122.861 124.097 134.972 125.981 92.791 96.488 91.882 56.553 47.976 35.595 21.488 25.295 27.505 28.837 26.714 15.802 0.236 0.000 0.000 0.000 0.000 0.000 0.000 0.000 0.000 0.000 0.000 0.000 0.000 0.000 0.000 0.000
0.000 0.000 0.001 1.952 6.386 7.070 9.347 22.500 57.507 94.798 128.098 138.275 130.167 110.390 89.679 102.881 89.995 70.789 55.380 34.259 20.841 22.686 29.910 32.682 29.563 21.049 4.114 0.000 0.000 0.000 0.000 0.000 0.000 0.000 0.000 0.000 0.000 0.000 0.000 0.000 0.000 0.000
0.000 0.000 0.000 0.359 4.040 4.755 9.352 20.488 44.817 87.860 110.962 117.033 115.207 102.242 105.578 118.213 91.130 69.937 50.772 28.826 22.064 25.401 30.085 30.879 29.931 24.044 9.286 0.000 0.000 0.000 0.000 0.000 0.000 0.000 0.000 0.000 0.000 0.000 0.000 0.000 0.000 0.000
0.000 0.000 0.000 0.092 1.594 4.888 9.949 15.787 31.101 76.062 102.084 98.445 117.000 99.692 120.357 106.861 90.001 77.395 57.857 39.233 24.630 25.069 27.692 30.347 33.762 31.933 11.690 0.000 0.000 0.000 0.000 0.000 0.000 0.000 0.000 0.000 0.000 0.000 0.000 0.000 0.000 0.000
0.000 0.000 0.000 0.002 1.208 5.161 9.763 13.978 25.285 53.496 82.968 101.663 102.600 115.889 115.598 117.624 93.558 86.757 61.573 36.223 22.427 19.907 20.131 27.395 30.653 29.116 9.032 0.035 0.000 0.000 0.000 0.000 0.000 0.000 0.000 0.000 0.000 0.000 0.000 0.000 0.000 0.000
0.000 0.000 0.000 0.000 0.263 4.158 8.369 12.257 15.474 38.596 73.475 100.832 112.658 104.286 122.280 110.311 95.617 82.244 54.510 34.803 20.042 16.890 18.058 23.393 25.798 22.631 12.271 1.622 0.000 0.000 0.000 0.000 0.000 0.000 0.000 0.000 0.000 0.000 0.000 0.000 0.000 0.000
0.000 0.000 0.000 0.000 0.018 1.665 6.885 8.227 11.022 24.877 64.532 88.593 98.331 103.385 101.594 98.215 92.086 64.772 44.234 31.150 22.492 16.428 17.219 17.470 22.152 25.198 16.701 3.489 0.000 0.000 0.000 0.000 0.000 0.000 0.000 0.000 0.000 0.000 0.000 0.000 0.000 0.000
0.000 0.000 0.000 0.000 0.001 0.532 4.432 7.128 9.458 16.023 40.433 64.939 81.150 95.430 93.146 80.880 78.954 55.276 45.630 43.936 24.989 18.186 16.411 12.961 18.629 27.203 14.809 4.735 0.000 0.000 0.000 0.000 0.000 0.000 0.000 0.000 0.000 0.000 0.000 0.000 0.000 0.000
0.000 0.000 0.000 0.000 0.000 0.064 2.917 5.849 7.164 10.560 28.936 57.495 77.437 82.366 83.486 85.979 77.380 60.313 53.716 44.856 28.213 21.957 15.719 13.888 19.098 24.822 16.557 6.432 0.000 0.000 0.000 0.000 0.000 0.000 0.000 0.000 0.000 0.000 0.000 0.000 0.000 0.000
0.000 0.000 0.000 0.000 0.000 0.003 1.541 4.880 6.153 8.148 14.833 43.935 62.476 63.386 70.403 70.353 68.398 61.847 65.408 45.638 35.561 22.823 18.911 16.957 16.753 26.692 18.622 7.791 0.080 0.000 0.000 0.000 0.000 0.000 0.000 0.000 0.000 0.000 0.000 0.000 0.000 0.000
0.000 0.000 0.000 0.000 0.000 0.001 0.519 3.707 5.679 6.761 11.493 29.380 48.688 63.397 68.878 63.161 67.138 66.078 54.201 53.466 40.425 26.164 19.921 13.026 12.975 25.443 19.747 9.272 1.341 0.000 0.000 0.000 0.000 0.000 0.000 0.000 0.000 0.000 0.000 0.000 0.000 0.000
0.000 0.000 0.000 0.000 0.000 0.000 0.136 2.569 4.812 5.875 7.515 18.476 40.825 54.758 56.042 57.317 67.065 68.358 48.918 51.962 38.739 30.911 15.565 10.603 8.909 23.180 20.711 10.587 2.263 0.000 0.000 0.000 0.000 0.000 0.000 0.000 0.000 0.000 0.000 0.000 0.000 0.000
0.000 0.000 0.000 0.000 0.000 0.000 0.019 1.036 3.357 4.950 5.712 13.538 34.893 48.230 53.151 58.900 60.570 62.394 52.259 55.691 43.967 28.600 13.914 9.274 10.888 24.046 22.456 11.779 3.673 0.097 0.000 0.000 0.000 0.000 0.000 0.000 0.000 0.000 0.000 0.000 0.000 0.000
0.000 0.000 0.000 0.000 0.000 0.000 0.020 0.596 2.772 4.600 6.483 10.220 22.639 46.694 55.292 65.228 64.781 52.133 57.699 46.438 36.110 26.496 16.275 12.042 13.955 24.065 23.168 13.142 4.598 1.486 0.000 0.000 0.000 0.000 0.000 0.000 0.000 0.000 0.000 0.000 0.000 0.000
0.000 0.000 0.000 0.000 0.000 0.000 0.000 0.091 2.062 4.069 6.136 9.456 19.991 36.429 50.496 65.266 59.195 58.076 54.076 45.001 32.310 25.228 19.230 14.938 14.477 22.758 23.309 13.034 4.699 2.957 0.098 0.000 0.000 0.000 0.000 0.000 0.000 0.000 0.000 0.000 0.000 0.000
0.000 0.000 0.000 0.000 0.000 0.000 0.000 0.007 0.966 3.699 4.114 7.868 14.193 32.435 47.102 45.374 50.060 48.745 42.786 36.414 25.406 25.792 20.583 16.171 12.324 22.725 22.715 12.880 4.876 3.609 1.327 0.000 0.000 0.000 0.000 0.000 0.000 0.000 0.000 0.000 0.000 0.000
0.000 0.000 0.000 0.000 0.000 0.000 0.000 0.000 0.250 2.529 3.672 6.790 10.460 18.504 35.441 39.380 40.974 40.601 34.598 28.613 26.628 28.225 25.392 18.302 15.544 19.032 18.517 13.117 5.065 3.624 2.323 0.094 0.000 0.000 0.000 0.000 0.000 0.000 0.000 0.000 0.000 0.000
0.000 0.000 0.000 0.000 0.000 0.000 0.000 0.000 0.027 1.883 4.305 5.767 6.910 12.519 27.918 21.990 30.917 27.629 28.702 25.394 30.303 31.189 25.978 20.320 16.512 17.152 17.895 13.647 4.435 3.179 2.756 1.134 0.009 0.000 0.000 0.000 0.000 0.000 0.000 0.000 0.000 0.000
0.000 0.000 0.000 0.000 0.000 0.000 0.000 0.000 0.093 1.381 3.396 3.971 5.090 7.881 13.562 24.384 24.209 25.491 26.504 28.772 29.400 26.537 18.614 25.726 16.673 16.521 16.187 12.266 4.051 3.274 2.962 1.926 0.612 0.000 0.000 0.000 0.000 0.000 0.000 0.000 0.000 0.000
0.000 0.000 0.000 0.000 0.000 0.000 0.000 0.000 0.006 0.506 1.818 3.192 3.281 4.167 8.532 11.931 18.177 25.254 27.443 29.226 23.882 19.877 20.644 20.710 9.300 11.667 14.851 11.273 5.106 3.666 3.061 2.481 1.880 0.036 0.000 0.000 0.000 0.000 0.000 0.000 0.000 0.000
0.000 0.000 0.000 0.000 0.000 0.000 0.000 0.000 0.000 0.070 0.697 2.140 2.689 2.490 7.167 15.414 20.521 24.659 25.025 23.706 19.057 17.517 18.782 15.047 8.800 7.564 13.035 10.455 5.923 3.628 3.070 2.802 1.954 0.477 0.000 0.000 0.000 0.000 0.000 0.000 0.000 0.000
0.000 0.000 0.000 0.000 0.000 0.000 0.000 0.000 0.000 0.000 0.013 0.513 1.332 1.471 3.498 13.236 15.776 19.271 22.944 18.639 15.161 13.770 16.762 14.732 10.606 8.800 8.834 9.509 5.564 3.473 2.931 2.440 2.212 1.782 0.010 0.000 0.000 0.000 0.000 0.000 0.000 0.000
0.000 0.000 0.000 0.000 0.000 0.000 0.000 0.000 0.000 0.000 0.000 0.107 1.344 2.433 4.136 8.549 10.677 14.176 15.505 15.789 15.080 16.600 18.567 18.178 12.916 7.929 6.294 6.588 4.966 3.328 2.725 2.376 2.105 1.689 0.281 0.000 0.000 0.000 0.000 0.000 0.000 0.000
0.000 0.000 0.000 0.000 0.000 0.000 0.000 0.000 0.000 0.000 0.000 0.008 0.981 2.600 3.066 5.723 7.451 10.156 13.977 13.997 16.792 15.972 18.441 14.660 8.185 5.557 3.722 4.478 4.575 3.298 2.612 2.182 1.599 1.167 0.906 0.004 0.000 0.000 0.000 0.000 0.000 0.000
0.000 0.000 0.000 0.000 0.000 0.000 0.000 0.000 0.000 0.000 0.000 0.000 0.071 1.293 1.798 1.301 5.078 7.728 10.228 10.999 11.693 13.494 15.177 8.329 4.199 3.737 1.697 2.003 2.751 2.941 2.251 1.631 1.150 1.443 1.830 0.040 0.000 0.000 0.000 0.000 0.000 0.000
0.000 0.000 0.000 0.000 0.000 0.000 0.000 0.000 0.000 0.000 0.000 0.000 0.000 0.075 1.738 3.124 4.550 7.175 7.992 7.243 8.321 9.545 8.246 4.208 2.187 1.314 0.001 0.462 1.924 2.496 1.760 1.115 0.771 1.114 1.441 0.287 0.000 0.000 0.000 0.000 0.000 0.000
0.000 0.000 0.000 0.000 0.000 0.000 0.000 0.000 0.000 0.000 0.000 0.000 0.000 0.059 0.995 3.270 4.501 6.471 5.962 4.750 6.041 7.338 7.193 2.984 1.627 0.001 0.067 0.495 1.398 1.351 1.275 0.466 0.002 0.385 0.356 0.410 0.000 0.000 0.000 0.000 0.000 0.000
0.000 0.000 0.000 0.000 0.000 0.000 0.000 0.000 0.000 0.000 0.000 0.000 0.000 0.000 0.507 2.188 4.423 4.664 3.143 3.071 4.137 5.214 2.916 0.703 0.000 0.000 0.374 0.384 1.039 1.296 0.858 0.000 0.002 0.002 0.354 0.486 0.044 0.000 0.000 0.000 0.000 0.000
0.000 0.000 0.000 0.000 0.000 0.000 0.000 0.000 0.000 0.000 0.000 0.000 0.000 0.000 0.001 0.804 1.801 2.305 1.442 3.454 4.912 3.713 0.428 0.000 0.001 0.000 0.001 0.255 0.887 0.912 0.189 0.003 0.001 0.000 0.596 0.560 0.110 0.000 0.000 0.000 0.000 0.000
0.000 0.000 0.000 0.000 0.000 0.000 0.000 0.000 0.000 0.000 0.000 0.000 0.000 0.000 0.000 0.100 0.886 1.719 3.169 4.802 4.783 2.145 0.427 0.000 0.003 0.002 0.008 0.645 0.885 0.604 0.391 0.383 0.001 0.001 0.604 0.584 0.185 0.004 0.000 0.000 0.000 0.000
0.000 0.000 0.000 0.000 0.000 0.000 0.000 0.000 0.000 0.000 0.000 0.000 0.000 0.000 0.000 0.000 0.368 1.134 1.851 3.253 2.426 1.311 0.702 0.056 0.534 0.028 0.818 0.823 1.191 0.741 0.780 0.140 0.001 0.006 0.753 0.799 0.482 0.063 0.000 0.000 0.000 0.000
0.000 0.000 0.000 0.000 0.000 0.000 0.000 0.000 0.000 0.000 0.000 0.000 0.000 0.000 0.000 0.000 0.004 0.535 1.387 2.264 2.138 1.537 1.206 0.428 0.033 0.336 1.286 0.918 1.199 0.593 0.725 0.000 0.003 0.246 0.951 0.743 0.713 0.185 0.004 0.000 0.000 0.000
0.000 0.000 0.000 0.000 0.000 0.000 0.000 0.000 0.000 0.000 0.000 0.000 0.000 0.000 0.000 0.000 0.001 0.444 1.397 1.550 0.988 1.170 0.545 1.067 0.000 1.407 1.077 0.766 1.035 0.952 1.017 0.118 0.020 0.587 0.692 0.637 0.779 0.459 0.040 0.001 0.000 0.000
0.000 0.000 0.000 0.000 0.000 0.000 0.000 0.000 0.000 0.000 0.000 0.000 0.000 0.000 0.000 0.000 0.000 0.078 0.541 1.113 1.170 0.943 0.914 1.283 0.841 1.054 0.547 0.415 1.155 1.296 0.715 0.145 0.251 1.097 1.054 0.977 0.670 0.736 0.381 0.110 0.002 0.000
0.000 0.000 0.000 0.000 0.000 0.000 0.000 0.000 0.000 0.000 0.000 0.000 0.000 0.000 0.000 0.000 0.000 0.001 0.039 0.669 1.137 1.086 1.142 1.021 1.050 0.464 0.015 0.562 1.309 0.635 0.070 0.141 0.707 1.720 1.618 1.134 0.706 1.028 0.917 0.501 0.120 0.000
0.000 0.000 0.000 0.000 0.000 0.000 0.000 0.000 0.000 0.000 0.000 0.000 0.000 0.000 0.000 0.000 0.000 0.000 0.000 0.112 0.940 1.064 1.177 1.071 1.311 0.000 0.002 0.260 0.369 0.456 0.013 0.223 0.950 1.909 1.832 0.770 0.784 1.186 1.125 0.903 0.336 0.025
0.000 0.000 0.000 0.000 0.000 0.000 0.000 0.000 0.000 0.000 0.000 0.000 0.000 0.000 0.000 0.000 0.000 0.000 0.000 0.001 0.510 1.176 1.129 0.620 0.083 0.002 0.001 0.201 0.146 0.036 0.002 0.270 0.872 2.042 1.011 0.078 0.472 0.840 1.284 1.154 0.629 0.199
0.000 0.000 0.000 0.000 0.000 0.000 0.000 0.000 0.000 0.000 0.000 0.000 0.000 0.000 0.000 0.000 0.000 0.000 0.000 0.000 0.106 0.879 1.000 0.523 0.001 0.000 0.000 0.159 0.000 0.001 0.063 0.618 0.710 1.242 0.594 0.655 0.416 0.823 1.571 1.226 0.874 0.466
0.000 0.000 0.000 0.000 0.000 0.000 0.000 0.000 0.000 0.000 0.000 0.000 0.000 0.000 0.000 0.000 0.000 0.000 0.000 0.000 0.000 0.182 0.772 0.639 0.140 0.001 0.003 0.001 0.126 0.128 0.370 0.712 0.756 1.758 1.598 1.238 0.666 0.961 1.261 1.083 1.084 0.722
0.000 0.000 0.000 0.000 0.000 0.000 0.000 0.000 0.000 0.000 0.000 0.000 0.000 0.000 0.000 0.000 0.000 0.000 0.000 0.000 0.000 0.002 0.461 0.512 0.383 0.164 0.471 0.394 0.281 0.359 0.379 0.144 0.865 2.197 2.229 1.359 0.423 0.400 0.511 1.253 1.226 0.875
0.000 0.000 0.000 0.000 0.000 0.000 0.000 0.000 0.000 0.000 0.000 0.000 0.000 0.000 0.000 0.000 0.000 0.000 0.000 0.000 0.000 0.000 0.307 0.531 0.366 0.088 0.723 1.180 0.386 0.195 0.026 0.381 1.395 2.813 2.153 1.083 0.291 0.063 0.482 1.225 1.171 0.869
0.000 0.000 0.000 0.000 0.000 0.000 0.000 0.000 0.000 0.000 0.000 0.000 0.000 0.000 0.000 0.000 0.000 0.000 0.000 0.000 0.000 0.000 0.040 0.523 0.544 0.957 0.587 1.647 0.571 0.174 0.196 0.997 1.854 2.162 2.028 1.075 0.001 0.002 0.194 0.786 0.971 0.757
0.000 0.000 0.000 0.000 0.000 0.000 0.000 0.000 0.000 0.000 0.000 0.000 0.000 0.000 0.000 0.000 0.000 0.000 0.000 0.000 0.000 0.000 0.002 0.437 0.895 0.866 1.211 1.302 0.989 0.054 0.025 0.849 1.698 1.776 1.801 0.483 0.002 0.002 0.002 0.296 0.734 0.536
0.000 0.000 0.000 0.000 0.000 0.000 0.000 0.000 0.000 0.000 0.000 0.000 0.000 0.000 0.000 0.000 0.000 0.000 0.000 0.000 0.000 0.000 0.006 0.129 0.645 0.469 1.015 0.131 0.548 0.000 0.062 1.161 2.213 2.289 1.495 0.519 0.001 0.002 0.002 0.002 0.272 0.634
0.000 0.000 0.000 0.000 0.000 0.000 0.000 0.000 0.000 0.000 0.000 0.000 0.000 0.000 0.000 0.000 0.000 0.000 0.000 0.000 0.000 0.000 0.000 0.036 0.001 0.754 0.540 0.001 0.001 0.005 0.509 2.180 2.631 2.684 1.639 1.266 0.001 0.001 0.001 0.002 0.001 0.429
0.000 0.000 0.000 0.000 0.000 0.000 0.000 0.000 0.000 0.000 0.000 0.000 0.000 0.000 0.000 0.000 0.000 0.000 0.000 0.000 0.000 0.000 0.000 0.000 0.173 0.746 0.512 0.001 0.000 0.004 1.423 2.567 2.635 2.772 2.189 1.348 0.002 0.001 0.002 0.001 0.002 0.557
0.000 0.000 0.000 0.000 0.000 0.000 0.000 0.000 0.000 0.000 0.000 0.000 0.000 0.000 0.000 0.000 0.000 0.000 0.000 0.000 0.000 0.000 0.000 0.000 0.139 0.463 0.457 0.001 0.001 1.403 2.497 3.116 2.994 3.433 2.476 0.107 0.024 0.001 0.000 0.002 0.029 0.426
0.000 0.000 0.000 0.000 0.000 0.000 0.000 0.000 0.000 0.000 0.000 0.000 0.000 0.000 0.000 0.000 0.000 0.000 0.000 0.000 0.000 0.000 0.000 0.000 0.044 0.090 0.376 0.053 0.015 3.878 4.283 4.703 4.840 3.842 2.003 0.197 0.399 0.001 0.001 0.000 0.002 0.001
0.000 0.000 0.000 0.000 0.000 0.000 0.000 0.000 0.000 0.000 0.000 0.000 0.000 0.000 0.000 0.000 0.000 0.000 0.000 0.000 0.000 0.000 0.000 0.000 0.000 0.083 0.048 0.002 0.967 3.436 5.817 5.418 5.624 3.689 2.605 1.461 0.610 0.003 0.001 0.001 0.002 0.001
0.000 0.000 0.000 0.000 0.000 0.000 0.000 0.000 0.000 0.000 0.000 0.000 0.000 0.000 0.000 0.000 0.000 0.000 0.000 0.000 0.000 0.000 0.000 0.000 0.000 0.023 0.047 0.121 1.327 2.261 3.870 4.315 3.896 3.736 2.681 1.891 1.113 0.331 0.002 0.000 0.000 0.002
0.000 0.000 0.000 0.000 0.000 0.000 0.000 0.000 0.000 0.000 0.000 0.000 0.000 0.000 0.000 0.000 0.000 0.000 0.000 0.000 0.000 0.000 0.000 0.000 0.000 0.000 0.002 0.821 1.230 1.332 2.494 2.485 3.233 4.473 4.025 3.348 1.885 0.744 0.284 0.001 0.002 0.000
0.000 0.000 0.000 0.000 0.000 0.000 0.000 0.000 0.000 0.000 0.000 0.000 0.000 0.000 0.000 0.000 0.000 0.000 0.000 0.000 0.000 0.000 0.000 0.000 0.000 0.000 0.369 0.926 0.975 0.922 1.321 1.452 2.170 4.795 4.824 4.451 2.803 1.029 0.745 0.197 0.026 0.000
0.000 0.000 0.000 0.000 0.000 0.000 0.000 0.000 0.000 0.000 0.000 0.000 0.000 0.000 0.000 0.000 0.000 0.000 0.000 0.000 0.000 0.000 0.000 0.000 0.000 0.002 0.267 0.567 0.640 0.667 0.956 0.736 1.042 3.391 3.958 4.207 3.574 2.019 0.917 0.332 0.001 0.000
0.000 0.000 0.000 0.000 0.000 0.000 0.000 0.000 0.000 0.000 0.000 0.000 0.000 0.000 0.000 0.000 0.000 0.000 0.000 0.000 0.000 0.000 0.000 0.000 0.000 0.000 0.000 0.080 0.433 0.596 0.720 0.678 0.803 2.769 3.334 3.709 3.591 2.761 1.266 0.577 0.026 0.000
0.000 0.000 0.000 0.000 0.000 0.000 0.000 0.000 0.000 0.000 0.000 0.000 0.000 0.000 0.000 0.000 0.000 0.000 0.000 0.000 0.000 0.000 0.000 0.000 0.000 0.000 0.000 0.000 0.241 0.426 0.354 0.579 1.928 2.811 3.521 3.457 3.313 3.392 1.672 0.844 0.380 0.269
0.000 0.000 0.000 0.000 0.000 0.000 0.000 0.000 0.000 0.000 0.000 0.000 0.000 0.000 0.000 0.000 0.000 0.000 0.000 0.000 0.000 0.000 0.000 0.000 0.000 0.000 0.000 0.000 0.009 0.186 0.025 0.879 2.589 3.091 3.202 3.457 3.341 3.632 1.812 1.012 0.728 0.883
0.000 0.000 0.000 0.000 0.000 0.000 0.000 0.000 0.000 0.000 0.000 0.000 0.000 0.000 0.000 0.000 0.000 0.000 0.000 0.000 0.000 0.000 0.000 0.000 0.000 0.000 0.000 0.000 0.000 0.229 0.452 1.032 2.192 2.788 3.118 3.642 3.635 3.323 2.049 1.143 0.945 0.510
0.000 0.000 0.000 0.000 0.000 0.000 0.000 0.000 0.000 0.000 0.000 0.000 0.000 0.000 0.000 0.000 0.000 0.000 0.000 0.000 0.000 0.000 0.000 0.000 0.000 0.000 0.000 0.000 0.000 0.145 0.554 0.959 1.356 2.334 3.205 4.079 4.610 3.678 2.282 1.378 0.922 0.002
0.000 0.000 0.000 0.000 0.000 0.000 0.000 0.000 0.000 0.000 0.000 0.000 0.000 0.000 0.000 0.000 0.000 0.000 0.000 0.000 0.000 0.000 0.000 0.000 0.000 0.000 0.000 0.000 0.000 0.023 0.669 0.891 0.934 1.755 3.228 4.539 5.762 4.635 2.815 1.971 0.915 0.008
0.000 0.000 0.000 0.000 0.000 0.000 0.000 0.000 0.000 0.000 0.000 0.000 0.000 0.000 0.000 0.000 0.000 0.000 0.000 0.000 0.000 0.000 0.000 0.000 0.000 0.000 0.000 0.000 0.000 0.000 0.372 0.751 0.820 1.439 1.671 3.492 6.297 5.601 3.989 2.931 1.782 0.777
0.000 0.000 0.000 0.000 0.000 0.000 0.000 0.000 0.000 0.000 0.000 0.000 0.000 0.000 0.000 0.000 0.000 0.000 0.000 0.000 0.000 0.000 0.000 0.000 0.000 0.000 0.000 0.000 0.000 0.001 0.128 0.522 0.747 1.393 1.197 3.310 6.559 6.523 4.818 3.098 2.192 1.342
0.000 0.000 0.000 0.000 0.000 0.000 0.000 0.000 0.000 0.000 0.000 0.000 0.000 0.000 0.000 0.000 0.000 0.000 0.000 0.000 0.000 0.000 0.000 0.000 0.000 0.000 0.000 0.000 0.000 0.000 0.010 0.329 0.599 1.273 1.120 2.544 5.373 6.129 4.902 2.335 1.545 1.473
0.000 0.000 0.000 0.000 0.000 0.000 0.000 0.000 0.000 0.000 0.000 0.000 0.000 0.000 0.000 0.000 0.000 0.000 0.000 0.000 0.000 0.000 0.000 0.000 0.000 0.000 0.000 0.000 0.000 0.000 0.000 0.106 0.460 0.816 1.162 1.939 3.836 5.856 4.524 1.882 1.140 1.409
0.000 0.000 0.000 0.000 0.000 0.000 0.000 0.000 0.000 0.000 0.000 0.000 0.000 0.000 0.000 0.000 0.000 0.000 0.000 0.000 0.000 0.000 0.000 0.000 0.000 0.000 0.000 0.000 0.000 0.000 0.000 0.000 0.275 0.753 1.120 1.398 2.730 5.582 3.933 1.966 1.590 1.310
0.000 0.000 0.000 0.000 0.000 0.000 0.000 0.000 0.000 0.000 0.000 0.000 0.000 0.000 0.000 0.000 0.000 0.000 0.000 0.000 0.000 0.000 0.000 0.000 0.000 0.000 0.000 0.000 0.000 0.000 0.000 0.000 0.056 0.980 1.136 1.226 2.237 4.221 3.431 2.296 1.665 1.352
0.000 0.000 0.000 0.000 0.000 0.000 0.000 0.000 0.000 0.000 0.000 0.000 0.000 0.000 0.000 0.000 0.000 0.000 0.000 0.000 0.000 0.000 0.000 0.000 0.000 0.000 0.000 0.000 0.000 0.000 0.000 0.000 0.013 0.895 1.218 1.413 1.858 2.509 2.433 1.727 1.123 1.659
