ncols        49
nrows        122
xllcorner    409567.8
yllcorner    6870859.1
cellsize     5.00
NODATA_value -9999
0.000 0.000 0.000 0.000 0.000 0.000 0.000 0.000 0.000 0.000 0.000 0.000 0.000 0.000 0.000 0.000 0.000 0.000 0.000 0.000 0.000 0.000 0.000 0.000 0.000 0.000 0.000 0.000 0.000 0.000 0.000 0.000 0.000 0.000 0.000 0.000 0.000 0.000 0.000 0.000 0.000 0.000 0.000 0.000 0.000 0.000 0.000 0.000 0.000
0.000 0.000 0.000 0.000 1.319 45.097 94.868 91.368 79.379 38.728 0.799 0.000 0.000 0.000 0.000 0.000 0.000 0.000 0.000 0.000 0.000 0.000 0.000 0.000 0.000 0.000 0.000 0.000 0.000 0.000 0.000 0.000 0.000 0.000 0.000 0.000 0.000 0.000 0.000 0.000 0.000 0.000 0.000 0.000 0.000 0.000 0.000 0.000 0.000
0.000 0.000 0.003 4.074 89.173 96.929 107.536 91.628 81.613 69.400 59.908 1.286 0.000 0.000 0.000 0.000 0.000 0.000 0.000 0.000 0.000 0.000 0.000 0.000 0.000 0.000 0.000 0.000 0.000 0.000 0.000 0.000 0.000 0.000 0.000 0.000 0.000 0.000 0.000 0.000 0.000 0.000 0.000 0.000 0.000 0.000 0.000 0.000 0.000
0.000 0.000 3.486 85.139 95.405 108.253 118.611 94.509 89.199 84.950 74.248 51.597 0.139 0.000 0.000 0.000 0.000 0.000 0.000 0.000 0.000 0.000 0.000 0.000 0.000 0.000 0.000 0.000 0.000 0.000 0.000 0.000 0.000 0.000 0.000 0.000 0.000 0.000 0.000 0.000 0.000 0.000 0.000 0.000 0.000 0.000 0.000 0.000 0.000
0.000 0.755 90.056 95.090 110.544 124.698 125.690 104.280 107.209 116.329 91.778 66.954 24.623 0.000 0.000 0.000 0.000 0.000 0.000 0.000 0.000 0.000 0.000 0.000 0.000 0.000 0.000 0.000 0.000 0.000 0.000 0.000 0.000 0.000 0.000 0.000 0.000 0.000 0.000 0.000 0.000 0.000 0.000 0.000 0.000 0.000 0.000 0.000 0.000
0.000 16.818 87.821 91.897 119.672 139.642 127.201 114.983 129.550 132.074 88.585 85.005 67.386 1.090 0.000 0.000 0.000 0.000 0.000 0.000 0.000 0.000 0.000 0.000 0.000 0.000 0.000 0.000 0.000 0.000 0.000 0.000 0.000 0.000 0.000 0.000 0.000 0.000 0.000 0.000 0.000 0.000 0.000 0.000 0.000 0.000 0.000 0.000 0.000
0.000 83.582 90.312 103.715 113.295 141.686 133.822 134.834 146.773 142.605 113.005 115.432 68.083 30.304 0.000 0.000 0.000 0.000 0.000 0.000 0.000 0.000 0.000 0.000 0.000 0.000 0.000 0.000 0.000 0.000 0.000 0.000 0.000 0.000 0.000 0.000 0.000 0.000 0.000 0.000 0.000 0.000 0.000 0.000 0.000 0.000 0.000 0.000 0.000
0.000 83.909 95.248 115.551 145.148 149.429 140.660 142.380 155.663 163.107 138.096 103.078 86.870 68.702 1.552 0.000 0.000 0.000 0.000 0.000 0.000 0.000 0.000 0.000 0.000 0.000 0.000 0.000 0.000 0.000 0.000 0.000 0.000 0.000 0.000 0.000 0.000 0.000 0.000 0.000 0.000 0.000 0.000 0.000 0.000 0.000 0.000 0.000 0.000
0.000 89.442 105.676 130.678 122.883 135.375 141.967 133.132 149.119 152.919 123.424 103.309 135.956 88.508 21.037 0.000 0.000 0.000 0.000 0.000 0.000 0.000 0.000 0.000 0.000 0.000 0.000 0.000 0.000 0.000 0.000 0.000 0.000 0.000 0.000 0.000 0.000 0.000 0.000 0.000 0.000 0.000 0.000 0.000 0.000 0.000 0.000 0.000 0.000
0.000 81.268 101.626 109.189 99.835 145.327 123.634 126.523 148.283 155.704 128.929 156.844 147.502 87.510 40.329 0.106 0.000 0.000 0.000 0.000 0.000 0.000 0.000 0.000 0.000 0.000 0.000 0.000 0.000 0.000 0.000 0.000 0.000 0.000 0.000 0.000 0.000 0.000 0.000 0.000 0.000 0.000 0.000 0.000 0.000 0.000 0.000 0.000 0.000
0.000 43.674 97.409 93.460 113.726 157.718 149.245 133.296 150.923 139.917 127.527 169.322 126.995 86.830 61.718 8.272 0.000 0.000 0.000 0.000 0.000 0.000 0.000 0.000 0.000 0.000 0.000 0.000 0.000 0.000 0.000 0.000 0.000 0.000 0.000 0.000 0.000 0.000 0.000 0.000 0.000 0.000 0.000 0.000 0.000 0.000 0.000 0.000 0.000
0.000 9.663 79.429 114.698 131.638 132.191 146.165 146.773 134.270 130.885 134.921 146.183 122.441 98.793 84.023 25.170 0.000 0.000 0.000 0.000 0.000 0.000 0.000 0.000 0.000 0.000 0.000 0.000 0.000 0.000 0.000 0.000 0.000 0.000 0.000 0.000 0.000 0.000 0.000 0.000 0.000 0.000 0.000 0.000 0.000 0.000 0.000 0.000 0.000
0.000 0.498 56.122 100.613 119.251 128.085 145.900 138.152 113.561 121.534 132.438 149.659 143.746 143.839 92.267 44.542 0.050 0.000 0.000 0.000 0.000 0.000 0.000 0.000 0.000 0.000 0.000 0.000 0.000 0.000 0.000 0.000 0.000 0.000 0.000 0.000 0.000 0.000 0.000 0.000 0.000 0.000 0.000 0.000 0.000 0.000 0.000 0.000 0.000
0.000 0.003 13.534 77.378 104.292 117.728 128.904 140.104 155.255 119.598 142.561 160.370 170.842 137.981 94.340 48.222 4.113 0.000 0.000 0.000 0.000 0.000 0.000 0.000 0.000 0.000 0.000 0.000 0.000 0.000 0.000 0.000 0.000 0.000 0.000 0.000 0.000 0.000 0.000 0.000 0.000 0.000 0.000 0.000 0.000 0.000 0.000 0.000 0.000
0.000 0.000 1.865 69.066 99.092 116.089 128.759 150.999 141.387 118.049 139.704 168.347 152.360 134.358 94.012 49.962 16.036 0.000 0.000 0.000 0.000 0.000 0.000 0.000 0.000 0.000 0.000 0.000 0.000 0.000 0.000 0.000 0.000 0.000 0.000 0.000 0.000 0.000 0.000 0.000 0.000 0.000 0.000 0.000 0.000 0.000 0.000 0.000 0.000
0.000 0.000 0.197 37.671 88.136 142.893 156.522 148.340 137.425 129.986 150.714 141.361 126.101 119.629 91.496 62.979 31.642 0.861 0.000 0.000 0.000 0.000 0.000 0.000 0.000 0.000 0.000 0.000 0.000 0.000 0.000 0.000 0.000 0.000 0.000 0.000 0.000 0.000 0.000 0.000 0.000 0.000 0.000 0.000 0.000 0.000 0.000 0.000 0.000
0.000 0.000 0.015 17.158 77.324 115.514 147.250 136.498 143.955 131.720 105.899 126.298 113.538 114.820 103.970 67.927 41.696 9.456 0.000 0.000 0.000 0.000 0.000 0.000 0.000 0.000 0.000 0.000 0.000 0.000 0.000 0.000 0.000 0.000 0.000 0.000 0.000 0.000 0.000 0.000 0.000 0.000 0.000 0.000 0.000 0.000 0.000 0.000 0.000
0.000 0.000 0.001 5.312 62.615 109.862 133.157 145.690 139.353 123.261 118.609 108.603 122.749 111.615 98.534 84.714 51.506 22.412 0.880 0.000 0.000 0.000 0.000 0.000 0.000 0.000 0.000 0.000 0.000 0.000 0.000 0.000 0.000 0.000 0.000 0.000 0.000 0.000 0.000 0.000 0.000 0.000 0.000 0.000 0.000 0.000 0.000 0.000 0.000
0.000 0.000 0.000 0.927 39.268 85.634 129.555 167.972 155.086 133.139 122.623 96.307 98.809 112.581 122.891 92.719 60.938 33.312 9.280 0.000 0.000 0.000 0.000 0.000 0.000 0.000 0.000 0.000 0.000 0.000 0.000 0.000 0.000 0.000 0.000 0.000 0.000 0.000 0.000 0.000 0.000 0.000 0.000 0.000 0.000 0.000 0.000 0.000 0.000
0.000 0.000 0.000 0.069 19.036 73.022 110.143 153.708 183.746 191.065 124.019 89.652 84.935 109.859 96.449 94.323 68.291 39.147 17.591 0.090 0.000 0.000 0.000 0.000 0.000 0.000 0.000 0.000 0.000 0.000 0.000 0.000 0.000 0.000 0.000 0.000 0.000 0.000 0.000 0.000 0.000 0.000 0.000 0.000 0.000 0.000 0.000 0.000 0.000
0.000 0.000 0.000 0.001 4.997 45.313 87.289 130.359 176.476 199.390 186.945 139.071 124.788 109.485 89.861 120.961 74.735 39.174 27.129 4.285 0.000 0.000 0.000 0.000 0.000 0.000 0.000 0.000 0.000 0.000 0.000 0.000 0.000 0.000 0.000 0.000 0.000 0.000 0.000 0.000 0.000 0.000 0.000 0.000 0.000 0.000 0.000 0.000 0.000
0.000 0.000 0.000 0.000 0.630 29.612 68.571 114.025 159.283 178.426 184.624 171.805 181.778 159.638 137.038 113.016 87.764 52.236 27.779 12.509 0.000 0.000 0.000 0.000 0.000 0.000 0.000 0.000 0.000 0.000 0.000 0.000 0.000 0.000 0.000 0.000 0.000 0.000 0.000 0.000 0.000 0.000 0.000 0.000 0.000 0.000 0.000 0.000 0.000
0.000 0.000 0.000 0.000 0.032 12.816 56.650 97.447 128.429 148.524 181.480 194.813 179.475 154.653 150.023 131.718 94.755 60.696 27.998 19.521 0.000 0.000 0.000 0.000 0.000 0.000 0.000 0.000 0.000 0.000 0.000 0.000 0.000 0.000 0.000 0.000 0.000 0.000 0.000 0.000 0.000 0.000 0.000 0.000 0.000 0.000 0.000 0.000 0.000
0.000 0.000 0.000 0.000 0.000 2.811 36.046 80.819 116.386 140.087 164.311 175.105 166.254 155.382 152.744 129.629 101.673 64.431 35.505 23.794 0.038 0.000 0.000 0.000 0.000 0.000 0.000 0.000 0.000 0.000 0.000 0.000 0.000 0.000 0.000 0.000 0.000 0.000 0.000 0.000 0.000 0.000 0.000 0.000 0.000 0.000 0.000 0.000 0.000
0.000 0.000 0.000 0.000 0.000 0.274 18.222 57.361 92.384 132.603 159.103 153.139 162.358 177.002 157.228 154.289 130.743 82.860 30.470 22.803 3.601 0.000 0.000 0.000 0.000 0.000 0.000 0.000 0.000 0.000 0.000 0.000 0.000 0.000 0.000 0.000 0.000 0.000 0.000 0.000 0.000 0.000 0.000 0.000 0.000 0.000 0.000 0.000 0.000
0.000 0.000 0.000 0.000 0.000 0.009 5.731 38.795 78.398 120.664 139.395 158.840 141.993 151.593 132.477 155.444 110.967 81.574 47.597 33.652 8.566 0.000 0.000 0.000 0.000 0.000 0.000 0.000 0.000 0.000 0.000 0.000 0.000 0.000 0.000 0.000 0.000 0.000 0.000 0.000 0.000 0.000 0.000 0.000 0.000 0.000 0.000 0.000 0.000
0.000 0.000 0.000 0.000 0.000 0.000 0.920 20.074 58.852 104.686 139.902 138.027 146.046 156.789 150.121 137.489 107.419 83.629 58.451 35.937 13.014 0.000 0.000 0.000 0.000 0.000 0.000 0.000 0.000 0.000 0.000 0.000 0.000 0.000 0.000 0.000 0.000 0.000 0.000 0.000 0.000 0.000 0.000 0.000 0.000 0.000 0.000 0.000 0.000
0.000 0.000 0.000 0.000 0.000 0.000 0.058 8.304 40.270 77.872 109.479 121.695 143.441 129.958 134.519 124.632 112.318 81.483 55.623 38.398 17.803 0.000 0.000 0.000 0.000 0.000 0.000 0.000 0.000 0.000 0.000 0.000 0.000 0.000 0.000 0.000 0.000 0.000 0.000 0.000 0.000 0.000 0.000 0.000 0.000 0.000 0.000 0.000 0.000
0.000 0.000 0.000 0.000 0.000 0.000 0.001 2.240 21.988 48.204 82.837 132.169 118.278 144.566 139.577 115.047 104.796 73.973 72.379 41.562 20.206 0.000 0.000 0.000 0.000 0.000 0.000 0.000 0.000 0.000 0.000 0.000 0.000 0.000 0.000 0.000 0.000 0.000 0.000 0.000 0.000 0.000 0.000 0.000 0.000 0.000 0.000 0.000 0.000
0.000 0.000 0.000 0.000 0.000 0.000 0.000 0.449 12.765 33.924 67.893 110.358 122.585 121.648 133.265 122.274 87.726 75.580 71.187 44.616 23.543 0.000 0.000 0.000 0.000 0.000 0.000 0.000 0.000 0.000 0.000 0.000 0.000 0.000 0.000 0.000 0.000 0.000 0.000 0.000 0.000 0.000 0.000 0.000 0.000 0.000 0.000 0.000 0.000
0.000 0.000 0.000 0.000 0.000 0.000 0.000 0.114 7.379 19.194 38.770 78.729 104.581 116.224 127.604 105.145 84.514 75.573 94.932 47.655 23.996 0.000 0.000 0.000 0.000 0.000 0.000 0.000 0.000 0.000 0.000 0.000 0.000 0.000 0.000 0.000 0.000 0.000 0.000 0.000 0.000 0.000 0.000 0.000 0.000 0.000 0.000 0.000 0.000
0.000 0.000 0.000 0.000 0.000 0.000 0.000 0.056 6.192 15.834 25.375 55.105 96.547 113.084 112.783 94.334 73.936 97.279 88.847 51.063 27.278 0.427 0.000 0.000 0.000 0.000 0.000 0.000 0.000 0.000 0.000 0.000 0.000 0.000 0.000 0.000 0.000 0.000 0.000 0.000 0.000 0.000 0.000 0.000 0.000 0.000 0.000 0.000 0.000
0.000 0.000 0.000 0.000 0.000 0.000 0.000 0.022 5.064 13.527 19.652 32.567 75.447 87.969 96.419 81.507 74.622 115.335 91.247 58.036 21.265 2.845 0.000 0.000 0.000 0.000 0.000 0.000 0.000 0.000 0.000 0.000 0.000 0.000 0.000 0.000 0.000 0.000 0.000 0.000 0.000 0.000 0.000 0.000 0.000 0.000 0.000 0.000 0.000
0.000 0.000 0.000 0.000 0.000 0.000 0.000 0.005 3.331 13.124 14.435 16.160 45.127 82.896 84.441 80.128 106.403 117.679 93.263 62.438 22.789 7.930 0.000 0.000 0.000 0.000 0.000 0.000 0.000 0.000 0.000 0.000 0.000 0.000 0.000 0.000 0.000 0.000 0.000 0.000 0.000 0.000 0.000 0.000 0.000 0.000 0.000 0.000 0.000
0.000 0.000 0.000 0.000 0.000 0.000 0.000 0.001 1.536 10.914 12.022 13.184 26.453 81.299 94.519 101.780 109.503 119.274 89.266 56.314 26.126 15.062 0.485 0.000 0.000 0.000 0.000 0.000 0.000 0.000 0.000 0.000 0.000 0.000 0.000 0.000 0.000 0.000 0.000 0.000 0.000 0.000 0.000 0.000 0.000 0.000 0.000 0.000 0.000
0.000 0.000 0.000 0.000 0.000 0.000 0.000 0.000 0.611 7.814 11.489 10.474 12.872 69.488 83.739 96.047 89.564 109.083 79.075 60.073 33.015 17.085 5.792 0.715 0.005 0.000 0.000 0.000 0.000 0.000 0.000 0.000 0.000 0.000 0.000 0.000 0.000 0.000 0.000 0.000 0.000 0.000 0.000 0.000 0.000 0.000 0.000 0.000 0.000
0.000 0.000 0.000 0.000 0.000 0.000 0.000 0.000 0.163 4.848 8.458 9.616 9.137 37.457 75.253 89.571 83.772 97.648 82.756 67.830 36.986 15.158 14.178 8.167 2.564 0.000 0.000 0.000 0.000 0.000 0.000 0.000 0.000 0.000 0.000 0.000 0.000 0.000 0.000 0.000 0.000 0.000 0.000 0.000 0.000 0.000 0.000 0.000 0.000
0.000 0.000 0.000 0.000 0.000 0.000 0.000 0.000 0.032 3.143 9.031 9.838 8.361 12.866 66.343 76.241 88.136 86.829 85.355 75.363 42.212 19.115 21.538 15.637 10.747 0.180 0.000 0.000 0.000 0.000 0.000 0.000 0.000 0.000 0.000 0.000 0.000 0.000 0.000 0.000 0.000 0.000 0.000 0.000 0.000 0.000 0.000 0.000 0.000
0.000 0.000 0.000 0.000 0.000 0.000 0.000 0.000 0.018 2.759 8.395 8.432 7.973 8.096 53.041 65.497 77.254 87.547 89.732 81.714 47.717 23.508 23.144 17.714 14.313 4.520 0.000 0.000 0.000 0.000 0.000 0.000 0.000 0.000 0.000 0.000 0.000 0.000 0.000 0.000 0.000 0.000 0.000 0.000 0.000 0.000 0.000 0.000 0.000
0.000 0.000 0.000 0.000 0.000 0.000 0.000 0.000 0.001 1.467 6.170 7.832 8.309 9.501 37.400 62.513 73.347 92.051 93.231 88.890 54.213 28.846 23.552 19.400 16.719 8.577 0.024 0.000 0.000 0.000 0.000 0.000 0.000 0.000 0.000 0.000 0.000 0.000 0.000 0.000 0.000 0.000 0.000 0.000 0.000 0.000 0.000 0.000 0.000
0.000 0.000 0.000 0.000 0.000 0.000 0.000 0.000 0.000 0.515 5.575 7.399 8.717 11.499 32.676 63.850 78.788 86.144 101.151 92.171 70.726 36.765 21.256 16.127 14.309 10.845 1.937 0.000 0.000 0.000 0.000 0.000 0.000 0.000 0.000 0.000 0.000 0.000 0.000 0.000 0.000 0.000 0.000 0.000 0.000 0.000 0.000 0.000 0.000
0.000 0.000 0.000 0.000 0.000 0.000 0.000 0.000 0.000 0.263 4.581 6.567 8.484 11.708 36.422 63.375 94.708 114.904 114.504 98.397 78.792 33.855 16.454 15.629 15.122 15.573 5.772 0.082 0.000 0.000 0.000 0.000 0.000 0.000 0.000 0.000 0.000 0.000 0.000 0.000 0.000 0.000 0.000 0.000 0.000 0.000 0.000 0.000 0.000
0.000 0.000 0.000 0.000 0.000 0.000 0.000 0.000 0.000 0.261 4.434 5.858 7.358 10.326 28.291 52.782 81.567 96.174 94.501 93.046 80.447 36.771 17.245 14.748 18.472 16.947 6.850 1.984 0.000 0.000 0.000 0.000 0.000 0.000 0.000 0.000 0.000 0.000 0.000 0.000 0.000 0.000 0.000 0.000 0.000 0.000 0.000 0.000 0.000
0.000 0.000 0.000 0.000 0.000 0.000 0.000 0.000 0.000 0.093 4.033 4.854 7.346 11.313 29.166 44.354 88.555 104.711 77.770 103.838 70.032 43.122 18.537 17.391 18.710 13.679 9.566 8.777 0.445 0.000 0.000 0.000 0.000 0.000 0.000 0.000 0.000 0.000 0.000 0.000 0.000 0.000 0.000 0.000 0.000 0.000 0.000 0.000 0.000
0.000 0.000 0.000 0.000 0.000 0.000 0.000 0.000 0.000 0.005 2.238 4.098 7.196 9.801 23.306 33.149 53.898 92.244 94.852 90.289 70.701 47.249 21.000 17.767 16.651 17.359 17.073 17.581 3.837 0.000 0.000 0.000 0.000 0.000 0.000 0.000 0.000 0.000 0.000 0.000 0.000 0.000 0.000 0.000 0.000 0.000 0.000 0.000 0.000
0.000 0.000 0.000 0.000 0.000 0.000 0.000 0.000 0.000 0.001 1.647 3.733 6.087 7.511 18.408 27.549 36.199 73.353 82.223 82.781 72.343 51.548 25.720 17.015 18.016 19.946 21.678 20.340 7.215 0.060 0.002 0.000 0.000 0.000 0.000 0.000 0.000 0.000 0.000 0.000 0.000 0.000 0.000 0.000 0.000 0.000 0.000 0.000 0.000
0.000 0.000 0.000 0.000 0.000 0.000 0.000 0.000 0.000 0.002 1.856 5.254 5.813 7.318 12.727 19.810 29.674 69.758 89.169 87.852 75.799 55.403 32.530 18.430 18.670 18.708 23.697 15.355 9.486 0.658 0.648 0.000 0.000 0.000 0.000 0.000 0.000 0.000 0.000 0.000 0.000 0.000 0.000 0.000 0.000 0.000 0.000 0.000 0.000
0.000 0.000 0.000 0.000 0.000 0.000 0.000 0.000 0.000 0.058 2.512 5.421 6.177 6.530 11.389 18.229 27.057 56.122 90.856 85.275 84.685 60.112 36.765 22.865 18.248 21.666 28.246 18.124 12.465 4.611 2.642 0.002 0.000 0.000 0.000 0.000 0.000 0.000 0.000 0.000 0.000 0.000 0.000 0.000 0.000 0.000 0.000 0.000 0.000
0.000 0.000 0.000 0.000 0.000 0.000 0.000 0.000 0.000 0.101 2.566 4.534 6.398 7.106 10.462 16.370 26.137 54.033 96.732 97.298 77.936 64.046 43.850 29.043 17.711 20.271 21.197 23.240 15.326 8.111 3.706 0.460 0.000 0.000 0.000 0.000 0.000 0.000 0.000 0.000 0.000 0.000 0.000 0.000 0.000 0.000 0.000 0.000 0.000
0.000 0.000 0.000 0.000 0.000 0.000 0.000 0.000 0.000 0.006 1.966 5.025 6.158 5.991 10.193 16.691 25.728 52.274 86.705 101.777 82.324 62.642 49.965 36.537 20.773 19.555 18.881 22.195 14.246 11.519 5.693 2.175 0.000 0.000 0.000 0.000 0.000 0.000 0.000 0.000 0.000 0.000 0.000 0.000 0.000 0.000 0.000 0.000 0.000
0.000 0.000 0.000 0.000 0.000 0.000 0.000 0.000 0.000 0.003 1.342 4.601 5.163 5.254 9.054 16.414 22.516 50.108 81.878 104.047 103.114 85.187 57.600 45.055 22.898 20.895 22.259 22.407 16.781 13.302 7.771 3.916 0.063 0.000 0.000 0.000 0.000 0.000 0.000 0.000 0.000 0.000 0.000 0.000 0.000 0.000 0.000 0.000 0.000
0.000 0.000 0.000 0.000 0.000 0.000 0.000 0.000 0.000 0.000 0.566 4.419 5.748 6.469 8.596 14.524 21.299 46.084 81.799 93.213 103.858 99.875 72.367 48.330 30.130 20.648 20.163 17.254 19.183 16.782 10.737 6.421 1.115 0.000 0.000 0.000 0.000 0.000 0.000 0.000 0.000 0.000 0.000 0.000 0.000 0.000 0.000 0.000 0.000
0.000 0.000 0.000 0.000 0.000 0.000 0.000 0.000 0.000 0.000 0.501 3.808 5.835 7.177 7.314 11.257 19.920 42.086 82.509 98.174 104.189 109.820 98.433 56.074 32.749 19.589 20.551 20.282 20.552 20.419 14.737 8.645 2.649 0.012 0.000 0.000 0.000 0.000 0.000 0.000 0.000 0.000 0.000 0.000 0.000 0.000 0.000 0.000 0.000
0.000 0.000 0.000 0.000 0.000 0.000 0.000 0.000 0.000 0.000 0.382 2.710 5.181 5.937 7.019 10.458 18.196 36.967 72.174 104.183 111.286 106.681 87.656 54.692 27.597 20.907 19.322 21.960 24.071 21.568 19.455 11.136 6.959 1.111 0.000 0.000 0.000 0.000 0.000 0.000 0.000 0.000 0.000 0.000 0.000 0.000 0.000 0.000 0.000
0.000 0.000 0.000 0.000 0.000 0.000 0.000 0.000 0.000 0.000 0.359 2.528 4.483 4.643 5.726 9.075 15.220 30.516 67.451 101.771 107.508 108.539 106.797 76.889 36.943 25.371 20.042 23.581 25.785 27.938 20.826 18.059 11.433 3.360 0.004 0.000 0.000 0.000 0.000 0.000 0.000 0.000 0.000 0.000 0.000 0.000 0.000 0.000 0.000
0.000 0.000 0.000 0.000 0.000 0.000 0.000 0.000 0.000 0.000 0.179 2.164 3.757 4.756 5.819 8.599 14.457 25.710 56.285 85.052 91.110 109.559 98.183 75.687 50.370 27.679 24.268 25.353 28.055 27.333 25.009 23.931 13.231 5.003 0.665 0.000 0.000 0.000 0.000 0.000 0.000 0.000 0.000 0.000 0.000 0.000 0.000 0.000 0.000
0.000 0.000 0.000 0.000 0.000 0.000 0.000 0.000 0.000 0.000 0.049 1.939 3.675 4.623 5.776 8.555 12.646 20.679 48.578 79.656 99.835 109.116 86.916 80.166 43.087 32.867 30.999 26.676 25.558 26.389 28.412 25.498 12.796 8.323 2.874 0.000 0.000 0.000 0.000 0.000 0.000 0.000 0.000 0.000 0.000 0.000 0.000 0.000 0.000
0.000 0.000 0.000 0.000 0.000 0.000 0.000 0.000 0.000 0.000 0.000 0.954 3.604 4.102 4.979 6.700 10.809 17.823 43.552 88.944 102.238 93.835 100.161 69.547 46.499 38.478 23.543 19.529 20.453 26.822 32.773 22.822 15.123 12.509 5.472 0.035 0.000 0.000 0.000 0.000 0.000 0.000 0.000 0.000 0.000 0.000 0.000 0.000 0.000
0.000 0.000 0.000 0.000 0.000 0.000 0.000 0.000 0.000 0.000 0.000 0.367 3.508 4.103 5.642 7.578 8.764 17.751 38.633 76.966 81.911 103.987 85.628 65.599 53.585 32.634 19.749 19.496 22.645 30.253 26.359 22.940 22.634 18.505 7.107 1.323 0.000 0.000 0.000 0.000 0.000 0.000 0.000 0.000 0.000 0.000 0.000 0.000 0.000
0.000 0.000 0.000 0.000 0.000 0.000 0.000 0.000 0.000 0.000 0.001 0.678 3.884 4.825 5.331 6.349 11.803 16.045 34.823 60.580 88.369 93.516 85.350 81.956 59.763 42.411 28.239 24.346 26.926 26.247 24.075 29.563 24.323 16.315 10.719 3.762 0.002 0.000 0.000 0.000 0.000 0.000 0.000 0.000 0.000 0.000 0.000 0.000 0.000
0.000 0.000 0.000 0.000 0.000 0.000 0.000 0.000 0.000 0.000 0.001 0.619 3.720 4.964 3.908 6.658 9.769 5.524 24.682 55.037 72.985 88.040 98.435 85.562 60.777 46.201 34.327 31.975 24.472 26.161 27.719 26.853 24.223 17.742 14.316 6.306 0.689 0.000 0.000 0.000 0.000 0.000 0.000 0.000 0.000 0.000 0.000 0.000 0.000
0.000 0.000 0.000 0.000 0.000 0.000 0.000 0.000 0.000 0.000 0.000 0.080 2.550 5.059 4.206 5.023 4.703 5.784 18.971 50.794 73.730 93.069 101.175 93.786 72.508 52.811 46.273 34.395 26.583 28.100 25.276 22.932 23.486 19.753 17.683 12.276 3.860 0.000 0.000 0.000 0.000 0.000 0.000 0.000 0.000 0.000 0.000 0.000 0.000
0.000 0.000 0.000 0.000 0.000 0.000 0.000 0.000 0.000 0.000 0.000 0.013 1.684 5.137 4.822 4.173 4.113 6.098 19.287 43.471 73.278 86.123 94.797 89.914 62.340 61.730 53.177 30.091 28.536 23.000 15.475 20.549 23.722 25.793 25.173 17.594 7.074 0.013 0.000 0.000 0.000 0.000 0.000 0.000 0.000 0.000 0.000 0.000 0.000
0.000 0.000 0.000 0.000 0.000 0.000 0.000 0.000 0.000 0.000 0.000 0.000 0.015 4.267 4.811 3.457 3.612 8.383 19.372 39.208 73.084 95.019 91.926 77.502 62.232 68.601 55.200 38.963 31.576 20.466 14.989 18.498 25.264 28.575 26.779 21.320 11.969 1.766 0.000 0.000 0.000 0.000 0.000 0.000 0.000 0.000 0.000 0.000 0.000
0.000 0.000 0.000 0.000 0.000 0.000 0.000 0.000 0.000 0.000 0.000 0.000 0.067 1.853 3.848 2.212 4.198 8.202 16.661 32.885 60.773 77.336 81.893 73.216 74.984 81.258 58.369 40.771 27.802 17.281 15.878 20.313 25.485 26.406 26.498 22.908 15.407 5.083 0.000 0.000 0.000 0.000 0.000 0.000 0.000 0.000 0.000 0.000 0.000
0.000 0.000 0.000 0.000 0.000 0.000 0.000 0.000 0.000 0.000 0.000 0.000 0.000 1.092 1.960 2.743 4.981 6.803 12.469 27.325 53.542 61.529 82.446 72.371 86.130 74.070 60.254 49.263 32.915 23.100 16.663 18.898 22.892 25.861 29.290 28.882 16.216 4.474 0.023 0.000 0.000 0.000 0.000 0.000 0.000 0.000 0.000 0.000 0.000
0.000 0.000 0.000 0.000 0.000 0.000 0.000 0.000 0.000 0.000 0.000 0.000 0.000 0.071 2.058 3.534 5.027 6.476 9.571 20.119 39.694 61.449 69.056 83.170 83.861 82.788 64.419 57.296 35.955 20.340 13.721 13.699 15.817 22.920 25.770 25.246 10.560 2.766 0.024 0.000 0.000 0.000 0.000 0.000 0.000 0.000 0.000 0.000 0.000
0.000 0.000 0.000 0.000 0.000 0.000 0.000 0.000 0.000 0.000 0.000 0.000 0.000 0.014 1.137 3.530 4.803 5.789 6.283 16.321 32.073 58.751 73.619 74.049 88.850 78.607 66.981 56.422 33.585 18.682 11.179 10.497 13.049 18.712 20.901 19.763 12.031 4.328 0.000 0.000 0.000 0.000 0.000 0.000 0.000 0.000 0.000 0.000 0.000
0.000 0.000 0.000 0.000 0.000 0.000 0.000 0.000 0.000 0.000 0.000 0.000 0.000 0.001 0.344 2.209 4.305 4.146 5.191 10.971 26.344 48.905 62.245 71.915 71.624 70.704 64.898 44.099 26.377 17.089 11.885 9.412 11.211 12.826 16.937 21.604 16.431 5.474 0.014 0.000 0.000 0.000 0.000 0.000 0.000 0.000 0.000 0.000 0.000
0.000 0.000 0.000 0.000 0.000 0.000 0.000 0.000 0.000 0.000 0.000 0.000 0.000 0.000 0.046 1.059 3.072 3.683 4.497 7.007 16.467 31.560 49.194 65.314 64.881 56.622 53.878 36.482 28.798 24.587 12.404 10.033 9.701 8.406 13.870 22.606 15.220 6.421 0.903 0.000 0.000 0.000 0.000 0.000 0.000 0.000 0.000 0.000 0.000
0.000 0.000 0.000 0.000 0.000 0.000 0.000 0.000 0.000 0.000 0.000 0.000 0.000 0.000 0.001 0.287 2.371 3.170 3.595 5.128 12.190 23.657 43.024 55.317 57.451 60.157 53.322 40.977 35.682 26.832 13.964 11.731 8.997 8.841 13.254 19.547 16.133 7.253 1.785 0.000 0.000 0.000 0.000 0.000 0.000 0.000 0.000 0.000 0.000
0.000 0.000 0.000 0.000 0.000 0.000 0.000 0.000 0.000 0.000 0.000 0.000 0.000 0.000 0.000 0.029 1.569 2.752 3.152 4.472 6.485 15.915 30.085 38.451 47.521 48.868 47.554 42.960 43.898 28.497 18.376 12.118 10.640 9.979 9.707 19.923 17.342 7.622 2.388 0.001 0.000 0.000 0.000 0.000 0.000 0.000 0.000 0.000 0.000
0.000 0.000 0.000 0.000 0.000 0.000 0.000 0.000 0.000 0.000 0.000 0.000 0.000 0.000 0.000 0.014 0.814 2.237 2.999 3.761 5.183 9.822 19.468 36.113 45.424 43.931 47.013 46.324 36.455 34.276 20.996 13.542 10.334 7.137 6.354 17.294 17.624 8.547 2.576 0.226 0.000 0.000 0.000 0.000 0.000 0.000 0.000 0.000 0.000
0.000 0.000 0.000 0.000 0.000 0.000 0.000 0.000 0.000 0.000 0.000 0.000 0.000 0.000 0.000 0.002 0.339 1.740 2.523 3.219 3.299 6.597 14.373 28.211 36.001 40.295 47.169 48.081 33.705 34.208 21.305 14.604 6.878 4.957 3.743 14.032 17.871 9.612 2.545 0.935 0.000 0.000 0.000 0.000 0.000 0.000 0.000 0.000 0.000
0.000 0.000 0.000 0.000 0.000 0.000 0.000 0.000 0.000 0.000 0.000 0.000 0.000 0.000 0.000 0.001 0.104 0.884 1.822 2.678 2.459 4.879 11.686 22.560 33.386 41.905 43.206 44.055 36.766 37.147 25.791 11.607 5.513 3.973 5.652 12.800 18.816 10.291 3.439 1.626 0.025 0.000 0.000 0.000 0.000 0.000 0.000 0.000 0.000
0.000 0.000 0.000 0.000 0.000 0.000 0.000 0.000 0.000 0.000 0.000 0.000 0.000 0.000 0.000 0.000 0.128 0.579 1.574 2.404 3.224 4.143 8.969 18.674 32.715 46.537 46.113 36.209 40.426 31.231 21.293 10.661 6.405 5.782 7.650 11.713 18.796 10.997 3.946 2.479 0.724 0.000 0.000 0.000 0.000 0.000 0.000 0.000 0.000
0.000 0.000 0.000 0.000 0.000 0.000 0.000 0.000 0.000 0.000 0.000 0.000 0.000 0.000 0.000 0.000 0.000 0.161 1.262 2.141 2.990 3.986 7.772 14.659 25.419 45.597 41.809 40.083 37.231 30.246 19.090 10.601 6.875 7.074 7.302 10.493 18.252 10.319 3.817 3.077 1.910 0.063 0.000 0.000 0.000 0.000 0.000 0.000 0.000
0.000 0.000 0.000 0.000 0.000 0.000 0.000 0.000 0.000 0.000 0.000 0.000 0.000 0.000 0.000 0.000 0.000 0.021 0.719 2.029 1.952 3.504 5.947 13.234 20.524 31.213 34.419 32.814 28.702 23.902 15.563 12.320 7.633 7.112 5.929 9.708 16.649 9.591 3.809 3.160 2.397 0.891 0.000 0.000 0.000 0.000 0.000 0.000 0.000
0.000 0.000 0.000 0.000 0.000 0.000 0.000 0.000 0.000 0.000 0.000 0.000 0.000 0.000 0.000 0.000 0.000 0.001 0.300 1.439 1.831 3.174 4.522 7.980 13.777 25.825 27.309 26.058 22.634 18.394 17.479 15.810 10.094 7.659 7.543 7.455 11.643 9.246 3.835 2.906 2.441 1.483 0.085 0.000 0.000 0.000 0.000 0.000 0.000
0.000 0.000 0.000 0.000 0.000 0.000 0.000 0.000 0.000 0.000 0.000 0.000 0.000 0.000 0.000 0.000 0.000 0.000 0.110 1.185 2.205 2.706 3.306 5.499 8.188 11.701 18.841 16.996 18.453 16.813 20.348 18.334 9.832 7.842 7.805 6.849 9.245 9.133 3.222 2.393 2.369 1.933 0.863 0.018 0.000 0.000 0.000 0.000 0.000
0.000 0.000 0.000 0.000 0.000 0.000 0.000 0.000 0.000 0.000 0.000 0.000 0.000 0.000 0.000 0.000 0.000 0.000 0.216 1.034 1.781 1.971 2.455 3.821 4.183 11.645 13.669 15.774 17.214 19.740 19.559 15.386 7.255 9.793 6.181 7.036 7.625 7.661 2.834 2.338 2.274 1.952 1.725 0.889 0.000 0.000 0.000 0.000 0.000
0.000 0.000 0.000 0.000 0.000 0.000 0.000 0.000 0.000 0.000 0.000 0.000 0.000 0.000 0.000 0.000 0.000 0.000 0.037 0.529 1.118 1.712 1.749 2.208 3.521 5.004 10.045 15.733 17.914 19.692 15.370 10.974 8.367 7.137 2.116 4.291 7.031 6.483 3.571 2.502 2.201 2.053 2.157 1.462 0.003 0.000 0.000 0.000 0.000
0.000 0.000 0.000 0.000 0.000 0.000 0.000 0.000 0.000 0.000 0.000 0.000 0.000 0.000 0.000 0.000 0.000 0.000 0.002 0.159 0.551 1.253 1.458 1.276 2.134 7.463 11.760 14.748 16.046 15.221 11.638 8.965 7.007 4.712 1.959 1.766 6.002 5.780 4.085 2.418 2.086 2.044 1.732 0.869 0.312 0.000 0.000 0.000 0.000
0.000 0.000 0.000 0.000 0.000 0.000 0.000 0.000 0.000 0.000 0.000 0.000 0.000 0.000 0.000 0.000 0.000 0.000 0.000 0.000 0.025 0.380 0.800 0.779 0.263 5.373 8.226 10.580 13.724 11.436 9.078 6.689 5.838 4.861 3.543 2.866 3.740 5.021 3.676 2.258 1.914 1.647 1.631 1.662 0.901 0.000 0.000 0.000 0.000
0.000 0.000 0.000 0.000 0.000 0.000 0.000 0.000 0.000 0.000 0.000 0.000 0.000 0.000 0.000 0.000 0.000 0.000 0.000 0.000 0.000 0.107 0.818 1.308 2.038 3.277 4.795 6.949 8.662 9.330 9.931 9.187 6.941 6.902 4.995 2.798 2.503 3.207 3.170 2.110 1.736 1.536 1.425 1.339 0.735 0.012 0.000 0.000 0.000
0.000 0.000 0.000 0.000 0.000 0.000 0.000 0.000 0.000 0.000 0.000 0.000 0.000 0.000 0.000 0.000 0.000 0.000 0.000 0.000 0.000 0.012 0.641 1.379 1.459 1.266 2.842 4.274 7.406 7.905 11.062 7.892 7.456 5.920 3.216 2.027 1.498 2.114 2.748 2.060 1.615 1.368 1.071 0.891 1.010 0.137 0.000 0.000 0.000
0.000 0.000 0.000 0.000 0.000 0.000 0.000 0.000 0.000 0.000 0.000 0.000 0.000 0.000 0.000 0.000 0.000 0.000 0.000 0.000 0.000 0.000 0.079 0.799 1.038 0.030 1.444 3.142 4.947 5.504 6.706 5.693 6.126 3.290 1.383 1.331 0.430 0.733 1.194 1.774 1.387 1.028 0.774 1.047 1.701 0.535 0.000 0.000 0.000
0.000 0.000 0.000 0.000 0.000 0.000 0.000 0.000 0.000 0.000 0.000 0.000 0.000 0.000 0.000 0.000 0.000 0.000 0.000 0.000 0.000 0.000 0.000 0.049 1.003 1.596 1.397 2.957 3.668 2.672 4.008 3.619 3.181 1.587 0.612 0.158 0.002 0.003 0.390 1.403 1.061 0.725 0.531 0.809 1.288 0.720 0.000 0.000 0.000
0.000 0.000 0.000 0.000 0.000 0.000 0.000 0.000 0.000 0.000 0.000 0.000 0.000 0.000 0.000 0.000 0.000 0.000 0.000 0.000 0.000 0.000 0.000 0.074 0.642 1.808 2.394 3.101 2.474 1.128 2.247 2.440 2.719 1.005 0.277 0.001 0.000 0.001 0.114 0.420 0.766 0.317 0.002 0.270 0.303 0.479 0.019 0.000 0.000
0.000 0.000 0.000 0.000 0.000 0.000 0.000 0.000 0.000 0.000 0.000 0.000 0.000 0.000 0.000 0.000 0.000 0.000 0.000 0.000 0.000 0.000 0.000 0.000 0.376 1.300 2.578 2.316 0.495 0.181 1.064 2.036 0.858 0.028 0.000 0.000 0.001 0.002 0.002 0.255 0.434 0.000 0.002 0.002 0.237 0.458 0.230 0.000 0.000
0.000 0.000 0.000 0.000 0.000 0.000 0.000 0.000 0.000 0.000 0.000 0.000 0.000 0.000 0.000 0.000 0.000 0.000 0.000 0.000 0.000 0.000 0.000 0.000 0.002 0.560 1.075 1.257 0.002 0.754 1.856 1.605 0.001 0.000 0.001 0.000 0.002 0.002 0.001 0.028 0.001 0.002 0.001 0.002 0.386 0.460 0.158 0.000 0.000
0.000 0.000 0.000 0.000 0.000 0.000 0.000 0.000 0.000 0.000 0.000 0.000 0.000 0.000 0.000 0.000 0.000 0.000 0.000 0.000 0.000 0.000 0.000 0.000 0.000 0.093 0.576 1.020 1.785 2.430 1.928 0.529 0.000 0.000 0.001 0.002 0.000 0.000 0.000 0.001 0.001 0.137 0.002 0.001 0.356 0.403 0.178 0.026 0.000
0.000 0.000 0.000 0.000 0.000 0.000 0.000 0.000 0.000 0.000 0.000 0.000 0.000 0.000 0.000 0.000 0.000 0.000 0.000 0.000 0.000 0.000 0.000 0.000 0.000 0.000 0.273 0.690 1.045 1.848 1.125 0.051 0.002 0.000 0.001 0.000 0.001 0.001 0.001 0.002 0.007 0.002 0.001 0.007 0.455 0.547 0.374 0.091 0.000
0.000 0.000 0.000 0.000 0.000 0.000 0.000 0.000 0.000 0.000 0.000 0.000 0.000 0.000 0.000 0.000 0.000 0.000 0.000 0.000 0.000 0.000 0.000 0.000 0.000 0.000 0.003 0.359 0.858 1.312 1.177 0.497 0.072 0.007 0.000 0.004 0.001 0.001 0.002 0.001 0.001 0.001 0.002 0.003 0.601 0.472 0.496 0.172 0.017
0.000 0.000 0.000 0.000 0.000 0.000 0.000 0.000 0.000 0.000 0.000 0.000 0.000 0.000 0.000 0.000 0.000 0.000 0.000 0.000 0.000 0.000 0.000 0.000 0.000 0.000 0.001 0.358 0.876 0.941 0.608 0.633 0.002 0.043 0.000 0.112 0.004 0.002 0.000 0.002 0.130 0.001 0.006 0.174 0.321 0.352 0.531 0.339 0.049
0.000 0.000 0.000 0.000 0.000 0.000 0.000 0.000 0.000 0.000 0.000 0.000 0.000 0.000 0.000 0.000 0.000 0.000 0.000 0.000 0.000 0.000 0.000 0.000 0.000 0.000 0.002 0.098 0.408 0.714 0.742 0.532 0.177 0.041 0.001 0.214 0.001 0.001 0.002 0.245 0.072 0.001 0.028 0.554 0.593 0.610 0.412 0.516 0.313
0.000 0.000 0.000 0.000 0.000 0.000 0.000 0.000 0.000 0.000 0.000 0.000 0.000 0.000 0.000 0.000 0.000 0.000 0.000 0.000 0.000 0.000 0.000 0.000 0.000 0.000 0.000 0.002 0.046 0.472 0.725 0.691 0.608 0.064 0.133 0.002 0.002 0.031 0.389 0.002 0.002 0.001 0.001 1.025 1.027 0.726 0.415 0.720 0.651
0.000 0.000 0.000 0.000 0.000 0.000 0.000 0.000 0.000 0.000 0.000 0.000 0.000 0.000 0.000 0.000 0.000 0.000 0.000 0.000 0.000 0.000 0.000 0.000 0.000 0.000 0.000 0.000 0.001 0.101 0.621 0.682 0.734 0.584 0.259 0.000 0.000 0.000 0.001 0.002 0.002 0.002 0.011 1.072 1.200 0.468 0.473 0.824 0.766
0.000 0.000 0.000 0.000 0.000 0.000 0.000 0.000 0.000 0.000 0.000 0.000 0.000 0.000 0.000 0.000 0.000 0.000 0.000 0.000 0.000 0.000 0.000 0.000 0.000 0.000 0.000 0.000 0.000 0.001 0.379 0.756 0.722 0.417 0.002 0.002 0.001 0.001 0.002 0.002 0.000 0.000 0.003 1.050 0.484 0.009 0.187 0.540 0.861
0.000 0.000 0.000 0.000 0.000 0.000 0.000 0.000 0.000 0.000 0.000 0.000 0.000 0.000 0.000 0.000 0.000 0.000 0.000 0.000 0.000 0.000 0.000 0.000 0.000 0.000 0.000 0.000 0.000 0.000 0.104 0.600 0.663 0.363 0.000 0.000 0.001 0.002 0.001 0.002 0.001 0.002 0.001 0.141 0.044 0.249 0.129 0.513 1.050
0.000 0.000 0.000 0.000 0.000 0.000 0.000 0.000 0.000 0.000 0.000 0.000 0.000 0.000 0.000 0.000 0.000 0.000 0.000 0.000 0.000 0.000 0.000 0.000 0.000 0.000 0.000 0.000 0.000 0.000 0.000 0.150 0.527 0.452 0.045 0.001 0.000 0.001 0.002 0.002 0.002 0.001 0.001 0.355 0.777 0.744 0.376 0.652 0.837
0.000 0.000 0.000 0.000 0.000 0.000 0.000 0.000 0.000 0.000 0.000 0.000 0.000 0.000 0.000 0.000 0.000 0.000 0.000 0.000 0.000 0.000 0.000 0.000 0.000 0.000 0.000 0.000 0.000 0.000 0.000 0.002 0.330 0.364 0.256 0.002 0.001 0.000 0.000 0.002 0.002 0.001 0.002 0.635 1.179 0.844 0.215 0.229 0.270
0.000 0.000 0.000 0.000 0.000 0.000 0.000 0.000 0.000 0.000 0.000 0.000 0.000 0.000 0.000 0.000 0.000 0.000 0.000 0.000 0.000 0.000 0.000 0.000 0.000 0.000 0.000 0.000 0.000 0.000 0.000 0.000 0.234 0.375 0.246 0.004 0.001 0.190 0.002 0.001 0.000 0.002 0.001 1.058 0.881 0.619 0.177 0.003 0.262
0.000 0.000 0.000 0.000 0.000 0.000 0.000 0.000 0.000 0.000 0.000 0.000 0.000 0.000 0.000 0.000 0.000 0.000 0.000 0.000 0.000 0.000 0.000 0.000 0.000 0.000 0.000 0.000 0.000 0.000 0.000 0.000 0.033 0.370 0.386 0.555 0.002 0.504 0.002 0.001 0.002 0.002 0.165 0.516 0.668 0.550 0.002 0.005 0.064
0.000 0.000 0.000 0.000 0.000 0.000 0.000 0.000 0.000 0.000 0.000 0.000 0.000 0.000 0.000 0.000 0.000 0.000 0.000 0.000 0.000 0.000 0.000 0.000 0.000 0.000 0.000 0.000 0.000 0.000 0.000 0.000 0.002 0.317 0.628 0.550 0.737 0.699 0.275 0.001 0.002 0.002 0.052 0.285 0.558 0.001 0.002 0.002 0.002
0.000 0.000 0.000 0.000 0.000 0.000 0.000 0.000 0.000 0.000 0.000 0.000 0.000 0.000 0.000 0.000 0.000 0.000 0.000 0.000 0.000 0.000 0.000 0.000 0.000 0.000 0.000 0.000 0.000 0.000 0.000 0.000 0.009 0.102 0.440 0.316 0.687 0.039 0.047 0.000 0.000 0.002 0.294 0.707 0.394 0.002 0.001 0.002 0.002
0.000 0.000 0.000 0.000 0.000 0.000 0.000 0.000 0.000 0.000 0.000 0.000 0.000 0.000 0.000 0.000 0.000 0.000 0.000 0.000 0.000 0.000 0.000 0.000 0.000 0.000 0.000 0.000 0.000 0.000 0.000 0.000 0.000 0.036 0.002 0.531 0.384 0.001 0.001 0.002 0.000 0.137 0.570 0.947 0.362 0.181 0.001 0.001 0.001
0.000 0.000 0.000 0.000 0.000 0.000 0.000 0.000 0.000 0.000 0.000 0.000 0.000 0.000 0.000 0.000 0.000 0.000 0.000 0.000 0.000 0.000 0.000 0.000 0.000 0.000 0.000 0.000 0.000 0.000 0.000 0.000 0.000 0.000 0.124 0.526 0.374 0.002 0.002 0.003 0.002 0.409 0.505 1.009 0.956 0.417 0.000 0.001 0.002
0.000 0.000 0.000 0.000 0.000 0.000 0.000 0.000 0.000 0.000 0.000 0.000 0.000 0.000 0.000 0.000 0.000 0.000 0.000 0.000 0.000 0.000 0.000 0.000 0.000 0.000 0.000 0.000 0.000 0.000 0.000 0.000 0.000 0.000 0.124 0.331 0.335 0.002 0.000 0.063 0.400 0.924 0.913 1.576 1.189 0.002 0.023 0.001 0.000
0.000 0.000 0.000 0.000 0.000 0.000 0.000 0.000 0.000 0.000 0.000 0.000 0.000 0.000 0.000 0.000 0.000 0.000 0.000 0.000 0.000 0.000 0.000 0.000 0.000 0.000 0.000 0.000 0.000 0.000 0.000 0.000 0.000 0.000 0.049 0.056 0.278 0.002 0.011 2.425 2.424 2.551 2.653 1.704 0.508 0.002 0.001 0.001 0.001
0.000 0.000 0.000 0.000 0.000 0.000 0.000 0.000 0.000 0.000 0.000 0.000 0.000 0.000 0.000 0.000 0.000 0.000 0.000 0.000 0.000 0.000 0.000 0.000 0.000 0.000 0.000 0.000 0.000 0.000 0.000 0.000 0.000 0.000 0.001 0.070 0.015 0.002 0.625 2.220 3.773 3.459 3.094 1.367 0.573 0.021 0.002 0.001 0.001
0.000 0.000 0.000 0.000 0.000 0.000 0.000 0.000 0.000 0.000 0.000 0.000 0.000 0.000 0.000 0.000 0.000 0.000 0.000 0.000 0.000 0.000 0.000 0.000 0.000 0.000 0.000 0.000 0.000 0.000 0.000 0.000 0.000 0.000 0.000 0.025 0.021 0.041 0.925 1.517 2.628 2.607 1.799 1.426 0.548 0.171 0.001 0.001 0.001
0.000 0.000 0.000 0.000 0.000 0.000 0.000 0.000 0.000 0.000 0.000 0.000 0.000 0.000 0.000 0.000 0.000 0.000 0.000 0.000 0.000 0.000 0.000 0.000 0.000 0.000 0.000 0.000 0.000 0.000 0.000 0.000 0.000 0.000 0.000 0.000 0.002 0.583 0.822 0.873 1.622 1.271 1.479 2.330 1.786 1.265 0.308 0.001 0.001
0.000 0.000 0.000 0.000 0.000 0.000 0.000 0.000 0.000 0.000 0.000 0.000 0.000 0.000 0.000 0.000 0.000 0.000 0.000 0.000 0.000 0.000 0.000 0.000 0.000 0.000 0.000 0.000 0.000 0.000 0.000 0.000 0.000 0.000 0.000 0.001 0.301 0.658 0.666 0.636 0.766 0.445 0.871 2.646 2.528 2.163 0.968 0.003 0.003
0.000 0.000 0.000 0.000 0.000 0.000 0.000 0.000 0.000 0.000 0.000 0.000 0.000 0.000 0.000 0.000 0.000 0.000 0.000 0.000 0.000 0.000 0.000 0.000 0.000 0.000 0.000 0.000 0.000 0.000 0.000 0.000 0.000 0.000 0.000 0.005 0.239 0.437 0.456 0.476 0.612 0.070 0.001 1.530 1.821 1.957 1.463 0.411 0.061
0.000 0.000 0.000 0.000 0.000 0.000 0.000 0.000 0.000 0.000 0.000 0.000 0.000 0.000 0.000 0.000 0.000 0.000 0.000 0.000 0.000 0.000 0.000 0.000 0.000 0.000 0.000 0.000 0.000 0.000 0.000 0.000 0.000 0.000 0.000 0.000 0.001 0.077 0.325 0.428 0.521 0.121 0.002 1.115 1.422 1.588 1.469 1.003 0.242
0.000 0.000 0.000 0.000 0.000 0.000 0.000 0.000 0.000 0.000 0.000 0.000 0.000 0.000 0.000 0.000 0.000 0.000 0.000 0.000 0.000 0.000 0.000 0.000 0.000 0.000 0.000 0.000 0.000 0.000 0.000 0.000 0.000 0.000 0.000 0.000 0.000 0.000 0.196 0.311 0.261 0.197 0.902 1.356 1.649 1.395 1.225 1.553 0.435
0.000 0.000 0.000 0.000 0.000 0.000 0.000 0.000 0.000 0.000 0.000 0.000 0.000 0.000 0.000 0.000 0.000 0.000 0.000 0.000 0.000 0.000 0.000 0.000 0.000 0.000 0.000 0.000 0.000 0.000 0.000 0.000 0.000 0.000 0.000 0.000 0.000 0.000 0.010 0.142 0.002 0.577 1.723 1.776 1.425 1.426 1.198 1.632 0.419
0.000 0.000 0.000 0.000 0.000 0.000 0.000 0.000 0.000 0.000 0.000 0.000 0.000 0.000 0.000 0.000 0.000 0.000 0.000 0.000 0.000 0.000 0.000 0.000 0.000 0.000 0.000 0.000 0.000 0.000 0.000 0.000 0.000 0.000 0.000 0.000 0.000 0.000 0.000 0.186 0.329 0.781 1.577 1.729 1.440 1.544 1.370 1.143 0.470
0.000 0.000 0.000 0.000 0.000 0.000 0.000 0.000 0.000 0.000 0.000 0.000 0.000 0.000 0.000 0.000 0.000 0.000 0.000 0.000 0.000 0.000 0.000 0.000 0.000 0.000 0.000 0.000 0.000 0.000 0.000 0.000 0.000 0.000 0.000 0.000 0.000 0.000 0.000 0.130 0.410 0.699 1.017 1.638 1.903 1.963 2.094 1.222 0.430
0.000 0.000 0.000 0.000 0.000 0.000 0.000 0.000 0.000 0.000 0.000 0.000 0.000 0.000 0.000 0.000 0.000 0.000 0.000 0.000 0.000 0.000 0.000 0.000 0.000 0.000 0.000 0.000 0.000 0.000 0.000 0.000 0.000 0.000 0.000 0.000 0.000 0.000 0.000 0.027 0.512 0.638 0.663 1.277 2.149 1.991 2.580 1.303 0.523
0.000 0.000 0.000 0.000 0.000 0.000 0.000 0.000 0.000 0.000 0.000 0.000 0.000 0.000 0.000 0.000 0.000 0.000 0.000 0.000 0.000 0.000 0.000 0.000 0.000 0.000 0.000 0.000 0.000 0.000 0.000 0.000 0.000 0.000 0.000 0.000 0.000 0.000 0.000 0.001 0.314 0.546 0.582 1.018 1.146 1.488 1.527 0.919 0.946
