ncols        58
nrows        140
xllcorner    409522.8
yllcorner    6870874.1
cellsize     5.00
NODATA_value -9999
0.000 0.000 0.000 0.000 0.000 0.000 0.000 0.000 0.000 0.000 0.000 0.000 0.000 0.000 0.000 0.000 0.000 0.000 0.000 0.000 0.000 0.000 0.000 0.000 0.000 0.000 0.000 0.000 0.000 0.000 0.000 0.000 0.000 0.000 0.000 0.000 0.000 0.000 0.000 0.000 0.000 0.000 0.000 0.000 0.000 0.000 0.000 0.000 0.000 0.000 0.000 0.000 0.000 0.000 0.000 0.000 0.000 0.000
0.000 0.000 0.000 0.012 4.830 72.109 74.485 78.049 35.107 1.001 0.000 0.000 0.000 0.000 0.000 0.000 0.000 0.000 0.000 0.000 0.000 0.000 0.000 0.000 0.000 0.000 0.000 0.000 0.000 0.000 0.000 0.000 0.000 0.000 0.000 0.000 0.000 0.000 0.000 0.000 0.000 0.000 0.000 0.000 0.000 0.000 0.000 0.000 0.000 0.000 0.000 0.000 0.000 0.000 0.000 0.000 0.000 0.000
0.000 0.000 0.202 27.200 87.060 83.072 79.769 81.937 78.263 91.575 9.127 0.199 0.000 0.000 0.000 0.000 0.000 0.000 0.000 0.000 0.000 0.000 0.000 0.000 0.000 0.000 0.000 0.000 0.000 0.000 0.000 0.000 0.000 0.000 0.000 0.000 0.000 0.000 0.000 0.000 0.000 0.000 0.000 0.000 0.000 0.000 0.000 0.000 0.000 0.000 0.000 0.000 0.000 0.000 0.000 0.000 0.000 0.000
0.000 0.695 71.484 84.171 95.096 87.639 75.517 67.046 86.500 97.268 97.672 39.363 5.150 0.018 0.000 0.000 0.000 0.000 0.000 0.000 0.000 0.000 0.000 0.000 0.000 0.000 0.000 0.000 0.000 0.000 0.000 0.000 0.000 0.000 0.000 0.000 0.000 0.000 0.000 0.000 0.000 0.000 0.000 0.000 0.000 0.000 0.000 0.000 0.000 0.000 0.000 0.000 0.000 0.000 0.000 0.000 0.000 0.000
0.004 18.967 99.301 105.506 104.778 105.584 85.070 64.720 89.905 107.592 109.734 71.895 68.133 16.847 0.517 0.000 0.000 0.000 0.000 0.000 0.000 0.000 0.000 0.000 0.000 0.000 0.000 0.000 0.000 0.000 0.000 0.000 0.000 0.000 0.000 0.000 0.000 0.000 0.000 0.000 0.000 0.000 0.000 0.000 0.000 0.000 0.000 0.000 0.000 0.000 0.000 0.000 0.000 0.000 0.000 0.000 0.000 0.000
0.586 101.325 113.248 132.717 127.876 125.533 136.562 152.188 87.908 130.121 109.471 95.074 100.347 76.283 28.518 0.851 0.000 0.000 0.000 0.000 0.000 0.000 0.000 0.000 0.000 0.000 0.000 0.000 0.000 0.000 0.000 0.000 0.000 0.000 0.000 0.000 0.000 0.000 0.000 0.000 0.000 0.000 0.000 0.000 0.000 0.000 0.000 0.000 0.000 0.000 0.000 0.000 0.000 0.000 0.000 0.000 0.000 0.000
3.703 96.746 130.653 143.454 145.115 143.229 154.345 137.459 158.738 90.215 115.616 118.512 91.564 85.559 64.860 25.152 0.067 0.000 0.000 0.000 0.000 0.000 0.000 0.000 0.000 0.000 0.000 0.000 0.000 0.000 0.000 0.000 0.000 0.000 0.000 0.000 0.000 0.000 0.000 0.000 0.000 0.000 0.000 0.000 0.000 0.000 0.000 0.000 0.000 0.000 0.000 0.000 0.000 0.000 0.000 0.000 0.000 0.000
9.621 104.324 121.490 145.988 155.442 152.488 144.020 153.548 149.767 107.820 105.516 128.167 94.616 93.416 66.191 42.782 10.192 0.000 0.000 0.000 0.000 0.000 0.000 0.000 0.000 0.000 0.000 0.000 0.000 0.000 0.000 0.000 0.000 0.000 0.000 0.000 0.000 0.000 0.000 0.000 0.000 0.000 0.000 0.000 0.000 0.000 0.000 0.000 0.000 0.000 0.000 0.000 0.000 0.000 0.000 0.000 0.000 0.000
21.500 102.763 125.885 136.023 158.243 142.451 137.851 156.070 158.559 153.351 69.540 91.762 108.105 92.326 73.939 50.714 31.615 0.072 0.000 0.000 0.000 0.000 0.000 0.000 0.000 0.000 0.000 0.000 0.000 0.000 0.000 0.000 0.000 0.000 0.000 0.000 0.000 0.000 0.000 0.000 0.000 0.000 0.000 0.000 0.000 0.000 0.000 0.000 0.000 0.000 0.000 0.000 0.000 0.000 0.000 0.000 0.000 0.000
32.884 108.304 133.893 154.916 149.815 153.337 166.145 142.041 153.752 138.099 113.262 72.202 105.337 106.091 103.019 72.571 42.543 6.675 0.000 0.000 0.000 0.000 0.000 0.000 0.000 0.000 0.000 0.000 0.000 0.000 0.000 0.000 0.000 0.000 0.000 0.000 0.000 0.000 0.000 0.000 0.000 0.000 0.000 0.000 0.000 0.000 0.000 0.000 0.000 0.000 0.000 0.000 0.000 0.000 0.000 0.000 0.000 0.000
31.182 99.656 134.184 159.594 171.151 159.713 168.449 161.308 150.870 123.342 161.169 125.196 150.925 162.845 95.283 73.251 41.649 17.124 0.008 0.000 0.000 0.000 0.000 0.000 0.000 0.000 0.000 0.000 0.000 0.000 0.000 0.000 0.000 0.000 0.000 0.000 0.000 0.000 0.000 0.000 0.000 0.000 0.000 0.000 0.000 0.000 0.000 0.000 0.000 0.000 0.000 0.000 0.000 0.000 0.000 0.000 0.000 0.000
28.100 97.489 140.022 160.654 159.179 177.809 172.707 151.495 140.756 131.456 165.126 172.777 121.462 159.178 101.581 72.249 43.938 27.528 2.827 0.000 0.000 0.000 0.000 0.000 0.000 0.000 0.000 0.000 0.000 0.000 0.000 0.000 0.000 0.000 0.000 0.000 0.000 0.000 0.000 0.000 0.000 0.000 0.000 0.000 0.000 0.000 0.000 0.000 0.000 0.000 0.000 0.000 0.000 0.000 0.000 0.000 0.000 0.000
16.985 99.052 123.930 171.427 151.333 163.713 156.257 131.935 141.722 135.504 156.208 147.713 128.994 136.117 111.389 84.901 50.523 32.788 10.634 0.000 0.000 0.000 0.000 0.000 0.000 0.000 0.000 0.000 0.000 0.000 0.000 0.000 0.000 0.000 0.000 0.000 0.000 0.000 0.000 0.000 0.000 0.000 0.000 0.000 0.000 0.000 0.000 0.000 0.000 0.000 0.000 0.000 0.000 0.000 0.000 0.000 0.000 0.000
7.016 82.329 127.415 158.518 161.016 163.822 166.516 138.666 133.363 181.094 161.023 142.162 176.407 116.342 131.126 79.315 57.086 36.824 16.395 0.037 0.000 0.000 0.000 0.000 0.000 0.000 0.000 0.000 0.000 0.000 0.000 0.000 0.000 0.000 0.000 0.000 0.000 0.000 0.000 0.000 0.000 0.000 0.000 0.000 0.000 0.000 0.000 0.000 0.000 0.000 0.000 0.000 0.000 0.000 0.000 0.000 0.000 0.000
2.798 82.543 102.837 138.922 161.003 163.147 154.119 164.109 176.426 170.972 160.187 160.378 137.142 147.090 128.902 76.036 63.185 42.459 24.322 3.567 0.000 0.000 0.000 0.000 0.000 0.000 0.000 0.000 0.000 0.000 0.000 0.000 0.000 0.000 0.000 0.000 0.000 0.000 0.000 0.000 0.000 0.000 0.000 0.000 0.000 0.000 0.000 0.000 0.000 0.000 0.000 0.000 0.000 0.000 0.000 0.000 0.000 0.000
0.780 56.346 98.586 121.710 142.221 150.238 140.980 149.074 184.288 171.658 142.227 127.611 168.967 193.098 126.295 81.746 67.301 46.037 28.398 9.110 0.000 0.000 0.000 0.000 0.000 0.000 0.000 0.000 0.000 0.000 0.000 0.000 0.000 0.000 0.000 0.000 0.000 0.000 0.000 0.000 0.000 0.000 0.000 0.000 0.000 0.000 0.000 0.000 0.000 0.000 0.000 0.000 0.000 0.000 0.000 0.000 0.000 0.000
0.100 32.448 79.735 112.155 132.762 136.858 125.395 136.188 186.516 142.089 142.621 160.400 169.071 166.282 114.722 93.776 79.397 57.167 35.195 12.747 0.001 0.000 0.000 0.000 0.000 0.000 0.000 0.000 0.000 0.000 0.000 0.000 0.000 0.000 0.000 0.000 0.000 0.000 0.000 0.000 0.000 0.000 0.000 0.000 0.000 0.000 0.000 0.000 0.000 0.000 0.000 0.000 0.000 0.000 0.000 0.000 0.000 0.000
0.008 16.542 73.503 105.286 129.160 130.269 132.138 151.743 168.181 168.326 160.544 127.229 139.899 142.146 113.069 115.058 87.010 64.501 41.374 18.910 0.758 0.000 0.000 0.000 0.000 0.000 0.000 0.000 0.000 0.000 0.000 0.000 0.000 0.000 0.000 0.000 0.000 0.000 0.000 0.000 0.000 0.000 0.000 0.000 0.000 0.000 0.000 0.000 0.000 0.000 0.000 0.000 0.000 0.000 0.000 0.000 0.000 0.000
0.000 6.128 58.662 88.160 110.324 144.038 144.454 151.416 146.919 157.048 129.699 102.546 119.359 155.805 125.174 108.420 83.020 69.433 50.148 19.157 4.867 0.000 0.000 0.000 0.000 0.000 0.000 0.000 0.000 0.000 0.000 0.000 0.000 0.000 0.000 0.000 0.000 0.000 0.000 0.000 0.000 0.000 0.000 0.000 0.000 0.000 0.000 0.000 0.000 0.000 0.000 0.000 0.000 0.000 0.000 0.000 0.000 0.000
0.000 1.868 39.860 76.281 95.758 123.013 142.739 154.541 159.552 142.360 111.244 125.526 139.530 169.742 131.059 120.146 90.024 82.799 51.370 22.367 7.370 0.019 0.000 0.000 0.000 0.000 0.000 0.000 0.000 0.000 0.000 0.000 0.000 0.000 0.000 0.000 0.000 0.000 0.000 0.000 0.000 0.000 0.000 0.000 0.000 0.000 0.000 0.000 0.000 0.000 0.000 0.000 0.000 0.000 0.000 0.000 0.000 0.000
0.000 0.357 24.862 62.953 91.708 118.046 115.031 147.807 139.973 119.670 106.667 113.299 129.495 159.198 138.023 118.178 111.127 90.445 59.533 21.900 8.953 2.184 0.000 0.000 0.000 0.000 0.000 0.000 0.000 0.000 0.000 0.000 0.000 0.000 0.000 0.000 0.000 0.000 0.000 0.000 0.000 0.000 0.000 0.000 0.000 0.000 0.000 0.000 0.000 0.000 0.000 0.000 0.000 0.000 0.000 0.000 0.000 0.000
0.000 0.031 11.231 50.098 84.905 114.328 129.374 130.189 119.131 110.458 114.510 135.520 160.848 142.500 148.172 121.966 98.440 86.065 51.014 21.572 14.770 7.499 0.011 0.000 0.000 0.000 0.000 0.000 0.000 0.000 0.000 0.000 0.000 0.000 0.000 0.000 0.000 0.000 0.000 0.000 0.000 0.000 0.000 0.000 0.000 0.000 0.000 0.000 0.000 0.000 0.000 0.000 0.000 0.000 0.000 0.000 0.000 0.000
0.000 0.001 3.172 33.197 67.412 93.086 115.287 111.639 121.347 103.597 128.593 112.628 144.290 143.353 139.309 131.965 119.881 82.469 46.583 29.214 18.933 10.542 1.280 0.000 0.000 0.000 0.000 0.000 0.000 0.000 0.000 0.000 0.000 0.000 0.000 0.000 0.000 0.000 0.000 0.000 0.000 0.000 0.000 0.000 0.000 0.000 0.000 0.000 0.000 0.000 0.000 0.000 0.000 0.000 0.000 0.000 0.000 0.000
0.000 0.000 0.345 19.197 52.533 81.797 94.771 109.720 109.878 127.679 115.094 130.365 120.244 138.044 148.360 153.575 101.974 75.007 50.395 33.032 21.953 13.328 4.105 0.000 0.000 0.000 0.000 0.000 0.000 0.000 0.000 0.000 0.000 0.000 0.000 0.000 0.000 0.000 0.000 0.000 0.000 0.000 0.000 0.000 0.000 0.000 0.000 0.000 0.000 0.000 0.000 0.000 0.000 0.000 0.000 0.000 0.000 0.000
0.000 0.000 0.012 5.935 33.371 59.314 80.471 104.383 113.876 124.629 130.296 135.920 98.830 127.259 143.035 144.037 90.116 71.597 59.276 43.939 24.646 15.943 5.580 0.317 0.000 0.000 0.000 0.000 0.000 0.000 0.000 0.000 0.000 0.000 0.000 0.000 0.000 0.000 0.000 0.000 0.000 0.000 0.000 0.000 0.000 0.000 0.000 0.000 0.000 0.000 0.000 0.000 0.000 0.000 0.000 0.000 0.000 0.000
0.000 0.000 0.000 1.116 20.398 50.248 85.318 103.365 132.592 123.442 142.997 130.716 138.234 150.434 148.002 137.232 93.320 85.595 84.195 54.433 24.730 19.435 7.930 3.254 0.000 0.000 0.000 0.000 0.000 0.000 0.000 0.000 0.000 0.000 0.000 0.000 0.000 0.000 0.000 0.000 0.000 0.000 0.000 0.000 0.000 0.000 0.000 0.000 0.000 0.000 0.000 0.000 0.000 0.000 0.000 0.000 0.000 0.000
0.000 0.000 0.000 0.064 8.179 34.261 58.779 88.824 115.949 131.103 147.215 126.105 107.843 139.858 157.516 129.071 100.251 104.520 94.827 48.257 32.750 20.613 12.442 7.119 0.004 0.000 0.000 0.000 0.000 0.000 0.000 0.000 0.000 0.000 0.000 0.000 0.000 0.000 0.000 0.000 0.000 0.000 0.000 0.000 0.000 0.000 0.000 0.000 0.000 0.000 0.000 0.000 0.000 0.000 0.000 0.000 0.000 0.000
0.000 0.000 0.000 0.001 1.442 18.054 46.329 78.949 95.613 123.785 121.190 113.474 120.077 114.831 146.060 128.451 119.029 118.653 102.524 65.953 48.338 20.505 17.972 10.504 0.762 0.000 0.000 0.000 0.000 0.000 0.000 0.000 0.000 0.000 0.000 0.000 0.000 0.000 0.000 0.000 0.000 0.000 0.000 0.000 0.000 0.000 0.000 0.000 0.000 0.000 0.000 0.000 0.000 0.000 0.000 0.000 0.000 0.000
0.000 0.000 0.000 0.000 0.020 4.965 23.762 47.245 93.116 98.590 99.886 108.426 121.439 150.923 148.638 132.350 124.914 125.988 119.574 84.064 48.515 26.626 22.468 12.394 3.380 0.000 0.000 0.000 0.000 0.000 0.000 0.000 0.000 0.000 0.000 0.000 0.000 0.000 0.000 0.000 0.000 0.000 0.000 0.000 0.000 0.000 0.000 0.000 0.000 0.000 0.000 0.000 0.000 0.000 0.000 0.000 0.000 0.000
0.000 0.000 0.000 0.000 0.000 0.403 11.833 35.979 63.274 88.406 107.758 117.432 135.949 114.387 124.851 129.463 114.233 120.254 112.934 73.210 48.781 44.810 25.697 13.951 5.839 0.000 0.000 0.000 0.000 0.000 0.000 0.000 0.000 0.000 0.000 0.000 0.000 0.000 0.000 0.000 0.000 0.000 0.000 0.000 0.000 0.000 0.000 0.000 0.000 0.000 0.000 0.000 0.000 0.000 0.000 0.000 0.000 0.000
0.000 0.000 0.000 0.000 0.000 0.005 2.394 17.970 48.145 73.449 91.150 104.640 102.861 84.193 132.741 108.403 105.646 120.921 118.271 79.641 81.370 55.177 24.931 13.385 10.171 0.221 0.000 0.000 0.000 0.000 0.000 0.000 0.000 0.000 0.000 0.000 0.000 0.000 0.000 0.000 0.000 0.000 0.000 0.000 0.000 0.000 0.000 0.000 0.000 0.000 0.000 0.000 0.000 0.000 0.000 0.000 0.000 0.000
0.000 0.000 0.000 0.000 0.000 0.000 0.036 3.945 19.174 47.619 83.489 95.937 82.210 98.495 140.985 130.900 111.673 124.660 106.903 83.834 95.758 53.169 22.536 18.423 13.304 3.093 0.000 0.000 0.000 0.000 0.000 0.000 0.000 0.000 0.000 0.000 0.000 0.000 0.000 0.000 0.000 0.000 0.000 0.000 0.000 0.000 0.000 0.000 0.000 0.000 0.000 0.000 0.000 0.000 0.000 0.000 0.000 0.000
0.000 0.000 0.000 0.000 0.000 0.000 0.000 0.249 6.449 24.759 51.256 72.861 101.422 115.618 111.117 124.823 123.446 111.157 101.177 92.920 86.131 54.032 29.203 24.186 13.852 5.088 0.001 0.000 0.000 0.000 0.000 0.000 0.000 0.000 0.000 0.000 0.000 0.000 0.000 0.000 0.000 0.000 0.000 0.000 0.000 0.000 0.000 0.000 0.000 0.000 0.000 0.000 0.000 0.000 0.000 0.000 0.000 0.000
0.000 0.000 0.000 0.000 0.000 0.000 0.000 0.000 0.688 9.985 29.770 58.270 83.343 98.553 103.982 122.186 113.786 93.162 94.393 96.529 94.813 72.181 46.331 25.069 15.167 6.176 0.566 0.000 0.000 0.000 0.000 0.000 0.000 0.000 0.000 0.000 0.000 0.000 0.000 0.000 0.000 0.000 0.000 0.000 0.000 0.000 0.000 0.000 0.000 0.000 0.000 0.000 0.000 0.000 0.000 0.000 0.000 0.000
0.000 0.000 0.000 0.000 0.000 0.000 0.000 0.000 0.011 2.180 14.514 37.638 61.370 79.835 92.323 103.246 113.896 128.871 92.262 108.126 108.582 93.895 52.594 25.943 13.625 7.346 3.886 0.017 0.000 0.000 0.000 0.000 0.000 0.000 0.000 0.000 0.000 0.000 0.000 0.000 0.000 0.000 0.000 0.000 0.000 0.000 0.000 0.000 0.000 0.000 0.000 0.000 0.000 0.000 0.000 0.000 0.000 0.000
0.000 0.000 0.000 0.000 0.000 0.000 0.000 0.000 0.000 0.346 7.068 24.962 51.318 70.704 87.181 100.991 121.502 115.641 92.231 110.661 120.985 89.110 62.652 27.938 13.516 10.233 7.403 1.201 0.000 0.000 0.000 0.000 0.000 0.000 0.000 0.000 0.000 0.000 0.000 0.000 0.000 0.000 0.000 0.000 0.000 0.000 0.000 0.000 0.000 0.000 0.000 0.000 0.000 0.000 0.000 0.000 0.000 0.000
0.000 0.000 0.000 0.000 0.000 0.000 0.000 0.000 0.000 0.013 2.672 14.500 36.835 59.584 101.953 116.900 114.019 110.005 103.700 121.315 105.414 77.652 59.966 32.107 17.174 12.615 8.585 2.960 0.000 0.000 0.000 0.000 0.000 0.000 0.000 0.000 0.000 0.000 0.000 0.000 0.000 0.000 0.000 0.000 0.000 0.000 0.000 0.000 0.000 0.000 0.000 0.000 0.000 0.000 0.000 0.000 0.000 0.000
0.000 0.000 0.000 0.000 0.000 0.000 0.000 0.000 0.000 0.000 0.613 9.089 28.431 52.103 76.240 103.174 99.668 111.895 105.121 83.720 96.405 74.061 63.644 43.053 19.452 15.174 10.323 5.535 0.077 0.000 0.000 0.000 0.000 0.000 0.000 0.000 0.000 0.000 0.000 0.000 0.000 0.000 0.000 0.000 0.000 0.000 0.000 0.000 0.000 0.000 0.000 0.000 0.000 0.000 0.000 0.000 0.000 0.000
0.000 0.000 0.000 0.000 0.000 0.000 0.000 0.000 0.000 0.000 0.062 4.223 20.724 42.059 69.534 85.864 102.131 104.429 94.863 93.667 84.139 84.596 65.737 47.609 26.395 18.105 13.654 9.051 1.684 0.000 0.000 0.000 0.000 0.000 0.000 0.000 0.000 0.000 0.000 0.000 0.000 0.000 0.000 0.000 0.000 0.000 0.000 0.000 0.000 0.000 0.000 0.000 0.000 0.000 0.000 0.000 0.000 0.000
0.000 0.000 0.000 0.000 0.000 0.000 0.000 0.000 0.000 0.000 0.001 1.009 13.000 32.793 52.551 81.380 113.061 112.392 103.017 96.354 73.848 70.597 71.402 66.410 31.147 19.513 15.566 10.731 3.885 0.000 0.000 0.000 0.000 0.000 0.000 0.000 0.000 0.000 0.000 0.000 0.000 0.000 0.000 0.000 0.000 0.000 0.000 0.000 0.000 0.000 0.000 0.000 0.000 0.000 0.000 0.000 0.000 0.000
0.000 0.000 0.000 0.000 0.000 0.000 0.000 0.000 0.000 0.000 0.000 0.107 6.236 25.248 44.093 68.601 100.932 129.873 143.460 96.194 68.677 61.166 74.747 54.614 38.808 22.189 17.487 12.070 6.097 0.000 0.000 0.000 0.000 0.000 0.000 0.000 0.000 0.000 0.000 0.000 0.000 0.000 0.000 0.000 0.000 0.000 0.000 0.000 0.000 0.000 0.000 0.000 0.000 0.000 0.000 0.000 0.000 0.000
0.000 0.000 0.000 0.000 0.000 0.000 0.000 0.000 0.000 0.000 0.000 0.001 1.098 18.212 32.325 55.028 84.730 122.652 147.655 140.925 107.145 93.871 76.442 53.084 56.489 24.636 17.906 15.725 8.204 0.000 0.000 0.000 0.000 0.000 0.000 0.000 0.000 0.000 0.000 0.000 0.000 0.000 0.000 0.000 0.000 0.000 0.000 0.000 0.000 0.000 0.000 0.000 0.000 0.000 0.000 0.000 0.000 0.000
0.000 0.000 0.000 0.000 0.000 0.000 0.000 0.000 0.000 0.000 0.000 0.000 0.141 12.593 29.470 44.339 73.493 108.438 129.348 136.975 131.694 136.900 114.323 85.398 54.769 31.567 22.846 15.997 11.531 0.238 0.000 0.000 0.000 0.000 0.000 0.000 0.000 0.000 0.000 0.000 0.000 0.000 0.000 0.000 0.000 0.000 0.000 0.000 0.000 0.000 0.000 0.000 0.000 0.000 0.000 0.000 0.000 0.000
0.000 0.000 0.000 0.000 0.000 0.000 0.000 0.000 0.000 0.000 0.000 0.000 0.029 6.563 22.608 37.857 61.264 85.582 104.943 134.130 148.894 134.380 113.355 99.841 68.693 37.004 25.058 14.638 13.387 2.293 0.000 0.000 0.000 0.000 0.000 0.000 0.000 0.000 0.000 0.000 0.000 0.000 0.000 0.000 0.000 0.000 0.000 0.000 0.000 0.000 0.000 0.000 0.000 0.000 0.000 0.000 0.000 0.000
0.000 0.000 0.000 0.000 0.000 0.000 0.000 0.000 0.000 0.000 0.000 0.000 0.003 2.956 16.496 29.992 49.016 75.092 97.335 120.873 132.467 124.042 115.503 106.173 73.701 46.481 23.226 17.413 14.556 7.136 0.000 0.000 0.000 0.000 0.000 0.000 0.000 0.000 0.000 0.000 0.000 0.000 0.000 0.000 0.000 0.000 0.000 0.000 0.000 0.000 0.000 0.000 0.000 0.000 0.000 0.000 0.000 0.000
0.000 0.000 0.000 0.000 0.000 0.000 0.000 0.000 0.000 0.000 0.000 0.000 0.000 1.016 11.404 24.516 35.945 58.197 90.490 115.149 114.285 121.742 133.724 111.518 91.558 63.332 29.504 13.386 16.880 14.135 0.000 0.000 0.000 0.000 0.000 0.000 0.000 0.000 0.000 0.000 0.000 0.000 0.000 0.000 0.000 0.000 0.000 0.000 0.000 0.000 0.000 0.000 0.000 0.000 0.000 0.000 0.000 0.000
0.000 0.000 0.000 0.000 0.000 0.000 0.000 0.000 0.000 0.000 0.000 0.000 0.000 0.071 6.774 18.338 27.474 47.884 80.038 100.437 116.949 106.720 114.328 95.131 97.686 54.377 27.456 22.104 26.224 15.592 0.000 0.000 0.000 0.000 0.000 0.000 0.000 0.000 0.000 0.000 0.000 0.000 0.000 0.000 0.000 0.000 0.000 0.000 0.000 0.000 0.000 0.000 0.000 0.000 0.000 0.000 0.000 0.000
0.000 0.000 0.000 0.000 0.000 0.000 0.000 0.000 0.000 0.000 0.000 0.000 0.000 0.000 2.548 14.101 20.303 37.366 66.806 99.072 99.796 109.629 117.910 108.860 90.681 56.567 30.666 23.567 25.610 17.001 0.000 0.000 0.000 0.000 0.000 0.000 0.000 0.000 0.000 0.000 0.000 0.000 0.000 0.000 0.000 0.000 0.000 0.000 0.000 0.000 0.000 0.000 0.000 0.000 0.000 0.000 0.000 0.000
0.000 0.000 0.000 0.000 0.000 0.000 0.000 0.000 0.000 0.000 0.000 0.000 0.000 0.000 0.354 10.652 17.808 28.457 50.029 74.802 87.670 106.335 95.922 97.168 82.769 62.527 32.334 19.507 23.078 16.107 0.021 0.000 0.000 0.000 0.000 0.000 0.000 0.000 0.000 0.000 0.000 0.000 0.000 0.000 0.000 0.000 0.000 0.000 0.000 0.000 0.000 0.000 0.000 0.000 0.000 0.000 0.000 0.000
0.000 0.000 0.000 0.000 0.000 0.000 0.000 0.000 0.000 0.000 0.000 0.000 0.000 0.000 0.066 7.126 14.615 19.183 31.578 55.074 93.149 85.161 106.243 100.377 79.064 60.937 31.412 26.118 20.799 14.971 1.870 0.000 0.000 0.000 0.000 0.000 0.000 0.000 0.000 0.000 0.000 0.000 0.000 0.000 0.000 0.000 0.000 0.000 0.000 0.000 0.000 0.000 0.000 0.000 0.000 0.000 0.000 0.000
0.000 0.000 0.000 0.000 0.000 0.000 0.000 0.000 0.000 0.000 0.000 0.000 0.000 0.000 0.005 3.645 12.564 15.624 23.043 44.872 75.075 86.294 87.690 95.817 84.191 50.235 34.383 27.357 19.861 16.199 5.368 0.000 0.000 0.000 0.000 0.000 0.000 0.000 0.000 0.000 0.000 0.000 0.000 0.000 0.000 0.000 0.000 0.000 0.000 0.000 0.000 0.000 0.000 0.000 0.000 0.000 0.000 0.000
0.000 0.000 0.000 0.000 0.000 0.000 0.000 0.000 0.000 0.000 0.000 0.000 0.000 0.000 0.000 0.896 9.810 11.727 13.847 26.752 52.561 72.866 83.487 90.905 70.525 50.002 38.150 40.140 20.362 16.655 9.298 0.612 0.001 0.000 0.000 0.000 0.000 0.000 0.000 0.000 0.000 0.000 0.000 0.000 0.000 0.000 0.000 0.000 0.000 0.000 0.000 0.000 0.000 0.000 0.000 0.000 0.000 0.000
0.000 0.000 0.000 0.000 0.000 0.000 0.000 0.000 0.000 0.000 0.000 0.000 0.000 0.000 0.000 0.038 7.346 11.259 11.621 17.598 37.714 66.180 79.515 79.517 62.609 42.770 52.949 42.121 21.968 18.336 10.007 5.172 0.728 0.000 0.000 0.000 0.000 0.000 0.000 0.000 0.000 0.000 0.000 0.000 0.000 0.000 0.000 0.000 0.000 0.000 0.000 0.000 0.000 0.000 0.000 0.000 0.000 0.000
0.000 0.000 0.000 0.000 0.000 0.000 0.000 0.000 0.000 0.000 0.000 0.000 0.000 0.000 0.000 0.000 3.855 10.019 10.255 12.589 22.928 50.888 58.028 65.311 51.733 47.363 67.290 47.040 25.633 13.199 8.691 10.680 5.729 0.159 0.000 0.000 0.000 0.000 0.000 0.000 0.000 0.000 0.000 0.000 0.000 0.000 0.000 0.000 0.000 0.000 0.000 0.000 0.000 0.000 0.000 0.000 0.000 0.000
0.000 0.000 0.000 0.000 0.000 0.000 0.000 0.000 0.000 0.000 0.000 0.000 0.000 0.000 0.000 0.000 1.778 8.285 10.477 8.947 10.893 29.044 53.903 54.795 52.928 70.521 72.735 51.786 28.317 13.333 11.482 14.388 8.661 2.719 0.000 0.000 0.000 0.000 0.000 0.000 0.000 0.000 0.000 0.000 0.000 0.000 0.000 0.000 0.000 0.000 0.000 0.000 0.000 0.000 0.000 0.000 0.000 0.000
0.000 0.000 0.000 0.000 0.000 0.000 0.000 0.000 0.000 0.000 0.000 0.000 0.000 0.000 0.000 0.000 0.855 5.696 9.054 7.628 8.225 19.935 52.346 60.596 67.107 73.606 76.692 52.254 26.276 14.698 14.406 13.089 9.953 4.903 0.001 0.000 0.000 0.000 0.000 0.000 0.000 0.000 0.000 0.000 0.000 0.000 0.000 0.000 0.000 0.000 0.000 0.000 0.000 0.000 0.000 0.000 0.000 0.000
0.000 0.000 0.000 0.000 0.000 0.000 0.000 0.000 0.000 0.000 0.000 0.000 0.000 0.000 0.000 0.000 0.226 3.490 6.778 7.182 6.304 8.321 43.863 52.888 62.282 57.731 72.994 45.943 30.084 17.861 13.863 11.512 11.728 6.040 0.402 0.000 0.000 0.000 0.000 0.000 0.000 0.000 0.000 0.000 0.000 0.000 0.000 0.000 0.000 0.000 0.000 0.000 0.000 0.000 0.000 0.000 0.000 0.000
0.000 0.000 0.000 0.000 0.000 0.000 0.000 0.000 0.000 0.000 0.000 0.000 0.000 0.000 0.000 0.000 0.068 1.751 4.572 5.259 5.976 4.611 24.276 46.770 56.957 54.271 65.473 51.042 36.651 19.260 11.440 15.153 12.140 9.171 2.804 0.000 0.000 0.000 0.000 0.000 0.000 0.000 0.000 0.000 0.000 0.000 0.000 0.000 0.000 0.000 0.000 0.000 0.000 0.000 0.000 0.000 0.000 0.000
0.000 0.000 0.000 0.000 0.000 0.000 0.000 0.000 0.000 0.000 0.000 0.000 0.000 0.000 0.000 0.000 0.000 0.665 3.089 5.952 6.204 4.286 9.568 40.155 46.436 56.919 59.347 55.702 43.720 21.992 14.848 19.974 17.295 12.787 5.360 0.026 0.000 0.000 0.000 0.000 0.000 0.000 0.000 0.000 0.000 0.000 0.000 0.000 0.000 0.000 0.000 0.000 0.000 0.000 0.000 0.000 0.000 0.000
0.000 0.000 0.000 0.000 0.000 0.000 0.000 0.000 0.000 0.000 0.000 0.000 0.000 0.000 0.000 0.000 0.000 0.377 3.344 5.425 5.214 4.372 2.958 31.319 40.227 50.696 61.393 61.221 50.544 25.403 17.613 19.865 16.559 14.133 8.771 1.049 0.000 0.000 0.000 0.000 0.000 0.000 0.000 0.000 0.000 0.000 0.000 0.000 0.000 0.000 0.000 0.000 0.000 0.000 0.000 0.000 0.000 0.000
0.000 0.000 0.000 0.000 0.000 0.000 0.000 0.000 0.000 0.000 0.000 0.000 0.000 0.000 0.000 0.000 0.000 0.023 2.408 3.932 4.964 4.795 4.506 22.111 39.291 49.590 65.842 65.877 57.668 30.686 20.063 19.407 16.867 15.383 9.432 3.353 0.018 0.000 0.000 0.000 0.000 0.000 0.000 0.000 0.000 0.000 0.000 0.000 0.000 0.000 0.000 0.000 0.000 0.000 0.000 0.000 0.000 0.000
0.000 0.000 0.000 0.000 0.000 0.000 0.000 0.000 0.000 0.000 0.000 0.000 0.000 0.000 0.000 0.000 0.000 0.001 1.218 3.502 4.766 5.158 6.235 19.696 41.115 53.676 63.581 74.092 62.454 42.820 22.081 17.061 14.030 12.461 9.883 5.694 0.638 0.000 0.000 0.000 0.000 0.000 0.000 0.000 0.000 0.000 0.000 0.000 0.000 0.000 0.000 0.000 0.000 0.000 0.000 0.000 0.000 0.000
0.000 0.000 0.000 0.000 0.000 0.000 0.000 0.000 0.000 0.000 0.000 0.000 0.000 0.000 0.000 0.000 0.000 0.002 0.564 2.793 4.305 4.700 6.170 19.667 40.818 64.230 84.096 83.057 67.425 49.860 17.386 12.873 13.573 13.563 14.167 6.896 1.725 0.081 0.000 0.000 0.000 0.000 0.000 0.000 0.000 0.000 0.000 0.000 0.000 0.000 0.000 0.000 0.000 0.000 0.000 0.000 0.000 0.000
0.000 0.000 0.000 0.000 0.000 0.000 0.000 0.000 0.000 0.000 0.000 0.000 0.000 0.000 0.000 0.000 0.000 0.000 0.428 2.808 3.732 3.943 5.646 12.636 32.795 54.218 66.591 67.728 64.766 52.420 18.383 12.601 12.547 16.474 15.088 6.436 3.789 1.286 0.008 0.000 0.000 0.000 0.000 0.000 0.000 0.000 0.000 0.000 0.000 0.000 0.000 0.000 0.000 0.000 0.000 0.000 0.000 0.000
0.000 0.000 0.000 0.000 0.000 0.000 0.000 0.000 0.000 0.000 0.000 0.000 0.000 0.000 0.000 0.000 0.000 0.000 0.164 2.523 2.902 4.020 6.206 11.826 23.906 57.823 66.638 52.681 73.263 46.148 23.196 12.722 14.669 16.374 12.083 8.612 9.103 3.647 1.275 0.005 0.000 0.000 0.000 0.000 0.000 0.000 0.000 0.000 0.000 0.000 0.000 0.000 0.000 0.000 0.000 0.000 0.000 0.000
0.000 0.000 0.000 0.000 0.000 0.000 0.000 0.000 0.000 0.000 0.000 0.000 0.000 0.000 0.000 0.000 0.000 0.000 0.015 1.191 2.142 3.852 4.752 9.235 13.327 31.035 55.726 61.971 61.049 47.630 28.207 12.495 14.350 14.290 15.364 15.303 16.135 5.932 2.676 0.207 0.000 0.000 0.000 0.000 0.000 0.000 0.000 0.000 0.000 0.000 0.000 0.000 0.000 0.000 0.000 0.000 0.000 0.000
0.000 0.000 0.000 0.000 0.000 0.000 0.000 0.000 0.000 0.000 0.000 0.000 0.000 0.000 0.000 0.000 0.000 0.000 0.001 0.752 1.896 3.170 3.614 6.520 8.922 11.883 36.394 48.779 55.046 49.940 32.244 14.126 12.960 15.235 17.494 19.248 18.589 7.505 0.976 1.968 0.000 0.000 0.000 0.000 0.000 0.000 0.000 0.000 0.000 0.000 0.000 0.000 0.000 0.000 0.000 0.000 0.000 0.000
0.000 0.000 0.000 0.000 0.000 0.000 0.000 0.000 0.000 0.000 0.000 0.000 0.000 0.000 0.000 0.000 0.000 0.000 0.002 0.965 3.293 3.334 3.764 3.939 5.027 6.675 25.191 50.937 58.038 53.446 36.057 18.386 12.751 15.585 16.213 20.750 13.645 8.073 0.975 3.603 0.061 0.000 0.000 0.000 0.000 0.000 0.000 0.000 0.000 0.000 0.000 0.000 0.000 0.000 0.000 0.000 0.000 0.000
0.000 0.000 0.000 0.000 0.000 0.000 0.000 0.000 0.000 0.000 0.000 0.000 0.000 0.000 0.000 0.000 0.000 0.000 0.037 1.678 3.340 3.803 3.674 4.360 5.145 5.782 10.482 48.863 56.373 60.385 39.909 23.028 14.798 14.544 18.426 24.406 16.027 10.891 4.554 4.003 0.669 0.000 0.000 0.000 0.000 0.000 0.000 0.000 0.000 0.000 0.000 0.000 0.000 0.000 0.000 0.000 0.000 0.000
0.000 0.000 0.000 0.000 0.000 0.000 0.000 0.000 0.000 0.000 0.000 0.000 0.000 0.000 0.000 0.000 0.000 0.000 0.237 1.964 2.780 4.073 4.119 4.801 5.941 6.887 8.681 48.644 64.218 54.257 43.395 28.595 17.995 13.270 16.675 17.548 20.298 13.009 7.112 4.015 1.888 0.001 0.000 0.000 0.000 0.000 0.000 0.000 0.000 0.000 0.000 0.000 0.000 0.000 0.000 0.000 0.000 0.000
0.000 0.000 0.000 0.000 0.000 0.000 0.000 0.000 0.000 0.000 0.000 0.000 0.000 0.000 0.000 0.000 0.000 0.000 0.017 1.710 3.325 3.806 3.117 5.070 7.544 6.800 9.507 40.217 67.873 59.570 43.665 34.065 23.984 14.817 15.474 15.419 19.102 11.891 9.911 5.482 3.357 0.265 0.000 0.000 0.000 0.000 0.000 0.000 0.000 0.000 0.000 0.000 0.000 0.000 0.000 0.000 0.000 0.000
0.000 0.000 0.000 0.000 0.000 0.000 0.000 0.000 0.000 0.000 0.000 0.000 0.000 0.000 0.000 0.000 0.000 0.000 0.013 1.587 3.154 3.109 2.587 4.641 8.032 6.216 9.696 35.924 68.921 77.066 61.709 40.281 31.295 15.936 15.934 18.023 18.700 14.161 11.215 6.906 4.328 1.734 0.000 0.000 0.000 0.000 0.000 0.000 0.000 0.000 0.000 0.000 0.000 0.000 0.000 0.000 0.000 0.000
0.000 0.000 0.000 0.000 0.000 0.000 0.000 0.000 0.000 0.000 0.000 0.000 0.000 0.000 0.000 0.000 0.000 0.000 0.000 1.094 3.213 3.731 3.809 4.410 6.890 7.098 9.637 33.003 60.562 78.214 74.074 52.034 34.022 20.618 15.154 15.647 13.921 15.961 13.974 9.190 6.167 2.721 0.099 0.000 0.000 0.000 0.000 0.000 0.000 0.000 0.000 0.000 0.000 0.000 0.000 0.000 0.000 0.000
0.000 0.000 0.000 0.000 0.000 0.000 0.000 0.000 0.000 0.000 0.000 0.000 0.000 0.000 0.000 0.000 0.000 0.000 0.001 0.809 2.775 3.807 4.421 3.931 5.283 7.611 10.452 28.904 62.383 78.650 82.124 71.682 38.863 21.172 13.848 15.454 16.110 16.934 16.742 12.465 7.906 3.674 1.352 0.000 0.000 0.000 0.000 0.000 0.000 0.000 0.000 0.000 0.000 0.000 0.000 0.000 0.000 0.000
0.000 0.000 0.000 0.000 0.000 0.000 0.000 0.000 0.000 0.000 0.000 0.000 0.000 0.000 0.000 0.000 0.000 0.000 0.000 0.757 2.074 3.409 3.547 3.796 5.156 7.428 11.399 23.562 62.607 83.973 80.072 63.092 36.764 17.255 14.813 14.447 16.695 19.306 17.582 16.176 9.653 7.174 3.692 0.116 0.000 0.000 0.000 0.000 0.000 0.000 0.000 0.000 0.000 0.000 0.000 0.000 0.000 0.000
0.000 0.000 0.000 0.000 0.000 0.000 0.000 0.000 0.000 0.000 0.000 0.000 0.000 0.000 0.000 0.000 0.000 0.000 0.010 0.746 2.224 2.927 2.753 3.105 4.562 6.829 10.963 20.253 54.895 80.588 81.584 77.560 53.254 22.746 17.709 15.124 18.136 20.203 22.565 17.059 15.358 10.816 5.059 1.448 0.000 0.000 0.000 0.000 0.000 0.000 0.000 0.000 0.000 0.000 0.000 0.000 0.000 0.000
0.000 0.000 0.000 0.000 0.000 0.000 0.000 0.000 0.000 0.000 0.000 0.000 0.000 0.000 0.000 0.000 0.000 0.000 0.002 0.577 2.222 2.480 2.902 3.316 4.762 7.171 10.006 15.901 38.786 65.215 81.535 71.426 52.101 30.598 18.519 18.094 19.860 21.794 21.491 20.301 19.911 11.668 5.652 3.204 0.005 0.000 0.000 0.000 0.000 0.000 0.000 0.000 0.000 0.000 0.000 0.000 0.000 0.000
0.000 0.000 0.000 0.000 0.000 0.000 0.000 0.000 0.000 0.000 0.000 0.000 0.000 0.000 0.000 0.000 0.000 0.000 0.000 0.277 2.408 2.578 2.881 3.268 4.540 6.544 8.822 14.513 28.600 69.619 80.393 63.757 54.896 25.976 20.713 21.536 20.250 19.623 20.377 22.800 20.548 10.563 8.284 4.738 0.392 0.000 0.000 0.000 0.000 0.000 0.000 0.000 0.000 0.000 0.000 0.000 0.000 0.000
0.000 0.000 0.000 0.000 0.000 0.000 0.000 0.000 0.000 0.000 0.000 0.000 0.000 0.000 0.000 0.000 0.000 0.000 0.000 0.002 1.590 2.752 2.625 2.883 3.730 5.565 8.528 15.112 27.273 70.017 66.391 73.128 48.050 27.839 21.799 14.478 13.924 15.479 20.855 25.580 17.594 11.933 11.150 6.432 1.381 0.000 0.000 0.000 0.000 0.000 0.000 0.000 0.000 0.000 0.000 0.000 0.000 0.000
0.000 0.000 0.000 0.000 0.000 0.000 0.000 0.000 0.000 0.000 0.000 0.000 0.000 0.000 0.000 0.000 0.000 0.000 0.000 0.007 0.744 2.821 2.807 3.343 4.335 4.544 9.992 14.676 23.835 51.462 72.688 60.475 45.522 32.405 16.645 11.832 13.501 17.352 23.566 19.597 17.329 17.657 14.993 6.979 3.765 0.253 0.000 0.000 0.000 0.000 0.000 0.000 0.000 0.000 0.000 0.000 0.000 0.000
0.000 0.000 0.000 0.000 0.000 0.000 0.000 0.000 0.000 0.000 0.000 0.000 0.000 0.000 0.000 0.000 0.000 0.000 0.000 0.019 1.160 3.266 3.562 3.119 3.551 6.709 8.668 13.239 18.848 54.428 65.150 61.275 57.954 37.203 22.047 16.860 16.565 19.902 20.072 18.094 22.026 18.055 12.163 9.355 5.887 1.901 0.059 0.000 0.000 0.000 0.000 0.000 0.000 0.000 0.000 0.000 0.000 0.000
0.000 0.000 0.000 0.000 0.000 0.000 0.000 0.000 0.000 0.000 0.000 0.000 0.000 0.000 0.000 0.000 0.000 0.000 0.000 0.050 1.296 3.282 3.951 2.348 3.797 5.487 2.298 8.214 18.452 41.993 60.712 70.532 61.013 39.281 24.374 20.339 20.750 17.552 19.955 21.300 19.474 17.116 12.274 10.866 6.603 5.510 1.848 0.000 0.000 0.000 0.000 0.000 0.000 0.000 0.000 0.000 0.000 0.000
0.000 0.000 0.000 0.000 0.000 0.000 0.000 0.000 0.000 0.000 0.000 0.000 0.000 0.000 0.000 0.000 0.000 0.000 0.000 0.001 0.357 2.413 4.197 2.719 2.809 2.864 2.175 6.813 18.264 41.299 63.088 71.685 66.359 47.366 28.023 26.303 21.109 18.285 20.971 18.871 16.507 15.899 12.969 12.131 10.772 8.619 4.317 0.000 0.000 0.000 0.000 0.000 0.000 0.000 0.000 0.000 0.000 0.000
0.000 0.000 0.000 0.000 0.000 0.000 0.000 0.000 0.000 0.000 0.000 0.000 0.000 0.000 0.000 0.000 0.000 0.000 0.000 0.000 0.103 1.802 4.429 3.288 2.396 2.447 2.843 8.657 17.214 38.541 57.741 66.445 63.129 38.814 33.254 28.230 17.700 18.624 16.768 11.260 14.510 16.040 16.881 15.993 12.620 8.536 6.260 0.000 0.000 0.000 0.000 0.000 0.000 0.000 0.000 0.000 0.000 0.000
0.000 0.000 0.000 0.000 0.000 0.000 0.000 0.000 0.000 0.000 0.000 0.000 0.000 0.000 0.000 0.000 0.000 0.000 0.000 0.000 0.000 0.159 3.912 3.474 2.100 2.093 4.536 9.486 17.842 34.737 62.191 64.753 53.199 40.225 39.002 28.131 21.879 19.416 14.393 11.120 13.323 17.580 18.360 15.898 12.889 10.155 6.980 0.001 0.000 0.000 0.000 0.000 0.000 0.000 0.000 0.000 0.000 0.000
0.000 0.000 0.000 0.000 0.000 0.000 0.000 0.000 0.000 0.000 0.000 0.000 0.000 0.000 0.000 0.000 0.000 0.000 0.000 0.000 0.000 0.390 2.051 2.963 1.317 2.464 4.437 8.188 15.891 28.407 46.615 57.824 51.063 50.195 48.940 29.842 21.747 16.469 12.188 11.916 15.001 17.957 16.937 15.394 12.792 10.737 6.966 0.099 0.000 0.000 0.000 0.000 0.000 0.000 0.000 0.000 0.000 0.000
0.000 0.000 0.000 0.000 0.000 0.000 0.000 0.000 0.000 0.000 0.000 0.000 0.000 0.000 0.000 0.000 0.000 0.000 0.000 0.000 0.000 0.000 1.426 1.665 1.747 3.059 3.777 6.424 12.941 24.852 36.246 57.391 51.104 58.383 46.676 32.185 25.092 18.924 15.821 12.291 13.968 16.067 16.788 17.023 15.396 9.256 5.140 0.250 0.000 0.000 0.000 0.000 0.000 0.000 0.000 0.000 0.000 0.000
0.000 0.000 0.000 0.000 0.000 0.000 0.000 0.000 0.000 0.000 0.000 0.000 0.000 0.000 0.000 0.000 0.000 0.000 0.000 0.000 0.000 0.000 0.245 1.884 2.410 3.089 3.720 4.809 10.059 18.971 34.675 45.044 57.749 57.369 53.493 36.553 29.145 19.040 12.918 9.660 10.008 11.189 15.164 14.884 12.320 4.251 2.964 0.064 0.000 0.000 0.000 0.000 0.000 0.000 0.000 0.000 0.000 0.000
0.000 0.000 0.000 0.000 0.000 0.000 0.000 0.000 0.000 0.000 0.000 0.000 0.000 0.000 0.000 0.000 0.000 0.000 0.000 0.000 0.000 0.000 0.107 1.360 2.545 3.093 3.366 3.380 8.356 17.036 30.293 46.460 50.588 60.367 51.633 40.736 29.061 15.147 10.480 7.401 7.387 9.402 12.520 11.737 8.762 5.466 4.116 0.471 0.000 0.000 0.000 0.000 0.000 0.000 0.000 0.000 0.000 0.000
0.000 0.000 0.000 0.000 0.000 0.000 0.000 0.000 0.000 0.000 0.000 0.000 0.000 0.000 0.000 0.000 0.000 0.000 0.000 0.000 0.000 0.000 0.024 0.671 1.800 2.850 2.502 3.046 5.936 14.152 24.528 37.321 47.871 48.262 46.568 40.633 23.583 10.673 8.732 7.475 6.285 7.999 8.641 9.559 10.286 7.992 4.437 2.525 0.000 0.000 0.000 0.000 0.000 0.000 0.000 0.000 0.000 0.000
0.000 0.000 0.000 0.000 0.000 0.000 0.000 0.000 0.000 0.000 0.000 0.000 0.000 0.000 0.000 0.000 0.000 0.000 0.000 0.000 0.000 0.000 0.000 0.176 1.026 2.138 2.241 2.650 3.931 9.254 16.255 27.400 41.679 42.994 36.933 33.464 19.906 12.477 12.184 7.284 6.400 6.568 5.621 8.603 10.758 6.844 4.712 3.125 0.000 0.000 0.000 0.000 0.000 0.000 0.000 0.000 0.000 0.000
0.000 0.000 0.000 0.000 0.000 0.000 0.000 0.000 0.000 0.000 0.000 0.000 0.000 0.000 0.000 0.000 0.000 0.000 0.000 0.000 0.000 0.000 0.000 0.010 0.414 1.755 1.966 2.165 3.107 6.589 13.227 21.521 33.083 36.938 38.952 33.342 23.163 16.761 11.997 8.018 7.132 5.869 6.204 9.007 9.113 7.385 5.158 2.496 0.041 0.000 0.000 0.000 0.000 0.000 0.000 0.000 0.000 0.000
0.000 0.000 0.000 0.000 0.000 0.000 0.000 0.000 0.000 0.000 0.000 0.000 0.000 0.000 0.000 0.000 0.000 0.000 0.000 0.000 0.000 0.000 0.000 0.000 0.083 1.288 1.727 1.905 2.760 3.805 8.713 14.268 20.936 29.354 31.134 30.021 25.123 21.286 12.760 10.363 7.263 6.805 6.646 6.733 9.088 7.816 5.201 2.559 1.143 0.000 0.000 0.000 0.000 0.000 0.000 0.000 0.000 0.000
0.000 0.000 0.000 0.000 0.000 0.000 0.000 0.000 0.000 0.000 0.000 0.000 0.000 0.000 0.000 0.000 0.000 0.000 0.000 0.000 0.000 0.000 0.000 0.000 0.056 0.812 1.442 1.839 2.336 3.112 5.303 9.623 17.037 26.319 27.572 30.146 27.619 19.507 15.285 10.814 7.951 6.351 4.592 4.021 7.463 7.626 5.724 2.323 1.652 0.000 0.000 0.000 0.000 0.000 0.000 0.000 0.000 0.000
0.000 0.000 0.000 0.000 0.000 0.000 0.000 0.000 0.000 0.000 0.000 0.000 0.000 0.000 0.000 0.000 0.000 0.000 0.000 0.000 0.000 0.000 0.000 0.000 0.016 0.425 1.177 1.547 1.998 1.991 3.499 7.230 12.095 18.949 25.157 30.810 28.164 17.904 15.324 10.197 8.008 3.791 2.793 1.952 6.160 7.659 6.342 2.006 1.300 0.019 0.000 0.000 0.000 0.000 0.000 0.000 0.000 0.000
0.000 0.000 0.000 0.000 0.000 0.000 0.000 0.000 0.000 0.000 0.000 0.000 0.000 0.000 0.000 0.000 0.000 0.000 0.000 0.000 0.000 0.000 0.000 0.000 0.011 0.192 0.673 1.152 1.670 1.473 2.555 5.525 9.936 15.474 25.492 29.347 24.981 17.915 16.861 10.727 5.538 2.679 1.906 3.231 6.362 8.247 6.801 2.713 1.588 0.604 0.000 0.000 0.000 0.000 0.000 0.000 0.000 0.000
0.000 0.000 0.000 0.000 0.000 0.000 0.000 0.000 0.000 0.000 0.000 0.000 0.000 0.000 0.000 0.000 0.000 0.000 0.000 0.000 0.000 0.000 0.000 0.000 0.000 0.221 0.482 1.029 1.481 1.956 2.283 4.557 9.386 14.728 25.110 31.945 20.240 18.266 14.445 8.039 4.266 3.096 3.005 4.466 6.059 8.452 7.233 3.062 2.105 1.413 0.228 0.000 0.000 0.000 0.000 0.000 0.000 0.000
0.000 0.000 0.000 0.000 0.000 0.000 0.000 0.000 0.000 0.000 0.000 0.000 0.000 0.000 0.000 0.000 0.000 0.000 0.000 0.000 0.000 0.000 0.000 0.000 0.000 0.000 0.187 0.875 1.332 1.788 2.185 3.852 8.224 12.755 22.001 28.894 20.626 15.776 13.839 6.371 3.527 2.966 3.549 3.859 5.648 8.503 6.655 2.897 2.448 2.086 1.526 0.004 0.000 0.000 0.000 0.000 0.000 0.000
0.000 0.000 0.000 0.000 0.000 0.000 0.000 0.000 0.000 0.000 0.000 0.000 0.000 0.000 0.000 0.000 0.000 0.000 0.000 0.000 0.000 0.000 0.000 0.000 0.000 0.000 0.036 0.582 1.281 1.166 1.958 3.184 7.246 10.368 14.032 23.403 17.035 11.300 10.246 4.933 3.952 3.265 3.324 2.884 5.113 7.583 6.092 2.852 2.416 2.135 1.770 0.232 0.000 0.000 0.000 0.000 0.000 0.000
0.000 0.000 0.000 0.000 0.000 0.000 0.000 0.000 0.000 0.000 0.000 0.000 0.000 0.000 0.000 0.000 0.000 0.000 0.000 0.000 0.000 0.000 0.000 0.000 0.000 0.000 0.003 0.354 0.936 1.109 1.811 2.467 4.580 7.429 9.437 17.857 12.842 8.106 7.084 6.257 5.521 4.639 3.536 3.734 3.821 5.522 5.944 2.834 2.156 1.943 1.615 0.775 0.069 0.000 0.000 0.000 0.000 0.000
0.000 0.000 0.000 0.000 0.000 0.000 0.000 0.000 0.000 0.000 0.000 0.000 0.000 0.000 0.000 0.000 0.000 0.000 0.000 0.000 0.000 0.000 0.000 0.000 0.000 0.000 0.000 0.208 0.811 1.327 1.560 1.905 3.152 4.765 4.137 10.911 7.070 5.885 5.795 7.670 6.745 4.078 3.778 4.185 3.924 5.110 5.878 2.310 1.729 1.776 1.704 1.388 1.077 0.002 0.000 0.000 0.000 0.000
0.000 0.000 0.000 0.000 0.000 0.000 0.000 0.000 0.000 0.000 0.000 0.000 0.000 0.000 0.000 0.000 0.000 0.000 0.000 0.000 0.000 0.000 0.000 0.000 0.000 0.000 0.000 0.261 0.754 1.086 1.184 1.429 2.233 2.404 3.730 6.851 6.196 5.327 7.189 7.317 4.912 2.941 4.804 3.163 4.317 4.472 4.834 1.955 1.654 1.648 1.552 1.732 2.065 0.387 0.000 0.000 0.000 0.000
0.000 0.000 0.000 0.000 0.000 0.000 0.000 0.000 0.000 0.000 0.000 0.000 0.000 0.000 0.000 0.000 0.000 0.000 0.000 0.000 0.000 0.000 0.000 0.000 0.000 0.000 0.000 0.079 0.448 0.748 1.078 1.077 1.336 2.074 1.036 5.017 5.809 5.906 7.001 5.331 2.894 3.908 3.596 0.506 2.551 4.613 4.148 2.444 1.721 1.547 1.519 1.739 1.575 1.399 0.001 0.000 0.000 0.000
0.000 0.000 0.000 0.000 0.000 0.000 0.000 0.000 0.000 0.000 0.000 0.000 0.000 0.000 0.000 0.000 0.000 0.000 0.000 0.000 0.000 0.000 0.000 0.000 0.000 0.000 0.000 0.011 0.184 0.427 0.832 0.918 0.817 1.156 3.679 5.920 5.570 5.642 4.897 3.423 1.535 2.806 2.003 0.252 0.729 4.098 3.968 2.770 1.637 1.417 1.423 1.306 0.822 1.532 0.000 0.000 0.000 0.000
0.000 0.000 0.000 0.000 0.000 0.000 0.000 0.000 0.000 0.000 0.000 0.000 0.000 0.000 0.000 0.000 0.000 0.000 0.000 0.000 0.000 0.000 0.000 0.000 0.000 0.000 0.000 0.000 0.001 0.033 0.294 0.542 0.530 0.003 2.909 3.873 3.811 4.434 3.082 2.110 0.870 2.382 2.501 2.139 1.949 2.693 3.576 2.453 1.505 1.273 1.112 1.152 1.323 1.216 0.015 0.000 0.000 0.000
0.000 0.000 0.000 0.000 0.000 0.000 0.000 0.000 0.000 0.000 0.000 0.000 0.000 0.000 0.000 0.000 0.000 0.000 0.000 0.000 0.000 0.000 0.000 0.000 0.000 0.000 0.000 0.000 0.000 0.000 0.101 0.557 0.829 1.255 2.091 2.009 2.154 2.610 2.374 3.199 2.792 3.655 4.203 3.469 2.079 1.859 2.356 2.152 1.388 1.142 1.021 0.978 0.985 0.764 0.132 0.000 0.000 0.000
0.000 0.000 0.000 0.000 0.000 0.000 0.000 0.000 0.000 0.000 0.000 0.000 0.000 0.000 0.000 0.000 0.000 0.000 0.000 0.000 0.000 0.000 0.000 0.000 0.000 0.000 0.000 0.000 0.000 0.000 0.015 0.456 0.865 0.895 0.618 0.940 0.869 2.260 2.202 3.833 3.204 4.375 3.705 2.335 1.603 1.123 1.626 1.918 1.356 1.050 0.905 0.753 0.673 0.934 0.462 0.000 0.000 0.000
0.000 0.000 0.000 0.000 0.000 0.000 0.000 0.000 0.000 0.000 0.000 0.000 0.000 0.000 0.000 0.000 0.000 0.000 0.000 0.000 0.000 0.000 0.000 0.000 0.000 0.000 0.000 0.000 0.000 0.000 0.000 0.078 0.548 0.681 0.001 0.073 0.596 1.403 1.517 2.076 2.859 3.594 1.984 0.896 1.028 0.246 0.460 0.774 1.182 0.913 0.701 0.565 0.779 1.457 0.787 0.000 0.000 0.000
0.000 0.000 0.000 0.000 0.000 0.000 0.000 0.000 0.000 0.000 0.000 0.000 0.000 0.000 0.000 0.000 0.000 0.000 0.000 0.000 0.000 0.000 0.000 0.000 0.000 0.000 0.000 0.000 0.000 0.000 0.000 0.000 0.035 0.656 0.909 0.123 1.060 1.142 0.491 1.044 1.965 1.931 0.867 0.357 0.050 0.002 0.001 0.158 0.969 0.714 0.517 0.397 0.618 1.085 0.753 0.003 0.000 0.000
0.000 0.000 0.000 0.000 0.000 0.000 0.000 0.000 0.000 0.000 0.000 0.000 0.000 0.000 0.000 0.000 0.000 0.000 0.000 0.000 0.000 0.000 0.000 0.000 0.000 0.000 0.000 0.000 0.000 0.000 0.000 0.000 0.078 0.452 1.089 1.408 1.714 0.872 0.088 0.398 1.452 1.804 0.662 0.129 0.001 0.000 0.001 0.023 0.235 0.551 0.240 0.001 0.204 0.259 0.464 0.138 0.000 0.000
0.000 0.000 0.000 0.000 0.000 0.000 0.000 0.000 0.000 0.000 0.000 0.000 0.000 0.000 0.000 0.000 0.000 0.000 0.000 0.000 0.000 0.000 0.000 0.000 0.000 0.000 0.000 0.000 0.000 0.000 0.000 0.000 0.000 0.288 0.848 1.600 1.444 0.014 0.035 0.005 1.412 0.565 0.001 0.000 0.000 0.001 0.002 0.002 0.146 0.320 0.001 0.002 0.002 0.167 0.415 0.350 0.000 0.000
0.000 0.000 0.000 0.000 0.000 0.000 0.000 0.000 0.000 0.000 0.000 0.000 0.000 0.000 0.000 0.000 0.000 0.000 0.000 0.000 0.000 0.000 0.000 0.000 0.000 0.000 0.000 0.000 0.000 0.000 0.000 0.000 0.000 0.003 0.413 0.721 0.838 0.001 0.101 1.226 1.075 0.001 0.000 0.001 0.000 0.002 0.002 0.001 0.002 0.001 0.002 0.001 0.001 0.270 0.382 0.169 0.008 0.000
0.000 0.000 0.000 0.000 0.000 0.000 0.000 0.000 0.000 0.000 0.000 0.000 0.000 0.000 0.000 0.000 0.000 0.000 0.000 0.000 0.000 0.000 0.000 0.000 0.000 0.000 0.000 0.000 0.000 0.000 0.000 0.000 0.000 0.000 0.085 0.412 0.677 1.127 1.533 1.306 0.270 0.000 0.000 0.001 0.002 0.000 0.000 0.000 0.001 0.002 0.081 0.002 0.002 0.225 0.297 0.165 0.060 0.000
0.000 0.000 0.000 0.000 0.000 0.000 0.000 0.000 0.000 0.000 0.000 0.000 0.000 0.000 0.000 0.000 0.000 0.000 0.000 0.000 0.000 0.000 0.000 0.000 0.000 0.000 0.000 0.000 0.000 0.000 0.000 0.000 0.000 0.000 0.000 0.213 0.473 0.669 1.175 0.776 0.014 0.002 0.000 0.001 0.000 0.001 0.001 0.001 0.002 0.001 0.002 0.002 0.023 0.302 0.403 0.299 0.101 0.002
0.000 0.000 0.000 0.000 0.000 0.000 0.000 0.000 0.000 0.000 0.000 0.000 0.000 0.000 0.000 0.000 0.000 0.000 0.000 0.000 0.000 0.000 0.000 0.000 0.000 0.000 0.000 0.000 0.000 0.000 0.000 0.000 0.000 0.000 0.000 0.003 0.264 0.586 0.852 0.777 0.338 0.008 0.002 0.000 0.000 0.001 0.001 0.002 0.001 0.002 0.002 0.000 0.013 0.422 0.330 0.369 0.156 0.035
0.000 0.000 0.000 0.000 0.000 0.000 0.000 0.000 0.000 0.000 0.000 0.000 0.000 0.000 0.000 0.000 0.000 0.000 0.000 0.000 0.000 0.000 0.000 0.000 0.000 0.000 0.000 0.000 0.000 0.000 0.000 0.000 0.000 0.000 0.000 0.001 0.290 0.605 0.636 0.427 0.443 0.005 0.002 0.000 0.002 0.002 0.002 0.000 0.000 0.010 0.002 0.007 0.013 0.153 0.213 0.389 0.261 0.050
0.000 0.000 0.000 0.000 0.000 0.000 0.000 0.000 0.000 0.000 0.000 0.000 0.000 0.000 0.000 0.000 0.000 0.000 0.000 0.000 0.000 0.000 0.000 0.000 0.000 0.000 0.000 0.000 0.000 0.000 0.000 0.000 0.000 0.000 0.000 0.004 0.101 0.319 0.500 0.516 0.365 0.040 0.002 0.001 0.024 0.001 0.001 0.001 0.029 0.003 0.002 0.019 0.312 0.388 0.440 0.276 0.380 0.250
0.000 0.000 0.000 0.000 0.000 0.000 0.000 0.000 0.000 0.000 0.000 0.000 0.000 0.000 0.000 0.000 0.000 0.000 0.000 0.000 0.000 0.000 0.000 0.000 0.000 0.000 0.000 0.000 0.000 0.000 0.000 0.000 0.000 0.000 0.000 0.000 0.006 0.047 0.352 0.505 0.483 0.416 0.002 0.002 0.002 0.002 0.002 0.092 0.002 0.002 0.001 0.003 0.705 0.766 0.557 0.267 0.523 0.469
0.000 0.000 0.000 0.000 0.000 0.000 0.000 0.000 0.000 0.000 0.000 0.000 0.000 0.000 0.000 0.000 0.000 0.000 0.000 0.000 0.000 0.000 0.000 0.000 0.000 0.000 0.000 0.000 0.000 0.000 0.000 0.000 0.000 0.000 0.000 0.000 0.000 0.001 0.090 0.443 0.476 0.509 0.417 0.177 0.000 0.000 0.000 0.001 0.002 0.002 0.002 0.011 0.713 0.926 0.352 0.318 0.597 0.538
0.000 0.000 0.000 0.000 0.000 0.000 0.000 0.000 0.000 0.000 0.000 0.000 0.000 0.000 0.000 0.000 0.000 0.000 0.000 0.000 0.000 0.000 0.000 0.000 0.000 0.000 0.000 0.000 0.000 0.000 0.000 0.000 0.000 0.000 0.000 0.000 0.000 0.000 0.002 0.292 0.529 0.504 0.309 0.002 0.002 0.001 0.001 0.001 0.002 0.000 0.000 0.011 0.712 0.318 0.016 0.070 0.377 0.597
0.000 0.000 0.000 0.000 0.000 0.000 0.000 0.000 0.000 0.000 0.000 0.000 0.000 0.000 0.000 0.000 0.000 0.000 0.000 0.000 0.000 0.000 0.000 0.000 0.000 0.000 0.000 0.000 0.000 0.000 0.000 0.000 0.000 0.000 0.000 0.000 0.000 0.000 0.000 0.097 0.437 0.473 0.273 0.000 0.000 0.001 0.002 0.001 0.002 0.001 0.002 0.002 0.016 0.025 0.102 0.023 0.353 0.720
0.000 0.000 0.000 0.000 0.000 0.000 0.000 0.000 0.000 0.000 0.000 0.000 0.000 0.000 0.000 0.000 0.000 0.000 0.000 0.000 0.000 0.000 0.000 0.000 0.000 0.000 0.000 0.000 0.000 0.000 0.000 0.000 0.000 0.000 0.000 0.000 0.000 0.000 0.000 0.001 0.126 0.384 0.339 0.013 0.001 0.000 0.001 0.002 0.002 0.002 0.001 0.002 0.001 0.495 0.538 0.260 0.484 0.590
0.000 0.000 0.000 0.000 0.000 0.000 0.000 0.000 0.000 0.000 0.000 0.000 0.000 0.000 0.000 0.000 0.000 0.000 0.000 0.000 0.000 0.000 0.000 0.000 0.000 0.000 0.000 0.000 0.000 0.000 0.000 0.000 0.000 0.000 0.000 0.000 0.000 0.000 0.000 0.000 0.002 0.250 0.275 0.191 0.001 0.001 0.001 0.000 0.002 0.002 0.002 0.005 0.055 0.827 0.630 0.151 0.162 0.179
0.000 0.000 0.000 0.000 0.000 0.000 0.000 0.000 0.000 0.000 0.000 0.000 0.000 0.000 0.000 0.000 0.000 0.000 0.000 0.000 0.000 0.000 0.000 0.000 0.000 0.000 0.000 0.000 0.000 0.000 0.000 0.000 0.000 0.000 0.000 0.000 0.000 0.000 0.000 0.000 0.000 0.186 0.281 0.165 0.012 0.002 0.003 0.002 0.001 0.000 0.002 0.002 0.400 0.557 0.457 0.144 0.009 0.178
0.000 0.000 0.000 0.000 0.000 0.000 0.000 0.000 0.000 0.000 0.000 0.000 0.000 0.000 0.000 0.000 0.000 0.000 0.000 0.000 0.000 0.000 0.000 0.000 0.000 0.000 0.000 0.000 0.000 0.000 0.000 0.000 0.000 0.000 0.000 0.000 0.000 0.000 0.000 0.000 0.000 0.028 0.277 0.290 0.400 0.002 0.360 0.002 0.001 0.002 0.002 0.001 0.057 0.366 0.408 0.002 0.023 0.019
0.000 0.000 0.000 0.000 0.000 0.000 0.000 0.000 0.000 0.000 0.000 0.000 0.000 0.000 0.000 0.000 0.000 0.000 0.000 0.000 0.000 0.000 0.000 0.000 0.000 0.000 0.000 0.000 0.000 0.000 0.000 0.000 0.000 0.000 0.000 0.000 0.000 0.000 0.000 0.000 0.000 0.002 0.242 0.482 0.392 0.524 0.486 0.130 0.001 0.002 0.002 0.002 0.029 0.243 0.002 0.002 0.002 0.002
0.000 0.000 0.000 0.000 0.000 0.000 0.000 0.000 0.000 0.000 0.000 0.000 0.000 0.000 0.000 0.000 0.000 0.000 0.000 0.000 0.000 0.000 0.000 0.000 0.000 0.000 0.000 0.000 0.000 0.000 0.000 0.000 0.000 0.000 0.000 0.000 0.000 0.000 0.000 0.000 0.000 0.011 0.084 0.316 0.233 0.506 0.008 0.002 0.000 0.000 0.001 0.001 0.118 0.023 0.002 0.001 0.002 0.002
0.000 0.000 0.000 0.000 0.000 0.000 0.000 0.000 0.000 0.000 0.000 0.000 0.000 0.000 0.000 0.000 0.000 0.000 0.000 0.000 0.000 0.000 0.000 0.000 0.000 0.000 0.000 0.000 0.000 0.000 0.000 0.000 0.000 0.000 0.000 0.000 0.000 0.000 0.000 0.000 0.000 0.000 0.034 0.002 0.398 0.290 0.001 0.001 0.002 0.000 0.001 0.002 0.239 0.002 0.092 0.001 0.001 0.001
0.000 0.000 0.000 0.000 0.000 0.000 0.000 0.000 0.000 0.000 0.000 0.000 0.000 0.000 0.000 0.000 0.000 0.000 0.000 0.000 0.000 0.000 0.000 0.000 0.000 0.000 0.000 0.000 0.000 0.000 0.000 0.000 0.000 0.000 0.000 0.000 0.000 0.000 0.000 0.000 0.000 0.000 0.000 0.094 0.393 0.287 0.002 0.002 0.000 0.002 0.002 0.002 0.198 0.270 0.364 0.001 0.001 0.001
0.000 0.000 0.000 0.000 0.000 0.000 0.000 0.000 0.000 0.000 0.000 0.000 0.000 0.000 0.000 0.000 0.000 0.000 0.000 0.000 0.000 0.000 0.000 0.000 0.000 0.000 0.000 0.000 0.000 0.000 0.000 0.000 0.000 0.000 0.000 0.000 0.000 0.000 0.000 0.000 0.000 0.000 0.000 0.109 0.250 0.259 0.002 0.001 0.015 0.017 0.031 0.038 0.687 0.451 0.002 0.023 0.001 0.000
0.000 0.000 0.000 0.000 0.000 0.000 0.000 0.000 0.000 0.000 0.000 0.000 0.000 0.000 0.000 0.000 0.000 0.000 0.000 0.000 0.000 0.000 0.000 0.000 0.000 0.000 0.000 0.000 0.000 0.000 0.000 0.000 0.000 0.000 0.000 0.000 0.000 0.000 0.000 0.000 0.000 0.000 0.000 0.049 0.037 0.216 0.002 0.018 1.657 1.482 1.491 1.738 0.903 0.034 0.002 0.001 0.001 0.001
0.000 0.000 0.000 0.000 0.000 0.000 0.000 0.000 0.000 0.000 0.000 0.000 0.000 0.000 0.000 0.000 0.000 0.000 0.000 0.000 0.000 0.000 0.000 0.000 0.000 0.000 0.000 0.000 0.000 0.000 0.000 0.000 0.000 0.000 0.000 0.000 0.000 0.000 0.000 0.000 0.000 0.000 0.000 0.001 0.061 0.002 0.002 0.418 1.509 2.775 2.417 2.073 0.555 0.031 0.001 0.002 0.001 0.001
0.000 0.000 0.000 0.000 0.000 0.000 0.000 0.000 0.000 0.000 0.000 0.000 0.000 0.000 0.000 0.000 0.000 0.000 0.000 0.000 0.000 0.000 0.000 0.000 0.000 0.000 0.000 0.000 0.000 0.000 0.000 0.000 0.000 0.000 0.000 0.000 0.000 0.000 0.000 0.000 0.000 0.000 0.000 0.000 0.026 0.006 0.006 0.678 1.063 1.862 1.503 0.968 0.592 0.033 0.008 0.002 0.001 0.001
0.000 0.000 0.000 0.000 0.000 0.000 0.000 0.000 0.000 0.000 0.000 0.000 0.000 0.000 0.000 0.000 0.000 0.000 0.000 0.000 0.000 0.000 0.000 0.000 0.000 0.000 0.000 0.000 0.000 0.000 0.000 0.000 0.000 0.000 0.000 0.000 0.000 0.000 0.000 0.000 0.000 0.000 0.000 0.000 0.000 0.002 0.442 0.587 0.614 1.137 0.650 0.764 1.262 0.803 0.493 0.003 0.001 0.002
0.000 0.000 0.000 0.000 0.000 0.000 0.000 0.000 0.000 0.000 0.000 0.000 0.000 0.000 0.000 0.000 0.000 0.000 0.000 0.000 0.000 0.000 0.000 0.000 0.000 0.000 0.000 0.000 0.000 0.000 0.000 0.000 0.000 0.000 0.000 0.000 0.000 0.000 0.000 0.000 0.000 0.000 0.000 0.000 0.001 0.247 0.491 0.485 0.466 0.529 0.131 0.366 1.420 1.437 1.097 0.142 0.020 0.002
0.000 0.000 0.000 0.000 0.000 0.000 0.000 0.000 0.000 0.000 0.000 0.000 0.000 0.000 0.000 0.000 0.000 0.000 0.000 0.000 0.000 0.000 0.000 0.000 0.000 0.000 0.000 0.000 0.000 0.000 0.000 0.000 0.000 0.000 0.000 0.000 0.000 0.000 0.000 0.000 0.000 0.000 0.000 0.000 0.009 0.206 0.345 0.342 0.358 0.438 0.011 0.013 0.595 0.787 0.881 0.532 0.003 0.002
0.000 0.000 0.000 0.000 0.000 0.000 0.000 0.000 0.000 0.000 0.000 0.000 0.000 0.000 0.000 0.000 0.000 0.000 0.000 0.000 0.000 0.000 0.000 0.000 0.000 0.000 0.000 0.000 0.000 0.000 0.000 0.000 0.000 0.000 0.000 0.000 0.000 0.000 0.000 0.000 0.000 0.000 0.000 0.000 0.000 0.002 0.072 0.253 0.323 0.394 0.016 0.033 0.242 0.451 0.521 0.428 0.127 0.031
0.000 0.000 0.000 0.000 0.000 0.000 0.000 0.000 0.000 0.000 0.000 0.000 0.000 0.000 0.000 0.000 0.000 0.000 0.000 0.000 0.000 0.000 0.000 0.000 0.000 0.000 0.000 0.000 0.000 0.000 0.000 0.000 0.000 0.000 0.000 0.000 0.000 0.000 0.000 0.000 0.000 0.000 0.000 0.000 0.000 0.000 0.000 0.164 0.238 0.204 0.017 0.336 0.470 0.584 0.291 0.149 0.378 0.172
0.000 0.000 0.000 0.000 0.000 0.000 0.000 0.000 0.000 0.000 0.000 0.000 0.000 0.000 0.000 0.000 0.000 0.000 0.000 0.000 0.000 0.000 0.000 0.000 0.000 0.000 0.000 0.000 0.000 0.000 0.000 0.000 0.000 0.000 0.000 0.000 0.000 0.000 0.000 0.000 0.000 0.000 0.000 0.000 0.000 0.000 0.000 0.010 0.113 0.002 0.378 1.152 0.907 0.322 0.219 0.026 0.375 0.145
0.000 0.000 0.000 0.000 0.000 0.000 0.000 0.000 0.000 0.000 0.000 0.000 0.000 0.000 0.000 0.000 0.000 0.000 0.000 0.000 0.000 0.000 0.000 0.000 0.000 0.000 0.000 0.000 0.000 0.000 0.000 0.000 0.000 0.000 0.000 0.000 0.000 0.000 0.000 0.000 0.000 0.000 0.000 0.000 0.000 0.000 0.000 0.000 0.154 0.251 0.599 1.122 0.943 0.337 0.097 0.002 0.022 0.169
