ncols        51
nrows        124
xllcorner    409557.8
yllcorner    6870864.1
cellsize     5.00
NODATA_value -9999
0.000 0.000 0.000 0.000 0.009 2.785 24.846 42.331 44.330 19.760 1.304 0.000 0.000 0.000 0.000 0.000 0.000 0.000 0.000 0.000 0.000 0.000 0.000 0.000 0.000 0.000 0.000 0.000 0.000 0.000 0.000 0.000 0.000 0.000 0.000 0.000 0.000 0.000 0.000 0.000 0.000 0.000 0.000 0.000 0.000 0.000 0.000 0.000 0.000 0.000 0.000
0.000 0.000 0.000 0.441 26.169 94.089 101.993 92.980 91.284 81.990 92.965 12.499 0.000 0.000 0.000 0.000 0.000 0.000 0.000 0.000 0.000 0.000 0.000 0.000 0.000 0.000 0.000 0.000 0.000 0.000 0.000 0.000 0.000 0.000 0.000 0.000 0.000 0.000 0.000 0.000 0.000 0.000 0.000 0.000 0.000 0.000 0.000 0.000 0.000 0.000 0.000
0.000 0.000 0.170 37.026 78.337 96.697 114.108 110.656 107.710 107.373 95.539 81.248 5.528 0.000 0.000 0.000 0.000 0.000 0.000 0.000 0.000 0.000 0.000 0.000 0.000 0.000 0.000 0.000 0.000 0.000 0.000 0.000 0.000 0.000 0.000 0.000 0.000 0.000 0.000 0.000 0.000 0.000 0.000 0.000 0.000 0.000 0.000 0.000 0.000 0.000 0.000
0.000 0.001 10.227 80.984 96.668 119.432 119.904 130.696 121.285 110.968 107.147 73.983 46.850 0.286 0.000 0.000 0.000 0.000 0.000 0.000 0.000 0.000 0.000 0.000 0.000 0.000 0.000 0.000 0.000 0.000 0.000 0.000 0.000 0.000 0.000 0.000 0.000 0.000 0.000 0.000 0.000 0.000 0.000 0.000 0.000 0.000 0.000 0.000 0.000 0.000 0.000
0.000 0.981 82.435 91.789 96.221 124.399 131.516 136.449 139.308 136.641 109.295 78.749 55.864 25.797 0.000 0.000 0.000 0.000 0.000 0.000 0.000 0.000 0.000 0.000 0.000 0.000 0.000 0.000 0.000 0.000 0.000 0.000 0.000 0.000 0.000 0.000 0.000 0.000 0.000 0.000 0.000 0.000 0.000 0.000 0.000 0.000 0.000 0.000 0.000 0.000 0.000
0.000 15.172 86.910 94.904 111.672 116.154 134.198 150.740 163.480 124.914 105.495 85.996 66.823 63.928 2.779 0.000 0.000 0.000 0.000 0.000 0.000 0.000 0.000 0.000 0.000 0.000 0.000 0.000 0.000 0.000 0.000 0.000 0.000 0.000 0.000 0.000 0.000 0.000 0.000 0.000 0.000 0.000 0.000 0.000 0.000 0.000 0.000 0.000 0.000 0.000 0.000
0.000 55.286 92.368 110.655 122.219 103.459 131.501 150.435 158.959 115.804 104.484 98.004 84.982 69.620 30.902 0.001 0.000 0.000 0.000 0.000 0.000 0.000 0.000 0.000 0.000 0.000 0.000 0.000 0.000 0.000 0.000 0.000 0.000 0.000 0.000 0.000 0.000 0.000 0.000 0.000 0.000 0.000 0.000 0.000 0.000 0.000 0.000 0.000 0.000 0.000 0.000
0.000 89.760 97.283 123.308 125.972 138.451 153.206 158.167 154.437 119.410 120.456 132.625 101.420 73.339 59.860 2.227 0.000 0.000 0.000 0.000 0.000 0.000 0.000 0.000 0.000 0.000 0.000 0.000 0.000 0.000 0.000 0.000 0.000 0.000 0.000 0.000 0.000 0.000 0.000 0.000 0.000 0.000 0.000 0.000 0.000 0.000 0.000 0.000 0.000 0.000 0.000
0.000 89.925 107.374 132.722 124.593 115.559 149.019 168.976 147.284 125.979 142.321 145.199 91.592 87.338 64.105 19.740 0.000 0.000 0.000 0.000 0.000 0.000 0.000 0.000 0.000 0.000 0.000 0.000 0.000 0.000 0.000 0.000 0.000 0.000 0.000 0.000 0.000 0.000 0.000 0.000 0.000 0.000 0.000 0.000 0.000 0.000 0.000 0.000 0.000 0.000 0.000
0.000 86.351 106.129 118.342 118.949 128.602 127.662 160.390 147.318 145.998 157.776 151.405 115.500 118.190 67.445 43.848 1.085 0.000 0.000 0.000 0.000 0.000 0.000 0.000 0.000 0.000 0.000 0.000 0.000 0.000 0.000 0.000 0.000 0.000 0.000 0.000 0.000 0.000 0.000 0.000 0.000 0.000 0.000 0.000 0.000 0.000 0.000 0.000 0.000 0.000 0.000
0.000 57.235 90.890 103.777 117.569 133.744 166.277 165.233 151.724 151.374 163.827 170.529 140.409 101.424 81.711 61.784 13.130 0.000 0.000 0.000 0.000 0.000 0.000 0.000 0.000 0.000 0.000 0.000 0.000 0.000 0.000 0.000 0.000 0.000 0.000 0.000 0.000 0.000 0.000 0.000 0.000 0.000 0.000 0.000 0.000 0.000 0.000 0.000 0.000 0.000 0.000
0.000 24.383 85.826 112.260 128.904 150.199 132.055 142.972 148.719 137.820 153.732 156.762 122.617 99.160 128.272 73.884 28.521 0.025 0.000 0.000 0.000 0.000 0.000 0.000 0.000 0.000 0.000 0.000 0.000 0.000 0.000 0.000 0.000 0.000 0.000 0.000 0.000 0.000 0.000 0.000 0.000 0.000 0.000 0.000 0.000 0.000 0.000 0.000 0.000 0.000 0.000
0.000 4.552 82.967 99.661 119.293 119.541 102.086 152.408 125.965 127.802 150.538 157.773 127.022 152.686 139.454 78.872 35.534 3.973 0.000 0.000 0.000 0.000 0.000 0.000 0.000 0.000 0.000 0.000 0.000 0.000 0.000 0.000 0.000 0.000 0.000 0.000 0.000 0.000 0.000 0.000 0.000 0.000 0.000 0.000 0.000 0.000 0.000 0.000 0.000 0.000 0.000
0.000 0.142 32.846 95.660 113.913 99.974 117.423 164.192 152.812 133.869 152.317 140.356 124.748 165.412 119.403 76.555 48.215 15.279 0.000 0.000 0.000 0.000 0.000 0.000 0.000 0.000 0.000 0.000 0.000 0.000 0.000 0.000 0.000 0.000 0.000 0.000 0.000 0.000 0.000 0.000 0.000 0.000 0.000 0.000 0.000 0.000 0.000 0.000 0.000 0.000 0.000
0.000 0.000 3.159 64.818 94.652 125.727 139.096 134.836 148.024 147.267 133.800 129.829 132.433 142.132 115.087 88.317 68.970 27.218 0.003 0.000 0.000 0.000 0.000 0.000 0.000 0.000 0.000 0.000 0.000 0.000 0.000 0.000 0.000 0.000 0.000 0.000 0.000 0.000 0.000 0.000 0.000 0.000 0.000 0.000 0.000 0.000 0.000 0.000 0.000 0.000 0.000
0.000 0.000 0.035 18.793 79.223 109.999 124.489 129.666 146.883 137.635 111.753 119.661 129.909 145.501 136.217 130.621 79.574 38.134 1.277 0.000 0.000 0.000 0.000 0.000 0.000 0.000 0.000 0.000 0.000 0.000 0.000 0.000 0.000 0.000 0.000 0.000 0.000 0.000 0.000 0.000 0.000 0.000 0.000 0.000 0.000 0.000 0.000 0.000 0.000 0.000 0.000
0.000 0.000 0.000 1.263 46.940 86.049 107.831 118.557 128.498 138.747 154.207 116.940 140.170 156.213 163.174 126.876 81.851 38.243 7.279 0.000 0.000 0.000 0.000 0.000 0.000 0.000 0.000 0.000 0.000 0.000 0.000 0.000 0.000 0.000 0.000 0.000 0.000 0.000 0.000 0.000 0.000 0.000 0.000 0.000 0.000 0.000 0.000 0.000 0.000 0.000 0.000
0.000 0.000 0.000 0.039 17.759 73.336 100.792 116.246 127.816 149.922 139.794 115.178 137.324 164.599 145.448 124.965 82.940 42.206 18.171 0.171 0.000 0.000 0.000 0.000 0.000 0.000 0.000 0.000 0.000 0.000 0.000 0.000 0.000 0.000 0.000 0.000 0.000 0.000 0.000 0.000 0.000 0.000 0.000 0.000 0.000 0.000 0.000 0.000 0.000 0.000 0.000
0.000 0.000 0.000 0.001 4.146 53.046 87.368 142.811 155.445 146.284 135.462 127.208 148.371 137.956 120.223 111.532 81.945 52.727 27.177 4.875 0.000 0.000 0.000 0.000 0.000 0.000 0.000 0.000 0.000 0.000 0.000 0.000 0.000 0.000 0.000 0.000 0.000 0.000 0.000 0.000 0.000 0.000 0.000 0.000 0.000 0.000 0.000 0.000 0.000 0.000 0.000
0.000 0.000 0.000 0.000 0.727 34.035 77.621 113.454 144.182 133.136 141.179 129.156 103.351 123.223 108.520 107.603 94.685 57.486 33.835 13.018 0.265 0.000 0.000 0.000 0.000 0.000 0.000 0.000 0.000 0.000 0.000 0.000 0.000 0.000 0.000 0.000 0.000 0.000 0.000 0.000 0.000 0.000 0.000 0.000 0.000 0.000 0.000 0.000 0.000 0.000 0.000
0.000 0.000 0.000 0.000 0.075 17.184 63.790 106.509 128.344 141.134 135.724 119.997 115.718 105.749 118.208 104.959 90.474 72.938 42.769 22.766 5.780 0.000 0.000 0.000 0.000 0.000 0.000 0.000 0.000 0.000 0.000 0.000 0.000 0.000 0.000 0.000 0.000 0.000 0.000 0.000 0.000 0.000 0.000 0.000 0.000 0.000 0.000 0.000 0.000 0.000 0.000
0.000 0.000 0.000 0.000 0.002 5.344 44.580 80.468 123.385 161.323 150.050 129.478 119.413 93.323 94.920 106.504 114.301 80.815 51.020 28.526 12.455 0.005 0.000 0.000 0.000 0.000 0.000 0.000 0.000 0.000 0.000 0.000 0.000 0.000 0.000 0.000 0.000 0.000 0.000 0.000 0.000 0.000 0.000 0.000 0.000 0.000 0.000 0.000 0.000 0.000 0.000
0.000 0.000 0.000 0.000 0.000 0.773 27.594 65.614 104.186 146.111 176.309 185.289 120.397 86.704 81.354 104.870 89.882 83.761 57.426 32.554 17.824 1.616 0.000 0.000 0.000 0.000 0.000 0.000 0.000 0.000 0.000 0.000 0.000 0.000 0.000 0.000 0.000 0.000 0.000 0.000 0.000 0.000 0.000 0.000 0.000 0.000 0.000 0.000 0.000 0.000 0.000
0.000 0.000 0.000 0.000 0.000 0.018 12.028 45.403 82.707 123.299 168.277 191.873 180.483 134.549 120.350 104.656 83.990 109.409 63.493 32.164 23.798 7.323 0.000 0.000 0.000 0.000 0.000 0.000 0.000 0.000 0.000 0.000 0.000 0.000 0.000 0.000 0.000 0.000 0.000 0.000 0.000 0.000 0.000 0.000 0.000 0.000 0.000 0.000 0.000 0.000 0.000
0.000 0.000 0.000 0.000 0.000 0.000 3.128 34.663 65.525 107.531 151.214 170.648 177.180 165.642 175.247 153.032 129.150 102.847 75.959 42.614 23.927 13.474 0.000 0.000 0.000 0.000 0.000 0.000 0.000 0.000 0.000 0.000 0.000 0.000 0.000 0.000 0.000 0.000 0.000 0.000 0.000 0.000 0.000 0.000 0.000 0.000 0.000 0.000 0.000 0.000 0.000
0.000 0.000 0.000 0.000 0.000 0.000 0.346 19.857 54.788 91.305 121.466 141.287 173.744 187.557 172.505 148.241 142.296 121.107 83.347 51.678 23.731 18.249 0.000 0.000 0.000 0.000 0.000 0.000 0.000 0.000 0.000 0.000 0.000 0.000 0.000 0.000 0.000 0.000 0.000 0.000 0.000 0.000 0.000 0.000 0.000 0.000 0.000 0.000 0.000 0.000 0.000
0.000 0.000 0.000 0.000 0.000 0.000 0.015 7.537 38.144 74.837 109.339 132.968 157.175 168.086 159.201 148.898 145.400 119.883 91.035 54.517 29.729 19.705 0.542 0.000 0.000 0.000 0.000 0.000 0.000 0.000 0.000 0.000 0.000 0.000 0.000 0.000 0.000 0.000 0.000 0.000 0.000 0.000 0.000 0.000 0.000 0.000 0.000 0.000 0.000 0.000 0.000
0.000 0.000 0.000 0.000 0.000 0.000 0.000 1.578 23.805 54.520 86.191 125.434 151.832 146.545 155.410 170.014 149.761 143.403 117.997 70.925 23.924 18.776 6.433 0.000 0.000 0.000 0.000 0.000 0.000 0.000 0.000 0.000 0.000 0.000 0.000 0.000 0.000 0.000 0.000 0.000 0.000 0.000 0.000 0.000 0.000 0.000 0.000 0.000 0.000 0.000 0.000
0.000 0.000 0.000 0.000 0.000 0.000 0.000 0.128 10.794 39.039 72.776 113.671 132.652 151.655 135.787 145.258 126.060 145.626 100.434 69.861 37.330 29.684 10.107 0.000 0.000 0.000 0.000 0.000 0.000 0.000 0.000 0.000 0.000 0.000 0.000 0.000 0.000 0.000 0.000 0.000 0.000 0.000 0.000 0.000 0.000 0.000 0.000 0.000 0.000 0.000 0.000
0.000 0.000 0.000 0.000 0.000 0.000 0.000 0.002 3.299 23.277 55.053 97.935 132.698 131.080 139.496 149.923 142.848 129.424 98.120 72.625 47.183 31.644 14.467 0.000 0.000 0.000 0.000 0.000 0.000 0.000 0.000 0.000 0.000 0.000 0.000 0.000 0.000 0.000 0.000 0.000 0.000 0.000 0.000 0.000 0.000 0.000 0.000 0.000 0.000 0.000 0.000
0.000 0.000 0.000 0.000 0.000 0.000 0.000 0.000 0.521 13.285 39.527 71.603 103.210 115.377 136.707 123.739 127.719 117.260 103.341 71.435 47.656 32.780 19.006 0.000 0.000 0.000 0.000 0.000 0.000 0.000 0.000 0.000 0.000 0.000 0.000 0.000 0.000 0.000 0.000 0.000 0.000 0.000 0.000 0.000 0.000 0.000 0.000 0.000 0.000 0.000 0.000
0.000 0.000 0.000 0.000 0.000 0.000 0.000 0.000 0.042 6.031 23.696 44.308 77.436 125.047 111.950 137.497 132.289 108.580 96.905 65.417 63.018 34.526 20.755 0.000 0.000 0.000 0.000 0.000 0.000 0.000 0.000 0.000 0.000 0.000 0.000 0.000 0.000 0.000 0.000 0.000 0.000 0.000 0.000 0.000 0.000 0.000 0.000 0.000 0.000 0.000 0.000
0.000 0.000 0.000 0.000 0.000 0.000 0.000 0.000 0.002 2.476 16.333 31.536 63.007 103.624 115.547 115.150 126.182 115.327 80.882 67.369 62.215 38.328 23.173 0.000 0.000 0.000 0.000 0.000 0.000 0.000 0.000 0.000 0.000 0.000 0.000 0.000 0.000 0.000 0.000 0.000 0.000 0.000 0.000 0.000 0.000 0.000 0.000 0.000 0.000 0.000 0.000
0.000 0.000 0.000 0.000 0.000 0.000 0.000 0.000 0.000 1.058 10.730 18.184 36.395 73.476 98.400 109.912 120.566 98.661 78.087 68.108 83.991 40.972 22.445 0.072 0.000 0.000 0.000 0.000 0.000 0.000 0.000 0.000 0.000 0.000 0.000 0.000 0.000 0.000 0.000 0.000 0.000 0.000 0.000 0.000 0.000 0.000 0.000 0.000 0.000 0.000 0.000
0.000 0.000 0.000 0.000 0.000 0.000 0.000 0.000 0.000 0.556 9.458 15.222 23.689 51.761 90.667 106.567 106.212 88.210 68.010 88.523 78.834 44.050 23.583 2.051 0.000 0.000 0.000 0.000 0.000 0.000 0.000 0.000 0.000 0.000 0.000 0.000 0.000 0.000 0.000 0.000 0.000 0.000 0.000 0.000 0.000 0.000 0.000 0.000 0.000 0.000 0.000
0.000 0.000 0.000 0.000 0.000 0.000 0.000 0.000 0.000 0.178 7.785 13.095 17.857 31.421 70.987 81.990 90.109 75.614 69.359 106.032 81.924 50.274 19.165 4.673 0.000 0.000 0.000 0.000 0.000 0.000 0.000 0.000 0.000 0.000 0.000 0.000 0.000 0.000 0.000 0.000 0.000 0.000 0.000 0.000 0.000 0.000 0.000 0.000 0.000 0.000 0.000
0.000 0.000 0.000 0.000 0.000 0.000 0.000 0.000 0.000 0.041 5.499 12.958 12.939 15.172 43.167 76.964 78.254 74.586 99.517 109.049 84.627 54.223 20.409 10.820 0.126 0.000 0.000 0.000 0.000 0.000 0.000 0.000 0.000 0.000 0.000 0.000 0.000 0.000 0.000 0.000 0.000 0.000 0.000 0.000 0.000 0.000 0.000 0.000 0.000 0.000 0.000
0.000 0.000 0.000 0.000 0.000 0.000 0.000 0.000 0.000 0.009 2.870 10.947 10.835 11.887 26.540 74.996 87.132 94.557 102.524 111.132 81.599 49.230 23.023 16.472 4.397 0.482 0.002 0.000 0.000 0.000 0.000 0.000 0.000 0.000 0.000 0.000 0.000 0.000 0.000 0.000 0.000 0.000 0.000 0.000 0.000 0.000 0.000 0.000 0.000 0.000 0.000
0.000 0.000 0.000 0.000 0.000 0.000 0.000 0.000 0.000 0.001 1.267 7.946 10.332 9.281 11.903 63.430 76.665 88.906 83.095 102.214 72.188 53.201 28.844 16.795 9.809 6.972 1.410 0.000 0.000 0.000 0.000 0.000 0.000 0.000 0.000 0.000 0.000 0.000 0.000 0.000 0.000 0.000 0.000 0.000 0.000 0.000 0.000 0.000 0.000 0.000 0.000
0.000 0.000 0.000 0.000 0.000 0.000 0.000 0.000 0.000 0.000 0.383 5.079 7.613 8.583 7.466 33.295 68.270 82.567 77.588 91.366 76.189 60.892 32.290 13.994 15.821 11.568 8.010 0.011 0.000 0.000 0.000 0.000 0.000 0.000 0.000 0.000 0.000 0.000 0.000 0.000 0.000 0.000 0.000 0.000 0.000 0.000 0.000 0.000 0.000 0.000 0.000
0.000 0.000 0.000 0.000 0.000 0.000 0.000 0.000 0.000 0.000 0.077 3.294 8.276 8.802 6.888 11.582 59.350 69.348 81.446 81.158 79.230 68.485 37.112 18.038 21.733 17.404 12.793 1.687 0.000 0.000 0.000 0.000 0.000 0.000 0.000 0.000 0.000 0.000 0.000 0.000 0.000 0.000 0.000 0.000 0.000 0.000 0.000 0.000 0.000 0.000 0.000
0.000 0.000 0.000 0.000 0.000 0.000 0.000 0.000 0.000 0.000 0.044 3.069 7.683 7.468 6.730 6.096 46.666 59.404 71.458 82.051 83.849 75.056 42.378 22.010 22.686 18.028 14.668 6.772 0.000 0.000 0.000 0.000 0.000 0.000 0.000 0.000 0.000 0.000 0.000 0.000 0.000 0.000 0.000 0.000 0.000 0.000 0.000 0.000 0.000 0.000 0.000
0.000 0.000 0.000 0.000 0.000 0.000 0.000 0.000 0.000 0.000 0.002 1.762 5.622 6.964 7.166 7.630 32.315 56.617 68.006 86.446 87.572 82.306 48.825 26.514 22.664 18.863 16.606 9.522 0.292 0.000 0.000 0.000 0.000 0.000 0.000 0.000 0.000 0.000 0.000 0.000 0.000 0.000 0.000 0.000 0.000 0.000 0.000 0.000 0.000 0.000 0.000
0.000 0.000 0.000 0.000 0.000 0.000 0.000 0.000 0.000 0.000 0.000 0.665 5.064 6.604 7.608 9.588 27.782 57.677 72.993 81.186 95.551 85.968 64.566 32.619 20.097 15.376 13.548 10.621 3.411 0.001 0.000 0.000 0.000 0.000 0.000 0.000 0.000 0.000 0.000 0.000 0.000 0.000 0.000 0.000 0.000 0.000 0.000 0.000 0.000 0.000 0.000
0.000 0.000 0.000 0.000 0.000 0.000 0.000 0.000 0.000 0.000 0.000 0.328 4.128 5.895 7.284 9.644 29.766 56.545 87.349 107.889 107.929 91.964 72.656 29.236 15.504 15.171 14.764 15.236 6.436 0.305 0.000 0.000 0.000 0.000 0.000 0.000 0.000 0.000 0.000 0.000 0.000 0.000 0.000 0.000 0.000 0.000 0.000 0.000 0.000 0.000 0.000
0.000 0.000 0.000 0.000 0.000 0.000 0.000 0.000 0.000 0.000 0.000 0.305 4.028 5.239 6.263 8.561 21.639 45.333 74.477 89.165 88.854 87.190 74.779 32.656 15.948 14.224 18.026 16.523 6.827 2.593 0.010 0.000 0.000 0.000 0.000 0.000 0.000 0.000 0.000 0.000 0.000 0.000 0.000 0.000 0.000 0.000 0.000 0.000 0.000 0.000 0.000
0.000 0.000 0.000 0.000 0.000 0.000 0.000 0.000 0.000 0.000 0.000 0.109 3.649 4.298 6.288 9.424 20.430 34.625 79.701 95.703 72.402 97.614 64.840 38.795 16.945 16.751 18.212 13.346 9.442 9.239 1.182 0.000 0.000 0.000 0.000 0.000 0.000 0.000 0.000 0.000 0.000 0.000 0.000 0.000 0.000 0.000 0.000 0.000 0.000 0.000 0.000
0.000 0.000 0.000 0.000 0.000 0.000 0.000 0.000 0.000 0.000 0.000 0.007 1.951 3.544 6.153 7.944 17.038 22.207 41.869 83.389 87.793 84.444 65.739 42.979 18.725 16.962 16.183 16.993 16.802 17.438 4.631 0.004 0.000 0.000 0.000 0.000 0.000 0.000 0.000 0.000 0.000 0.000 0.000 0.000 0.000 0.000 0.000 0.000 0.000 0.000 0.000
0.000 0.000 0.000 0.000 0.000 0.000 0.000 0.000 0.000 0.000 0.000 0.001 1.398 3.229 5.220 6.143 13.847 18.701 20.395 63.713 75.080 77.023 67.627 47.357 22.676 16.075 17.524 19.546 21.346 20.190 7.619 0.162 0.047 0.000 0.000 0.000 0.000 0.000 0.000 0.000 0.000 0.000 0.000 0.000 0.000 0.000 0.000 0.000 0.000 0.000 0.000
0.000 0.000 0.000 0.000 0.000 0.000 0.000 0.000 0.000 0.000 0.000 0.003 1.610 4.740 5.110 6.149 9.569 12.875 17.212 58.520 81.139 81.776 71.201 51.432 29.608 17.083 18.072 18.323 23.295 15.106 9.249 0.778 1.500 0.000 0.000 0.000 0.000 0.000 0.000 0.000 0.000 0.000 0.000 0.000 0.000 0.000 0.000 0.000 0.000 0.000 0.000
0.000 0.000 0.000 0.000 0.000 0.000 0.000 0.000 0.000 0.000 0.000 0.057 2.297 4.875 5.542 5.666 8.823 12.421 15.489 45.164 82.362 79.491 79.784 56.095 33.773 20.876 17.506 21.158 27.699 17.799 12.205 4.688 3.205 0.019 0.000 0.000 0.000 0.000 0.000 0.000 0.000 0.000 0.000 0.000 0.000 0.000 0.000 0.000 0.000 0.000 0.000
0.000 0.000 0.000 0.000 0.000 0.000 0.000 0.000 0.000 0.000 0.000 0.127 2.415 4.077 5.801 6.284 8.538 12.330 17.375 42.676 87.301 90.844 73.204 60.138 40.566 25.959 16.741 19.658 20.702 22.818 14.972 7.988 3.911 0.856 0.000 0.000 0.000 0.000 0.000 0.000 0.000 0.000 0.000 0.000 0.000 0.000 0.000 0.000 0.000 0.000 0.000
0.000 0.000 0.000 0.000 0.000 0.000 0.000 0.000 0.000 0.000 0.000 0.007 1.897 4.591 5.556 5.190 8.579 13.579 18.064 41.062 77.736 95.273 77.831 58.762 46.673 34.019 19.367 18.785 18.358 21.732 13.914 11.278 5.726 2.520 0.000 0.000 0.000 0.000 0.000 0.000 0.000 0.000 0.000 0.000 0.000 0.000 0.000 0.000 0.000 0.000 0.000
0.000 0.000 0.000 0.000 0.000 0.000 0.000 0.000 0.000 0.000 0.000 0.004 1.373 4.238 4.645 4.523 7.757 13.763 16.353 38.961 73.008 97.330 98.031 80.525 54.080 42.080 21.197 19.850 21.496 21.839 16.380 13.031 7.716 4.166 0.230 0.000 0.000 0.000 0.000 0.000 0.000 0.000 0.000 0.000 0.000 0.000 0.000 0.000 0.000 0.000 0.000
0.000 0.000 0.000 0.000 0.000 0.000 0.000 0.000 0.000 0.000 0.000 0.000 0.654 4.124 5.257 5.787 7.406 12.182 16.364 34.933 72.533 87.040 98.893 94.870 68.388 45.354 27.849 19.390 19.311 16.725 18.709 16.452 10.572 6.425 1.515 0.000 0.000 0.000 0.000 0.000 0.000 0.000 0.000 0.000 0.000 0.000 0.000 0.000 0.000 0.000 0.000
0.000 0.000 0.000 0.000 0.000 0.000 0.000 0.000 0.000 0.000 0.000 0.000 0.562 3.561 5.349 6.492 6.385 9.487 15.952 30.191 72.530 91.500 99.278 104.505 93.423 52.725 30.547 18.207 19.564 19.607 20.042 19.987 14.504 8.639 2.983 0.074 0.000 0.000 0.000 0.000 0.000 0.000 0.000 0.000 0.000 0.000 0.000 0.000 0.000 0.000 0.000
0.000 0.000 0.000 0.000 0.000 0.000 0.000 0.000 0.000 0.000 0.000 0.000 0.456 2.559 4.759 5.334 6.157 8.966 14.929 27.991 62.648 96.540 106.075 101.625 83.141 51.299 25.302 19.399 18.359 21.069 23.450 21.067 19.120 11.024 7.164 1.836 0.000 0.000 0.000 0.000 0.000 0.000 0.000 0.000 0.000 0.000 0.000 0.000 0.000 0.000 0.000
0.000 0.000 0.000 0.000 0.000 0.000 0.000 0.000 0.000 0.000 0.000 0.001 0.436 2.460 4.114 4.166 5.043 7.855 12.790 24.461 57.320 93.386 102.407 103.425 101.500 72.745 34.178 23.673 19.045 22.514 25.022 27.328 20.417 17.786 11.492 3.878 0.030 0.000 0.000 0.000 0.000 0.000 0.000 0.000 0.000 0.000 0.000 0.000 0.000 0.000 0.000
0.000 0.000 0.000 0.000 0.000 0.000 0.000 0.000 0.000 0.000 0.000 0.000 0.242 2.179 3.460 4.298 5.192 7.610 12.419 21.113 46.463 77.319 86.240 104.250 93.343 71.279 46.637 25.730 23.003 24.345 26.912 26.742 24.471 23.504 13.177 5.290 1.228 0.000 0.000 0.000 0.000 0.000 0.000 0.000 0.000 0.000 0.000 0.000 0.000 0.000 0.000
0.000 0.000 0.000 0.000 0.000 0.000 0.000 0.000 0.000 0.000 0.000 0.000 0.076 2.050 3.436 4.199 5.157 7.529 10.990 17.326 38.574 71.747 94.177 103.718 82.517 75.554 39.563 30.340 28.953 25.443 24.511 25.681 27.746 24.930 12.601 8.485 3.360 0.000 0.000 0.000 0.000 0.000 0.000 0.000 0.000 0.000 0.000 0.000 0.000 0.000 0.000
0.000 0.000 0.000 0.000 0.000 0.000 0.000 0.000 0.000 0.000 0.000 0.000 0.000 1.102 3.446 3.749 4.475 5.971 9.432 15.308 32.210 78.897 96.324 88.699 95.064 65.631 42.817 35.141 21.394 18.408 19.559 25.820 31.938 22.177 14.774 12.536 5.887 0.132 0.000 0.000 0.000 0.000 0.000 0.000 0.000 0.000 0.000 0.000 0.000 0.000 0.000
0.000 0.000 0.000 0.000 0.000 0.000 0.000 0.000 0.000 0.000 0.000 0.000 0.000 0.459 3.413 3.808 5.106 6.807 7.698 15.857 30.213 68.127 76.461 98.226 80.911 61.789 49.545 29.488 17.776 18.284 21.744 29.299 25.613 22.201 22.023 18.185 7.216 1.874 0.000 0.000 0.000 0.000 0.000 0.000 0.000 0.000 0.000 0.000 0.000 0.000 0.000
0.000 0.000 0.000 0.000 0.000 0.000 0.000 0.000 0.000 0.000 0.000 0.000 0.002 0.817 3.831 4.561 4.812 5.684 10.618 14.146 27.560 52.640 82.427 88.355 80.879 77.509 55.560 38.505 25.565 22.754 25.660 25.278 23.281 28.254 23.527 15.819 10.652 4.294 0.024 0.000 0.000 0.000 0.000 0.000 0.000 0.000 0.000 0.000 0.000 0.000 0.000
0.000 0.000 0.000 0.000 0.000 0.000 0.000 0.000 0.000 0.000 0.000 0.000 0.003 0.795 3.737 4.790 3.547 5.985 8.773 4.494 19.473 47.921 67.343 83.103 93.315 81.101 56.843 42.099 31.247 29.653 23.173 25.103 26.728 25.615 23.334 17.077 13.976 6.487 1.358 0.000 0.000 0.000 0.000 0.000 0.000 0.000 0.000 0.000 0.000 0.000 0.000
0.000 0.000 0.000 0.000 0.000 0.000 0.000 0.000 0.000 0.000 0.000 0.000 0.000 0.119 2.612 4.954 3.878 4.488 4.275 4.670 15.653 43.948 67.813 87.692 95.804 88.905 68.009 48.303 41.981 31.602 24.965 26.784 24.264 22.048 22.535 18.927 17.084 12.360 4.836 0.000 0.000 0.000 0.000 0.000 0.000 0.000 0.000 0.000 0.000 0.000 0.000
0.000 0.000 0.000 0.000 0.000 0.000 0.000 0.000 0.000 0.000 0.000 0.000 0.000 0.022 1.790 5.095 4.504 3.757 3.714 5.272 16.598 37.012 67.010 81.078 89.647 85.291 58.199 56.823 47.816 27.411 26.543 21.742 14.779 19.727 22.468 24.709 24.179 17.500 8.318 0.547 0.000 0.000 0.000 0.000 0.000 0.000 0.000 0.000 0.000 0.000 0.000
0.000 0.000 0.000 0.000 0.000 0.000 0.000 0.000 0.000 0.000 0.000 0.000 0.000 0.000 0.023 4.324 4.555 3.146 3.243 7.463 16.938 33.114 66.176 89.201 87.026 73.238 58.446 63.730 50.489 35.122 29.063 19.163 14.333 17.799 24.295 27.270 25.405 20.491 12.578 4.197 0.000 0.000 0.000 0.000 0.000 0.000 0.000 0.000 0.000 0.000 0.000
0.000 0.000 0.000 0.000 0.000 0.000 0.000 0.000 0.000 0.000 0.000 0.000 0.000 0.000 0.107 1.975 3.703 2.004 3.797 7.317 14.651 29.013 54.613 71.822 77.594 69.385 70.781 75.822 53.597 36.313 25.393 16.124 15.166 19.548 24.508 25.131 24.938 21.526 15.138 5.968 0.001 0.000 0.000 0.000 0.000 0.000 0.000 0.000 0.000 0.000 0.000
0.000 0.000 0.000 0.000 0.000 0.000 0.000 0.000 0.000 0.000 0.000 0.000 0.000 0.000 0.000 1.217 1.929 2.527 4.548 6.099 11.065 24.125 47.829 56.849 78.006 68.719 81.535 69.530 55.793 43.167 29.974 21.422 15.823 18.114 21.976 24.599 27.514 27.020 15.592 4.758 0.047 0.000 0.000 0.000 0.000 0.000 0.000 0.000 0.000 0.000 0.000
0.000 0.000 0.000 0.000 0.000 0.000 0.000 0.000 0.000 0.000 0.000 0.000 0.000 0.000 0.000 0.096 2.064 3.310 4.594 5.843 8.437 17.876 35.442 56.562 64.728 78.833 79.510 78.026 60.263 52.950 32.692 18.639 12.890 13.035 15.148 21.809 24.119 23.485 9.810 2.893 0.031 0.000 0.000 0.000 0.000 0.000 0.000 0.000 0.000 0.000 0.000
0.000 0.000 0.000 0.000 0.000 0.000 0.000 0.000 0.000 0.000 0.000 0.000 0.000 0.000 0.000 0.023 1.222 3.353 4.434 5.234 5.600 14.507 28.684 53.763 68.727 69.995 84.179 74.279 62.920 52.424 30.060 16.867 10.385 9.879 12.452 17.786 19.392 18.519 11.235 4.500 0.000 0.000 0.000 0.000 0.000 0.000 0.000 0.000 0.000 0.000 0.000
0.000 0.000 0.000 0.000 0.000 0.000 0.000 0.000 0.000 0.000 0.000 0.000 0.000 0.000 0.000 0.002 0.419 2.163 4.000 3.777 4.705 9.849 23.787 44.432 57.731 67.770 67.620 66.937 61.145 41.175 23.877 15.244 10.968 8.760 10.606 12.166 15.779 20.174 15.507 5.538 0.165 0.000 0.000 0.000 0.000 0.000 0.000 0.000 0.000 0.000 0.000
0.000 0.000 0.000 0.000 0.000 0.000 0.000 0.000 0.000 0.000 0.000 0.000 0.000 0.000 0.000 0.000 0.065 1.076 2.884 3.362 4.075 6.314 14.907 28.536 45.247 61.298 61.125 53.286 50.436 33.805 26.446 22.163 11.373 9.277 9.067 7.909 13.011 20.890 14.469 6.206 1.698 0.000 0.000 0.000 0.000 0.000 0.000 0.000 0.000 0.000 0.000
0.000 0.000 0.000 0.000 0.000 0.000 0.000 0.000 0.000 0.000 0.000 0.000 0.000 0.000 0.000 0.000 0.002 0.319 2.258 2.906 3.274 4.677 10.909 21.253 38.966 51.614 53.941 56.616 50.007 38.188 33.121 23.831 12.808 10.790 8.366 8.331 12.505 17.728 15.246 6.900 2.003 0.000 0.000 0.000 0.000 0.000 0.000 0.000 0.000 0.000 0.000
0.000 0.000 0.000 0.000 0.000 0.000 0.000 0.000 0.000 0.000 0.000 0.000 0.000 0.000 0.000 0.000 0.000 0.036 1.527 2.530 2.873 4.104 5.887 14.267 26.702 35.338 44.422 45.948 44.682 40.191 40.873 26.301 16.787 11.141 9.876 9.320 9.119 17.702 16.276 7.205 2.487 0.010 0.000 0.000 0.000 0.000 0.000 0.000 0.000 0.000 0.000
0.000 0.000 0.000 0.000 0.000 0.000 0.000 0.000 0.000 0.000 0.000 0.000 0.000 0.000 0.000 0.000 0.000 0.019 0.827 2.069 2.741 3.454 4.722 8.740 16.998 32.780 42.178 41.290 44.273 43.440 34.010 31.713 18.847 12.413 9.523 6.622 5.856 14.986 16.393 8.027 2.596 0.558 0.000 0.000 0.000 0.000 0.000 0.000 0.000 0.000 0.000
0.000 0.000 0.000 0.000 0.000 0.000 0.000 0.000 0.000 0.000 0.000 0.000 0.000 0.000 0.000 0.000 0.000 0.004 0.361 1.626 2.304 2.954 2.999 5.853 12.729 24.859 33.106 37.915 44.524 45.109 31.567 31.720 18.833 13.209 6.214 4.494 3.367 12.073 16.474 8.957 2.465 1.088 0.000 0.000 0.000 0.000 0.000 0.000 0.000 0.000 0.000
0.000 0.000 0.000 0.000 0.000 0.000 0.000 0.000 0.000 0.000 0.000 0.000 0.000 0.000 0.000 0.000 0.000 0.001 0.122 0.846 1.672 2.456 2.230 4.307 10.228 18.733 30.460 39.495 40.988 41.316 34.586 34.532 21.967 10.189 4.879 3.523 5.169 11.005 16.905 9.552 3.312 1.659 0.080 0.000 0.000 0.000 0.000 0.000 0.000 0.000 0.000
0.000 0.000 0.000 0.000 0.000 0.000 0.000 0.000 0.000 0.000 0.000 0.000 0.000 0.000 0.000 0.000 0.000 0.000 0.148 0.563 1.452 2.198 2.940 3.701 7.939 16.576 29.550 43.822 43.882 34.032 38.076 29.239 19.378 8.941 5.625 5.176 7.004 10.112 14.754 10.164 3.793 2.444 0.943 0.000 0.000 0.000 0.000 0.000 0.000 0.000 0.000
0.000 0.000 0.000 0.000 0.000 0.000 0.000 0.000 0.000 0.000 0.000 0.000 0.000 0.000 0.000 0.000 0.000 0.000 0.000 0.168 1.176 1.960 2.716 3.558 6.847 13.219 22.709 42.695 39.775 37.669 34.995 28.337 17.220 8.406 5.847 6.253 6.527 9.061 13.270 9.472 3.652 2.979 2.005 0.210 0.000 0.000 0.000 0.000 0.000 0.000 0.000
0.000 0.000 0.000 0.000 0.000 0.000 0.000 0.000 0.000 0.000 0.000 0.000 0.000 0.000 0.000 0.000 0.000 0.000 0.000 0.024 0.689 1.864 1.770 3.142 5.306 11.904 18.615 29.090 32.636 30.731 26.862 22.282 13.992 9.269 6.303 6.126 5.150 8.311 11.932 8.761 3.635 3.034 2.399 1.195 0.001 0.000 0.000 0.000 0.000 0.000 0.000
0.000 0.000 0.000 0.000 0.000 0.000 0.000 0.000 0.000 0.000 0.000 0.000 0.000 0.000 0.000 0.000 0.000 0.000 0.000 0.001 0.308 1.329 1.667 2.857 4.042 7.226 12.577 23.836 25.749 24.179 21.070 17.020 15.956 11.377 8.182 6.467 6.504 6.271 8.890 8.456 3.650 2.771 2.368 1.563 0.175 0.000 0.000 0.000 0.000 0.000 0.000
0.000 0.000 0.000 0.000 0.000 0.000 0.000 0.000 0.000 0.000 0.000 0.000 0.000 0.000 0.000 0.000 0.000 0.000 0.000 0.000 0.129 1.106 2.005 2.439 2.986 4.976 7.457 10.388 17.466 15.611 17.083 15.601 18.698 13.680 7.459 6.543 6.751 5.888 7.881 8.340 3.050 2.268 2.265 1.922 1.018 0.082 0.000 0.000 0.000 0.000 0.000
0.000 0.000 0.000 0.000 0.000 0.000 0.000 0.000 0.000 0.000 0.000 0.000 0.000 0.000 0.000 0.000 0.000 0.000 0.000 0.000 0.229 0.980 1.624 1.790 2.219 3.474 3.802 9.573 12.442 14.491 15.933 18.480 17.947 12.549 5.184 8.101 5.199 6.208 6.632 6.935 2.665 2.206 2.158 1.895 1.784 1.324 0.000 0.000 0.000 0.000 0.000
0.000 0.000 0.000 0.000 0.000 0.000 0.000 0.000 0.000 0.000 0.000 0.000 0.000 0.000 0.000 0.000 0.000 0.000 0.000 0.000 0.044 0.518 1.039 1.570 1.598 2.016 3.219 3.915 9.174 14.491 16.588 18.374 13.884 8.480 6.298 5.821 1.475 3.725 6.315 5.862 3.354 2.348 2.076 1.962 2.113 1.567 0.025 0.000 0.000 0.000 0.000
0.000 0.000 0.000 0.000 0.000 0.000 0.000 0.000 0.000 0.000 0.000 0.000 0.000 0.000 0.000 0.000 0.000 0.000 0.000 0.000 0.003 0.168 0.528 1.161 1.337 1.174 1.877 6.157 10.831 13.507 14.805 13.998 10.201 6.477 5.169 3.665 1.304 1.402 5.445 5.297 3.827 2.262 1.953 1.925 1.657 0.871 0.596 0.000 0.000 0.000 0.000
0.000 0.000 0.000 0.000 0.000 0.000 0.000 0.000 0.000 0.000 0.000 0.000 0.000 0.000 0.000 0.000 0.000 0.000 0.000 0.000 0.000 0.000 0.027 0.363 0.744 0.724 0.131 4.743 7.506 9.570 12.476 10.325 7.749 4.521 4.448 3.972 3.008 2.551 3.416 4.632 3.426 2.105 1.784 1.539 1.538 1.609 1.028 0.000 0.000 0.000 0.000
0.000 0.000 0.000 0.000 0.000 0.000 0.000 0.000 0.000 0.000 0.000 0.000 0.000 0.000 0.000 0.000 0.000 0.000 0.000 0.000 0.000 0.000 0.000 0.107 0.762 1.201 1.863 3.000 4.260 6.171 7.741 8.244 8.533 5.644 5.714 5.996 4.474 2.547 2.289 2.974 2.954 1.961 1.613 1.429 1.333 1.272 0.751 0.021 0.000 0.000 0.000
0.000 0.000 0.000 0.000 0.000 0.000 0.000 0.000 0.000 0.000 0.000 0.000 0.000 0.000 0.000 0.000 0.000 0.000 0.000 0.000 0.000 0.000 0.000 0.012 0.603 1.264 1.333 1.078 2.419 3.641 6.046 6.875 9.303 5.357 6.385 5.163 2.889 1.868 1.378 2.010 2.565 1.913 1.496 1.270 1.005 0.849 1.004 0.196 0.000 0.000 0.000
0.000 0.000 0.000 0.000 0.000 0.000 0.000 0.000 0.000 0.000 0.000 0.000 0.000 0.000 0.000 0.000 0.000 0.000 0.000 0.000 0.000 0.000 0.000 0.000 0.079 0.745 0.960 0.000 1.111 2.618 4.187 4.708 5.471 4.452 5.234 2.775 1.182 1.229 0.369 0.663 1.085 1.648 1.287 0.959 0.730 0.993 1.665 0.618 0.000 0.000 0.000
0.000 0.000 0.000 0.000 0.000 0.000 0.000 0.000 0.000 0.000 0.000 0.000 0.000 0.000 0.000 0.000 0.000 0.000 0.000 0.000 0.000 0.000 0.000 0.000 0.000 0.046 0.927 1.438 1.047 2.428 2.885 2.149 3.122 2.960 2.726 1.277 0.514 0.115 0.002 0.000 0.316 1.306 0.986 0.681 0.503 0.771 1.254 0.744 0.000 0.000 0.000
0.000 0.000 0.000 0.000 0.000 0.000 0.000 0.000 0.000 0.000 0.000 0.000 0.000 0.000 0.000 0.000 0.000 0.000 0.000 0.000 0.000 0.000 0.000 0.000 0.000 0.076 0.602 1.652 2.176 2.720 1.701 0.806 1.600 2.091 2.469 0.864 0.230 0.001 0.000 0.001 0.060 0.368 0.718 0.301 0.002 0.256 0.295 0.479 0.031 0.000 0.000
0.000 0.000 0.000 0.000 0.000 0.000 0.000 0.000 0.000 0.000 0.000 0.000 0.000 0.000 0.000 0.000 0.000 0.000 0.000 0.000 0.000 0.000 0.000 0.000 0.000 0.000 0.358 1.203 2.369 2.091 0.255 0.022 0.698 1.815 0.765 0.003 0.000 0.000 0.001 0.002 0.002 0.219 0.408 0.001 0.002 0.001 0.222 0.452 0.260 0.000 0.000
0.000 0.000 0.000 0.000 0.000 0.000 0.000 0.000 0.000 0.000 0.000 0.000 0.000 0.000 0.000 0.000 0.000 0.000 0.000 0.000 0.000 0.000 0.000 0.000 0.000 0.000 0.002 0.530 0.999 1.168 0.030 0.560 1.660 1.424 0.001 0.000 0.001 0.000 0.002 0.002 0.001 0.011 0.001 0.001 0.001 0.002 0.362 0.446 0.162 0.001 0.000
0.000 0.000 0.000 0.000 0.000 0.000 0.000 0.000 0.000 0.000 0.000 0.000 0.000 0.000 0.000 0.000 0.000 0.000 0.000 0.000 0.000 0.000 0.000 0.000 0.000 0.000 0.000 0.092 0.542 0.945 1.639 2.223 1.766 0.417 0.000 0.000 0.001 0.002 0.000 0.000 0.000 0.001 0.001 0.123 0.002 0.002 0.328 0.381 0.176 0.031 0.000
0.000 0.000 0.000 0.000 0.000 0.000 0.000 0.000 0.000 0.000 0.000 0.000 0.000 0.000 0.000 0.000 0.000 0.000 0.000 0.000 0.000 0.000 0.000 0.000 0.000 0.000 0.000 0.000 0.261 0.643 0.962 1.702 1.035 0.013 0.002 0.000 0.001 0.000 0.001 0.001 0.001 0.002 0.002 0.002 0.002 0.020 0.423 0.517 0.359 0.094 0.000
0.000 0.000 0.000 0.000 0.000 0.000 0.000 0.000 0.000 0.000 0.000 0.000 0.000 0.000 0.000 0.000 0.000 0.000 0.000 0.000 0.000 0.000 0.000 0.000 0.000 0.000 0.000 0.000 0.003 0.339 0.800 1.212 1.088 0.448 0.033 0.002 0.000 0.000 0.001 0.001 0.002 0.001 0.002 0.001 0.002 0.009 0.563 0.442 0.470 0.170 0.020
0.000 0.000 0.000 0.000 0.000 0.000 0.000 0.000 0.000 0.000 0.000 0.000 0.000 0.000 0.000 0.000 0.000 0.000 0.000 0.000 0.000 0.000 0.000 0.000 0.000 0.000 0.000 0.000 0.001 0.345 0.819 0.876 0.569 0.590 0.002 0.006 0.000 0.053 0.002 0.002 0.000 0.001 0.087 0.001 0.026 0.134 0.283 0.321 0.502 0.324 0.050
0.000 0.000 0.000 0.000 0.000 0.000 0.000 0.000 0.000 0.000 0.000 0.000 0.000 0.000 0.000 0.000 0.000 0.000 0.000 0.000 0.000 0.000 0.000 0.000 0.000 0.000 0.000 0.000 0.002 0.099 0.391 0.669 0.695 0.495 0.136 0.006 0.002 0.165 0.001 0.001 0.002 0.176 0.048 0.001 0.012 0.497 0.546 0.572 0.383 0.488 0.301
0.000 0.000 0.000 0.000 0.000 0.000 0.000 0.000 0.000 0.000 0.000 0.000 0.000 0.000 0.000 0.000 0.000 0.000 0.000 0.000 0.000 0.000 0.000 0.000 0.000 0.000 0.000 0.000 0.000 0.003 0.046 0.448 0.679 0.648 0.564 0.027 0.082 0.002 0.002 0.002 0.272 0.002 0.002 0.001 0.034 0.955 0.968 0.689 0.383 0.680 0.615
0.000 0.000 0.000 0.000 0.000 0.000 0.000 0.000 0.000 0.000 0.000 0.000 0.000 0.000 0.000 0.000 0.000 0.000 0.000 0.000 0.000 0.000 0.000 0.000 0.000 0.000 0.000 0.000 0.000 0.000 0.001 0.099 0.584 0.639 0.687 0.547 0.237 0.000 0.000 0.000 0.001 0.002 0.002 0.002 0.002 0.993 1.140 0.443 0.440 0.778 0.719
0.000 0.000 0.000 0.000 0.000 0.000 0.000 0.000 0.000 0.000 0.000 0.000 0.000 0.000 0.000 0.000 0.000 0.000 0.000 0.000 0.000 0.000 0.000 0.000 0.000 0.000 0.000 0.000 0.000 0.000 0.000 0.001 0.362 0.708 0.677 0.394 0.002 0.002 0.001 0.001 0.002 0.002 0.000 0.000 0.026 0.961 0.442 0.024 0.159 0.505 0.807
0.000 0.000 0.000 0.000 0.000 0.000 0.000 0.000 0.000 0.000 0.000 0.000 0.000 0.000 0.000 0.000 0.000 0.000 0.000 0.000 0.000 0.000 0.000 0.000 0.000 0.000 0.000 0.000 0.000 0.000 0.000 0.000 0.103 0.567 0.623 0.345 0.000 0.000 0.001 0.002 0.001 0.002 0.001 0.002 0.002 0.072 0.013 0.214 0.103 0.478 0.982
0.000 0.000 0.000 0.000 0.000 0.000 0.000 0.000 0.000 0.000 0.000 0.000 0.000 0.000 0.000 0.000 0.000 0.000 0.000 0.000 0.000 0.000 0.000 0.000 0.000 0.000 0.000 0.000 0.000 0.000 0.000 0.000 0.000 0.146 0.497 0.429 0.037 0.001 0.000 0.001 0.002 0.002 0.002 0.001 0.000 0.242 0.712 0.699 0.349 0.616 0.786
0.000 0.000 0.000 0.000 0.000 0.000 0.000 0.000 0.000 0.000 0.000 0.000 0.000 0.000 0.000 0.000 0.000 0.000 0.000 0.000 0.000 0.000 0.000 0.000 0.000 0.000 0.000 0.000 0.000 0.000 0.000 0.000 0.000 0.002 0.314 0.346 0.243 0.002 0.001 0.001 0.000 0.002 0.002 0.001 0.005 0.475 1.097 0.797 0.198 0.214 0.248
0.000 0.000 0.000 0.000 0.000 0.000 0.000 0.000 0.000 0.000 0.000 0.000 0.000 0.000 0.000 0.000 0.000 0.000 0.000 0.000 0.000 0.000 0.000 0.000 0.000 0.000 0.000 0.000 0.000 0.000 0.000 0.000 0.000 0.000 0.225 0.356 0.231 0.027 0.002 0.123 0.002 0.001 0.000 0.002 0.000 0.819 0.793 0.578 0.169 0.005 0.242
0.000 0.000 0.000 0.000 0.000 0.000 0.000 0.000 0.000 0.000 0.000 0.000 0.000 0.000 0.000 0.000 0.000 0.000 0.000 0.000 0.000 0.000 0.000 0.000 0.000 0.000 0.000 0.000 0.000 0.000 0.000 0.000 0.000 0.000 0.032 0.351 0.367 0.519 0.001 0.463 0.002 0.001 0.002 0.002 0.072 0.378 0.571 0.514 0.002 0.030 0.053
0.000 0.000 0.000 0.000 0.000 0.000 0.000 0.000 0.000 0.000 0.000 0.000 0.000 0.000 0.000 0.000 0.000 0.000 0.000 0.000 0.000 0.000 0.000 0.000 0.000 0.000 0.000 0.000 0.000 0.000 0.000 0.000 0.000 0.000 0.002 0.302 0.597 0.517 0.691 0.648 0.226 0.001 0.002 0.002 0.001 0.166 0.463 0.001 0.002 0.002 0.002
0.000 0.000 0.000 0.000 0.000 0.000 0.000 0.000 0.000 0.000 0.000 0.000 0.000 0.000 0.000 0.000 0.000 0.000 0.000 0.000 0.000 0.000 0.000 0.000 0.000 0.000 0.000 0.000 0.000 0.000 0.000 0.000 0.000 0.000 0.009 0.098 0.415 0.299 0.650 0.032 0.032 0.000 0.000 0.000 0.153 0.566 0.298 0.002 0.001 0.002 0.002
0.000 0.000 0.000 0.000 0.000 0.000 0.000 0.000 0.000 0.000 0.000 0.000 0.000 0.000 0.000 0.000 0.000 0.000 0.000 0.000 0.000 0.000 0.000 0.000 0.000 0.000 0.000 0.000 0.000 0.000 0.000 0.000 0.000 0.000 0.000 0.035 0.002 0.504 0.365 0.001 0.001 0.002 0.000 0.032 0.392 0.779 0.246 0.153 0.001 0.001 0.001
0.000 0.000 0.000 0.000 0.000 0.000 0.000 0.000 0.000 0.000 0.000 0.000 0.000 0.000 0.000 0.000 0.000 0.000 0.000 0.000 0.000 0.000 0.000 0.000 0.000 0.000 0.000 0.000 0.000 0.000 0.000 0.000 0.000 0.000 0.000 0.000 0.118 0.499 0.357 0.002 0.002 0.000 0.002 0.230 0.317 0.819 0.761 0.398 0.000 0.001 0.002
0.000 0.000 0.000 0.000 0.000 0.000 0.000 0.000 0.000 0.000 0.000 0.000 0.000 0.000 0.000 0.000 0.000 0.000 0.000 0.000 0.000 0.000 0.000 0.000 0.000 0.000 0.000 0.000 0.000 0.000 0.000 0.000 0.000 0.000 0.000 0.000 0.121 0.315 0.320 0.002 0.000 0.005 0.211 0.702 0.698 1.359 1.016 0.002 0.025 0.001 0.000
0.000 0.000 0.000 0.000 0.000 0.000 0.000 0.000 0.000 0.000 0.000 0.000 0.000 0.000 0.000 0.000 0.000 0.000 0.000 0.000 0.000 0.000 0.000 0.000 0.000 0.000 0.000 0.000 0.000 0.000 0.000 0.000 0.000 0.000 0.000 0.000 0.049 0.052 0.265 0.002 0.017 2.262 2.225 2.322 2.431 1.500 0.392 0.002 0.001 0.001 0.001
0.000 0.000 0.000 0.000 0.000 0.000 0.000 0.000 0.000 0.000 0.000 0.000 0.000 0.000 0.000 0.000 0.000 0.000 0.000 0.000 0.000 0.000 0.000 0.000 0.000 0.000 0.000 0.000 0.000 0.000 0.000 0.000 0.000 0.000 0.000 0.000 0.001 0.069 0.012 0.002 0.583 2.074 3.575 3.255 2.849 1.159 0.429 0.002 0.002 0.001 0.001
0.000 0.000 0.000 0.000 0.000 0.000 0.000 0.000 0.000 0.000 0.000 0.000 0.000 0.000 0.000 0.000 0.000 0.000 0.000 0.000 0.000 0.000 0.000 0.000 0.000 0.000 0.000 0.000 0.000 0.000 0.000 0.000 0.000 0.000 0.000 0.000 0.000 0.025 0.018 0.033 0.875 1.425 2.483 2.439 1.609 1.207 0.371 0.067 0.002 0.001 0.001
0.000 0.000 0.000 0.000 0.000 0.000 0.000 0.000 0.000 0.000 0.000 0.000 0.000 0.000 0.000 0.000 0.000 0.000 0.000 0.000 0.000 0.000 0.000 0.000 0.000 0.000 0.000 0.000 0.000 0.000 0.000 0.000 0.000 0.000 0.000 0.000 0.000 0.000 0.002 0.555 0.773 0.819 1.523 1.169 1.371 2.108 1.563 1.074 0.186 0.001 0.001
0.000 0.000 0.000 0.000 0.000 0.000 0.000 0.000 0.000 0.000 0.000 0.000 0.000 0.000 0.000 0.000 0.000 0.000 0.000 0.000 0.000 0.000 0.000 0.000 0.000 0.000 0.000 0.000 0.000 0.000 0.000 0.000 0.000 0.000 0.000 0.000 0.000 0.001 0.291 0.624 0.629 0.602 0.712 0.372 0.826 2.421 2.290 1.932 0.778 0.003 0.002
0.000 0.000 0.000 0.000 0.000 0.000 0.000 0.000 0.000 0.000 0.000 0.000 0.000 0.000 0.000 0.000 0.000 0.000 0.000 0.000 0.000 0.000 0.000 0.000 0.000 0.000 0.000 0.000 0.000 0.000 0.000 0.000 0.000 0.000 0.000 0.000 0.000 0.006 0.234 0.419 0.433 0.453 0.575 0.034 0.003 1.331 1.594 1.718 1.247 0.278 0.023
0.000 0.000 0.000 0.000 0.000 0.000 0.000 0.000 0.000 0.000 0.000 0.000 0.000 0.000 0.000 0.000 0.000 0.000 0.000 0.000 0.000 0.000 0.000 0.000 0.000 0.000 0.000 0.000 0.000 0.000 0.000 0.000 0.000 0.000 0.000 0.000 0.000 0.000 0.001 0.076 0.311 0.407 0.496 0.087 0.012 0.904 1.211 1.354 1.239 0.830 0.181
0.000 0.000 0.000 0.000 0.000 0.000 0.000 0.000 0.000 0.000 0.000 0.000 0.000 0.000 0.000 0.000 0.000 0.000 0.000 0.000 0.000 0.000 0.000 0.000 0.000 0.000 0.000 0.000 0.000 0.000 0.000 0.000 0.000 0.000 0.000 0.000 0.000 0.000 0.000 0.000 0.190 0.296 0.249 0.155 0.786 1.187 1.433 1.155 0.982 1.353 0.360
0.000 0.000 0.000 0.000 0.000 0.000 0.000 0.000 0.000 0.000 0.000 0.000 0.000 0.000 0.000 0.000 0.000 0.000 0.000 0.000 0.000 0.000 0.000 0.000 0.000 0.000 0.000 0.000 0.000 0.000 0.000 0.000 0.000 0.000 0.000 0.000 0.000 0.000 0.000 0.000 0.010 0.136 0.002 0.538 1.615 1.614 1.212 1.169 0.915 1.366 0.340
0.000 0.000 0.000 0.000 0.000 0.000 0.000 0.000 0.000 0.000 0.000 0.000 0.000 0.000 0.000 0.000 0.000 0.000 0.000 0.000 0.000 0.000 0.000 0.000 0.000 0.000 0.000 0.000 0.000 0.000 0.000 0.000 0.000 0.000 0.000 0.000 0.000 0.000 0.000 0.000 0.000 0.180 0.313 0.747 1.495 1.591 1.224 1.241 0.997 0.826 0.383
0.000 0.000 0.000 0.000 0.000 0.000 0.000 0.000 0.000 0.000 0.000 0.000 0.000 0.000 0.000 0.000 0.000 0.000 0.000 0.000 0.000 0.000 0.000 0.000 0.000 0.000 0.000 0.000 0.000 0.000 0.000 0.000 0.000 0.000 0.000 0.000 0.000 0.000 0.000 0.000 0.000 0.128 0.391 0.666 0.971 1.541 1.694 1.591 1.533 0.741 0.327
0.000 0.000 0.000 0.000 0.000 0.000 0.000 0.000 0.000 0.000 0.000 0.000 0.000 0.000 0.000 0.000 0.000 0.000 0.000 0.000 0.000 0.000 0.000 0.000 0.000 0.000 0.000 0.000 0.000 0.000 0.000 0.000 0.000 0.000 0.000 0.000 0.000 0.000 0.000 0.000 0.000 0.027 0.491 0.605 0.628 1.201 1.956 1.454 1.373 0.517 0.372
