ncols        33
nrows        37
xllcorner    409842.8
yllcorner    6870529.1
cellsize     5.00
NODATA_value -9999
0.000 0.000 0.000 0.000 0.000 0.000 0.000 0.000 0.000 0.000 0.000 0.000 0.000 0.026 2.017 8.602 10.321 8.222 3.640 0.606 0.021 0.000 0.000 0.000 0.000 0.000 0.000 0.000 0.000 0.000 0.000 0.000 0.000
0.000 0.000 0.000 0.000 0.000 0.000 0.000 0.000 0.000 0.000 0.000 0.000 1.386 52.941 71.175 64.684 63.025 67.080 62.667 66.931 26.271 3.586 0.067 0.000 0.000 0.000 0.000 0.000 0.000 0.000 0.000 0.000 0.000
0.000 0.000 0.000 0.000 0.000 0.000 0.000 0.000 0.000 0.000 0.000 1.598 69.721 74.364 74.764 73.540 76.779 76.276 74.498 71.478 62.829 56.006 23.249 1.709 0.006 0.000 0.000 0.000 0.000 0.000 0.000 0.000 0.000
0.000 0.000 0.000 0.000 0.000 0.000 0.000 0.000 0.000 0.000 0.254 67.177 76.607 81.455 82.247 85.411 83.205 84.588 88.082 86.727 78.215 64.518 64.274 32.643 6.215 0.103 0.000 0.000 0.000 0.000 0.000 0.000 0.000
0.000 0.000 0.000 0.000 0.000 0.000 0.000 0.000 0.000 0.000 5.114 70.135 82.143 85.541 90.255 91.144 93.357 97.811 99.395 99.475 92.725 84.156 74.926 50.894 35.674 10.539 0.415 0.000 0.000 0.000 0.000 0.000 0.000
0.000 0.000 0.000 0.000 0.000 0.000 0.000 0.000 0.000 0.001 21.846 74.098 85.709 94.293 98.310 99.792 103.690 104.890 104.750 112.082 100.140 91.573 81.033 70.652 49.831 27.921 11.412 1.000 0.002 0.000 0.000 0.000 0.000
0.000 0.000 0.000 0.000 0.000 0.000 0.000 0.000 0.000 0.031 56.416 78.419 91.494 99.837 105.260 106.233 108.813 112.995 110.357 116.851 118.042 106.715 103.717 77.774 62.081 37.739 24.579 11.534 1.637 0.011 0.000 0.000 0.000
0.000 0.000 0.000 0.000 0.000 0.000 0.000 0.000 0.000 0.173 74.271 85.128 95.750 99.675 111.188 118.618 114.128 109.687 119.641 131.605 115.483 112.850 100.517 90.642 73.718 45.571 30.758 19.312 11.186 2.300 0.051 0.000 0.000
0.000 0.000 0.000 0.000 0.000 0.000 0.000 0.000 0.000 0.286 71.231 87.953 96.248 105.974 111.489 118.451 122.802 119.528 126.305 126.200 121.663 114.747 106.623 94.248 75.240 57.053 36.325 19.700 17.490 10.397 3.364 0.144 0.000
0.000 0.000 0.000 0.000 0.000 0.000 0.000 0.000 0.000 0.264 70.885 78.661 91.442 104.655 119.896 122.242 128.510 132.006 128.208 119.375 122.312 118.343 126.203 93.999 89.977 65.524 44.486 24.868 17.429 13.234 10.306 3.958 0.335
0.000 0.000 0.000 0.000 0.000 0.000 0.000 0.000 0.000 0.133 53.450 80.929 96.279 107.362 116.910 137.187 131.935 120.509 119.789 122.131 123.170 137.522 117.711 105.862 84.106 78.524 51.743 28.662 16.205 13.687 14.337 8.986 3.748
0.000 0.000 0.000 0.000 0.000 0.000 0.000 0.000 0.000 0.028 31.419 72.616 92.072 108.907 123.100 125.722 124.579 126.240 120.378 118.059 122.352 135.696 109.128 98.274 94.863 85.314 60.762 33.161 16.855 14.296 13.742 9.400 7.535
0.000 0.000 0.000 0.000 0.000 0.000 0.000 0.000 0.000 0.004 18.353 67.823 85.056 90.901 107.916 117.879 133.041 129.883 122.097 120.811 125.701 127.827 111.662 116.219 108.995 84.052 69.393 38.329 19.768 15.482 12.834 9.487 8.812
0.000 0.000 0.000 0.000 0.000 0.000 0.000 0.000 0.000 0.001 12.237 64.507 85.347 103.495 107.815 131.191 131.325 129.301 125.452 121.644 127.847 124.039 113.936 118.408 105.957 87.916 74.649 49.152 25.834 16.255 12.360 9.570 8.230
0.000 0.000 0.000 0.000 0.000 0.000 0.000 0.000 0.000 0.006 24.626 61.795 79.692 91.245 103.909 115.594 123.713 127.694 128.386 129.964 132.428 121.128 112.165 115.147 107.202 101.786 81.492 63.422 33.420 17.457 11.833 9.798 7.301
0.000 0.000 0.000 0.000 0.000 0.210 1.602 2.260 3.385 7.994 51.165 59.668 85.241 99.644 106.804 109.588 119.209 129.940 135.965 141.284 138.817 119.063 119.789 114.415 108.957 105.954 86.438 73.323 39.428 18.797 12.933 9.927 7.109
0.000 0.000 0.000 0.308 30.853 75.464 80.761 85.838 72.595 56.017 53.609 66.374 85.060 100.158 96.335 107.938 121.568 136.394 150.834 159.559 157.418 151.508 132.006 124.290 105.132 106.727 85.877 74.886 46.476 25.500 14.261 10.890 8.303
0.000 0.000 0.474 75.867 80.420 85.671 99.362 90.664 75.002 66.287 62.102 77.507 88.478 102.266 109.746 109.649 135.068 142.897 161.428 169.997 164.315 162.731 137.728 109.262 105.437 98.409 82.392 85.519 58.640 37.566 18.941 12.942 7.620
0.000 0.126 49.797 85.032 103.637 106.379 102.800 96.610 86.440 80.594 80.020 84.002 101.350 113.896 130.321 136.147 135.949 148.097 158.511 165.727 170.933 161.255 134.014 94.908 103.390 93.668 100.789 92.980 69.302 53.231 27.067 13.271 6.407
0.000 2.859 81.495 102.691 119.674 106.573 107.535 103.191 97.890 93.113 82.671 87.815 96.084 118.338 125.905 126.681 136.031 138.190 164.223 162.856 176.552 174.351 140.214 93.951 91.527 99.839 106.026 93.718 81.658 67.206 34.971 11.493 5.682
0.000 18.769 92.406 119.489 125.958 127.368 118.909 116.012 108.605 101.214 93.553 92.194 107.716 119.391 129.681 121.661 130.566 144.440 163.392 178.602 173.112 172.611 152.696 111.124 108.316 119.234 107.499 87.956 82.304 78.790 33.662 11.470 5.424
0.000 63.322 101.409 116.321 124.795 125.593 129.477 126.397 120.668 115.184 100.934 101.612 105.071 119.638 128.511 122.201 128.795 146.127 157.280 173.025 184.237 175.086 174.902 119.462 107.280 95.546 94.197 83.880 87.409 67.608 35.914 12.437 3.981
0.000 87.566 97.841 109.554 122.000 125.841 130.417 130.563 129.788 112.095 110.750 116.599 114.066 127.436 129.415 131.079 125.734 135.756 155.058 172.441 185.284 182.243 167.157 120.330 88.109 87.740 82.519 94.807 91.877 56.977 40.542 9.758 4.476
0.000 74.172 90.353 109.081 121.371 136.875 143.197 144.322 125.405 123.711 119.910 121.911 126.315 140.828 141.290 134.231 132.440 125.889 158.130 184.732 177.068 177.976 206.567 130.069 98.264 87.613 98.901 98.692 78.475 58.556 37.906 14.082 7.975
0.000 73.002 93.348 106.765 120.305 130.547 142.451 135.548 133.832 131.114 118.984 121.340 127.653 143.355 147.510 145.238 125.015 157.191 198.510 182.403 185.366 184.640 191.389 127.437 113.328 105.604 99.456 88.575 71.419 56.643 40.341 22.875 8.656
0.000 63.424 81.350 93.777 108.510 126.592 132.531 138.957 138.828 121.554 106.064 112.404 128.279 142.151 156.560 141.881 133.301 140.919 188.334 164.707 172.219 181.795 173.161 120.802 100.902 82.598 76.907 75.540 65.082 57.749 41.935 26.007 6.367
0.000 47.901 82.339 113.531 125.519 119.486 136.520 144.829 125.621 114.332 105.757 124.456 132.232 144.999 147.939 140.941 151.712 172.465 172.673 171.204 167.631 157.611 167.820 123.065 87.670 88.776 76.840 69.933 58.147 48.896 50.507 34.085 9.619
0.000 34.868 78.824 103.194 127.225 138.418 138.164 130.257 113.769 102.152 93.033 115.540 126.261 145.838 155.664 162.277 171.692 157.894 168.806 162.732 153.149 155.872 167.129 125.672 86.367 84.091 73.938 65.351 54.201 56.636 55.601 39.262 10.613
0.000 21.599 65.969 96.052 115.900 126.732 120.918 121.902 112.375 113.385 120.312 118.717 125.878 134.641 151.545 172.085 154.414 148.034 160.541 143.499 141.989 143.166 170.736 106.143 77.401 73.645 61.338 60.251 60.903 67.690 62.424 40.719 12.172
0.000 11.186 48.515 81.949 95.603 123.253 120.711 112.594 125.057 123.599 115.553 118.409 126.692 146.366 168.030 164.910 138.964 124.098 141.321 161.310 136.847 146.241 153.312 93.195 67.712 60.952 68.315 60.249 67.533 67.789 62.036 44.783 15.089
0.000 5.125 35.410 63.496 92.263 103.490 110.585 122.506 106.181 116.615 105.029 101.764 121.083 164.525 168.467 175.921 170.382 161.098 148.623 157.807 130.504 109.130 126.974 84.434 61.763 50.957 52.094 62.271 63.403 64.304 58.551 44.859 16.446
0.000 1.994 31.191 63.705 89.496 104.593 113.870 116.376 108.680 117.727 103.930 93.903 114.631 161.660 162.523 167.301 157.756 141.945 159.636 156.088 102.902 93.341 112.304 75.553 48.530 47.628 45.562 48.299 55.594 52.336 47.879 34.660 23.480
0.000 0.543 23.587 48.765 81.120 99.229 109.592 101.208 113.423 105.813 76.195 81.795 104.832 150.230 148.309 158.935 155.053 117.222 134.521 145.434 90.314 69.144 103.334 66.800 36.236 38.264 39.633 42.046 44.194 40.595 39.554 36.105 25.044
0.000 0.097 14.761 37.033 64.343 85.554 91.481 94.720 97.123 79.141 71.501 75.649 96.287 142.540 128.365 134.646 125.735 76.494 100.666 123.444 51.334 41.754 93.618 53.360 28.875 29.374 27.506 30.489 30.322 26.456 34.893 35.312 13.209
0.000 0.010 7.581 30.366 44.225 66.012 72.189 79.007 81.998 69.467 47.792 45.032 63.246 117.258 113.338 135.264 119.904 54.920 79.916 102.610 41.186 36.649 94.285 40.193 28.725 28.311 25.978 24.528 20.922 27.882 30.641 21.861 8.842
0.000 0.001 3.047 23.945 27.502 36.458 47.592 59.488 58.802 43.677 30.912 38.976 55.216 144.411 75.068 119.819 87.055 44.357 41.940 47.779 33.868 27.878 54.870 31.455 29.556 29.760 25.807 21.945 25.733 26.214 16.189 11.407 7.631
0.000 0.000 1.008 16.888 18.197 20.927 25.407 27.565 36.033 31.672 32.410 34.461 38.245 51.848 42.734 36.999 31.638 28.319 30.210 28.437 25.791 20.308 27.726 26.651 20.768 19.434 13.940 20.607 22.846 12.504 12.097 11.529 6.413
