ncols        32
nrows        41
xllcorner    409807.8
yllcorner    6870619.1
cellsize     5.00
NODATA_value -9999
0.000 0.000 0.000 0.000 0.000 0.000 0.000 0.000 0.000 0.540 16.755 54.307 75.522 53.833 16.701 0.419 0.000 0.000 0.000 0.000 0.000 0.000 0.000 0.000 0.000 0.000 0.000 0.000 0.000 0.000 0.000 0.000
0.000 0.000 0.000 0.000 0.000 0.000 0.000 0.007 4.434 83.802 84.695 89.321 91.663 93.556 93.311 87.918 7.850 0.001 0.000 0.000 0.000 0.000 0.000 0.000 0.000 0.000 0.000 0.000 0.000 0.000 0.000 0.000
0.000 0.000 0.000 0.000 0.000 0.000 0.000 4.771 91.971 89.608 102.629 107.678 108.894 117.419 110.410 90.563 76.589 11.309 0.000 0.000 0.000 0.000 0.000 0.000 0.000 0.000 0.000 0.000 0.000 0.000 0.000 0.000
0.000 0.000 0.000 0.000 0.000 0.000 1.200 89.919 91.123 104.009 117.439 116.614 124.077 145.351 119.646 99.219 85.480 72.822 7.944 0.000 0.000 0.000 0.000 0.000 0.000 0.000 0.000 0.000 0.000 0.000 0.000 0.000
0.000 0.000 0.000 0.000 0.000 0.002 24.701 91.747 102.092 118.522 129.012 134.646 155.993 145.835 124.856 122.001 95.241 80.641 75.654 4.253 0.000 0.000 0.000 0.000 0.000 0.000 0.000 0.000 0.000 0.000 0.000 0.000
0.000 0.000 0.000 0.000 0.000 0.566 91.408 102.127 114.529 129.931 143.038 159.022 159.329 145.396 141.690 125.040 111.072 101.824 86.806 67.440 1.830 0.000 0.000 0.000 0.000 0.000 0.000 0.000 0.000 0.000 0.000 0.000
0.000 0.000 0.000 0.000 0.000 4.652 90.262 106.378 120.604 137.089 156.599 158.270 155.472 148.193 138.362 133.769 127.085 116.999 99.405 76.093 55.920 0.431 0.000 0.000 0.000 0.000 0.000 0.000 0.000 0.000 0.000 0.000
0.000 0.000 0.000 0.000 0.000 10.995 91.590 108.579 123.240 132.117 158.607 163.132 158.871 149.195 145.994 145.755 134.181 115.760 101.850 97.092 75.982 47.761 0.014 0.000 0.000 0.000 0.000 0.000 0.000 0.000 0.000 0.000
0.000 0.000 0.000 0.000 0.000 15.076 90.056 109.730 126.062 155.289 157.227 158.749 159.788 156.275 154.288 146.588 128.280 114.597 118.329 119.767 95.589 82.351 22.129 0.000 0.000 0.000 0.000 0.000 0.000 0.000 0.000 0.000
0.000 0.000 0.000 0.000 0.000 13.364 92.550 122.228 134.785 152.249 162.484 159.599 160.189 161.879 146.471 138.837 128.388 124.078 137.713 137.562 115.905 91.686 68.877 0.825 0.000 0.000 0.000 0.000 0.000 0.000 0.000 0.000
0.000 0.000 0.000 0.000 0.000 7.084 88.316 107.111 132.061 142.900 159.222 160.228 147.119 153.416 137.461 135.010 139.694 136.095 154.874 138.178 130.504 104.173 79.964 39.043 0.002 0.000 0.000 0.000 0.000 0.000 0.000 0.000
0.000 0.000 0.000 0.000 0.000 2.270 81.328 101.810 130.000 140.366 143.703 147.792 157.115 145.316 156.098 149.244 130.907 145.892 150.447 136.698 137.619 118.002 92.821 59.446 8.644 0.000 0.000 0.000 0.000 0.000 0.000 0.000
0.000 0.000 0.000 0.000 0.000 0.413 50.590 99.188 119.288 119.366 121.956 143.485 163.415 155.362 145.243 141.644 139.888 162.850 156.634 143.024 150.521 130.726 101.116 73.307 56.706 0.117 0.000 0.000 0.000 0.000 0.000 0.000
0.000 0.000 0.000 0.000 0.000 0.025 23.918 94.589 94.940 103.549 123.260 153.782 149.067 140.549 132.595 139.178 153.805 154.851 148.888 149.430 149.227 125.619 97.934 70.070 60.526 14.331 0.000 0.000 0.000 0.000 0.000 0.000
0.000 0.000 0.000 0.000 0.000 0.001 10.380 90.903 73.284 91.526 120.525 128.249 130.324 129.979 141.141 148.386 153.814 144.296 145.434 170.137 139.139 125.465 96.715 93.619 79.099 48.709 0.312 0.000 0.000 0.000 0.000 0.000
0.000 0.000 0.000 0.000 0.001 0.709 37.993 71.905 74.067 79.535 90.789 103.895 118.164 132.837 134.378 148.290 153.563 159.055 176.175 159.537 140.754 123.018 112.962 109.487 94.674 65.089 10.190 0.000 0.000 0.000 0.000 0.000
0.000 0.000 0.000 0.122 14.092 80.064 70.594 69.946 72.382 72.784 80.320 88.033 99.624 116.441 138.673 148.632 150.601 161.062 165.700 162.539 146.580 137.980 129.192 130.212 102.918 70.414 22.463 0.795 0.000 0.000 0.000 0.000
0.000 0.000 0.178 30.725 78.523 80.715 81.926 85.873 81.389 69.760 66.921 79.548 91.972 117.689 118.845 130.980 151.099 150.764 153.045 154.476 148.596 127.358 140.123 124.252 117.009 66.748 26.652 8.786 0.003 0.000 0.000 0.000
0.000 0.024 15.265 77.318 88.737 93.199 103.243 108.586 87.105 74.219 73.983 78.618 89.362 93.112 120.677 132.207 139.173 155.755 160.538 153.567 141.902 149.566 143.726 135.624 113.338 64.098 34.084 19.791 1.229 0.000 0.000 0.000
0.000 2.141 81.317 84.846 97.777 107.840 115.285 107.989 87.591 81.338 84.566 79.871 76.774 92.155 108.333 118.954 131.229 140.931 162.452 154.138 158.176 153.453 144.193 132.602 104.208 76.235 45.492 23.506 6.959 0.074 0.000 0.000
0.056 34.049 79.265 93.975 110.341 113.785 119.192 108.193 94.258 97.995 90.231 82.260 83.820 86.193 91.452 113.218 134.134 151.447 157.322 156.702 163.870 157.121 152.371 134.674 109.121 79.671 47.598 31.250 15.536 3.376 0.005 0.000
1.788 76.513 82.762 99.199 111.069 120.642 112.710 115.723 104.384 104.406 97.556 82.310 85.196 90.162 90.800 107.044 122.673 132.073 154.236 160.641 146.047 164.519 159.928 124.617 109.333 78.255 60.532 38.270 20.113 7.282 0.798 0.002
9.618 72.043 87.790 109.157 120.503 131.730 126.364 114.618 110.148 103.095 96.060 101.212 95.325 96.680 92.717 97.958 116.062 143.172 145.247 149.871 157.638 160.734 147.885 117.196 99.965 79.186 63.649 42.064 21.159 10.462 6.360 0.704
22.127 73.222 91.691 107.556 123.794 128.618 124.439 117.585 108.743 96.572 104.628 99.129 97.223 94.530 90.438 98.840 115.193 124.171 136.239 147.399 157.718 156.342 129.008 105.124 101.477 78.153 59.526 46.953 22.996 16.043 11.731 3.531
30.997 73.020 93.734 110.417 127.622 132.872 122.261 116.967 112.546 114.673 99.462 101.469 104.305 97.294 97.661 90.885 109.635 117.621 139.227 138.306 148.576 136.296 114.749 113.421 95.096 77.477 62.482 46.567 29.264 21.180 13.772 6.109
32.645 72.961 94.824 114.070 114.939 117.271 114.482 107.030 111.481 100.499 98.020 98.291 95.049 91.888 85.377 91.704 111.656 124.902 129.959 151.200 141.842 128.739 120.261 98.696 85.293 77.617 66.615 52.055 38.307 28.639 14.202 9.102
26.233 72.875 87.853 95.010 125.672 111.149 100.922 123.795 104.535 97.684 99.313 98.058 91.197 90.585 83.563 97.039 92.308 104.629 119.117 131.110 122.136 121.427 107.966 97.708 90.385 78.509 67.598 55.588 46.316 35.022 16.361 11.626
16.278 62.714 71.242 89.153 105.959 93.784 103.553 105.183 92.932 95.389 96.354 92.023 88.275 83.450 85.320 84.972 81.947 91.548 109.417 113.111 117.459 115.911 106.383 98.347 87.230 74.854 69.512 54.442 44.505 33.691 20.513 11.233
7.937 53.046 65.432 85.349 88.734 92.549 94.161 87.568 87.868 89.306 93.584 89.229 81.611 76.251 77.650 70.478 73.564 88.260 102.325 110.173 108.901 108.470 100.235 91.021 85.805 73.479 67.308 61.440 50.796 42.329 22.590 11.545
2.975 37.603 55.507 75.708 82.644 80.655 79.024 79.714 80.515 80.971 82.832 77.750 70.828 76.366 75.307 73.788 75.372 89.283 104.869 109.251 97.216 100.345 100.918 86.702 74.877 74.040 71.456 56.562 50.518 39.851 29.086 12.008
0.947 26.567 49.808 62.599 68.365 68.487 74.444 71.135 72.870 75.087 69.957 64.953 67.885 68.964 67.824 74.046 70.650 71.118 93.795 99.286 97.909 90.874 87.520 83.262 76.164 73.073 64.238 56.799 49.583 42.478 29.707 12.093
0.209 16.774 41.719 54.220 62.336 63.200 66.005 66.365 68.074 66.023 67.525 61.200 65.977 60.926 63.590 71.157 67.599 73.195 73.208 83.029 86.326 90.023 82.119 77.179 76.146 69.544 58.273 53.789 49.608 50.102 31.005 14.773
0.022 7.636 28.502 41.675 46.318 57.401 62.209 60.140 62.027 62.645 65.745 60.241 55.639 56.597 64.416 53.799 52.110 56.783 70.494 82.637 83.520 80.391 83.676 70.847 61.985 58.931 56.393 52.229 53.376 41.183 33.974 13.490
0.001 2.691 19.392 30.883 42.137 46.344 52.335 57.407 59.174 57.292 56.222 53.199 51.309 53.102 47.097 46.404 40.838 49.824 57.097 71.282 77.985 80.149 69.390 59.897 58.619 54.611 51.096 49.725 49.946 37.186 29.016 14.367
0.000 0.651 13.998 24.902 34.570 45.476 51.932 54.247 54.511 54.923 54.702 43.975 40.204 35.968 43.328 52.285 50.297 49.087 50.639 59.632 58.602 61.073 59.059 57.061 53.691 50.550 48.849 48.620 45.475 37.698 33.668 15.025
0.000 0.094 8.264 20.395 28.359 38.765 44.905 47.958 47.961 46.439 41.541 29.234 25.448 26.355 29.833 36.343 34.757 35.818 43.775 53.415 64.446 58.328 60.294 50.096 46.958 46.042 44.681 45.987 42.044 35.854 23.797 12.893
0.000 0.007 3.512 15.731 22.291 31.125 38.018 43.390 41.193 29.608 21.807 20.309 20.401 17.473 16.237 23.779 31.043 32.282 34.495 42.394 46.548 52.395 48.676 41.988 40.203 40.812 42.030 42.506 36.940 29.002 18.171 11.846
0.000 0.000 1.050 11.940 17.898 21.936 27.264 32.446 24.450 22.688 22.941 19.719 14.775 12.412 12.594 18.908 26.198 17.978 19.660 36.155 43.296 48.577 42.624 35.933 34.800 36.604 39.003 37.112 27.702 19.559 16.060 11.309
0.000 0.000 0.168 7.371 15.447 17.317 20.576 20.682 21.514 21.565 15.930 12.229 13.645 13.422 17.546 19.343 15.436 13.225 15.820 20.775 31.514 33.942 37.808 31.447 28.936 32.054 35.176 32.087 21.720 18.280 15.766 10.467
0.000 0.000 0.009 3.479 12.053 13.842 14.007 15.628 16.995 14.478 11.913 11.804 13.743 16.991 14.796 10.950 11.472 11.301 13.793 14.876 16.852 22.810 31.005 21.242 17.718 18.796 19.335 17.607 16.539 14.823 11.481 9.571
0.000 0.000 0.000 1.009 8.229 9.989 10.235 10.858 10.208 8.684 8.876 11.974 12.703 9.293 6.740 6.938 7.647 9.806 8.907 10.835 11.279 14.520 17.134 11.742 10.734 10.045 10.098 10.151 9.197 8.011 7.067 6.921
