ncols        35
nrows        71
xllcorner    409667.8
yllcorner    6870784.1
cellsize     5.00
NODATA_value -9999
0.000 0.000 0.000 0.008 1.465 10.382 15.155 8.544 1.188 0.014 0.000 0.000 0.000 0.000 0.000 0.000 0.000 0.000 0.000 0.000 0.000 0.000 0.000 0.000 0.000 0.000 0.000 0.000 0.000 0.000 0.000 0.000 0.000 0.000 0.000
0.000 0.000 0.695 35.864 79.068 77.214 80.312 75.786 65.606 28.187 2.016 0.008 0.000 0.000 0.000 0.000 0.000 0.000 0.000 0.000 0.000 0.000 0.000 0.000 0.000 0.000 0.000 0.000 0.000 0.000 0.000 0.000 0.000 0.000 0.000
0.000 0.945 60.313 68.233 81.016 89.927 92.420 76.871 62.246 52.381 60.312 23.666 1.704 0.022 0.000 0.000 0.000 0.000 0.000 0.000 0.000 0.000 0.000 0.000 0.000 0.000 0.000 0.000 0.000 0.000 0.000 0.000 0.000 0.000 0.000
0.017 29.439 67.909 79.115 86.433 91.563 96.359 78.851 71.976 75.670 60.422 58.923 53.930 23.001 2.274 0.001 0.000 0.000 0.000 0.000 0.000 0.000 0.000 0.000 0.000 0.000 0.000 0.000 0.000 0.000 0.000 0.000 0.000 0.000 0.000
1.182 62.659 74.943 84.085 90.231 103.548 102.482 88.423 86.491 84.986 68.638 74.179 54.792 45.432 43.735 7.391 0.000 0.000 0.000 0.000 0.000 0.000 0.000 0.000 0.000 0.000 0.000 0.000 0.000 0.000 0.000 0.000 0.000 0.000 0.000
6.955 64.154 75.285 79.903 89.945 98.169 101.224 95.263 107.353 87.972 85.255 80.482 69.085 59.364 45.549 37.853 0.006 0.000 0.000 0.000 0.000 0.000 0.000 0.000 0.000 0.000 0.000 0.000 0.000 0.000 0.000 0.000 0.000 0.000 0.000
15.851 61.236 73.380 87.142 93.721 94.207 105.613 106.500 98.535 105.123 97.487 90.743 80.750 57.961 46.857 35.081 6.458 0.000 0.000 0.000 0.000 0.000 0.000 0.000 0.000 0.000 0.000 0.000 0.000 0.000 0.000 0.000 0.000 0.000 0.000
32.154 60.673 74.140 85.831 86.695 89.852 110.714 115.112 90.391 105.784 92.426 105.850 71.976 56.898 42.404 37.692 23.889 0.000 0.000 0.000 0.000 0.000 0.000 0.000 0.000 0.000 0.000 0.000 0.000 0.000 0.000 0.000 0.000 0.000 0.000
42.308 63.164 78.063 81.570 85.456 94.776 105.177 111.099 97.546 116.140 105.779 92.101 63.963 51.930 47.555 44.134 31.741 0.062 0.000 0.000 0.000 0.000 0.000 0.000 0.000 0.000 0.000 0.000 0.000 0.000 0.000 0.000 0.000 0.000 0.000
43.202 61.114 73.688 85.750 91.005 106.163 116.358 102.033 115.619 101.381 91.004 84.863 66.846 58.945 58.132 47.922 32.395 5.449 0.000 0.000 0.000 0.000 0.000 0.000 0.000 0.000 0.000 0.000 0.000 0.000 0.000 0.000 0.000 0.000 0.000
39.716 63.879 82.767 76.040 91.184 113.581 108.810 116.671 116.810 101.818 82.757 77.157 70.848 68.472 63.172 47.107 36.125 13.087 0.000 0.000 0.000 0.000 0.000 0.000 0.000 0.000 0.000 0.000 0.000 0.000 0.000 0.000 0.000 0.000 0.000
27.506 60.542 75.762 90.188 91.946 90.525 100.087 104.392 101.371 88.097 67.323 74.609 68.048 70.548 54.955 53.630 38.926 17.357 0.105 0.000 0.000 0.000 0.000 0.000 0.000 0.000 0.000 0.000 0.000 0.000 0.000 0.000 0.000 0.000 0.000
16.238 57.680 77.155 74.202 82.853 86.572 88.322 92.099 88.725 77.394 68.593 77.975 77.429 70.594 64.019 50.010 35.162 19.775 3.279 0.000 0.000 0.000 0.000 0.000 0.000 0.000 0.000 0.000 0.000 0.000 0.000 0.000 0.000 0.000 0.000
6.064 56.407 61.662 74.753 79.905 60.307 80.395 74.233 78.318 68.746 81.289 88.103 79.971 68.889 61.814 47.783 37.275 21.799 6.867 0.125 0.000 0.000 0.000 0.000 0.000 0.000 0.000 0.000 0.000 0.000 0.000 0.000 0.000 0.000 0.000
1.143 39.157 61.105 65.548 68.195 68.752 68.345 69.490 73.007 78.478 86.038 83.669 63.042 90.183 64.926 46.115 36.191 23.134 9.144 2.582 0.005 0.000 0.000 0.000 0.000 0.000 0.000 0.000 0.000 0.000 0.000 0.000 0.000 0.000 0.000
0.139 19.590 45.828 54.329 53.946 52.246 58.165 71.120 76.956 86.893 77.947 70.754 70.682 80.862 52.066 44.489 34.519 23.651 11.672 6.307 0.983 0.000 0.000 0.000 0.000 0.000 0.000 0.000 0.000 0.000 0.000 0.000 0.000 0.000 0.000
0.003 5.932 36.274 49.017 56.027 56.319 70.734 76.605 73.897 78.418 67.924 66.830 69.977 66.282 49.042 38.604 37.863 24.016 14.056 8.888 4.043 0.253 0.000 0.000 0.000 0.000 0.000 0.000 0.000 0.000 0.000 0.000 0.000 0.000 0.000
0.000 0.556 19.439 30.872 39.584 60.452 66.387 69.669 76.311 66.792 57.224 52.703 61.659 60.485 48.510 43.977 36.794 26.700 15.274 9.941 6.346 2.349 0.030 0.000 0.000 0.000 0.000 0.000 0.000 0.000 0.000 0.000 0.000 0.000 0.000
0.000 0.024 9.540 29.723 39.651 47.223 56.439 63.699 59.838 59.934 52.041 57.924 64.864 72.839 62.212 45.150 36.997 25.075 16.619 10.426 7.542 4.470 1.297 0.000 0.000 0.000 0.000 0.000 0.000 0.000 0.000 0.000 0.000 0.000 0.000
0.000 0.000 1.895 22.483 38.057 47.225 48.367 55.125 61.858 57.039 61.905 58.702 67.927 70.230 52.506 40.018 33.594 25.680 20.970 11.280 8.397 5.812 2.414 0.098 0.000 0.000 0.000 0.000 0.000 0.000 0.000 0.000 0.000 0.000 0.000
0.000 0.000 0.013 6.633 21.989 29.203 40.576 46.617 54.544 55.453 53.226 55.633 68.510 57.363 45.187 37.302 32.544 25.354 20.637 12.750 8.143 5.276 2.724 1.270 0.001 0.000 0.000 0.000 0.000 0.000 0.000 0.000 0.000 0.000 0.000
0.000 0.000 0.000 0.279 14.710 25.461 37.579 44.134 49.971 49.336 48.384 49.818 49.442 42.516 35.629 34.835 25.774 23.265 21.343 16.204 8.605 4.622 2.851 1.837 0.129 0.000 0.000 0.000 0.000 0.000 0.000 0.000 0.000 0.000 0.000
0.000 0.000 0.000 0.005 4.486 19.442 29.435 42.527 45.424 42.173 44.508 46.733 50.857 39.243 35.605 27.061 26.329 25.065 23.261 16.725 8.884 4.367 1.631 1.571 0.361 0.001 0.000 0.000 0.000 0.000 0.000 0.000 0.000 0.000 0.000
0.000 0.000 0.000 0.000 0.400 10.801 23.525 37.531 40.882 37.436 39.133 40.830 43.440 34.393 28.287 25.822 29.421 26.229 24.423 19.069 12.321 4.049 2.010 1.266 0.974 0.166 0.000 0.000 0.000 0.000 0.000 0.000 0.000 0.000 0.000
0.000 0.000 0.000 0.000 0.000 1.833 12.383 22.564 25.869 32.007 36.997 40.176 29.684 28.265 25.852 27.668 30.167 26.050 25.802 21.271 13.496 6.269 2.761 1.402 2.071 0.742 0.001 0.000 0.000 0.000 0.000 0.000 0.000 0.000 0.000
0.000 0.000 0.000 0.000 0.000 0.056 4.216 11.636 23.602 35.886 42.584 35.572 31.344 27.603 27.564 27.906 26.019 28.125 26.603 22.083 15.396 9.997 3.601 1.999 2.482 1.618 0.107 0.000 0.000 0.000 0.000 0.000 0.000 0.000 0.000
0.000 0.000 0.000 0.000 0.000 0.000 0.748 7.078 14.705 26.823 29.426 29.378 26.519 27.260 28.297 27.909 29.540 28.953 28.256 24.228 18.854 12.599 4.638 2.611 3.072 2.435 0.801 0.002 0.000 0.000 0.000 0.000 0.000 0.000 0.000
0.000 0.000 0.000 0.000 0.000 0.000 0.006 2.063 7.243 14.918 27.643 26.787 29.403 25.951 30.154 24.926 30.375 28.547 28.745 24.511 20.531 13.834 7.068 4.186 3.939 2.706 2.014 0.139 0.000 0.000 0.000 0.000 0.000 0.000 0.000
0.000 0.000 0.000 0.000 0.000 0.000 0.000 0.425 5.209 8.683 13.152 24.179 23.346 24.806 22.193 28.513 29.749 28.016 28.254 24.896 23.046 16.308 10.377 5.931 4.289 2.888 2.392 0.910 0.008 0.000 0.000 0.000 0.000 0.000 0.000
0.000 0.000 0.000 0.000 0.000 0.000 0.000 0.005 0.899 4.360 7.372 16.069 22.167 24.702 24.193 26.236 27.067 25.927 27.217 26.713 24.123 18.049 12.999 8.557 5.548 3.913 2.557 1.955 0.453 0.006 0.000 0.000 0.000 0.000 0.000
0.000 0.000 0.000 0.000 0.000 0.000 0.000 0.000 0.012 1.698 5.014 8.501 18.127 20.555 22.152 24.162 23.788 24.165 27.916 25.886 22.351 18.751 15.886 12.702 7.659 4.867 2.936 2.643 1.926 0.419 0.001 0.000 0.000 0.000 0.000
0.000 0.000 0.000 0.000 0.000 0.000 0.000 0.000 0.000 0.116 3.123 5.257 10.620 18.617 19.485 18.935 20.666 24.889 25.816 23.529 21.489 20.013 17.798 15.876 10.154 5.274 3.437 3.158 2.752 1.581 0.150 0.000 0.000 0.000 0.000
0.000 0.000 0.000 0.000 0.000 0.000 0.000 0.000 0.000 0.000 1.048 4.213 5.618 13.514 16.070 16.276 18.043 21.643 23.321 24.994 20.256 20.654 18.889 17.679 13.376 5.363 3.666 2.859 3.202 2.754 0.904 0.042 0.000 0.000 0.000
0.000 0.000 0.000 0.000 0.000 0.000 0.000 0.000 0.000 0.000 0.060 2.316 3.071 4.792 11.451 15.804 18.525 23.147 20.222 20.365 21.408 21.460 19.578 17.818 11.977 8.479 4.470 3.208 3.835 3.161 1.963 0.572 0.008 0.000 0.000
0.000 0.000 0.000 0.000 0.000 0.000 0.000 0.000 0.000 0.000 0.000 0.279 2.169 2.078 8.932 13.307 16.980 19.508 20.860 22.424 21.248 23.385 19.412 19.359 16.083 11.831 6.188 3.948 3.455 2.729 2.798 1.534 0.243 0.000 0.000
0.000 0.000 0.000 0.000 0.000 0.000 0.000 0.000 0.000 0.000 0.000 0.002 1.138 1.506 5.168 12.283 17.017 18.771 21.125 21.370 22.782 21.171 19.983 19.779 18.339 13.998 7.749 3.965 2.530 3.106 3.226 2.237 0.898 0.002 0.005
0.000 0.000 0.000 0.000 0.000 0.000 0.000 0.000 0.000 0.000 0.000 0.000 0.608 1.434 2.486 9.815 16.370 19.506 19.299 21.728 19.531 20.083 20.354 21.754 18.370 14.167 8.454 4.418 2.990 3.192 2.996 2.305 1.584 0.881 0.248
0.000 0.000 0.000 0.000 0.000 0.000 0.000 0.000 0.000 0.000 0.000 0.000 0.067 1.342 1.744 6.380 12.632 17.335 18.137 18.421 20.166 21.430 21.478 21.473 17.586 14.511 8.587 4.388 3.266 2.671 2.560 2.035 1.969 1.868 1.065
0.000 0.000 0.000 0.000 0.000 0.000 0.000 0.000 0.000 0.000 0.000 0.000 0.002 1.006 2.433 4.170 9.339 14.984 15.790 18.347 18.184 21.310 21.182 19.725 18.286 12.920 7.976 5.422 3.836 2.351 2.248 1.641 2.049 2.349 1.849
0.000 0.000 0.000 0.000 0.000 0.000 0.000 0.000 0.000 0.000 0.000 0.000 0.001 0.234 1.727 1.736 5.009 8.482 13.008 13.190 17.090 19.354 21.528 20.553 18.122 13.364 9.127 6.490 4.312 2.408 1.800 1.917 2.572 2.531 2.299
0.000 0.000 0.000 0.000 0.000 0.000 0.000 0.000 0.000 0.000 0.000 0.000 0.000 0.031 0.001 1.955 1.962 3.106 8.281 12.551 16.801 20.784 21.596 21.339 18.047 14.935 9.901 7.021 4.785 3.185 1.595 1.817 2.760 2.838 2.556
0.000 0.000 0.000 0.000 0.000 0.000 0.000 0.000 0.000 0.000 0.000 0.000 0.000 0.000 0.406 1.851 1.186 0.533 5.413 11.505 16.712 20.143 21.229 20.714 18.502 16.717 9.852 7.763 5.822 3.479 1.948 2.430 3.011 2.995 2.646
0.000 0.000 0.000 0.000 0.000 0.000 0.000 0.000 0.000 0.000 0.000 0.000 0.000 0.000 0.159 1.098 1.060 0.061 1.884 10.755 16.578 19.002 19.380 21.208 19.469 15.935 10.130 8.950 6.473 4.358 3.353 2.838 3.225 3.209 2.719
0.000 0.000 0.000 0.000 0.000 0.000 0.000 0.000 0.000 0.000 0.000 0.000 0.000 0.000 0.020 0.273 0.865 0.701 1.462 11.214 15.034 19.443 20.748 21.501 18.823 13.373 12.971 9.606 7.104 5.466 3.773 2.648 2.868 3.298 2.953
0.000 0.000 0.000 0.000 0.000 0.000 0.000 0.000 0.000 0.000 0.000 0.000 0.000 0.000 0.000 0.127 0.326 0.607 3.169 8.488 15.475 18.420 22.851 20.487 19.283 17.212 14.102 10.587 8.689 6.493 4.368 3.551 3.209 3.781 4.055
0.000 0.000 0.000 0.000 0.000 0.000 0.000 0.000 0.000 0.000 0.000 0.000 0.000 0.000 0.000 0.012 0.209 0.744 3.333 5.646 11.092 15.822 18.031 19.375 18.338 16.551 15.241 12.210 9.766 8.083 5.519 4.359 4.297 4.085 4.341
0.000 0.000 0.000 0.000 0.000 0.000 0.000 0.000 0.000 0.000 0.000 0.000 0.000 0.000 0.000 0.000 0.030 1.984 3.360 3.700 6.999 10.648 15.650 18.302 18.829 18.127 15.598 14.026 11.976 9.516 7.590 5.762 5.274 5.381 5.477
0.000 0.000 0.000 0.000 0.000 0.000 0.000 0.000 0.000 0.000 0.000 0.000 0.000 0.000 0.000 0.000 0.479 2.118 2.539 2.370 4.425 8.020 12.752 18.622 19.714 19.560 16.751 13.774 13.807 12.258 10.006 6.827 6.029 5.778 6.217
0.000 0.000 0.000 0.000 0.000 0.000 0.000 0.000 0.000 0.000 0.000 0.000 0.000 0.000 0.000 0.000 0.170 0.964 1.479 1.521 2.546 4.839 9.728 15.278 17.844 18.708 17.479 14.979 14.694 13.410 11.453 8.487 7.539 8.659 7.870
0.000 0.000 0.000 0.000 0.000 0.000 0.000 0.000 0.000 0.000 0.000 0.000 0.000 0.000 0.000 0.000 0.000 0.063 0.863 1.363 1.563 3.402 6.749 12.787 15.395 17.177 17.160 15.651 15.087 14.356 12.624 11.240 10.748 11.428 10.096
0.000 0.000 0.000 0.000 0.000 0.000 0.000 0.000 0.000 0.000 0.000 0.000 0.000 0.000 0.000 0.000 0.000 0.000 0.369 0.955 0.826 1.783 6.467 10.832 14.699 16.076 16.170 15.916 15.637 15.258 14.187 13.119 14.849 14.422 11.225
0.000 0.000 0.000 0.000 0.000 0.000 0.000 0.000 0.000 0.000 0.000 0.000 0.000 0.000 0.000 0.000 0.000 0.000 0.007 0.382 0.299 1.618 5.428 9.697 13.032 15.009 15.557 16.075 14.947 15.304 15.414 15.653 16.129 16.409 12.310
0.000 0.000 0.000 0.000 0.000 0.000 0.000 0.000 0.000 0.000 0.000 0.000 0.000 0.000 0.000 0.000 0.000 0.000 0.000 0.366 1.015 1.933 3.677 6.952 11.176 14.431 15.058 15.198 14.679 15.174 15.759 15.962 15.818 18.694 12.640
0.000 0.000 0.000 0.000 0.000 0.000 0.000 0.000 0.000 0.000 0.000 0.000 0.000 0.000 0.000 0.000 0.000 0.000 0.000 0.160 1.141 2.082 2.433 4.413 9.350 13.352 15.226 14.460 14.357 14.789 15.823 15.282 17.484 21.066 13.955
0.000 0.000 0.000 0.000 0.000 0.000 0.000 0.000 0.000 0.000 0.000 0.000 0.000 0.000 0.000 0.000 0.000 0.000 0.000 0.012 1.182 1.980 2.143 3.161 6.942 13.227 16.195 15.220 14.050 14.945 14.872 14.939 19.324 21.884 12.957
0.000 0.000 0.000 0.000 0.000 0.000 0.000 0.000 0.000 0.000 0.000 0.000 0.000 0.000 0.000 0.000 0.000 0.000 0.000 0.000 0.448 1.560 1.878 2.900 3.511 10.480 15.743 15.376 14.717 15.395 15.276 16.531 21.614 21.939 12.615
0.000 0.000 0.000 0.000 0.000 0.000 0.000 0.000 0.000 0.000 0.000 0.000 0.000 0.000 0.000 0.000 0.000 0.000 0.000 0.000 0.086 0.922 1.708 2.811 2.405 8.126 15.739 16.340 15.070 15.249 15.027 16.662 21.573 19.892 13.401
0.000 0.000 0.000 0.000 0.000 0.000 0.000 0.000 0.000 0.000 0.000 0.000 0.000 0.000 0.000 0.000 0.000 0.000 0.000 0.000 0.003 0.444 1.283 2.600 2.290 5.024 13.276 15.273 13.667 12.496 13.171 15.656 20.385 19.226 13.143
0.000 0.000 0.000 0.000 0.000 0.000 0.000 0.000 0.000 0.000 0.000 0.000 0.000 0.000 0.000 0.000 0.000 0.000 0.000 0.000 0.000 0.083 0.852 1.776 2.298 3.409 11.027 14.284 12.734 10.433 10.761 13.740 16.982 14.647 10.431
0.000 0.000 0.000 0.000 0.000 0.000 0.000 0.000 0.000 0.000 0.000 0.000 0.000 0.000 0.000 0.000 0.000 0.000 0.000 0.000 0.000 0.000 0.400 1.602 2.242 2.636 7.904 13.861 11.767 9.513 9.880 11.125 10.652 10.025 6.884
0.000 0.000 0.000 0.000 0.000 0.000 0.000 0.000 0.000 0.000 0.000 0.000 0.000 0.000 0.000 0.000 0.000 0.000 0.000 0.000 0.000 0.000 0.040 2.025 2.223 2.344 6.075 12.016 11.138 9.592 8.761 8.129 9.249 8.231 4.994
0.000 0.000 0.000 0.000 0.000 0.000 0.000 0.000 0.000 0.000 0.000 0.000 0.000 0.000 0.000 0.000 0.000 0.000 0.000 0.000 0.000 0.000 0.006 1.810 2.396 2.676 4.785 10.181 11.041 8.808 6.852 7.517 8.343 5.243 3.388
0.000 0.000 0.000 0.000 0.000 0.000 0.000 0.000 0.000 0.000 0.000 0.000 0.000 0.000 0.000 0.000 0.000 0.000 0.000 0.000 0.000 0.000 0.002 1.646 2.107 2.527 4.394 8.679 10.393 7.783 5.452 6.052 4.594 3.583 3.644
0.000 0.000 0.000 0.000 0.000 0.000 0.000 0.000 0.000 0.000 0.000 0.000 0.000 0.000 0.000 0.000 0.000 0.000 0.000 0.000 0.000 0.000 0.004 1.158 1.853 2.592 3.862 6.308 8.874 7.613 3.786 3.808 4.067 4.141 3.982
0.000 0.000 0.000 0.000 0.000 0.000 0.000 0.000 0.000 0.000 0.000 0.000 0.000 0.000 0.000 0.000 0.000 0.000 0.000 0.000 0.000 0.000 0.004 1.031 1.336 2.595 3.297 4.179 8.098 6.048 2.628 3.401 4.098 4.618 4.108
0.000 0.000 0.000 0.000 0.000 0.000 0.000 0.000 0.000 0.000 0.000 0.000 0.000 0.000 0.000 0.000 0.000 0.000 0.000 0.000 0.000 0.000 0.003 0.994 1.331 2.347 2.801 3.233 6.458 5.851 2.229 3.270 3.795 5.097 5.877
0.000 0.000 0.000 0.000 0.000 0.000 0.000 0.000 0.000 0.000 0.000 0.000 0.000 0.000 0.000 0.000 0.000 0.000 0.000 0.000 0.000 0.000 0.004 0.910 1.356 2.196 2.862 3.419 4.204 5.528 2.297 3.070 4.921 7.061 7.492
0.000 0.000 0.000 0.000 0.000 0.000 0.000 0.000 0.000 0.000 0.000 0.000 0.000 0.000 0.000 0.000 0.000 0.000 0.000 0.000 0.000 0.000 0.008 0.990 1.269 2.169 2.514 2.983 3.462 4.271 3.034 4.383 7.202 7.328 6.310
0.000 0.000 0.000 0.000 0.000 0.000 0.000 0.000 0.000 0.000 0.000 0.000 0.000 0.000 0.000 0.000 0.000 0.000 0.000 0.000 0.000 0.000 0.004 1.005 1.338 2.215 2.592 2.305 2.583 4.307 3.745 4.490 6.497 6.174 5.649
0.000 0.000 0.000 0.000 0.000 0.000 0.000 0.000 0.000 0.000 0.000 0.000 0.000 0.000 0.000 0.000 0.000 0.000 0.000 0.000 0.000 0.000 0.003 1.028 1.434 1.965 2.370 1.738 1.991 4.366 3.733 4.615 4.993 4.551 5.602
0.000 0.000 0.000 0.000 0.000 0.000 0.000 0.000 0.000 0.000 0.000 0.000 0.000 0.000 0.000 0.000 0.000 0.000 0.000 0.000 0.000 0.000 0.004 0.934 1.205 1.720 1.879 1.490 1.393 3.397 2.972 3.862 3.803 4.398 4.747
