ncols        35
nrows        58
xllcorner    409717.8
yllcorner    6870749.1
cellsize     5.00
NODATA_value -9999
0.000 0.000 0.000 0.000 0.000 0.000 0.000 0.000 0.000 0.000 0.000 0.000 0.000 0.000 0.000 0.000 0.000 0.000 0.000 0.000 0.000 0.000 0.000 0.000 0.000 0.000 0.000 0.000 0.000 0.000 0.000 0.000 0.000 0.000 0.000
0.000 0.000 0.000 0.609 18.883 45.244 43.642 43.290 47.819 30.692 5.583 0.048 0.000 0.000 0.000 0.000 0.000 0.000 0.000 0.000 0.000 0.000 0.000 0.000 0.000 0.000 0.000 0.000 0.000 0.000 0.000 0.000 0.000 0.000 0.000
0.000 0.000 1.531 46.789 47.735 46.295 47.488 48.985 50.317 48.226 43.120 20.611 0.765 0.000 0.000 0.000 0.000 0.000 0.000 0.000 0.000 0.000 0.000 0.000 0.000 0.000 0.000 0.000 0.000 0.000 0.000 0.000 0.000 0.000 0.000
0.000 0.939 47.937 47.847 49.053 50.664 55.942 56.059 57.484 55.591 53.086 39.245 27.646 1.722 0.000 0.000 0.000 0.000 0.000 0.000 0.000 0.000 0.000 0.000 0.000 0.000 0.000 0.000 0.000 0.000 0.000 0.000 0.000 0.000 0.000
0.027 24.759 46.372 49.940 51.916 56.644 62.970 60.280 64.017 63.459 58.510 49.234 38.555 24.973 1.782 0.000 0.000 0.000 0.000 0.000 0.000 0.000 0.000 0.000 0.000 0.000 0.000 0.000 0.000 0.000 0.000 0.000 0.000 0.000 0.000
1.330 47.623 50.151 53.073 56.693 61.316 61.076 67.041 68.765 67.405 62.068 60.800 48.078 35.055 21.956 0.504 0.000 0.000 0.000 0.000 0.000 0.000 0.000 0.000 0.000 0.000 0.000 0.000 0.000 0.000 0.000 0.000 0.000 0.000 0.000
6.776 46.284 49.725 56.598 59.730 65.163 68.683 71.960 74.617 73.931 70.475 70.551 54.870 44.747 35.969 12.374 0.032 0.000 0.000 0.000 0.000 0.000 0.000 0.000 0.000 0.000 0.000 0.000 0.000 0.000 0.000 0.000 0.000 0.000 0.000
13.041 45.374 55.161 57.404 66.313 62.127 73.897 74.517 78.727 76.591 74.087 70.907 60.905 54.554 49.282 26.835 4.318 0.000 0.000 0.000 0.000 0.000 0.000 0.000 0.000 0.000 0.000 0.000 0.000 0.000 0.000 0.000 0.000 0.000 0.000
14.109 46.572 51.939 59.079 60.524 71.855 77.527 77.068 81.135 78.309 81.149 74.544 70.049 63.750 59.357 35.745 16.796 0.507 0.000 0.000 0.000 0.000 0.000 0.000 0.000 0.000 0.000 0.000 0.000 0.000 0.000 0.000 0.000 0.000 0.000
8.899 42.634 52.252 61.546 65.718 72.848 77.533 76.280 80.679 85.250 87.513 78.484 73.334 71.441 66.523 49.223 24.586 7.364 0.023 0.000 0.000 0.000 0.000 0.000 0.000 0.000 0.000 0.000 0.000 0.000 0.000 0.000 0.000 0.000 0.000
3.561 40.120 50.441 57.528 65.139 75.002 76.115 74.312 85.563 86.922 85.569 78.815 78.205 79.087 75.044 61.391 36.530 16.241 2.887 0.001 0.000 0.000 0.000 0.000 0.000 0.000 0.000 0.000 0.000 0.000 0.000 0.000 0.000 0.000 0.000
0.666 40.235 48.437 57.227 63.635 67.157 72.178 81.426 86.792 80.080 84.439 82.821 81.366 86.295 81.853 68.087 44.914 22.920 11.351 0.915 0.000 0.000 0.000 0.000 0.000 0.000 0.000 0.000 0.000 0.000 0.000 0.000 0.000 0.000 0.000
0.033 16.890 42.761 54.482 61.020 61.450 67.329 74.340 83.394 89.148 80.497 84.957 84.804 86.506 88.036 68.535 54.336 34.009 16.319 7.918 0.243 0.000 0.000 0.000 0.000 0.000 0.000 0.000 0.000 0.000 0.000 0.000 0.000 0.000 0.000
0.000 3.246 33.103 44.956 52.898 62.066 68.760 84.701 77.627 78.697 85.312 85.693 87.792 88.843 75.618 77.573 61.408 41.717 23.405 13.715 4.546 0.076 0.000 0.000 0.000 0.000 0.000 0.000 0.000 0.000 0.000 0.000 0.000 0.000 0.000
0.000 0.234 22.443 38.764 48.437 57.080 64.476 75.353 78.136 86.878 82.608 95.445 84.432 90.780 87.697 85.558 71.842 51.952 37.588 14.245 10.840 2.833 0.023 0.000 0.000 0.000 0.000 0.000 0.000 0.000 0.000 0.000 0.000 0.000 0.000
0.000 0.007 8.137 32.127 48.080 55.506 64.298 70.188 81.544 81.965 90.880 89.255 86.273 87.847 93.529 92.153 76.602 60.199 40.307 20.354 13.710 8.031 1.583 0.005 0.000 0.000 0.000 0.000 0.000 0.000 0.000 0.000 0.000 0.000 0.000
0.000 0.000 1.633 21.524 37.690 52.675 64.747 73.140 74.963 87.714 79.929 81.834 84.712 94.051 93.800 90.442 77.049 63.006 47.866 33.786 15.589 9.667 5.625 1.351 0.012 0.000 0.000 0.000 0.000 0.000 0.000 0.000 0.000 0.000 0.000
0.000 0.000 0.107 11.262 30.468 42.883 57.518 67.537 72.846 74.313 82.305 84.708 86.460 95.404 87.405 92.272 81.473 61.923 54.700 39.519 20.636 10.366 7.511 5.523 1.244 0.002 0.000 0.000 0.000 0.000 0.000 0.000 0.000 0.000 0.000
0.000 0.000 0.002 4.163 19.125 43.886 49.941 66.847 64.833 77.519 74.723 85.436 84.334 85.061 89.727 83.487 72.688 63.826 59.709 43.754 31.830 13.033 8.559 7.566 5.058 0.647 0.000 0.000 0.000 0.000 0.000 0.000 0.000 0.000 0.000
0.000 0.000 0.000 0.491 12.668 22.942 44.745 53.542 61.849 60.650 69.349 74.498 83.037 83.806 86.115 79.760 74.934 67.290 62.872 48.678 37.887 19.333 11.891 8.646 7.299 3.805 0.348 0.000 0.000 0.000 0.000 0.000 0.000 0.000 0.000
0.000 0.000 0.000 0.020 3.197 13.562 29.593 39.045 48.331 55.233 64.269 76.206 80.640 84.064 81.420 79.676 77.246 68.887 61.412 53.760 42.903 26.964 15.687 10.521 8.148 6.016 2.571 0.021 0.000 0.000 0.000 0.000 0.000 0.000 0.000
0.000 0.000 0.000 0.000 1.151 8.591 19.147 29.307 42.473 49.543 60.343 70.704 78.012 78.897 77.861 82.829 74.191 68.423 64.285 56.474 42.868 35.501 21.855 13.160 9.234 6.486 5.174 1.715 0.006 0.000 0.000 0.000 0.000 0.000 0.000
0.000 0.000 0.000 0.000 0.116 3.817 9.353 21.222 36.066 42.718 58.169 63.662 66.621 76.420 77.851 78.584 67.550 71.055 65.812 56.742 51.108 42.130 32.258 17.514 11.260 6.951 6.542 4.284 0.838 0.000 0.000 0.000 0.000 0.000 0.000
0.000 0.000 0.000 0.000 0.003 1.022 5.535 14.136 25.347 47.536 49.913 61.474 63.870 72.941 74.165 65.203 72.985 71.568 63.361 58.360 53.997 45.005 35.361 25.574 13.496 8.954 7.309 5.844 3.199 0.170 0.000 0.000 0.000 0.000 0.000
0.000 0.000 0.000 0.000 0.000 0.216 3.599 9.736 25.847 43.552 52.537 57.352 68.692 66.066 69.394 73.688 72.185 68.098 67.815 60.471 52.347 48.427 41.712 30.086 20.381 11.263 8.576 6.511 4.859 2.007 0.004 0.000 0.000 0.000 0.000
0.000 0.000 0.000 0.000 0.000 0.004 1.514 5.843 14.095 32.191 44.542 55.684 57.394 60.646 61.912 63.677 71.815 67.877 63.424 63.558 54.884 47.716 47.124 36.579 28.228 14.973 9.609 7.084 5.878 4.032 0.563 0.000 0.000 0.000 0.000
0.000 0.000 0.000 0.000 0.000 0.000 0.562 6.526 11.725 18.803 36.039 43.700 53.400 55.746 58.268 61.162 65.012 71.842 65.874 60.729 56.320 52.760 47.654 41.678 34.520 20.931 10.402 9.371 6.480 4.610 2.527 0.007 0.000 0.000 0.000
0.000 0.000 0.000 0.000 0.000 0.000 0.269 4.800 8.140 10.493 26.763 39.949 48.360 57.898 59.072 60.966 61.624 63.935 67.205 65.241 61.212 52.681 51.082 44.311 37.769 29.090 14.316 11.271 6.586 5.170 3.938 1.025 0.003 0.000 0.000
0.000 0.000 0.000 0.000 0.000 0.000 0.008 1.129 3.926 4.878 15.742 28.096 43.884 52.286 56.115 57.660 58.519 61.417 66.233 64.274 62.219 51.946 47.756 54.133 48.068 35.764 20.442 12.187 7.552 5.710 4.692 3.765 0.227 0.000 0.000
0.000 0.000 0.000 0.000 0.000 0.000 0.000 0.028 1.856 3.837 6.994 22.746 33.242 47.565 50.980 53.907 54.672 58.028 62.748 62.538 59.470 56.134 52.404 59.993 57.574 44.664 26.778 14.074 9.034 5.841 5.373 4.532 1.652 0.032 0.000
0.000 0.000 0.000 0.000 0.000 0.000 0.000 0.000 0.492 2.659 3.476 12.583 29.976 41.549 50.358 51.862 50.276 53.636 60.914 61.833 59.501 55.087 61.493 70.037 61.792 54.216 36.214 15.080 9.309 6.399 6.528 4.979 3.494 0.848 0.000
0.000 0.000 0.000 0.000 0.000 0.000 0.000 0.000 0.005 1.005 2.008 6.844 17.613 38.373 47.638 49.700 47.551 50.966 54.844 58.208 59.634 59.555 62.114 72.682 67.214 58.624 31.940 17.508 11.521 8.752 6.303 4.999 4.146 2.521 0.052
0.000 0.000 0.000 0.000 0.000 0.000 0.000 0.000 0.000 0.583 3.066 5.403 9.925 27.016 42.844 49.375 45.462 46.391 50.518 54.680 57.558 59.516 56.503 69.473 67.013 52.835 31.105 23.894 17.026 9.553 5.130 5.999 4.587 3.499 1.010
0.000 0.000 0.000 0.000 0.000 0.000 0.000 0.000 0.000 0.114 2.595 5.186 5.943 12.003 36.982 46.594 44.542 40.742 46.415 49.710 55.527 55.534 57.183 71.983 72.840 53.081 34.041 30.634 20.172 8.232 5.712 5.957 4.634 4.554 2.990
0.000 0.000 0.000 0.000 0.000 0.000 0.000 0.000 0.000 0.004 1.839 4.649 5.426 6.571 19.975 49.066 46.241 39.459 41.623 46.330 49.347 49.944 58.459 70.136 64.331 50.306 38.633 34.742 23.484 9.233 8.031 6.582 6.167 4.935 4.200
0.000 0.000 0.000 0.000 0.000 0.000 0.000 0.000 0.000 0.000 0.329 3.199 4.567 5.701 9.096 44.356 45.188 37.137 39.324 43.966 46.254 50.324 61.977 69.309 60.631 52.071 42.466 36.810 21.481 13.984 10.220 8.429 5.957 3.082 4.208
0.000 0.000 0.000 0.000 0.000 0.000 0.000 0.000 0.000 0.000 0.022 1.438 4.015 5.286 6.871 40.387 46.633 38.134 37.990 43.114 43.694 48.339 61.345 61.485 62.189 55.279 42.251 35.285 27.222 17.817 13.185 9.360 4.834 3.838 5.452
0.000 0.000 0.000 0.000 0.000 0.000 0.000 0.000 0.000 0.000 0.000 0.404 2.758 5.184 6.209 34.798 43.676 36.537 33.429 36.137 38.973 44.789 58.193 64.360 62.280 49.929 40.569 36.972 30.628 22.987 17.361 10.493 7.628 7.048 5.825
0.000 0.000 0.000 0.000 0.000 0.000 0.000 0.000 0.000 0.000 0.000 0.028 1.462 4.140 5.667 28.738 42.700 35.109 30.341 30.243 32.393 39.941 51.204 56.506 49.661 40.052 43.144 33.337 30.310 28.316 21.436 12.872 9.431 7.425 4.530
0.000 0.000 0.000 0.000 0.000 0.000 0.000 0.000 0.000 0.000 0.000 0.000 0.458 3.557 5.442 22.711 37.452 35.422 27.532 26.113 29.432 35.176 42.106 46.454 42.276 39.671 36.611 34.974 34.388 33.032 24.312 15.104 10.752 7.567 4.798
0.000 0.000 0.000 0.000 0.000 0.000 0.000 0.000 0.000 0.000 0.000 0.000 0.019 4.014 4.852 17.820 35.918 33.673 25.442 24.668 27.115 30.779 40.522 45.139 40.394 36.727 35.585 39.004 39.418 35.812 25.060 19.684 12.093 7.657 5.202
0.000 0.000 0.000 0.000 0.000 0.000 0.000 0.000 0.000 0.000 0.000 0.000 0.002 3.469 5.000 12.987 31.618 31.590 24.730 22.303 22.876 28.623 40.721 37.374 33.129 35.562 40.374 43.929 44.170 35.013 26.700 21.649 13.697 9.281 6.892
0.000 0.000 0.000 0.000 0.000 0.000 0.000 0.000 0.000 0.000 0.000 0.000 0.001 3.123 4.320 10.303 30.163 31.181 24.077 18.756 19.331 23.612 26.324 27.845 31.995 36.383 39.973 45.441 39.739 33.270 30.293 23.964 18.823 12.723 9.208
0.000 0.000 0.000 0.000 0.000 0.000 0.000 0.000 0.000 0.000 0.000 0.000 0.002 2.383 3.859 8.470 26.123 28.710 22.131 17.901 15.298 17.288 21.964 26.256 31.920 34.750 38.102 43.607 36.855 36.485 33.125 29.079 26.700 16.240 10.269
0.000 0.000 0.000 0.000 0.000 0.000 0.000 0.000 0.000 0.000 0.000 0.000 0.002 2.107 3.009 7.471 23.453 26.869 21.985 14.576 11.750 14.223 19.492 24.676 28.149 34.294 44.898 42.330 39.491 37.886 37.911 35.033 32.092 18.666 9.371
0.000 0.000 0.000 0.000 0.000 0.000 0.000 0.000 0.000 0.000 0.000 0.000 0.001 2.036 2.839 6.283 18.965 23.164 20.790 13.175 9.458 12.656 16.791 22.837 28.346 37.389 40.012 35.806 43.710 43.452 40.099 40.141 32.799 20.209 8.583
0.000 0.000 0.000 0.000 0.000 0.000 0.000 0.000 0.000 0.000 0.000 0.000 0.002 1.821 2.822 5.564 18.229 23.634 19.737 12.585 7.718 10.165 14.704 22.745 30.833 33.313 32.525 37.539 43.422 39.944 41.488 47.624 30.784 19.506 10.418
0.000 0.000 0.000 0.000 0.000 0.000 0.000 0.000 0.000 0.000 0.000 0.000 0.003 1.903 2.619 5.084 15.407 21.336 19.438 10.974 7.646 11.609 17.136 20.811 25.090 27.356 30.857 37.554 41.640 43.293 50.458 42.781 29.810 24.123 10.877
0.000 0.000 0.000 0.000 0.000 0.000 0.000 0.000 0.000 0.000 0.000 0.000 0.001 1.847 2.614 4.864 14.172 18.918 17.415 10.783 8.155 11.104 15.319 17.602 20.220 26.573 29.853 35.307 41.268 47.073 45.781 37.150 32.621 23.174 12.920
0.000 0.000 0.000 0.000 0.000 0.000 0.000 0.000 0.000 0.000 0.000 0.000 0.001 1.836 2.711 4.457 9.880 16.087 15.304 10.629 8.536 11.079 12.506 13.013 18.009 21.663 25.827 31.311 39.075 40.204 38.817 34.749 29.055 24.194 14.778
0.000 0.000 0.000 0.000 0.000 0.000 0.000 0.000 0.000 0.000 0.000 0.000 0.001 1.628 2.427 4.033 7.684 15.128 14.202 11.008 9.647 10.833 10.444 12.441 15.417 18.456 20.938 25.109 34.003 36.407 35.638 32.528 29.457 25.454 15.001
0.000 0.000 0.000 0.000 0.000 0.000 0.000 0.000 0.000 0.000 0.000 0.000 0.001 1.762 2.438 4.021 6.106 13.860 12.292 10.532 9.715 9.729 9.897 11.122 13.536 16.943 18.735 23.926 27.313 30.654 31.961 31.568 28.846 23.465 14.654
0.000 0.000 0.000 0.000 0.000 0.000 0.000 0.000 0.000 0.000 0.000 0.000 0.000 1.520 2.774 3.415 5.225 12.938 12.501 9.273 9.582 9.112 8.275 10.893 13.481 17.261 18.189 19.201 21.434 25.533 27.744 28.857 24.201 19.940 13.362
0.000 0.000 0.000 0.000 0.000 0.000 0.000 0.000 0.000 0.000 0.000 0.000 0.000 1.035 2.347 2.989 4.488 12.179 12.360 10.064 8.191 7.978 9.608 11.307 11.831 13.598 16.159 15.709 16.686 18.010 20.853 22.869 19.908 18.512 10.576
0.000 0.000 0.000 0.000 0.000 0.000 0.000 0.000 0.000 0.000 0.000 0.000 0.000 1.079 2.376 2.646 4.423 12.235 10.593 7.935 7.485 9.804 9.947 9.866 8.908 13.059 14.532 13.146 11.748 12.347 15.467 18.414 19.644 17.173 7.154
0.000 0.000 0.000 0.000 0.000 0.000 0.000 0.000 0.000 0.000 0.000 0.000 0.000 0.171 2.326 2.545 3.776 11.525 9.716 7.269 7.720 8.296 9.223 7.805 8.917 13.035 11.711 9.339 8.542 10.636 11.868 12.104 12.728 9.111 6.318
0.000 0.000 0.000 0.000 0.000 0.000 0.000 0.000 0.000 0.000 0.000 0.000 0.000 0.000 2.254 2.617 3.024 8.863 8.017 5.332 7.422 8.395 8.084 7.283 10.799 11.863 8.032 7.271 8.567 9.027 7.520 6.368 6.262 5.984 5.842
0.000 0.000 0.000 0.000 0.000 0.000 0.000 0.000 0.000 0.000 0.000 0.000 0.003 0.724 2.156 2.399 2.774 4.521 5.425 4.239 6.686 6.987 6.598 9.131 11.500 7.997 5.960 6.177 6.820 5.445 4.834 4.491 4.695 4.708 4.062
