ncols        39
nrows        40
xllcorner    409867.8
yllcorner    6870439.1
cellsize     5.00
NODATA_value -9999
0.000 0.000 0.000 0.000 0.000 0.000 0.000 0.000 0.000 0.000 0.000 0.000 0.000 0.000 0.000 0.000 0.000 0.000 0.000 0.000 0.000 0.000 0.000 0.000 0.000 0.000 0.000 0.000 0.000 0.000 0.000 0.000 0.000 0.000 0.000 0.000 0.000 0.000 0.000
0.000 0.000 0.000 0.000 0.000 0.000 0.000 0.000 0.000 0.000 0.000 0.000 0.000 0.000 0.000 0.000 0.000 0.000 0.000 0.000 0.000 0.000 0.000 0.000 0.000 0.369 8.305 38.388 63.727 62.674 62.352 41.058 13.359 2.896 0.260 0.019 0.001 0.000 0.000
0.000 0.000 0.000 0.000 0.000 0.000 0.000 0.000 0.000 0.000 0.000 0.000 0.000 0.000 0.000 0.000 0.000 0.000 0.000 0.000 0.000 0.000 0.000 0.007 2.679 60.885 66.287 67.847 71.834 73.685 73.119 81.604 76.290 59.338 38.112 17.378 6.047 0.403 0.000
0.000 0.000 0.000 0.000 0.000 0.000 0.000 0.000 0.000 0.000 0.000 0.000 0.000 0.000 0.000 0.000 0.000 0.000 0.000 0.000 0.000 0.000 0.002 4.215 62.110 70.767 75.526 73.153 82.950 91.249 89.448 91.133 92.821 88.209 73.917 55.551 61.054 26.945 2.674
0.000 0.000 0.000 0.000 0.000 0.000 0.000 0.000 0.000 0.000 0.000 0.000 0.000 0.000 0.000 0.000 0.000 0.000 0.000 0.000 0.000 0.000 1.426 55.457 66.636 79.996 76.580 77.238 89.465 99.807 100.920 103.607 101.398 122.030 87.797 80.662 85.471 60.727 26.922
0.000 0.000 0.000 0.000 0.000 0.000 0.000 0.000 0.000 0.000 0.000 0.000 0.000 0.000 0.000 0.000 0.000 0.000 0.000 0.000 0.000 0.085 41.275 57.032 73.559 73.788 76.751 80.804 94.638 104.567 110.575 119.530 106.629 135.109 102.746 104.794 96.809 85.081 28.071
0.000 0.000 0.000 0.000 0.000 0.000 0.000 0.000 0.000 0.000 0.000 0.000 0.000 0.000 0.000 0.000 0.000 0.000 0.000 0.011 0.056 6.703 43.866 60.995 68.278 66.965 78.078 76.477 83.757 107.903 110.960 127.434 127.901 131.318 126.690 112.623 96.151 127.110 23.941
0.000 0.000 0.000 0.000 0.000 0.000 0.000 0.000 0.000 0.000 0.000 0.000 0.000 0.000 0.000 0.000 0.011 2.018 17.531 36.348 39.244 38.456 49.231 62.973 61.973 69.776 65.417 75.415 89.004 110.626 111.852 134.403 125.088 114.984 124.499 107.562 138.582 125.740 20.655
0.000 0.000 0.000 0.000 0.000 0.000 0.000 0.000 0.000 0.000 0.000 0.000 0.000 0.000 0.000 0.137 21.665 50.106 51.621 51.300 47.631 47.099 50.171 56.749 61.626 65.477 67.104 94.851 93.171 104.423 128.780 132.860 129.708 122.223 114.025 112.143 167.230 99.633 23.429
0.000 0.000 0.000 0.000 0.000 0.000 0.000 0.000 0.000 0.000 0.000 0.000 0.000 0.000 0.051 23.211 51.786 56.978 60.671 66.386 62.777 54.170 47.162 51.738 58.750 65.845 82.641 96.034 87.350 101.120 118.088 120.304 125.180 124.985 116.500 150.852 160.813 50.301 25.361
0.000 0.000 0.000 0.000 0.000 0.000 0.000 0.000 0.000 0.000 0.000 0.000 0.000 0.000 1.996 52.495 60.711 63.959 69.574 73.835 64.616 52.023 46.800 50.482 59.176 61.674 81.863 80.345 93.491 111.825 108.374 126.073 133.166 128.102 136.574 181.149 137.509 37.244 20.479
0.000 0.000 0.000 0.000 0.000 0.000 0.000 0.000 0.000 0.000 0.000 0.000 0.001 0.222 39.361 60.539 67.247 74.369 80.818 76.874 79.260 59.994 48.770 47.422 52.814 69.844 84.940 101.358 98.604 115.388 121.407 127.900 121.417 94.560 133.487 148.852 51.366 32.468 15.515
0.000 0.000 0.000 0.000 0.000 0.000 0.000 0.000 0.000 0.000 0.000 0.240 41.587 61.178 56.967 67.876 78.166 86.544 93.676 86.480 86.541 65.040 50.663 47.396 58.673 73.950 88.529 100.363 95.437 97.045 115.188 105.172 112.803 82.114 102.497 54.954 34.863 20.060 13.548
0.000 0.000 0.000 0.000 0.000 0.000 0.000 0.000 0.000 0.000 0.065 62.027 68.445 66.897 60.754 76.721 88.354 100.433 94.407 89.809 85.460 61.875 52.604 54.824 69.211 78.949 81.420 91.529 97.228 103.214 130.471 104.582 96.408 56.937 43.016 31.278 20.021 16.371 13.459
0.000 0.000 0.000 0.000 0.000 0.000 0.000 0.000 0.000 0.016 16.422 66.512 76.673 79.499 73.522 87.326 102.737 106.211 96.638 91.360 79.346 74.646 57.086 62.276 69.706 76.653 82.215 100.211 104.398 133.848 102.009 68.594 45.929 35.636 30.229 18.510 15.066 15.751 8.377
0.000 0.000 0.000 0.000 0.000 0.000 0.000 0.000 0.031 38.768 66.093 84.091 102.836 98.967 84.485 98.595 96.633 107.306 101.842 97.317 78.557 67.817 66.344 62.887 67.335 71.914 78.425 90.826 141.346 114.186 68.500 55.744 28.891 29.745 21.322 16.480 14.561 9.007 6.776
0.000 0.000 0.000 0.000 0.000 0.000 0.000 0.001 5.817 69.769 73.552 95.047 117.298 121.632 95.152 100.148 104.146 112.266 107.039 94.863 87.396 73.305 64.042 63.718 60.363 63.589 66.432 109.957 116.989 73.990 52.947 30.092 26.152 26.484 19.688 14.901 7.074 5.944 4.917
0.000 0.000 0.000 0.000 0.000 0.000 0.000 0.106 71.391 81.703 83.370 108.181 129.204 127.584 102.316 112.081 108.655 119.603 113.359 104.312 89.462 82.512 72.215 63.365 57.258 64.430 93.179 100.069 60.925 54.080 33.757 26.860 21.904 19.820 18.412 8.673 4.750 3.127 2.898
0.000 0.000 0.000 0.000 0.000 0.000 0.000 0.823 74.132 93.676 88.241 108.760 128.884 123.241 105.005 119.988 115.704 124.984 115.611 100.833 93.041 84.137 80.843 64.846 58.113 77.035 77.150 53.799 42.921 43.654 23.246 21.113 13.314 14.912 15.378 3.812 2.012 0.000 0.000
0.000 0.000 0.000 0.000 0.000 0.000 0.000 4.180 79.902 110.070 100.650 122.971 181.331 154.196 104.487 118.235 120.469 143.010 119.426 109.778 96.941 88.614 81.519 62.122 78.550 66.022 41.360 35.005 36.935 40.892 19.883 16.957 12.211 13.691 7.079 2.521 2.220 0.000 0.000
0.000 0.000 0.000 0.000 0.000 0.000 0.371 43.639 102.237 137.827 123.972 140.009 154.471 122.955 100.759 102.675 95.376 116.634 110.038 127.904 115.195 96.047 85.939 93.484 79.047 38.793 25.700 31.256 36.691 34.578 21.777 10.005 10.169 7.850 5.213 2.491 0.000 0.000 0.000
0.000 0.000 0.000 0.000 0.001 1.074 47.861 82.690 102.959 134.085 99.263 102.731 119.231 111.963 84.393 83.978 79.021 98.135 110.816 98.823 82.419 62.829 83.388 85.765 47.977 36.977 29.661 27.781 29.065 31.785 14.072 8.193 7.802 5.057 3.877 0.000 0.000 0.000 0.000
0.000 0.000 0.000 0.074 13.510 75.568 70.634 73.268 83.723 109.437 73.099 76.906 94.344 88.464 67.979 62.478 74.657 93.787 81.213 68.572 60.425 72.323 78.538 53.730 46.085 32.578 25.381 22.319 28.199 29.626 9.240 7.153 5.952 3.427 2.722 0.000 0.000 0.000 0.000
0.000 0.000 0.060 39.159 73.183 68.895 68.367 70.107 83.303 95.232 82.582 90.894 78.376 69.472 67.012 59.322 68.663 74.964 57.706 59.804 70.666 62.939 51.001 42.762 29.348 22.467 18.757 21.234 25.114 21.178 8.047 5.414 3.121 2.452 0.000 0.000 0.000 0.000 0.000
0.000 0.002 8.196 71.673 71.368 70.119 76.874 86.422 86.797 83.612 68.845 73.028 75.272 68.383 53.387 49.048 56.902 67.268 55.780 57.912 44.232 42.085 35.679 30.512 25.319 25.495 21.254 22.402 25.243 9.427 4.414 2.582 2.521 0.000 0.000 0.000 0.000 0.000 0.000
0.000 0.256 61.927 70.383 81.233 84.318 86.702 77.094 74.761 89.638 82.560 70.886 75.253 67.805 59.209 56.635 62.664 72.453 60.495 45.519 34.501 33.373 22.570 27.423 24.922 22.633 24.362 17.009 14.131 4.072 2.489 2.416 0.000 0.000 0.000 0.000 0.000 0.000 0.000
0.002 13.785 68.516 78.667 81.037 83.821 79.095 76.781 71.616 80.210 76.895 71.297 65.764 68.058 61.921 62.889 70.773 75.113 53.265 40.047 28.933 29.358 32.777 26.329 18.032 22.772 20.550 10.469 5.590 3.270 2.371 0.000 0.000 0.000 0.000 0.000 0.000 0.000 0.000
0.238 62.427 73.760 74.318 75.468 78.454 71.153 69.389 69.952 77.400 73.462 73.127 68.740 64.519 60.339 60.167 67.285 72.438 57.704 45.586 33.791 29.096 31.899 18.685 10.753 15.752 17.550 8.144 3.764 2.024 0.000 0.000 0.000 0.000 0.000 0.000 0.000 0.000 0.000
5.271 59.799 76.213 82.780 84.618 78.396 79.111 76.789 69.496 70.296 63.280 63.814 63.945 62.268 56.036 63.898 71.757 76.733 62.974 36.756 28.884 19.180 18.096 7.676 7.065 11.378 11.025 7.945 2.170 0.000 0.000 0.000 0.000 0.000 0.000 0.000 0.000 0.000 0.000
24.649 57.181 73.524 88.430 78.479 83.998 77.663 71.857 52.898 57.731 59.441 60.183 61.812 72.517 78.003 78.449 84.682 81.365 70.324 26.881 15.184 15.823 7.630 6.175 9.746 4.284 4.272 2.609 0.000 0.000 0.000 0.000 0.000 0.000 0.000 0.000 0.000 0.000 0.000
31.228 70.606 90.012 84.470 94.346 70.995 70.636 67.921 54.647 56.257 58.738 68.464 71.653 80.052 84.395 93.532 97.342 70.412 43.439 22.887 15.394 7.264 4.262 4.344 3.812 3.292 2.591 0.000 0.000 0.000 0.000 0.000 0.000 0.000 0.000 0.000 0.000 0.000 0.000
28.958 61.918 78.499 95.761 82.475 68.480 63.584 62.897 52.735 66.432 73.250 78.180 74.569 73.502 85.750 87.587 77.495 52.738 25.147 13.342 10.592 6.546 4.142 2.708 1.612 0.000 0.000 0.000 0.000 0.000 0.000 0.000 0.000 0.000 0.000 0.000 0.000 0.000 0.000
20.203 60.560 83.371 82.156 84.293 70.847 66.545 68.209 70.779 77.727 81.560 94.294 95.291 90.877 86.068 81.267 54.280 22.672 19.727 13.941 10.538 5.225 3.894 0.000 0.000 0.000 0.000 0.000 0.000 0.000 0.000 0.000 0.000 0.000 0.000 0.000 0.000 0.000 0.000
13.379 45.986 58.053 87.053 73.993 78.163 77.658 84.752 79.999 93.737 90.092 90.904 95.761 102.626 109.665 63.569 25.869 19.457 17.570 12.845 10.006 4.152 0.000 0.000 0.000 0.000 0.000 0.000 0.000 0.000 0.000 0.000 0.000 0.000 0.000 0.000 0.000 0.000 0.000
9.105 20.865 58.036 68.483 64.547 74.277 89.591 92.680 94.971 91.621 104.923 104.060 86.883 73.568 71.157 30.449 19.854 15.861 14.521 12.327 9.875 0.005 0.000 0.000 0.000 0.000 0.000 0.000 0.000 0.000 0.000 0.000 0.000 0.000 0.000 0.000 0.000 0.000 0.000
4.874 13.303 27.764 62.189 67.171 89.606 82.476 72.222 77.141 105.639 95.526 106.877 88.162 57.824 29.133 20.494 16.253 12.951 14.139 12.197 7.987 0.324 0.000 0.000 0.000 0.000 0.000 0.000 0.000 0.000 0.000 0.000 0.000 0.000 0.000 0.000 0.000 0.000 0.000
5.124 9.873 15.443 51.890 66.257 88.888 85.162 61.798 73.385 99.289 109.167 98.336 31.640 25.708 20.948 18.109 14.466 13.028 13.084 8.691 5.706 1.055 0.003 0.000 0.000 0.000 0.000 0.000 0.000 0.000 0.000 0.000 0.000 0.000 0.000 0.000 0.000 0.000 0.000
5.206 9.254 11.920 23.247 32.480 67.557 72.078 50.070 70.834 92.656 96.218 60.736 20.904 21.150 20.556 16.515 14.124 10.710 5.219 4.827 1.551 0.005 0.000 0.000 0.000 0.000 0.000 0.000 0.000 0.000 0.000 0.000 0.000 0.000 0.000 0.000 0.000 0.000 0.000
3.351 7.765 9.740 14.451 16.375 54.192 24.009 21.132 31.764 73.170 94.701 23.414 17.312 15.948 13.065 10.592 7.260 4.104 5.766 0.206 0.000 0.000 0.000 0.000 0.000 0.000 0.000 0.000 0.000 0.000 0.000 0.000 0.000 0.000 0.000 0.000 0.000 0.000 0.000
1.779 6.463 7.908 10.230 12.290 15.546 15.425 8.763 14.712 21.218 23.306 17.084 12.807 9.959 6.858 4.741 4.280 0.000 0.000 0.000 0.000 0.000 0.000 0.000 0.000 0.000 0.000 0.000 0.000 0.000 0.000 0.000 0.000 0.000 0.000 0.000 0.000 0.000 0.000
