ncols        32
nrows        37
xllcorner    409847.8
yllcorner    6870514.1
cellsize     5.00
NODATA_value -9999
0.000 0.000 0.000 0.000 0.000 0.000 0.000 0.000 0.000 0.000 0.000 0.000 0.000 0.000 0.000 0.002 0.007 0.014 0.018 0.019 0.014 0.007 0.003 0.000 0.000 0.000 0.000 0.000 0.000 0.000 0.000 0.000
0.000 0.000 0.000 0.000 0.000 0.000 0.000 0.000 0.000 0.000 0.000 0.000 0.000 0.004 0.023 0.048 0.069 0.081 0.083 0.077 0.062 0.047 0.031 0.016 0.005 0.001 0.000 0.000 0.000 0.000 0.000 0.000
0.000 0.000 0.000 0.000 0.000 0.000 0.000 0.000 0.000 0.000 0.000 0.000 0.006 0.048 0.107 0.169 0.209 0.230 0.225 0.201 0.159 0.110 0.068 0.043 0.029 0.015 0.003 0.000 0.000 0.000 0.000 0.000
0.000 0.000 0.000 0.000 0.000 0.000 0.000 0.000 0.000 0.000 0.000 0.003 0.045 0.140 0.284 0.427 0.513 0.530 0.483 0.410 0.315 0.214 0.141 0.082 0.049 0.031 0.021 0.007 0.000 0.000 0.000 0.000
0.000 0.000 0.000 0.000 0.000 0.000 0.000 0.000 0.000 0.000 0.000 0.016 0.105 0.295 0.593 0.870 1.021 0.980 0.863 0.737 0.543 0.370 0.228 0.137 0.087 0.048 0.031 0.022 0.011 0.001 0.000 0.000
0.000 0.000 0.000 0.000 0.000 0.000 0.000 0.000 0.000 0.000 0.003 0.052 0.191 0.504 0.989 1.455 1.664 1.558 1.384 1.122 0.860 0.549 0.346 0.206 0.122 0.073 0.048 0.029 0.021 0.014 0.003 0.000
0.000 0.000 0.000 0.000 0.000 0.000 0.000 0.000 0.000 0.000 0.011 0.087 0.298 0.723 1.356 1.966 2.308 2.244 1.962 1.572 1.154 0.752 0.487 0.275 0.163 0.102 0.061 0.043 0.029 0.018 0.015 0.006
0.000 0.000 0.000 0.000 0.000 0.000 0.000 0.000 0.000 0.000 0.019 0.123 0.407 0.909 1.580 2.328 2.871 2.869 2.445 1.979 1.379 1.015 0.632 0.384 0.203 0.128 0.075 0.054 0.038 0.022 0.017 0.014
0.000 0.000 0.000 0.000 0.000 0.000 0.000 0.000 0.000 0.000 0.026 0.148 0.483 1.041 1.744 2.458 2.999 3.167 2.817 2.261 1.663 1.291 0.826 0.456 0.252 0.149 0.092 0.062 0.042 0.028 0.021 0.011
0.000 0.000 0.000 0.000 0.000 0.000 0.000 0.000 0.000 0.001 0.029 0.165 0.541 1.147 1.719 2.226 2.809 3.123 2.910 2.376 1.877 1.473 0.928 0.537 0.319 0.174 0.111 0.066 0.043 0.032 0.024 0.012
0.000 0.000 0.000 0.000 0.000 0.000 0.000 0.000 0.000 0.001 0.029 0.165 0.528 1.090 1.496 1.911 2.410 2.808 2.787 2.343 1.940 1.564 1.069 0.680 0.389 0.207 0.118 0.066 0.043 0.034 0.026 0.014
0.000 0.000 0.000 0.000 0.000 0.000 0.000 0.000 0.000 0.001 0.029 0.169 0.535 1.007 1.354 1.588 1.941 2.356 2.460 2.172 1.907 1.569 1.166 0.806 0.452 0.251 0.126 0.070 0.043 0.035 0.026 0.015
0.000 0.000 0.000 0.000 0.000 0.000 0.000 0.000 0.000 0.001 0.034 0.172 0.490 0.895 1.179 1.285 1.489 1.856 2.085 2.042 1.827 1.442 1.160 0.887 0.548 0.317 0.152 0.084 0.047 0.034 0.026 0.016
0.000 0.000 0.000 0.000 0.000 0.000 0.000 0.000 0.000 0.002 0.050 0.189 0.472 0.827 1.005 1.027 1.112 1.387 1.675 1.809 1.569 1.276 1.085 0.946 0.648 0.417 0.203 0.103 0.050 0.035 0.025 0.015
0.000 0.000 0.000 0.000 0.000 0.000 0.000 0.000 0.000 0.005 0.063 0.212 0.454 0.695 0.844 0.816 0.872 1.076 1.433 1.721 1.559 1.206 1.072 0.942 0.769 0.530 0.258 0.129 0.056 0.034 0.023 0.015
0.000 0.000 0.000 0.000 0.000 0.000 0.001 0.001 0.003 0.023 0.087 0.228 0.419 0.568 0.660 0.740 0.775 0.963 1.343 1.764 1.800 1.311 0.989 0.904 0.820 0.566 0.343 0.173 0.070 0.034 0.023 0.017
0.000 0.000 0.000 0.000 0.008 0.025 0.035 0.039 0.043 0.062 0.125 0.260 0.406 0.544 0.632 0.721 0.795 0.934 1.323 1.872 2.137 1.529 0.890 0.865 0.763 0.594 0.428 0.234 0.093 0.040 0.026 0.018
0.000 0.000 0.001 0.022 0.064 0.089 0.100 0.102 0.102 0.111 0.171 0.272 0.409 0.535 0.615 0.749 0.827 0.990 1.347 2.106 2.661 1.847 0.757 0.687 0.657 0.616 0.504 0.297 0.128 0.063 0.032 0.019
0.000 0.000 0.016 0.083 0.164 0.206 0.215 0.208 0.198 0.184 0.220 0.297 0.422 0.564 0.600 0.764 0.922 1.121 1.463 2.294 3.181 2.255 0.670 0.621 0.673 0.645 0.550 0.329 0.191 0.094 0.040 0.024
0.000 0.005 0.064 0.179 0.326 0.387 0.376 0.351 0.327 0.268 0.265 0.308 0.436 0.602 0.588 0.785 1.060 1.258 1.550 2.428 3.639 2.855 0.679 0.594 0.627 0.630 0.501 0.366 0.256 0.122 0.060 0.027
0.000 0.017 0.115 0.310 0.519 0.583 0.555 0.509 0.446 0.350 0.310 0.314 0.456 0.638 0.619 0.785 1.179 1.324 1.570 2.483 3.815 3.089 0.708 0.509 0.548 0.514 0.475 0.416 0.289 0.159 0.068 0.024
0.001 0.036 0.173 0.449 0.714 0.778 0.745 0.638 0.550 0.431 0.352 0.335 0.508 0.699 0.664 0.814 1.114 1.296 1.614 2.291 3.657 3.400 0.737 0.410 0.407 0.456 0.479 0.438 0.314 0.180 0.068 0.026
0.004 0.059 0.228 0.554 0.842 0.932 0.850 0.742 0.649 0.516 0.394 0.357 0.577 0.766 0.751 0.811 1.130 1.318 1.648 1.997 3.295 3.522 0.742 0.391 0.381 0.429 0.460 0.431 0.317 0.196 0.081 0.034
0.006 0.064 0.235 0.570 0.902 0.962 0.908 0.843 0.718 0.559 0.395 0.375 0.646 0.852 0.860 0.806 1.027 1.325 1.512 1.675 2.861 3.221 0.709 0.367 0.301 0.358 0.413 0.416 0.329 0.189 0.088 0.032
0.008 0.064 0.229 0.534 0.818 0.959 0.978 0.901 0.760 0.604 0.410 0.394 0.713 0.873 0.914 0.804 1.012 1.222 1.386 1.348 2.159 2.685 0.631 0.324 0.255 0.296 0.363 0.378 0.288 0.184 0.090 0.033
0.009 0.057 0.200 0.476 0.754 0.935 0.963 0.884 0.710 0.540 0.398 0.399 0.784 0.904 0.966 0.839 0.921 1.114 1.265 1.011 1.523 2.089 0.572 0.282 0.230 0.257 0.309 0.305 0.242 0.175 0.099 0.035
0.008 0.049 0.169 0.408 0.632 0.817 0.888 0.791 0.641 0.517 0.374 0.381 0.775 0.852 1.031 0.865 0.832 0.934 0.985 0.702 0.933 1.659 0.483 0.239 0.195 0.192 0.243 0.242 0.217 0.173 0.100 0.036
0.006 0.041 0.137 0.315 0.534 0.684 0.734 0.746 0.588 0.482 0.355 0.350 0.729 0.787 0.994 0.734 0.610 0.729 0.783 0.515 0.644 1.252 0.376 0.189 0.164 0.158 0.184 0.200 0.191 0.165 0.105 0.037
0.004 0.031 0.095 0.229 0.394 0.520 0.609 0.618 0.495 0.410 0.308 0.303 0.688 0.693 0.944 0.658 0.487 0.524 0.631 0.410 0.386 0.879 0.283 0.148 0.124 0.121 0.148 0.161 0.167 0.158 0.115 0.027
0.003 0.023 0.068 0.163 0.283 0.393 0.495 0.481 0.421 0.366 0.258 0.249 0.630 0.583 0.839 0.542 0.381 0.398 0.477 0.289 0.233 0.576 0.203 0.104 0.094 0.086 0.106 0.123 0.134 0.125 0.062 0.027
0.001 0.017 0.049 0.118 0.205 0.300 0.369 0.395 0.355 0.275 0.196 0.193 0.548 0.475 0.739 0.461 0.307 0.296 0.330 0.190 0.140 0.366 0.147 0.076 0.069 0.063 0.073 0.088 0.089 0.062 0.062 0.038
0.001 0.012 0.037 0.084 0.150 0.222 0.274 0.305 0.261 0.225 0.165 0.160 0.461 0.338 0.559 0.276 0.115 0.171 0.240 0.114 0.081 0.187 0.099 0.050 0.051 0.047 0.053 0.068 0.039 0.041 0.088 0.040
0.000 0.008 0.029 0.061 0.107 0.155 0.198 0.242 0.204 0.147 0.093 0.083 0.265 0.165 0.265 0.184 0.102 0.116 0.138 0.072 0.058 0.124 0.072 0.036 0.038 0.036 0.041 0.034 0.030 0.048 0.082 0.037
0.000 0.005 0.025 0.048 0.074 0.096 0.138 0.170 0.118 0.048 0.037 0.041 0.156 0.095 0.160 0.110 0.060 0.072 0.083 0.045 0.042 0.084 0.047 0.034 0.037 0.036 0.024 0.027 0.036 0.036 0.049 0.033
0.000 0.004 0.025 0.040 0.053 0.065 0.057 0.050 0.045 0.036 0.035 0.034 0.096 0.051 0.104 0.072 0.039 0.048 0.053 0.039 0.034 0.052 0.044 0.035 0.036 0.021 0.015 0.029 0.030 0.030 0.039 0.032
0.000 0.004 0.023 0.032 0.042 0.047 0.042 0.034 0.027 0.031 0.032 0.032 0.052 0.035 0.040 0.034 0.033 0.039 0.030 0.028 0.027 0.043 0.041 0.028 0.022 0.018 0.013 0.024 0.032 0.030 0.039 0.028
0.000 0.004 0.017 0.019 0.021 0.028 0.022 0.019 0.024 0.024 0.021 0.017 0.023 0.024 0.029 0.023 0.022 0.025 0.024 0.022 0.022 0.032 0.025 0.016 0.019 0.015 0.010 0.015 0.023 0.018 0.027 0.017
