ncols        35
nrows        57
xllcorner    409727.8
yllcorner    6870739.1
cellsize     5.00
NODATA_value -9999
0.000 0.000 0.000 0.000 0.000 0.000 0.000 0.000 0.000 0.000 0.000 0.000 0.000 0.000 0.000 0.000 0.000 0.000 0.000 0.000 0.000 0.000 0.000 0.000 0.000 0.000 0.000 0.000 0.000 0.000 0.000 0.000 0.000 0.000 0.000
0.000 0.000 0.000 0.008 0.033 0.057 0.069 0.066 0.053 0.034 0.015 0.003 0.000 0.000 0.000 0.000 0.000 0.000 0.000 0.000 0.000 0.000 0.000 0.000 0.000 0.000 0.000 0.000 0.000 0.000 0.000 0.000 0.000 0.000 0.000
0.000 0.001 0.016 0.066 0.119 0.171 0.200 0.191 0.151 0.098 0.057 0.032 0.009 0.000 0.000 0.000 0.000 0.000 0.000 0.000 0.000 0.000 0.000 0.000 0.000 0.000 0.000 0.000 0.000 0.000 0.000 0.000 0.000 0.000 0.000
0.000 0.014 0.074 0.164 0.286 0.406 0.466 0.444 0.351 0.235 0.143 0.073 0.036 0.012 0.000 0.000 0.000 0.000 0.000 0.000 0.000 0.000 0.000 0.000 0.000 0.000 0.000 0.000 0.000 0.000 0.000 0.000 0.000 0.000 0.000
0.005 0.056 0.156 0.341 0.563 0.784 0.891 0.869 0.698 0.487 0.299 0.160 0.071 0.033 0.009 0.000 0.000 0.000 0.000 0.000 0.000 0.000 0.000 0.000 0.000 0.000 0.000 0.000 0.000 0.000 0.000 0.000 0.000 0.000 0.000
0.019 0.098 0.285 0.571 0.930 1.276 1.470 1.463 1.190 0.864 0.538 0.297 0.141 0.059 0.028 0.004 0.000 0.000 0.000 0.000 0.000 0.000 0.000 0.000 0.000 0.000 0.000 0.000 0.000 0.000 0.000 0.000 0.000 0.000 0.000
0.035 0.148 0.415 0.836 1.342 1.839 2.119 2.122 1.824 1.394 0.904 0.505 0.253 0.111 0.042 0.022 0.001 0.000 0.000 0.000 0.000 0.000 0.000 0.000 0.000 0.000 0.000 0.000 0.000 0.000 0.000 0.000 0.000 0.000 0.000
0.046 0.185 0.517 1.058 1.743 2.372 2.664 2.813 2.609 2.077 1.403 0.808 0.416 0.190 0.079 0.028 0.014 0.000 0.000 0.000 0.000 0.000 0.000 0.000 0.000 0.000 0.000 0.000 0.000 0.000 0.000 0.000 0.000 0.000 0.000
0.048 0.193 0.559 1.217 2.005 2.675 3.211 3.474 3.339 2.795 2.005 1.243 0.662 0.322 0.138 0.050 0.021 0.008 0.000 0.000 0.000 0.000 0.000 0.000 0.000 0.000 0.000 0.000 0.000 0.000 0.000 0.000 0.000 0.000 0.000
0.041 0.173 0.539 1.233 2.126 2.874 3.449 3.810 3.943 3.456 2.667 1.727 1.028 0.542 0.236 0.092 0.033 0.017 0.005 0.000 0.000 0.000 0.000 0.000 0.000 0.000 0.000 0.000 0.000 0.000 0.000 0.000 0.000 0.000 0.000
0.030 0.139 0.465 1.085 1.937 2.689 3.578 4.060 4.208 3.903 3.275 2.355 1.556 0.816 0.385 0.161 0.056 0.023 0.016 0.003 0.000 0.000 0.000 0.000 0.000 0.000 0.000 0.000 0.000 0.000 0.000 0.000 0.000 0.000 0.000
0.022 0.098 0.351 0.885 1.653 2.503 3.255 3.772 4.181 4.017 3.770 2.903 1.993 1.151 0.587 0.259 0.096 0.044 0.018 0.014 0.003 0.000 0.000 0.000 0.000 0.000 0.000 0.000 0.000 0.000 0.000 0.000 0.000 0.000 0.000
0.014 0.061 0.234 0.636 1.269 2.069 2.787 3.368 3.715 4.046 3.983 3.365 2.432 1.533 0.868 0.410 0.175 0.069 0.030 0.015 0.014 0.003 0.000 0.000 0.000 0.000 0.000 0.000 0.000 0.000 0.000 0.000 0.000 0.000 0.000
0.007 0.039 0.151 0.421 0.880 1.535 2.277 2.784 3.402 3.776 3.902 3.441 2.845 2.005 1.220 0.633 0.279 0.110 0.045 0.025 0.014 0.013 0.002 0.000 0.000 0.000 0.000 0.000 0.000 0.000 0.000 0.000 0.000 0.000 0.000
0.002 0.025 0.088 0.270 0.596 1.094 1.759 2.325 2.751 3.148 3.427 3.377 3.094 2.326 1.589 0.933 0.423 0.182 0.073 0.040 0.022 0.012 0.011 0.001 0.000 0.000 0.000 0.000 0.000 0.000 0.000 0.000 0.000 0.000 0.000
0.001 0.015 0.046 0.148 0.369 0.716 1.275 1.736 2.199 2.538 2.928 3.156 3.003 2.645 1.994 1.238 0.612 0.288 0.118 0.058 0.033 0.018 0.010 0.011 0.000 0.000 0.000 0.000 0.000 0.000 0.000 0.000 0.000 0.000 0.000
0.000 0.007 0.027 0.091 0.216 0.475 0.862 1.370 1.714 2.062 2.364 2.658 2.763 2.669 2.168 1.485 0.831 0.422 0.184 0.088 0.042 0.026 0.014 0.009 0.008 0.000 0.000 0.000 0.000 0.000 0.000 0.000 0.000 0.000 0.000
0.000 0.002 0.020 0.047 0.139 0.322 0.602 0.972 1.268 1.526 1.843 2.132 2.405 2.419 2.161 1.670 1.066 0.566 0.273 0.131 0.059 0.035 0.021 0.012 0.009 0.005 0.000 0.000 0.000 0.000 0.000 0.000 0.000 0.000 0.000
0.000 0.000 0.012 0.025 0.084 0.208 0.380 0.670 0.914 1.137 1.417 1.714 1.981 2.027 2.057 1.737 1.217 0.730 0.394 0.184 0.084 0.044 0.028 0.018 0.010 0.010 0.002 0.000 0.000 0.000 0.000 0.000 0.000 0.000 0.000
0.000 0.000 0.005 0.015 0.050 0.133 0.240 0.451 0.652 0.870 1.132 1.338 1.526 1.721 1.852 1.629 1.297 0.878 0.484 0.247 0.121 0.062 0.037 0.025 0.013 0.008 0.009 0.000 0.000 0.000 0.000 0.000 0.000 0.000 0.000
0.000 0.000 0.001 0.011 0.032 0.084 0.158 0.270 0.487 0.656 0.875 1.065 1.270 1.466 1.461 1.458 1.305 0.959 0.590 0.330 0.175 0.091 0.049 0.032 0.018 0.010 0.006 0.006 0.000 0.000 0.000 0.000 0.000 0.000 0.000
0.000 0.000 0.000 0.007 0.021 0.046 0.079 0.168 0.332 0.501 0.670 0.918 1.066 1.130 1.187 1.238 1.167 0.974 0.685 0.403 0.223 0.125 0.063 0.041 0.025 0.014 0.009 0.007 0.002 0.000 0.000 0.000 0.000 0.000 0.000
0.000 0.000 0.000 0.001 0.017 0.031 0.047 0.108 0.245 0.391 0.597 0.830 1.002 1.016 0.973 1.016 1.034 0.909 0.719 0.474 0.269 0.162 0.089 0.051 0.034 0.021 0.011 0.006 0.008 0.000 0.000 0.000 0.000 0.000 0.000
0.000 0.000 0.000 0.000 0.013 0.014 0.024 0.065 0.178 0.331 0.518 0.781 0.976 0.940 0.836 0.809 0.857 0.839 0.703 0.502 0.318 0.194 0.112 0.064 0.045 0.026 0.016 0.009 0.005 0.008 0.000 0.000 0.000 0.000 0.000
0.000 0.000 0.000 0.000 0.007 0.007 0.011 0.039 0.120 0.248 0.439 0.703 0.970 0.919 0.747 0.699 0.704 0.707 0.637 0.517 0.350 0.231 0.140 0.081 0.052 0.032 0.023 0.013 0.007 0.007 0.002 0.000 0.000 0.000 0.000
0.000 0.000 0.000 0.000 0.001 0.006 0.008 0.024 0.077 0.186 0.345 0.646 1.009 0.982 0.694 0.589 0.589 0.611 0.582 0.512 0.381 0.240 0.156 0.096 0.058 0.039 0.028 0.017 0.009 0.004 0.009 0.000 0.000 0.000 0.000
0.000 0.000 0.000 0.000 0.000 0.003 0.007 0.011 0.043 0.114 0.256 0.540 1.031 1.092 0.684 0.509 0.502 0.529 0.531 0.473 0.375 0.250 0.169 0.111 0.067 0.046 0.033 0.023 0.012 0.006 0.005 0.003 0.000 0.000 0.000
0.000 0.000 0.000 0.000 0.000 0.000 0.006 0.007 0.028 0.070 0.145 0.397 0.938 1.195 0.715 0.450 0.421 0.451 0.468 0.444 0.348 0.250 0.189 0.122 0.080 0.058 0.041 0.030 0.016 0.009 0.005 0.006 0.000 0.000 0.000
0.000 0.000 0.000 0.000 0.000 0.000 0.002 0.007 0.023 0.040 0.073 0.231 0.778 1.260 0.759 0.408 0.366 0.388 0.405 0.386 0.336 0.254 0.197 0.142 0.109 0.075 0.046 0.032 0.022 0.013 0.006 0.003 0.003 0.000 0.000
0.000 0.000 0.000 0.000 0.000 0.000 0.000 0.006 0.013 0.021 0.038 0.114 0.562 1.233 0.808 0.392 0.314 0.333 0.351 0.347 0.331 0.263 0.210 0.168 0.137 0.084 0.047 0.036 0.031 0.017 0.010 0.005 0.005 0.000 0.000
0.000 0.000 0.000 0.000 0.000 0.000 0.000 0.004 0.009 0.011 0.023 0.047 0.335 1.147 0.847 0.395 0.274 0.286 0.300 0.316 0.302 0.247 0.209 0.187 0.153 0.095 0.059 0.046 0.035 0.023 0.015 0.006 0.002 0.002 0.000
0.000 0.000 0.000 0.000 0.000 0.000 0.000 0.001 0.006 0.007 0.012 0.029 0.158 0.927 0.849 0.394 0.246 0.242 0.266 0.286 0.270 0.238 0.224 0.204 0.163 0.106 0.075 0.059 0.036 0.026 0.018 0.010 0.004 0.004 0.000
0.000 0.000 0.000 0.000 0.000 0.000 0.000 0.000 0.004 0.005 0.008 0.024 0.065 0.710 0.861 0.403 0.224 0.204 0.226 0.240 0.230 0.226 0.229 0.208 0.171 0.122 0.095 0.065 0.040 0.026 0.021 0.019 0.008 0.003 0.002
0.000 0.000 0.000 0.000 0.000 0.000 0.000 0.000 0.002 0.005 0.005 0.020 0.042 0.471 0.822 0.393 0.209 0.171 0.189 0.203 0.203 0.218 0.215 0.206 0.186 0.143 0.103 0.073 0.045 0.030 0.024 0.019 0.009 0.005 0.004
0.000 0.000 0.000 0.000 0.000 0.000 0.000 0.000 0.000 0.005 0.004 0.016 0.035 0.293 0.782 0.394 0.213 0.158 0.164 0.171 0.175 0.187 0.200 0.217 0.197 0.158 0.117 0.082 0.050 0.037 0.024 0.015 0.010 0.007 0.003
0.000 0.000 0.000 0.000 0.000 0.000 0.000 0.000 0.000 0.002 0.003 0.015 0.033 0.184 0.693 0.390 0.218 0.152 0.147 0.146 0.151 0.172 0.206 0.226 0.197 0.182 0.139 0.093 0.060 0.044 0.029 0.017 0.012 0.008 0.003
0.000 0.000 0.000 0.000 0.000 0.000 0.000 0.000 0.000 0.000 0.003 0.015 0.030 0.130 0.610 0.376 0.226 0.149 0.128 0.126 0.136 0.159 0.196 0.213 0.211 0.187 0.147 0.103 0.075 0.052 0.037 0.024 0.016 0.008 0.004
0.000 0.000 0.000 0.000 0.000 0.000 0.000 0.000 0.000 0.000 0.001 0.014 0.028 0.104 0.492 0.373 0.230 0.144 0.115 0.111 0.111 0.132 0.173 0.201 0.204 0.180 0.147 0.115 0.091 0.061 0.045 0.033 0.022 0.010 0.004
0.000 0.000 0.000 0.000 0.000 0.000 0.000 0.000 0.000 0.000 0.001 0.015 0.025 0.082 0.400 0.369 0.224 0.144 0.111 0.095 0.090 0.120 0.160 0.180 0.179 0.165 0.145 0.129 0.104 0.073 0.052 0.038 0.026 0.014 0.005
0.000 0.000 0.000 0.000 0.000 0.000 0.000 0.000 0.000 0.000 0.000 0.015 0.023 0.072 0.303 0.353 0.215 0.148 0.107 0.089 0.092 0.112 0.134 0.152 0.161 0.154 0.155 0.141 0.111 0.085 0.057 0.041 0.027 0.018 0.007
0.000 0.000 0.000 0.000 0.000 0.000 0.000 0.000 0.000 0.000 0.001 0.014 0.022 0.066 0.234 0.345 0.212 0.142 0.104 0.088 0.083 0.094 0.111 0.133 0.145 0.146 0.156 0.139 0.116 0.090 0.061 0.044 0.031 0.023 0.011
0.000 0.000 0.000 0.000 0.000 0.000 0.000 0.000 0.000 0.000 0.001 0.013 0.023 0.059 0.176 0.321 0.205 0.146 0.100 0.081 0.073 0.079 0.097 0.111 0.115 0.135 0.144 0.136 0.114 0.090 0.066 0.050 0.039 0.028 0.014
0.000 0.000 0.000 0.000 0.000 0.000 0.000 0.000 0.000 0.000 0.001 0.011 0.023 0.055 0.148 0.293 0.206 0.143 0.092 0.070 0.065 0.066 0.077 0.087 0.106 0.129 0.126 0.125 0.115 0.089 0.073 0.060 0.048 0.034 0.016
0.000 0.000 0.000 0.000 0.000 0.000 0.000 0.000 0.000 0.000 0.001 0.010 0.022 0.047 0.116 0.235 0.209 0.136 0.084 0.063 0.059 0.054 0.059 0.076 0.099 0.108 0.115 0.126 0.111 0.085 0.084 0.072 0.052 0.038 0.018
0.000 0.000 0.000 0.000 0.000 0.000 0.000 0.000 0.000 0.000 0.001 0.008 0.022 0.043 0.100 0.197 0.199 0.139 0.075 0.052 0.047 0.048 0.054 0.069 0.084 0.092 0.105 0.112 0.099 0.096 0.090 0.072 0.059 0.040 0.020
0.000 0.000 0.000 0.000 0.000 0.000 0.000 0.000 0.000 0.000 0.000 0.007 0.021 0.040 0.082 0.171 0.189 0.131 0.067 0.049 0.044 0.045 0.049 0.057 0.070 0.079 0.089 0.097 0.103 0.106 0.091 0.078 0.060 0.041 0.022
0.000 0.000 0.000 0.000 0.000 0.000 0.000 0.000 0.000 0.000 0.000 0.006 0.019 0.037 0.070 0.155 0.178 0.118 0.061 0.044 0.043 0.046 0.044 0.051 0.061 0.068 0.076 0.092 0.106 0.110 0.101 0.082 0.061 0.044 0.027
0.000 0.000 0.000 0.000 0.000 0.000 0.000 0.000 0.000 0.000 0.000 0.005 0.019 0.036 0.062 0.137 0.161 0.099 0.055 0.041 0.041 0.040 0.040 0.046 0.056 0.060 0.065 0.082 0.100 0.110 0.102 0.083 0.066 0.049 0.032
0.000 0.000 0.000 0.000 0.000 0.000 0.000 0.000 0.000 0.000 0.000 0.005 0.018 0.032 0.057 0.127 0.150 0.086 0.053 0.041 0.037 0.036 0.036 0.040 0.048 0.049 0.056 0.072 0.092 0.104 0.103 0.091 0.076 0.053 0.030
0.000 0.000 0.000 0.000 0.000 0.000 0.000 0.000 0.000 0.000 0.000 0.005 0.015 0.030 0.053 0.119 0.126 0.082 0.053 0.042 0.037 0.031 0.029 0.032 0.041 0.046 0.047 0.060 0.080 0.097 0.108 0.099 0.081 0.053 0.027
0.000 0.000 0.000 0.000 0.000 0.000 0.000 0.000 0.000 0.000 0.000 0.005 0.016 0.028 0.049 0.111 0.108 0.068 0.055 0.044 0.034 0.027 0.026 0.029 0.037 0.044 0.041 0.049 0.070 0.092 0.107 0.098 0.080 0.053 0.028
0.000 0.000 0.000 0.000 0.000 0.000 0.000 0.000 0.000 0.000 0.000 0.005 0.014 0.026 0.043 0.098 0.100 0.068 0.053 0.039 0.032 0.027 0.025 0.022 0.031 0.042 0.040 0.043 0.054 0.078 0.091 0.089 0.083 0.051 0.031
0.000 0.000 0.000 0.000 0.000 0.000 0.000 0.000 0.000 0.000 0.000 0.008 0.012 0.023 0.040 0.089 0.090 0.057 0.046 0.039 0.032 0.029 0.022 0.017 0.027 0.043 0.039 0.034 0.041 0.060 0.083 0.087 0.071 0.044 0.032
0.000 0.000 0.000 0.000 0.000 0.000 0.000 0.000 0.000 0.000 0.001 0.023 0.011 0.020 0.039 0.084 0.080 0.050 0.038 0.034 0.030 0.027 0.018 0.014 0.026 0.039 0.033 0.028 0.034 0.049 0.066 0.068 0.056 0.042 0.033
0.000 0.000 0.000 0.000 0.000 0.000 0.000 0.000 0.000 0.000 0.004 0.009 0.009 0.019 0.035 0.071 0.067 0.042 0.031 0.029 0.027 0.020 0.015 0.015 0.023 0.032 0.029 0.028 0.028 0.038 0.044 0.046 0.045 0.042 0.030
0.000 0.000 0.000 0.000 0.000 0.000 0.000 0.000 0.000 0.000 0.001 0.007 0.008 0.017 0.028 0.053 0.050 0.030 0.024 0.025 0.019 0.014 0.016 0.016 0.016 0.026 0.027 0.025 0.022 0.026 0.034 0.035 0.036 0.033 0.024
0.000 0.000 0.000 0.000 0.000 0.000 0.000 0.000 0.000 0.000 0.001 0.004 0.006 0.012 0.020 0.032 0.029 0.017 0.014 0.014 0.011 0.011 0.014 0.012 0.011 0.018 0.019 0.017 0.014 0.015 0.019 0.022 0.024 0.022 0.018
