ncols        37
nrows        53
xllcorner    409742.8
yllcorner    6870729.1
cellsize     5.00
NODATA_value -9999
0.000 0.000 0.000 0.000 0.000 0.000 0.000 0.000 0.000 0.000 0.000 0.000 0.000 0.000 0.000 0.000 0.000 0.000 0.000 0.000 0.000 0.000 0.000 0.000 0.000 0.000 0.000 0.000 0.000 0.000 0.000 0.000 0.000 0.000 0.000 0.000 0.000
0.000 0.000 0.000 0.001 0.014 0.041 0.063 0.072 0.065 0.049 0.029 0.009 0.000 0.000 0.000 0.000 0.000 0.000 0.000 0.000 0.000 0.000 0.000 0.000 0.000 0.000 0.000 0.000 0.000 0.000 0.000 0.000 0.000 0.000 0.000 0.000 0.000
0.000 0.000 0.004 0.033 0.082 0.135 0.184 0.203 0.186 0.137 0.085 0.046 0.018 0.001 0.000 0.000 0.000 0.000 0.000 0.000 0.000 0.000 0.000 0.000 0.000 0.000 0.000 0.000 0.000 0.000 0.000 0.000 0.000 0.000 0.000 0.000 0.000
0.000 0.003 0.035 0.101 0.202 0.329 0.431 0.471 0.419 0.334 0.222 0.115 0.049 0.020 0.001 0.000 0.000 0.000 0.000 0.000 0.000 0.000 0.000 0.000 0.000 0.000 0.000 0.000 0.000 0.000 0.000 0.000 0.000 0.000 0.000 0.000 0.000
0.000 0.020 0.091 0.220 0.415 0.640 0.814 0.897 0.839 0.694 0.464 0.260 0.122 0.044 0.019 0.001 0.000 0.000 0.000 0.000 0.000 0.000 0.000 0.000 0.000 0.000 0.000 0.000 0.000 0.000 0.000 0.000 0.000 0.000 0.000 0.000 0.000
0.004 0.054 0.169 0.384 0.691 1.034 1.288 1.459 1.396 1.175 0.836 0.510 0.256 0.106 0.041 0.019 0.001 0.000 0.000 0.000 0.000 0.000 0.000 0.000 0.000 0.000 0.000 0.000 0.000 0.000 0.000 0.000 0.000 0.000 0.000 0.000 0.000
0.014 0.087 0.256 0.570 0.987 1.410 1.822 2.071 2.052 1.772 1.345 0.901 0.499 0.238 0.098 0.037 0.019 0.003 0.000 0.000 0.000 0.000 0.000 0.000 0.000 0.000 0.000 0.000 0.000 0.000 0.000 0.000 0.000 0.000 0.000 0.000 0.000
0.024 0.114 0.328 0.725 1.231 1.811 2.280 2.612 2.604 2.454 2.032 1.451 0.888 0.458 0.204 0.086 0.037 0.021 0.004 0.000 0.000 0.000 0.000 0.000 0.000 0.000 0.000 0.000 0.000 0.000 0.000 0.000 0.000 0.000 0.000 0.000 0.000
0.029 0.131 0.367 0.822 1.414 2.011 2.518 2.896 3.080 3.089 2.672 2.120 1.454 0.792 0.397 0.179 0.084 0.036 0.021 0.004 0.000 0.000 0.000 0.000 0.000 0.000 0.000 0.000 0.000 0.000 0.000 0.000 0.000 0.000 0.000 0.000 0.000
0.032 0.127 0.363 0.822 1.419 2.072 2.579 3.039 3.394 3.465 3.378 2.902 2.108 1.258 0.692 0.331 0.166 0.075 0.033 0.020 0.004 0.000 0.000 0.000 0.000 0.000 0.000 0.000 0.000 0.000 0.000 0.000 0.000 0.000 0.000 0.000 0.000
0.029 0.110 0.330 0.743 1.382 1.982 2.527 2.947 3.356 3.644 3.795 3.458 2.726 1.818 1.087 0.563 0.293 0.132 0.061 0.026 0.018 0.003 0.000 0.000 0.000 0.000 0.000 0.000 0.000 0.000 0.000 0.000 0.000 0.000 0.000 0.000 0.000
0.023 0.091 0.281 0.645 1.186 1.727 2.192 2.664 3.096 3.588 3.830 3.755 3.276 2.434 1.519 0.867 0.470 0.223 0.104 0.047 0.022 0.016 0.001 0.000 0.000 0.000 0.000 0.000 0.000 0.000 0.000 0.000 0.000 0.000 0.000 0.000 0.000
0.016 0.070 0.222 0.501 0.952 1.399 1.806 2.267 2.754 3.278 3.549 3.857 3.617 2.894 2.017 1.260 0.682 0.345 0.168 0.077 0.039 0.018 0.013 0.000 0.000 0.000 0.000 0.000 0.000 0.000 0.000 0.000 0.000 0.000 0.000 0.000 0.000
0.011 0.050 0.163 0.377 0.720 1.074 1.451 1.888 2.272 2.698 3.250 3.717 3.588 3.178 2.451 1.564 0.907 0.492 0.253 0.120 0.059 0.027 0.015 0.008 0.000 0.000 0.000 0.000 0.000 0.000 0.000 0.000 0.000 0.000 0.000 0.000 0.000
0.006 0.036 0.115 0.279 0.488 0.827 1.102 1.438 1.779 2.269 2.862 3.113 3.369 3.283 2.682 1.881 1.187 0.687 0.375 0.186 0.089 0.041 0.020 0.014 0.003 0.000 0.000 0.000 0.000 0.000 0.000 0.000 0.000 0.000 0.000 0.000 0.000
0.003 0.025 0.069 0.162 0.331 0.575 0.812 1.024 1.398 1.770 2.187 2.603 2.943 3.009 2.734 2.123 1.409 0.854 0.500 0.246 0.129 0.059 0.030 0.015 0.013 0.000 0.000 0.000 0.000 0.000 0.000 0.000 0.000 0.000 0.000 0.000 0.000
0.001 0.016 0.043 0.100 0.226 0.422 0.598 0.817 1.085 1.424 1.782 2.102 2.454 2.678 2.539 2.185 1.587 0.988 0.623 0.341 0.172 0.086 0.043 0.022 0.011 0.009 0.000 0.000 0.000 0.000 0.000 0.000 0.000 0.000 0.000 0.000 0.000
0.000 0.008 0.024 0.052 0.145 0.307 0.479 0.631 0.848 1.111 1.390 1.673 1.924 2.210 2.307 2.072 1.615 1.112 0.710 0.416 0.220 0.125 0.054 0.031 0.017 0.011 0.004 0.000 0.000 0.000 0.000 0.000 0.000 0.000 0.000 0.000 0.000
0.000 0.002 0.014 0.028 0.085 0.211 0.350 0.490 0.634 0.847 1.066 1.323 1.576 1.760 1.896 1.813 1.576 1.166 0.815 0.501 0.277 0.154 0.070 0.042 0.024 0.011 0.012 0.000 0.000 0.000 0.000 0.000 0.000 0.000 0.000 0.000 0.000
0.000 0.000 0.007 0.019 0.051 0.143 0.268 0.380 0.525 0.701 0.866 1.039 1.232 1.398 1.556 1.584 1.484 1.196 0.808 0.537 0.325 0.177 0.094 0.052 0.032 0.017 0.008 0.009 0.000 0.000 0.000 0.000 0.000 0.000 0.000 0.000 0.000
0.000 0.000 0.002 0.013 0.029 0.082 0.175 0.305 0.445 0.636 0.761 0.848 0.971 1.117 1.270 1.355 1.295 1.107 0.786 0.552 0.367 0.210 0.119 0.064 0.040 0.022 0.011 0.009 0.001 0.000 0.000 0.000 0.000 0.000 0.000 0.000 0.000
0.000 0.000 0.000 0.008 0.017 0.048 0.116 0.211 0.382 0.590 0.731 0.753 0.779 0.869 1.009 1.119 1.130 0.956 0.731 0.576 0.381 0.244 0.155 0.084 0.049 0.028 0.015 0.007 0.009 0.000 0.000 0.000 0.000 0.000 0.000 0.000 0.000
0.000 0.000 0.000 0.002 0.014 0.036 0.068 0.142 0.308 0.584 0.770 0.727 0.646 0.702 0.806 0.901 0.911 0.850 0.685 0.553 0.411 0.314 0.202 0.104 0.055 0.036 0.022 0.011 0.006 0.002 0.000 0.000 0.000 0.000 0.000 0.000 0.000
0.000 0.000 0.000 0.000 0.010 0.020 0.041 0.087 0.246 0.582 0.840 0.765 0.580 0.566 0.642 0.722 0.760 0.775 0.659 0.549 0.445 0.361 0.222 0.114 0.064 0.045 0.027 0.016 0.007 0.008 0.000 0.000 0.000 0.000 0.000 0.000 0.000
0.000 0.000 0.000 0.000 0.004 0.013 0.023 0.055 0.177 0.565 0.931 0.838 0.568 0.470 0.517 0.572 0.642 0.652 0.569 0.510 0.467 0.380 0.236 0.139 0.088 0.052 0.033 0.023 0.010 0.005 0.002 0.000 0.000 0.000 0.000 0.000 0.000
0.000 0.000 0.000 0.000 0.001 0.009 0.013 0.033 0.114 0.518 0.957 0.887 0.566 0.410 0.416 0.475 0.542 0.545 0.506 0.499 0.469 0.383 0.251 0.173 0.117 0.058 0.038 0.026 0.015 0.007 0.007 0.000 0.000 0.000 0.000 0.000 0.000
0.000 0.000 0.000 0.000 0.000 0.005 0.010 0.020 0.060 0.449 0.976 0.923 0.587 0.366 0.337 0.380 0.427 0.431 0.446 0.476 0.448 0.376 0.272 0.204 0.130 0.069 0.041 0.029 0.026 0.012 0.005 0.002 0.000 0.000 0.000 0.000 0.000
0.000 0.000 0.000 0.000 0.000 0.002 0.008 0.011 0.037 0.375 0.934 0.885 0.579 0.334 0.274 0.301 0.337 0.356 0.403 0.417 0.413 0.383 0.303 0.216 0.147 0.080 0.047 0.035 0.027 0.013 0.007 0.008 0.000 0.000 0.000 0.000 0.000
0.000 0.000 0.000 0.000 0.000 0.000 0.006 0.008 0.026 0.268 0.860 0.840 0.576 0.330 0.246 0.249 0.267 0.286 0.320 0.359 0.409 0.383 0.312 0.236 0.162 0.093 0.059 0.038 0.023 0.015 0.010 0.005 0.004 0.000 0.000 0.000 0.000
0.000 0.000 0.000 0.000 0.000 0.000 0.002 0.007 0.020 0.183 0.761 0.758 0.556 0.327 0.231 0.217 0.217 0.231 0.272 0.339 0.387 0.359 0.337 0.265 0.178 0.111 0.071 0.044 0.027 0.019 0.012 0.006 0.006 0.000 0.000 0.000 0.000
0.000 0.000 0.000 0.000 0.000 0.000 0.000 0.005 0.019 0.120 0.653 0.708 0.507 0.325 0.220 0.187 0.183 0.198 0.236 0.298 0.338 0.353 0.327 0.265 0.188 0.133 0.087 0.053 0.035 0.023 0.013 0.007 0.004 0.004 0.000 0.000 0.000
0.000 0.000 0.000 0.000 0.000 0.000 0.000 0.001 0.017 0.095 0.539 0.634 0.466 0.318 0.205 0.165 0.159 0.159 0.187 0.248 0.303 0.325 0.300 0.253 0.199 0.156 0.101 0.065 0.044 0.031 0.016 0.008 0.004 0.005 0.000 0.000 0.000
0.000 0.000 0.000 0.000 0.000 0.000 0.000 0.001 0.019 0.073 0.412 0.579 0.428 0.299 0.196 0.154 0.133 0.126 0.166 0.220 0.258 0.271 0.263 0.237 0.215 0.173 0.120 0.080 0.051 0.035 0.022 0.010 0.005 0.003 0.001 0.000 0.000
0.000 0.000 0.000 0.000 0.000 0.000 0.000 0.000 0.020 0.063 0.325 0.501 0.379 0.278 0.195 0.144 0.120 0.123 0.149 0.181 0.211 0.233 0.234 0.244 0.228 0.181 0.137 0.088 0.056 0.037 0.025 0.013 0.007 0.003 0.005 0.000 0.000
0.000 0.000 0.000 0.000 0.000 0.000 0.000 0.001 0.020 0.052 0.259 0.446 0.349 0.266 0.181 0.138 0.119 0.111 0.123 0.146 0.180 0.204 0.215 0.238 0.219 0.185 0.144 0.094 0.063 0.042 0.031 0.019 0.010 0.006 0.003 0.000 0.000
0.000 0.000 0.000 0.000 0.000 0.000 0.000 0.001 0.018 0.043 0.198 0.390 0.316 0.246 0.182 0.133 0.111 0.099 0.104 0.126 0.148 0.156 0.191 0.215 0.211 0.180 0.141 0.101 0.073 0.051 0.037 0.023 0.014 0.007 0.003 0.004 0.000
0.000 0.000 0.000 0.000 0.000 0.000 0.000 0.001 0.016 0.038 0.159 0.356 0.301 0.233 0.177 0.126 0.099 0.090 0.090 0.102 0.113 0.140 0.177 0.183 0.188 0.180 0.140 0.110 0.086 0.064 0.044 0.027 0.016 0.009 0.004 0.004 0.000
0.000 0.000 0.000 0.000 0.000 0.000 0.000 0.001 0.015 0.034 0.129 0.295 0.271 0.220 0.167 0.119 0.093 0.083 0.074 0.078 0.098 0.127 0.145 0.163 0.186 0.172 0.133 0.127 0.104 0.072 0.049 0.031 0.017 0.010 0.004 0.002 0.000
0.000 0.000 0.000 0.000 0.000 0.000 0.000 0.001 0.012 0.032 0.109 0.255 0.259 0.202 0.167 0.108 0.076 0.064 0.064 0.071 0.088 0.106 0.120 0.144 0.162 0.150 0.150 0.138 0.106 0.084 0.054 0.035 0.020 0.011 0.005 0.002 0.003
0.000 0.000 0.000 0.000 0.000 0.000 0.000 0.000 0.011 0.030 0.092 0.207 0.254 0.189 0.155 0.095 0.065 0.055 0.056 0.062 0.071 0.086 0.100 0.118 0.135 0.151 0.161 0.140 0.119 0.089 0.059 0.038 0.026 0.016 0.008 0.004 0.006
0.000 0.000 0.000 0.000 0.000 0.000 0.000 0.000 0.009 0.027 0.078 0.173 0.252 0.178 0.140 0.085 0.054 0.048 0.052 0.052 0.061 0.072 0.083 0.098 0.126 0.151 0.163 0.154 0.125 0.093 0.065 0.047 0.036 0.022 0.012 0.006 0.005
0.000 0.000 0.000 0.000 0.000 0.000 0.000 0.000 0.008 0.026 0.067 0.150 0.231 0.161 0.120 0.073 0.046 0.045 0.046 0.046 0.052 0.063 0.071 0.081 0.108 0.139 0.160 0.155 0.129 0.102 0.076 0.055 0.040 0.027 0.015 0.008 0.003
0.000 0.000 0.000 0.000 0.000 0.000 0.000 0.000 0.007 0.025 0.051 0.137 0.210 0.148 0.102 0.064 0.046 0.042 0.042 0.042 0.045 0.053 0.055 0.068 0.092 0.124 0.148 0.153 0.139 0.118 0.085 0.055 0.042 0.033 0.018 0.010 0.003
0.000 0.000 0.000 0.000 0.000 0.000 0.000 0.000 0.007 0.022 0.042 0.123 0.186 0.123 0.094 0.058 0.045 0.044 0.038 0.036 0.037 0.046 0.049 0.055 0.075 0.106 0.135 0.157 0.152 0.128 0.090 0.054 0.042 0.038 0.028 0.016 0.007
0.000 0.000 0.000 0.000 0.000 0.000 0.000 0.000 0.007 0.021 0.038 0.114 0.164 0.097 0.073 0.056 0.048 0.041 0.034 0.033 0.035 0.041 0.048 0.048 0.061 0.091 0.127 0.157 0.152 0.131 0.095 0.059 0.045 0.039 0.034 0.021 0.006
0.000 0.000 0.000 0.000 0.000 0.000 0.000 0.000 0.007 0.019 0.035 0.099 0.136 0.086 0.067 0.055 0.044 0.039 0.034 0.033 0.029 0.036 0.046 0.046 0.052 0.070 0.109 0.135 0.143 0.142 0.100 0.072 0.051 0.040 0.037 0.027 0.005
0.000 0.000 0.000 0.000 0.000 0.000 0.000 0.000 0.011 0.016 0.032 0.088 0.116 0.075 0.057 0.050 0.045 0.039 0.037 0.030 0.023 0.033 0.047 0.045 0.043 0.053 0.086 0.127 0.147 0.135 0.099 0.081 0.057 0.040 0.041 0.039 0.007
0.000 0.000 0.000 0.000 0.000 0.000 0.000 0.001 0.018 0.014 0.029 0.079 0.108 0.070 0.054 0.045 0.042 0.039 0.037 0.025 0.020 0.033 0.045 0.039 0.036 0.046 0.073 0.110 0.129 0.123 0.106 0.093 0.061 0.045 0.048 0.074 0.022
0.000 0.000 0.000 0.000 0.000 0.000 0.000 0.003 0.010 0.012 0.028 0.067 0.100 0.066 0.050 0.041 0.040 0.038 0.030 0.022 0.022 0.031 0.040 0.036 0.036 0.040 0.056 0.082 0.104 0.115 0.113 0.089 0.061 0.056 0.048 0.062 0.013
0.000 0.000 0.000 0.000 0.000 0.000 0.000 0.001 0.008 0.011 0.026 0.055 0.093 0.061 0.044 0.038 0.039 0.031 0.023 0.025 0.026 0.026 0.037 0.038 0.036 0.034 0.044 0.063 0.081 0.096 0.094 0.077 0.067 0.054 0.044 0.039 0.012
0.000 0.000 0.000 0.000 0.000 0.000 0.000 0.001 0.005 0.010 0.025 0.048 0.082 0.052 0.038 0.033 0.032 0.027 0.026 0.031 0.027 0.026 0.037 0.037 0.033 0.031 0.034 0.046 0.060 0.074 0.077 0.069 0.060 0.048 0.040 0.031 0.011
0.000 0.000 0.000 0.000 0.000 0.000 0.000 0.000 0.004 0.010 0.020 0.041 0.067 0.045 0.032 0.027 0.027 0.029 0.028 0.027 0.023 0.026 0.042 0.040 0.029 0.025 0.026 0.039 0.045 0.049 0.056 0.055 0.047 0.044 0.041 0.028 0.012
0.000 0.000 0.000 0.000 0.000 0.000 0.000 0.000 0.004 0.007 0.014 0.031 0.043 0.034 0.023 0.023 0.025 0.024 0.022 0.017 0.016 0.025 0.039 0.032 0.024 0.019 0.022 0.024 0.031 0.033 0.033 0.034 0.035 0.035 0.030 0.024 0.010
