ncols        36
nrows        52
xllcorner    409747.8
yllcorner    6870719.1
cellsize     5.00
NODATA_value -9999
0.000 0.000 0.000 0.000 0.000 0.000 0.000 0.000 0.000 0.000 0.000 0.000 0.000 0.000 0.000 0.000 0.000 0.000 0.000 0.000 0.000 0.000 0.000 0.000 0.000 0.000 0.000 0.000 0.000 0.000 0.000 0.000 0.000 0.000 0.000 0.000
0.000 0.000 0.000 0.000 0.000 0.007 0.026 0.044 0.053 0.049 0.034 0.016 0.002 0.000 0.000 0.000 0.000 0.000 0.000 0.000 0.000 0.000 0.000 0.000 0.000 0.000 0.000 0.000 0.000 0.000 0.000 0.000 0.000 0.000 0.000 0.000
0.000 0.000 0.000 0.002 0.020 0.064 0.105 0.142 0.159 0.145 0.106 0.061 0.031 0.007 0.000 0.000 0.000 0.000 0.000 0.000 0.000 0.000 0.000 0.000 0.000 0.000 0.000 0.000 0.000 0.000 0.000 0.000 0.000 0.000 0.000 0.000
0.000 0.000 0.002 0.025 0.085 0.165 0.265 0.349 0.382 0.352 0.271 0.167 0.082 0.037 0.011 0.000 0.000 0.000 0.000 0.000 0.000 0.000 0.000 0.000 0.000 0.000 0.000 0.000 0.000 0.000 0.000 0.000 0.000 0.000 0.000 0.000
0.000 0.000 0.016 0.082 0.189 0.350 0.537 0.676 0.755 0.721 0.572 0.382 0.206 0.091 0.040 0.016 0.001 0.000 0.000 0.000 0.000 0.000 0.000 0.000 0.000 0.000 0.000 0.000 0.000 0.000 0.000 0.000 0.000 0.000 0.000 0.000
0.000 0.005 0.054 0.155 0.347 0.608 0.883 1.117 1.258 1.212 1.040 0.758 0.436 0.220 0.098 0.045 0.022 0.003 0.000 0.000 0.000 0.000 0.000 0.000 0.000 0.000 0.000 0.000 0.000 0.000 0.000 0.000 0.000 0.000 0.000 0.000
0.000 0.016 0.089 0.252 0.540 0.904 1.280 1.613 1.794 1.861 1.690 1.291 0.813 0.458 0.224 0.114 0.050 0.027 0.006 0.000 0.000 0.000 0.000 0.000 0.000 0.000 0.000 0.000 0.000 0.000 0.000 0.000 0.000 0.000 0.000 0.000
0.000 0.030 0.128 0.357 0.726 1.188 1.631 2.024 2.310 2.480 2.345 1.920 1.343 0.833 0.453 0.244 0.118 0.052 0.028 0.007 0.000 0.000 0.000 0.000 0.000 0.000 0.000 0.000 0.000 0.000 0.000 0.000 0.000 0.000 0.000 0.000
0.000 0.044 0.160 0.427 0.846 1.344 1.857 2.295 2.712 2.920 2.912 2.600 2.013 1.321 0.800 0.461 0.239 0.117 0.050 0.027 0.008 0.000 0.000 0.000 0.000 0.000 0.000 0.000 0.000 0.000 0.000 0.000 0.000 0.000 0.000 0.000
0.000 0.052 0.174 0.454 0.876 1.371 1.919 2.426 2.892 3.115 3.365 3.198 2.657 1.952 1.294 0.761 0.423 0.224 0.106 0.047 0.024 0.006 0.000 0.000 0.000 0.000 0.000 0.000 0.000 0.000 0.000 0.000 0.000 0.000 0.000 0.000
0.000 0.052 0.175 0.433 0.826 1.310 1.859 2.321 2.735 3.223 3.616 3.518 3.206 2.600 1.785 1.122 0.669 0.378 0.192 0.095 0.037 0.021 0.003 0.000 0.000 0.000 0.000 0.000 0.000 0.000 0.000 0.000 0.000 0.000 0.000 0.000
0.000 0.048 0.162 0.370 0.739 1.153 1.616 2.051 2.576 3.161 3.376 3.638 3.615 3.093 2.332 1.597 1.006 0.602 0.322 0.159 0.068 0.027 0.018 0.001 0.000 0.000 0.000 0.000 0.000 0.000 0.000 0.000 0.000 0.000 0.000 0.000
0.000 0.039 0.121 0.299 0.593 0.948 1.283 1.763 2.206 2.668 3.105 3.482 3.621 3.416 2.817 2.033 1.344 0.850 0.455 0.244 0.111 0.047 0.021 0.012 0.000 0.000 0.000 0.000 0.000 0.000 0.000 0.000 0.000 0.000 0.000 0.000
0.000 0.029 0.087 0.229 0.474 0.753 1.087 1.453 1.882 2.322 2.715 3.152 3.482 3.422 3.099 2.418 1.642 1.113 0.657 0.344 0.172 0.076 0.033 0.017 0.006 0.000 0.000 0.000 0.000 0.000 0.000 0.000 0.000 0.000 0.000 0.000
0.000 0.018 0.051 0.161 0.367 0.624 0.870 1.171 1.516 1.888 2.282 2.649 3.085 3.315 3.116 2.593 1.925 1.310 0.823 0.458 0.256 0.106 0.048 0.024 0.016 0.002 0.000 0.000 0.000 0.000 0.000 0.000 0.000 0.000 0.000 0.000
0.000 0.008 0.033 0.104 0.264 0.467 0.678 0.871 1.149 1.460 1.851 2.261 2.592 2.882 2.868 2.623 2.085 1.547 1.006 0.584 0.325 0.143 0.072 0.037 0.016 0.014 0.000 0.000 0.000 0.000 0.000 0.000 0.000 0.000 0.000 0.000
0.000 0.003 0.023 0.066 0.185 0.358 0.514 0.685 0.894 1.137 1.445 1.801 2.122 2.446 2.593 2.537 2.166 1.564 1.093 0.687 0.378 0.195 0.098 0.047 0.024 0.012 0.006 0.000 0.000 0.000 0.000 0.000 0.000 0.000 0.000 0.000
0.000 0.001 0.014 0.038 0.110 0.239 0.401 0.534 0.719 0.895 1.117 1.408 1.712 2.028 2.252 2.255 2.031 1.526 1.121 0.773 0.450 0.249 0.125 0.065 0.033 0.015 0.013 0.001 0.000 0.000 0.000 0.000 0.000 0.000 0.000 0.000
0.000 0.000 0.006 0.023 0.064 0.160 0.270 0.414 0.563 0.718 0.885 1.084 1.318 1.610 1.861 1.965 1.750 1.408 1.152 0.792 0.518 0.323 0.167 0.087 0.041 0.022 0.010 0.009 0.000 0.000 0.000 0.000 0.000 0.000 0.000 0.000
0.000 0.000 0.001 0.017 0.043 0.094 0.178 0.302 0.463 0.608 0.722 0.834 1.034 1.264 1.483 1.564 1.528 1.292 1.082 0.830 0.647 0.419 0.211 0.101 0.051 0.031 0.016 0.010 0.001 0.000 0.000 0.000 0.000 0.000 0.000 0.000
0.000 0.000 0.000 0.010 0.025 0.053 0.109 0.227 0.394 0.547 0.636 0.678 0.798 0.979 1.160 1.276 1.359 1.210 1.045 0.869 0.716 0.450 0.228 0.122 0.070 0.037 0.022 0.009 0.010 0.000 0.000 0.000 0.000 0.000 0.000 0.000
0.000 0.000 0.000 0.003 0.016 0.031 0.071 0.167 0.348 0.545 0.622 0.602 0.633 0.761 0.891 1.046 1.110 1.011 0.939 0.883 0.731 0.463 0.271 0.166 0.086 0.044 0.031 0.014 0.007 0.001 0.000 0.000 0.000 0.000 0.000 0.000
0.000 0.000 0.000 0.001 0.011 0.018 0.045 0.124 0.316 0.556 0.646 0.569 0.530 0.593 0.715 0.855 0.897 0.864 0.880 0.852 0.711 0.475 0.327 0.213 0.099 0.052 0.033 0.020 0.008 0.009 0.000 0.000 0.000 0.000 0.000 0.000
0.000 0.000 0.000 0.000 0.004 0.013 0.029 0.090 0.302 0.616 0.723 0.593 0.463 0.468 0.552 0.650 0.683 0.731 0.807 0.780 0.670 0.498 0.371 0.231 0.118 0.060 0.037 0.031 0.015 0.007 0.001 0.000 0.000 0.000 0.000 0.000
0.000 0.000 0.000 0.000 0.001 0.010 0.019 0.066 0.309 0.662 0.781 0.619 0.423 0.374 0.424 0.495 0.543 0.635 0.677 0.689 0.653 0.531 0.383 0.257 0.137 0.073 0.045 0.033 0.017 0.008 0.010 0.000 0.000 0.000 0.000 0.000
0.000 0.000 0.000 0.000 0.000 0.006 0.013 0.045 0.303 0.690 0.833 0.661 0.425 0.334 0.343 0.379 0.418 0.483 0.557 0.654 0.625 0.521 0.403 0.276 0.156 0.094 0.052 0.031 0.019 0.012 0.006 0.003 0.000 0.000 0.000 0.000
0.000 0.000 0.000 0.000 0.000 0.002 0.010 0.032 0.289 0.695 0.827 0.680 0.431 0.313 0.297 0.300 0.326 0.392 0.500 0.585 0.563 0.538 0.433 0.293 0.181 0.112 0.062 0.036 0.024 0.015 0.007 0.008 0.000 0.000 0.000 0.000
0.000 0.000 0.000 0.000 0.000 0.000 0.006 0.024 0.251 0.690 0.803 0.651 0.436 0.300 0.255 0.249 0.272 0.327 0.419 0.486 0.527 0.503 0.416 0.299 0.211 0.135 0.077 0.045 0.030 0.017 0.009 0.005 0.003 0.000 0.000 0.000
0.000 0.000 0.000 0.000 0.000 0.000 0.002 0.020 0.212 0.665 0.724 0.613 0.428 0.280 0.223 0.215 0.215 0.252 0.337 0.419 0.466 0.445 0.385 0.306 0.240 0.153 0.093 0.056 0.038 0.021 0.011 0.005 0.007 0.000 0.000 0.000
0.000 0.000 0.000 0.000 0.000 0.000 0.001 0.020 0.163 0.588 0.656 0.566 0.400 0.264 0.206 0.177 0.167 0.218 0.288 0.344 0.373 0.374 0.347 0.320 0.259 0.177 0.114 0.067 0.042 0.027 0.013 0.007 0.004 0.001 0.000 0.000
0.000 0.000 0.000 0.000 0.000 0.000 0.000 0.021 0.136 0.506 0.564 0.498 0.368 0.258 0.190 0.158 0.158 0.190 0.230 0.272 0.310 0.321 0.344 0.328 0.263 0.199 0.125 0.075 0.045 0.030 0.017 0.008 0.004 0.006 0.000 0.000
0.000 0.000 0.000 0.000 0.000 0.000 0.001 0.022 0.114 0.428 0.499 0.449 0.345 0.235 0.179 0.153 0.142 0.155 0.181 0.226 0.263 0.286 0.324 0.306 0.263 0.204 0.131 0.084 0.050 0.037 0.023 0.012 0.007 0.004 0.000 0.000
0.000 0.000 0.000 0.000 0.000 0.000 0.001 0.021 0.100 0.347 0.432 0.397 0.312 0.230 0.170 0.142 0.126 0.130 0.154 0.181 0.196 0.247 0.284 0.288 0.250 0.196 0.138 0.097 0.063 0.044 0.028 0.017 0.009 0.003 0.004 0.000
0.000 0.000 0.000 0.000 0.000 0.000 0.001 0.020 0.084 0.291 0.399 0.365 0.288 0.218 0.158 0.125 0.113 0.112 0.124 0.137 0.171 0.221 0.236 0.249 0.244 0.191 0.148 0.114 0.080 0.051 0.033 0.020 0.011 0.005 0.005 0.000
0.000 0.000 0.000 0.000 0.000 0.000 0.001 0.018 0.066 0.239 0.341 0.312 0.265 0.201 0.148 0.117 0.105 0.092 0.095 0.116 0.151 0.177 0.205 0.240 0.229 0.179 0.168 0.135 0.089 0.059 0.037 0.022 0.013 0.005 0.002 0.000
0.000 0.000 0.000 0.000 0.000 0.000 0.001 0.016 0.050 0.196 0.314 0.278 0.239 0.198 0.136 0.098 0.083 0.080 0.087 0.105 0.125 0.143 0.176 0.204 0.194 0.199 0.183 0.137 0.104 0.065 0.041 0.024 0.014 0.006 0.002 0.002
0.000 0.000 0.000 0.000 0.000 0.000 0.000 0.013 0.040 0.156 0.278 0.255 0.219 0.183 0.121 0.088 0.074 0.073 0.078 0.086 0.102 0.117 0.141 0.166 0.191 0.208 0.183 0.153 0.111 0.071 0.046 0.031 0.020 0.010 0.004 0.007
0.000 0.000 0.000 0.000 0.000 0.000 0.000 0.012 0.035 0.127 0.249 0.244 0.203 0.167 0.111 0.078 0.069 0.070 0.068 0.076 0.087 0.097 0.115 0.151 0.186 0.207 0.199 0.162 0.117 0.079 0.055 0.041 0.026 0.014 0.008 0.006
0.000 0.000 0.000 0.000 0.000 0.000 0.000 0.010 0.032 0.109 0.219 0.226 0.181 0.147 0.100 0.070 0.063 0.058 0.058 0.066 0.078 0.083 0.093 0.127 0.169 0.200 0.197 0.165 0.129 0.094 0.067 0.046 0.032 0.018 0.009 0.003
0.000 0.000 0.000 0.000 0.000 0.000 0.000 0.009 0.031 0.088 0.199 0.210 0.166 0.129 0.092 0.067 0.054 0.049 0.050 0.055 0.065 0.065 0.077 0.106 0.148 0.181 0.192 0.177 0.150 0.107 0.068 0.048 0.039 0.022 0.012 0.004
0.000 0.000 0.000 0.000 0.000 0.000 0.000 0.008 0.027 0.075 0.181 0.188 0.144 0.122 0.085 0.062 0.051 0.044 0.043 0.044 0.052 0.057 0.061 0.085 0.123 0.162 0.193 0.190 0.162 0.115 0.069 0.050 0.044 0.033 0.019 0.009
0.000 0.000 0.000 0.000 0.000 0.000 0.000 0.008 0.026 0.061 0.169 0.166 0.119 0.099 0.079 0.061 0.046 0.040 0.039 0.041 0.046 0.050 0.051 0.068 0.105 0.149 0.190 0.188 0.164 0.121 0.076 0.057 0.046 0.041 0.025 0.009
0.000 0.000 0.000 0.000 0.000 0.000 0.000 0.008 0.023 0.048 0.148 0.142 0.107 0.089 0.071 0.049 0.044 0.039 0.039 0.035 0.040 0.047 0.048 0.057 0.080 0.125 0.160 0.175 0.177 0.126 0.092 0.067 0.049 0.045 0.032 0.007
0.000 0.000 0.000 0.000 0.000 0.000 0.000 0.012 0.019 0.041 0.130 0.121 0.090 0.070 0.056 0.048 0.043 0.042 0.037 0.028 0.036 0.048 0.048 0.047 0.060 0.098 0.148 0.176 0.168 0.126 0.104 0.075 0.052 0.051 0.046 0.010
0.000 0.000 0.000 0.000 0.000 0.000 0.000 0.016 0.016 0.036 0.115 0.109 0.078 0.058 0.047 0.045 0.043 0.042 0.031 0.024 0.036 0.046 0.042 0.039 0.050 0.083 0.128 0.156 0.153 0.135 0.119 0.081 0.061 0.064 0.073 0.025
0.000 0.000 0.000 0.000 0.000 0.000 0.002 0.011 0.014 0.035 0.096 0.096 0.067 0.052 0.044 0.043 0.043 0.035 0.026 0.027 0.035 0.042 0.039 0.039 0.045 0.065 0.097 0.127 0.145 0.147 0.118 0.084 0.078 0.067 0.066 0.018
0.000 0.000 0.000 0.000 0.000 0.000 0.001 0.009 0.013 0.033 0.077 0.088 0.061 0.047 0.041 0.043 0.035 0.027 0.029 0.030 0.030 0.040 0.040 0.039 0.039 0.050 0.077 0.103 0.126 0.128 0.108 0.097 0.082 0.063 0.045 0.016
0.000 0.000 0.000 0.000 0.000 0.000 0.000 0.006 0.012 0.030 0.068 0.079 0.055 0.043 0.038 0.037 0.031 0.031 0.035 0.032 0.030 0.040 0.040 0.037 0.035 0.041 0.058 0.083 0.106 0.115 0.107 0.095 0.079 0.056 0.038 0.016
0.000 0.000 0.000 0.000 0.000 0.000 0.000 0.004 0.011 0.026 0.057 0.072 0.050 0.038 0.033 0.033 0.035 0.034 0.033 0.028 0.031 0.045 0.044 0.034 0.029 0.033 0.049 0.068 0.085 0.101 0.102 0.087 0.071 0.054 0.036 0.017
0.000 0.000 0.000 0.000 0.000 0.000 0.000 0.004 0.009 0.021 0.048 0.061 0.048 0.035 0.034 0.037 0.035 0.032 0.026 0.025 0.035 0.048 0.043 0.033 0.028 0.033 0.038 0.051 0.066 0.076 0.082 0.071 0.055 0.043 0.035 0.017
0.000 0.000 0.000 0.000 0.000 0.000 0.000 0.002 0.008 0.017 0.043 0.050 0.040 0.033 0.032 0.033 0.033 0.029 0.024 0.030 0.041 0.042 0.041 0.036 0.030 0.027 0.033 0.042 0.048 0.054 0.059 0.051 0.040 0.038 0.033 0.018
0.000 0.000 0.000 0.000 0.000 0.000 0.000 0.002 0.007 0.012 0.032 0.038 0.028 0.024 0.026 0.024 0.025 0.025 0.020 0.027 0.031 0.028 0.034 0.033 0.024 0.022 0.026 0.029 0.031 0.032 0.036 0.034 0.030 0.028 0.025 0.016
