ncols        35
nrows        71
xllcorner    409667.8
yllcorner    6870784.1
cellsize     5.00
NODATA_value -9999
0.000 0.000 0.000 0.001 0.010 0.020 0.024 0.019 0.010 0.002 0.000 0.000 0.000 0.000 0.000 0.000 0.000 0.000 0.000 0.000 0.000 0.000 0.000 0.000 0.000 0.000 0.000 0.000 0.000 0.000 0.000 0.000 0.000 0.000 0.000
0.000 0.000 0.007 0.040 0.077 0.099 0.096 0.080 0.062 0.037 0.014 0.002 0.000 0.000 0.000 0.000 0.000 0.000 0.000 0.000 0.000 0.000 0.000 0.000 0.000 0.000 0.000 0.000 0.000 0.000 0.000 0.000 0.000 0.000 0.000
0.000 0.008 0.063 0.127 0.211 0.265 0.249 0.224 0.160 0.092 0.054 0.033 0.013 0.003 0.000 0.000 0.000 0.000 0.000 0.000 0.000 0.000 0.000 0.000 0.000 0.000 0.000 0.000 0.000 0.000 0.000 0.000 0.000 0.000 0.000
0.001 0.038 0.139 0.292 0.459 0.553 0.517 0.456 0.310 0.175 0.109 0.062 0.047 0.037 0.017 0.001 0.000 0.000 0.000 0.000 0.000 0.000 0.000 0.000 0.000 0.000 0.000 0.000 0.000 0.000 0.000 0.000 0.000 0.000 0.000
0.009 0.079 0.233 0.522 0.808 0.916 0.868 0.755 0.497 0.296 0.180 0.105 0.076 0.058 0.047 0.027 0.000 0.000 0.000 0.000 0.000 0.000 0.000 0.000 0.000 0.000 0.000 0.000 0.000 0.000 0.000 0.000 0.000 0.000 0.000
0.019 0.112 0.343 0.764 1.169 1.403 1.319 1.066 0.733 0.456 0.251 0.158 0.109 0.083 0.070 0.050 0.003 0.000 0.000 0.000 0.000 0.000 0.000 0.000 0.000 0.000 0.000 0.000 0.000 0.000 0.000 0.000 0.000 0.000 0.000
0.029 0.141 0.426 0.898 1.455 1.861 1.801 1.366 1.083 0.624 0.354 0.206 0.147 0.122 0.103 0.072 0.030 0.000 0.000 0.000 0.000 0.000 0.000 0.000 0.000 0.000 0.000 0.000 0.000 0.000 0.000 0.000 0.000 0.000 0.000
0.040 0.162 0.461 1.005 1.719 2.171 2.162 1.760 1.470 0.879 0.491 0.252 0.205 0.159 0.139 0.101 0.042 0.000 0.000 0.000 0.000 0.000 0.000 0.000 0.000 0.000 0.000 0.000 0.000 0.000 0.000 0.000 0.000 0.000 0.000
0.045 0.169 0.466 1.057 1.830 2.335 2.415 2.261 1.737 1.084 0.633 0.364 0.268 0.199 0.156 0.118 0.046 0.007 0.000 0.000 0.000 0.000 0.000 0.000 0.000 0.000 0.000 0.000 0.000 0.000 0.000 0.000 0.000 0.000 0.000
0.045 0.167 0.447 0.996 1.784 2.306 2.638 2.663 1.960 1.457 0.888 0.489 0.317 0.217 0.161 0.132 0.061 0.031 0.000 0.000 0.000 0.000 0.000 0.000 0.000 0.000 0.000 0.000 0.000 0.000 0.000 0.000 0.000 0.000 0.000
0.042 0.142 0.392 0.924 1.581 2.220 2.864 2.705 2.318 1.780 1.196 0.645 0.375 0.231 0.175 0.145 0.073 0.034 0.000 0.000 0.000 0.000 0.000 0.000 0.000 0.000 0.000 0.000 0.000 0.000 0.000 0.000 0.000 0.000 0.000
0.036 0.116 0.334 0.749 1.412 2.268 2.951 2.995 2.755 2.273 1.596 0.826 0.460 0.267 0.205 0.152 0.082 0.033 0.010 0.000 0.000 0.000 0.000 0.000 0.000 0.000 0.000 0.000 0.000 0.000 0.000 0.000 0.000 0.000 0.000
0.028 0.083 0.255 0.671 1.191 2.077 2.850 3.224 3.120 2.756 1.852 1.007 0.538 0.314 0.209 0.172 0.098 0.039 0.025 0.000 0.000 0.000 0.000 0.000 0.000 0.000 0.000 0.000 0.000 0.000 0.000 0.000 0.000 0.000 0.000
0.017 0.054 0.201 0.519 1.043 2.059 2.682 3.360 3.393 3.112 2.002 1.126 0.692 0.394 0.241 0.188 0.107 0.047 0.023 0.011 0.000 0.000 0.000 0.000 0.000 0.000 0.000 0.000 0.000 0.000 0.000 0.000 0.000 0.000 0.000
0.009 0.039 0.133 0.400 0.896 1.613 2.385 3.055 3.368 2.990 2.174 1.390 0.933 0.431 0.289 0.195 0.120 0.055 0.023 0.021 0.004 0.000 0.000 0.000 0.000 0.000 0.000 0.000 0.000 0.000 0.000 0.000 0.000 0.000 0.000
0.005 0.025 0.094 0.311 0.758 1.511 2.131 2.559 2.943 2.824 2.471 1.715 1.023 0.571 0.412 0.230 0.133 0.065 0.025 0.016 0.018 0.001 0.000 0.000 0.000 0.000 0.000 0.000 0.000 0.000 0.000 0.000 0.000 0.000 0.000
0.001 0.016 0.056 0.211 0.540 1.061 1.534 2.048 2.571 2.794 2.701 1.944 1.202 0.761 0.527 0.307 0.147 0.077 0.028 0.015 0.016 0.011 0.000 0.000 0.000 0.000 0.000 0.000 0.000 0.000 0.000 0.000 0.000 0.000 0.000
0.000 0.009 0.038 0.154 0.427 0.754 1.217 1.695 2.151 2.715 2.869 2.277 1.444 0.943 0.628 0.356 0.184 0.090 0.035 0.017 0.013 0.016 0.006 0.000 0.000 0.000 0.000 0.000 0.000 0.000 0.000 0.000 0.000 0.000 0.000
0.000 0.003 0.022 0.076 0.252 0.564 0.963 1.394 1.974 2.505 2.743 2.204 1.527 0.980 0.662 0.430 0.229 0.116 0.045 0.021 0.013 0.011 0.017 0.001 0.000 0.000 0.000 0.000 0.000 0.000 0.000 0.000 0.000 0.000 0.000
0.000 0.001 0.012 0.031 0.126 0.336 0.687 1.097 1.541 2.120 2.269 2.151 1.582 1.144 0.848 0.549 0.303 0.149 0.058 0.027 0.014 0.010 0.015 0.012 0.000 0.000 0.000 0.000 0.000 0.000 0.000 0.000 0.000 0.000 0.000
0.000 0.000 0.002 0.015 0.068 0.222 0.452 0.801 1.216 1.719 2.105 2.037 1.615 1.422 1.067 0.670 0.386 0.199 0.084 0.037 0.018 0.012 0.011 0.018 0.002 0.000 0.000 0.000 0.000 0.000 0.000 0.000 0.000 0.000 0.000
0.000 0.000 0.000 0.007 0.026 0.098 0.240 0.490 0.860 1.380 1.820 1.943 1.845 1.750 1.344 0.822 0.525 0.273 0.121 0.052 0.025 0.016 0.012 0.013 0.010 0.000 0.000 0.000 0.000 0.000 0.000 0.000 0.000 0.000 0.000
0.000 0.000 0.000 0.001 0.012 0.038 0.112 0.254 0.546 1.028 1.472 1.735 1.705 1.830 1.491 1.070 0.619 0.339 0.162 0.079 0.040 0.024 0.019 0.011 0.018 0.002 0.000 0.000 0.000 0.000 0.000 0.000 0.000 0.000 0.000
0.000 0.000 0.000 0.000 0.006 0.015 0.042 0.113 0.298 0.659 1.114 1.479 1.660 1.882 1.758 1.235 0.697 0.419 0.216 0.108 0.053 0.038 0.026 0.016 0.011 0.010 0.000 0.000 0.000 0.000 0.000 0.000 0.000 0.000 0.000
0.000 0.000 0.000 0.000 0.000 0.009 0.018 0.055 0.167 0.372 0.708 1.139 1.721 1.913 1.833 1.312 0.818 0.518 0.280 0.148 0.076 0.046 0.032 0.022 0.009 0.008 0.003 0.000 0.000 0.000 0.000 0.000 0.000 0.000 0.000
0.000 0.000 0.000 0.000 0.000 0.005 0.011 0.027 0.063 0.150 0.363 0.818 1.347 1.699 1.690 1.384 1.001 0.610 0.357 0.202 0.106 0.054 0.041 0.027 0.012 0.006 0.010 0.000 0.000 0.000 0.000 0.000 0.000 0.000 0.000
0.000 0.000 0.000 0.000 0.000 0.001 0.009 0.012 0.026 0.066 0.214 0.553 1.082 1.447 1.524 1.394 1.036 0.715 0.438 0.261 0.138 0.070 0.050 0.034 0.017 0.008 0.006 0.003 0.000 0.000 0.000 0.000 0.000 0.000 0.000
0.000 0.000 0.000 0.000 0.000 0.000 0.003 0.010 0.012 0.027 0.092 0.301 0.685 1.176 1.329 1.404 1.084 0.828 0.535 0.341 0.186 0.098 0.057 0.037 0.023 0.014 0.006 0.008 0.000 0.000 0.000 0.000 0.000 0.000 0.000
0.000 0.000 0.000 0.000 0.000 0.000 0.001 0.006 0.004 0.011 0.047 0.145 0.451 0.899 1.324 1.230 1.114 0.924 0.645 0.431 0.240 0.130 0.066 0.041 0.029 0.021 0.010 0.005 0.005 0.000 0.000 0.000 0.000 0.000 0.000
0.000 0.000 0.000 0.000 0.000 0.000 0.000 0.002 0.003 0.004 0.022 0.070 0.232 0.590 1.022 1.159 1.140 1.018 0.755 0.520 0.315 0.175 0.084 0.044 0.031 0.023 0.015 0.006 0.005 0.003 0.000 0.000 0.000 0.000 0.000
0.000 0.000 0.000 0.000 0.000 0.000 0.000 0.000 0.002 0.002 0.007 0.030 0.105 0.372 0.791 1.050 1.142 1.066 0.821 0.632 0.426 0.241 0.112 0.051 0.034 0.026 0.018 0.008 0.003 0.004 0.001 0.000 0.000 0.000 0.000
0.000 0.000 0.000 0.000 0.000 0.000 0.000 0.000 0.000 0.003 0.003 0.011 0.041 0.180 0.560 0.965 1.102 1.040 0.910 0.745 0.538 0.320 0.160 0.069 0.039 0.032 0.022 0.010 0.004 0.002 0.004 0.000 0.000 0.000 0.000
0.000 0.000 0.000 0.000 0.000 0.000 0.000 0.000 0.000 0.000 0.002 0.003 0.014 0.074 0.356 0.758 0.991 1.049 0.985 0.794 0.641 0.404 0.225 0.104 0.052 0.042 0.029 0.015 0.005 0.003 0.003 0.003 0.000 0.000 0.000
0.000 0.000 0.000 0.000 0.000 0.000 0.000 0.000 0.000 0.000 0.002 0.001 0.003 0.034 0.215 0.503 0.747 0.890 1.043 0.925 0.699 0.475 0.295 0.155 0.087 0.049 0.036 0.021 0.007 0.003 0.003 0.003 0.002 0.000 0.000
0.000 0.000 0.000 0.000 0.000 0.000 0.000 0.000 0.000 0.000 0.000 0.002 0.002 0.011 0.099 0.322 0.548 0.790 0.937 0.890 0.754 0.526 0.369 0.202 0.111 0.062 0.044 0.027 0.012 0.006 0.003 0.002 0.004 0.001 0.000
0.000 0.000 0.000 0.000 0.000 0.000 0.000 0.000 0.000 0.000 0.000 0.002 0.002 0.007 0.040 0.172 0.335 0.601 0.805 0.857 0.751 0.612 0.436 0.263 0.147 0.084 0.056 0.037 0.021 0.008 0.004 0.002 0.002 0.009 0.002
0.000 0.000 0.000 0.000 0.000 0.000 0.000 0.000 0.000 0.000 0.000 0.000 0.001 0.004 0.022 0.090 0.181 0.392 0.672 0.760 0.780 0.659 0.497 0.316 0.201 0.120 0.078 0.051 0.028 0.012 0.006 0.004 0.003 0.003 0.003
0.000 0.000 0.000 0.000 0.000 0.000 0.000 0.000 0.000 0.000 0.000 0.000 0.002 0.002 0.008 0.047 0.100 0.241 0.516 0.692 0.700 0.627 0.524 0.379 0.268 0.168 0.113 0.076 0.040 0.020 0.010 0.006 0.004 0.003 0.002
0.000 0.000 0.000 0.000 0.000 0.000 0.000 0.000 0.000 0.000 0.000 0.000 0.001 0.002 0.003 0.021 0.050 0.133 0.369 0.549 0.638 0.590 0.538 0.441 0.319 0.239 0.170 0.103 0.056 0.032 0.015 0.010 0.005 0.003 0.002
0.000 0.000 0.000 0.000 0.000 0.000 0.000 0.000 0.000 0.000 0.000 0.000 0.001 0.002 0.002 0.013 0.026 0.078 0.247 0.471 0.542 0.558 0.519 0.458 0.363 0.287 0.212 0.137 0.081 0.047 0.024 0.012 0.006 0.004 0.002
0.000 0.000 0.000 0.000 0.000 0.000 0.000 0.000 0.000 0.000 0.000 0.000 0.000 0.002 0.011 0.004 0.014 0.053 0.170 0.321 0.421 0.466 0.487 0.461 0.398 0.311 0.251 0.178 0.117 0.066 0.039 0.019 0.008 0.005 0.003
0.000 0.000 0.000 0.000 0.000 0.000 0.000 0.000 0.000 0.000 0.000 0.000 0.000 0.001 0.004 0.002 0.006 0.040 0.105 0.200 0.303 0.386 0.445 0.466 0.424 0.325 0.290 0.211 0.149 0.095 0.054 0.022 0.009 0.006 0.004
0.000 0.000 0.000 0.000 0.000 0.000 0.000 0.000 0.000 0.000 0.000 0.000 0.000 0.000 0.003 0.002 0.004 0.037 0.080 0.108 0.200 0.300 0.394 0.435 0.435 0.368 0.314 0.229 0.187 0.129 0.066 0.031 0.014 0.007 0.005
0.000 0.000 0.000 0.000 0.000 0.000 0.000 0.000 0.000 0.000 0.000 0.000 0.000 0.000 0.002 0.003 0.003 0.022 0.048 0.048 0.130 0.207 0.298 0.382 0.450 0.439 0.302 0.240 0.216 0.166 0.098 0.049 0.026 0.013 0.007
0.000 0.000 0.000 0.000 0.000 0.000 0.000 0.000 0.000 0.000 0.000 0.000 0.000 0.000 0.000 0.002 0.003 0.017 0.016 0.025 0.076 0.142 0.208 0.329 0.421 0.414 0.312 0.237 0.216 0.193 0.140 0.067 0.034 0.018 0.010
0.000 0.000 0.000 0.000 0.000 0.000 0.000 0.000 0.000 0.000 0.000 0.000 0.000 0.000 0.000 0.001 0.004 0.011 0.006 0.013 0.051 0.105 0.164 0.264 0.392 0.438 0.327 0.221 0.211 0.199 0.171 0.095 0.045 0.026 0.015
0.000 0.000 0.000 0.000 0.000 0.000 0.000 0.000 0.000 0.000 0.000 0.000 0.000 0.000 0.000 0.000 0.009 0.002 0.002 0.006 0.037 0.090 0.124 0.202 0.326 0.414 0.358 0.208 0.185 0.192 0.178 0.118 0.060 0.036 0.021
0.000 0.000 0.000 0.000 0.000 0.000 0.000 0.000 0.000 0.000 0.000 0.000 0.000 0.000 0.000 0.000 0.003 0.001 0.001 0.003 0.023 0.074 0.099 0.148 0.259 0.368 0.373 0.223 0.167 0.167 0.167 0.135 0.072 0.045 0.028
0.000 0.000 0.000 0.000 0.000 0.000 0.000 0.000 0.000 0.000 0.000 0.000 0.000 0.000 0.000 0.000 0.001 0.001 0.001 0.002 0.011 0.064 0.083 0.123 0.221 0.338 0.371 0.227 0.161 0.157 0.157 0.135 0.077 0.043 0.028
0.000 0.000 0.000 0.000 0.000 0.000 0.000 0.000 0.000 0.000 0.000 0.000 0.000 0.000 0.000 0.000 0.000 0.002 0.001 0.002 0.004 0.043 0.069 0.098 0.191 0.316 0.371 0.232 0.157 0.152 0.151 0.124 0.074 0.043 0.029
0.000 0.000 0.000 0.000 0.000 0.000 0.000 0.000 0.000 0.000 0.000 0.000 0.000 0.000 0.000 0.000 0.000 0.001 0.001 0.001 0.004 0.028 0.042 0.071 0.148 0.288 0.374 0.237 0.152 0.145 0.142 0.121 0.071 0.044 0.032
0.000 0.000 0.000 0.000 0.000 0.000 0.000 0.000 0.000 0.000 0.000 0.000 0.000 0.000 0.000 0.000 0.000 0.000 0.001 0.002 0.007 0.015 0.021 0.044 0.108 0.251 0.371 0.243 0.152 0.142 0.133 0.113 0.076 0.047 0.036
0.000 0.000 0.000 0.000 0.000 0.000 0.000 0.000 0.000 0.000 0.000 0.000 0.000 0.000 0.000 0.000 0.000 0.000 0.000 0.001 0.003 0.006 0.009 0.027 0.070 0.199 0.360 0.261 0.146 0.138 0.127 0.110 0.081 0.050 0.039
0.000 0.000 0.000 0.000 0.000 0.000 0.000 0.000 0.000 0.000 0.000 0.000 0.000 0.000 0.000 0.000 0.000 0.000 0.000 0.001 0.002 0.002 0.004 0.016 0.039 0.144 0.324 0.280 0.142 0.131 0.124 0.108 0.079 0.051 0.039
0.000 0.000 0.000 0.000 0.000 0.000 0.000 0.000 0.000 0.000 0.000 0.000 0.000 0.000 0.000 0.000 0.000 0.000 0.000 0.001 0.002 0.002 0.002 0.010 0.019 0.091 0.264 0.282 0.140 0.119 0.122 0.102 0.074 0.053 0.042
0.000 0.000 0.000 0.000 0.000 0.000 0.000 0.000 0.000 0.000 0.000 0.000 0.000 0.000 0.000 0.000 0.000 0.000 0.000 0.000 0.002 0.001 0.001 0.007 0.012 0.060 0.209 0.280 0.139 0.105 0.111 0.090 0.066 0.053 0.044
0.000 0.000 0.000 0.000 0.000 0.000 0.000 0.000 0.000 0.000 0.000 0.000 0.000 0.000 0.000 0.000 0.000 0.000 0.000 0.000 0.002 0.001 0.001 0.006 0.011 0.036 0.151 0.259 0.146 0.096 0.100 0.081 0.061 0.053 0.043
0.000 0.000 0.000 0.000 0.000 0.000 0.000 0.000 0.000 0.000 0.000 0.000 0.000 0.000 0.000 0.000 0.000 0.000 0.000 0.000 0.000 0.001 0.001 0.005 0.010 0.024 0.111 0.240 0.166 0.101 0.093 0.074 0.056 0.048 0.043
0.000 0.000 0.000 0.000 0.000 0.000 0.000 0.000 0.000 0.000 0.000 0.000 0.000 0.000 0.000 0.000 0.000 0.000 0.000 0.000 0.000 0.001 0.001 0.006 0.010 0.019 0.077 0.207 0.181 0.110 0.088 0.066 0.051 0.047 0.048
0.000 0.000 0.000 0.000 0.000 0.000 0.000 0.000 0.000 0.000 0.000 0.000 0.000 0.000 0.000 0.000 0.000 0.000 0.000 0.000 0.000 0.000 0.001 0.006 0.009 0.018 0.059 0.163 0.190 0.119 0.078 0.056 0.046 0.044 0.046
0.000 0.000 0.000 0.000 0.000 0.000 0.000 0.000 0.000 0.000 0.000 0.000 0.000 0.000 0.000 0.000 0.000 0.000 0.000 0.000 0.000 0.000 0.001 0.005 0.008 0.019 0.048 0.127 0.186 0.128 0.075 0.048 0.038 0.038 0.043
0.000 0.000 0.000 0.000 0.000 0.000 0.000 0.000 0.000 0.000 0.000 0.000 0.000 0.000 0.000 0.000 0.000 0.000 0.000 0.000 0.000 0.000 0.001 0.005 0.006 0.016 0.044 0.095 0.165 0.146 0.085 0.045 0.032 0.038 0.045
0.000 0.000 0.000 0.000 0.000 0.000 0.000 0.000 0.000 0.000 0.000 0.000 0.000 0.000 0.000 0.000 0.000 0.000 0.000 0.000 0.000 0.000 0.000 0.004 0.006 0.018 0.039 0.066 0.139 0.163 0.101 0.050 0.041 0.042 0.041
0.000 0.000 0.000 0.000 0.000 0.000 0.000 0.000 0.000 0.000 0.000 0.000 0.000 0.000 0.000 0.000 0.000 0.000 0.000 0.000 0.000 0.000 0.001 0.004 0.007 0.018 0.036 0.053 0.113 0.163 0.132 0.062 0.044 0.040 0.038
0.000 0.000 0.000 0.000 0.000 0.000 0.000 0.000 0.000 0.000 0.000 0.000 0.000 0.000 0.000 0.000 0.000 0.000 0.000 0.000 0.000 0.000 0.001 0.004 0.008 0.019 0.034 0.046 0.082 0.174 0.172 0.065 0.043 0.037 0.038
0.000 0.000 0.000 0.000 0.000 0.000 0.000 0.000 0.000 0.000 0.000 0.000 0.000 0.000 0.000 0.000 0.000 0.000 0.000 0.000 0.000 0.000 0.001 0.003 0.008 0.020 0.033 0.043 0.057 0.157 0.207 0.063 0.044 0.032 0.028
0.000 0.000 0.000 0.000 0.000 0.000 0.000 0.000 0.000 0.000 0.000 0.000 0.000 0.000 0.000 0.000 0.000 0.000 0.000 0.000 0.000 0.000 0.001 0.002 0.008 0.021 0.030 0.033 0.044 0.127 0.220 0.055 0.038 0.026 0.022
0.000 0.000 0.000 0.000 0.000 0.000 0.000 0.000 0.000 0.000 0.000 0.000 0.000 0.000 0.000 0.000 0.000 0.000 0.000 0.000 0.000 0.000 0.000 0.002 0.008 0.020 0.028 0.030 0.037 0.120 0.177 0.037 0.027 0.023 0.021
0.000 0.000 0.000 0.000 0.000 0.000 0.000 0.000 0.000 0.000 0.000 0.000 0.000 0.000 0.000 0.000 0.000 0.000 0.000 0.000 0.000 0.000 0.000 0.002 0.008 0.019 0.022 0.027 0.034 0.099 0.119 0.030 0.024 0.022 0.020
0.000 0.000 0.000 0.000 0.000 0.000 0.000 0.000 0.000 0.000 0.000 0.000 0.000 0.000 0.000 0.000 0.000 0.000 0.000 0.000 0.000 0.000 0.000 0.001 0.007 0.017 0.018 0.025 0.031 0.074 0.073 0.022 0.021 0.021 0.016
0.000 0.000 0.000 0.000 0.000 0.000 0.000 0.000 0.000 0.000 0.000 0.000 0.000 0.000 0.000 0.000 0.000 0.000 0.000 0.000 0.000 0.000 0.000 0.001 0.006 0.014 0.013 0.019 0.027 0.043 0.038 0.014 0.014 0.013 0.011
