ncols        33
nrows        40
xllcorner    409817.8
yllcorner    6870589.1
cellsize     5.00
NODATA_value -9999
0.000 0.000 0.000 0.000 0.000 0.000 0.000 0.000 0.000 0.000 0.000 0.000 0.000 0.000 0.000 0.000 0.000 0.000 0.000 0.000 0.000 0.000 0.000 0.000 0.000 0.000 0.000 0.000 0.000 0.000 0.000 0.000 0.000
0.000 0.000 0.000 0.000 0.000 0.000 0.000 0.000 0.000 0.000 0.011 0.045 0.077 0.089 0.081 0.059 0.031 0.007 0.000 0.000 0.000 0.000 0.000 0.000 0.000 0.000 0.000 0.000 0.000 0.000 0.000 0.000 0.000
0.000 0.000 0.000 0.000 0.000 0.000 0.000 0.000 0.000 0.013 0.070 0.141 0.221 0.264 0.239 0.169 0.089 0.045 0.015 0.000 0.000 0.000 0.000 0.000 0.000 0.000 0.000 0.000 0.000 0.000 0.000 0.000 0.000
0.000 0.000 0.000 0.000 0.000 0.000 0.000 0.000 0.007 0.064 0.162 0.332 0.518 0.590 0.549 0.392 0.221 0.115 0.048 0.018 0.000 0.000 0.000 0.000 0.000 0.000 0.000 0.000 0.000 0.000 0.000 0.000 0.000
0.000 0.000 0.000 0.000 0.000 0.000 0.000 0.001 0.031 0.127 0.308 0.606 0.922 1.107 1.087 0.761 0.467 0.254 0.110 0.044 0.014 0.000 0.000 0.000 0.000 0.000 0.000 0.000 0.000 0.000 0.000 0.000 0.000
0.000 0.000 0.000 0.000 0.000 0.000 0.000 0.007 0.067 0.194 0.467 0.915 1.453 1.805 1.739 1.265 0.843 0.474 0.217 0.092 0.039 0.005 0.000 0.000 0.000 0.000 0.000 0.000 0.000 0.000 0.000 0.000 0.000
0.000 0.000 0.000 0.000 0.000 0.000 0.000 0.017 0.088 0.255 0.622 1.239 1.963 2.435 2.356 1.945 1.399 0.766 0.396 0.190 0.075 0.030 0.001 0.000 0.000 0.000 0.000 0.000 0.000 0.000 0.000 0.000 0.000
0.000 0.000 0.000 0.000 0.000 0.000 0.000 0.024 0.103 0.305 0.724 1.406 2.227 2.861 3.015 2.728 1.910 1.114 0.684 0.342 0.155 0.047 0.020 0.000 0.000 0.000 0.000 0.000 0.000 0.000 0.000 0.000 0.000
0.000 0.000 0.000 0.000 0.000 0.000 0.001 0.028 0.110 0.309 0.712 1.389 2.309 3.056 3.422 3.162 2.335 1.641 1.046 0.577 0.268 0.099 0.034 0.013 0.000 0.000 0.000 0.000 0.000 0.000 0.000 0.000 0.000
0.000 0.000 0.000 0.000 0.000 0.000 0.001 0.028 0.101 0.281 0.649 1.243 2.064 2.983 3.542 3.439 2.879 2.163 1.471 0.900 0.460 0.188 0.067 0.031 0.010 0.000 0.000 0.000 0.000 0.000 0.000 0.000 0.000
0.000 0.000 0.000 0.000 0.000 0.000 0.001 0.024 0.085 0.227 0.498 0.997 1.817 2.725 3.372 3.651 3.325 2.682 2.014 1.401 0.782 0.371 0.137 0.052 0.032 0.007 0.000 0.000 0.000 0.000 0.000 0.000 0.000
0.000 0.000 0.000 0.000 0.000 0.000 0.000 0.017 0.057 0.155 0.357 0.777 1.353 2.203 3.037 3.454 3.457 3.162 2.618 1.927 1.282 0.676 0.287 0.116 0.044 0.027 0.003 0.000 0.000 0.000 0.000 0.000 0.000
0.000 0.000 0.000 0.000 0.000 0.000 0.000 0.009 0.038 0.103 0.248 0.498 0.979 1.728 2.562 3.184 3.412 3.473 3.096 2.611 1.936 1.163 0.543 0.208 0.078 0.034 0.023 0.000 0.000 0.000 0.000 0.000 0.000
0.000 0.000 0.000 0.000 0.000 0.000 0.000 0.003 0.026 0.065 0.153 0.326 0.670 1.197 1.893 2.608 3.270 3.526 3.522 3.274 2.596 1.756 0.886 0.367 0.133 0.050 0.027 0.010 0.000 0.000 0.000 0.000 0.000
0.000 0.000 0.000 0.000 0.000 0.000 0.000 0.001 0.018 0.050 0.099 0.195 0.405 0.782 1.424 2.212 2.917 3.452 3.864 3.632 3.161 2.378 1.283 0.576 0.202 0.079 0.038 0.025 0.009 0.000 0.000 0.000 0.000
0.000 0.000 0.000 0.000 0.000 0.003 0.015 0.026 0.040 0.053 0.071 0.121 0.245 0.506 0.961 1.645 2.576 3.305 3.722 3.786 3.574 2.845 1.678 0.778 0.299 0.116 0.062 0.032 0.019 0.006 0.000 0.000 0.000
0.000 0.000 0.000 0.001 0.015 0.048 0.073 0.085 0.090 0.088 0.081 0.103 0.167 0.315 0.645 1.343 2.214 2.998 3.486 3.718 3.774 3.077 1.894 0.968 0.408 0.162 0.087 0.040 0.022 0.018 0.007 0.000 0.000
0.000 0.000 0.001 0.021 0.070 0.115 0.157 0.176 0.180 0.158 0.130 0.125 0.150 0.242 0.467 1.035 1.845 2.763 3.301 3.654 3.580 2.846 2.000 1.093 0.496 0.221 0.109 0.051 0.030 0.021 0.017 0.006 0.000
0.000 0.000 0.014 0.070 0.144 0.217 0.275 0.307 0.295 0.256 0.214 0.188 0.192 0.220 0.359 0.783 1.560 2.379 3.114 3.330 3.069 2.680 1.969 1.123 0.549 0.271 0.135 0.065 0.040 0.024 0.015 0.012 0.006
0.000 0.006 0.053 0.132 0.245 0.327 0.404 0.425 0.401 0.353 0.298 0.264 0.249 0.243 0.363 0.684 1.318 2.242 2.977 3.005 2.714 2.255 1.691 1.077 0.578 0.307 0.162 0.088 0.051 0.029 0.019 0.014 0.012
0.000 0.019 0.088 0.210 0.335 0.443 0.502 0.503 0.476 0.428 0.364 0.332 0.301 0.296 0.381 0.607 1.109 2.043 2.673 2.670 2.247 1.815 1.459 1.004 0.575 0.345 0.203 0.118 0.063 0.037 0.026 0.017 0.010
0.002 0.040 0.124 0.263 0.408 0.518 0.542 0.531 0.503 0.461 0.407 0.378 0.353 0.349 0.394 0.533 0.916 1.722 2.376 2.378 1.904 1.477 1.205 0.894 0.558 0.341 0.220 0.137 0.084 0.046 0.030 0.020 0.011
0.007 0.057 0.148 0.301 0.447 0.532 0.542 0.522 0.501 0.477 0.421 0.379 0.373 0.358 0.376 0.457 0.721 1.402 2.093 2.074 1.559 1.180 1.024 0.756 0.502 0.356 0.240 0.166 0.101 0.057 0.038 0.023 0.013
0.010 0.062 0.162 0.309 0.433 0.513 0.510 0.486 0.485 0.468 0.392 0.367 0.371 0.352 0.364 0.423 0.595 1.132 1.692 1.823 1.357 0.936 0.793 0.638 0.480 0.340 0.254 0.182 0.123 0.073 0.042 0.027 0.016
0.013 0.062 0.158 0.288 0.399 0.459 0.455 0.445 0.426 0.414 0.345 0.343 0.335 0.329 0.336 0.348 0.514 0.933 1.407 1.498 1.144 0.745 0.611 0.542 0.445 0.329 0.244 0.182 0.140 0.083 0.047 0.029 0.015
0.014 0.058 0.148 0.250 0.343 0.401 0.397 0.378 0.359 0.350 0.315 0.289 0.287 0.332 0.333 0.316 0.396 0.688 1.093 1.260 0.915 0.605 0.517 0.474 0.391 0.304 0.221 0.195 0.147 0.102 0.054 0.032 0.016
0.013 0.051 0.124 0.220 0.298 0.332 0.332 0.325 0.316 0.301 0.260 0.240 0.275 0.312 0.318 0.273 0.331 0.530 0.825 0.975 0.810 0.518 0.408 0.395 0.352 0.278 0.215 0.199 0.161 0.109 0.064 0.036 0.018
0.010 0.042 0.101 0.169 0.232 0.271 0.277 0.263 0.256 0.258 0.222 0.213 0.218 0.236 0.241 0.221 0.266 0.418 0.672 0.829 0.704 0.417 0.328 0.324 0.302 0.248 0.205 0.184 0.147 0.110 0.075 0.042 0.022
0.007 0.035 0.078 0.133 0.189 0.225 0.235 0.223 0.227 0.215 0.178 0.160 0.177 0.224 0.231 0.202 0.216 0.319 0.453 0.631 0.550 0.353 0.269 0.266 0.262 0.222 0.189 0.168 0.142 0.118 0.082 0.046 0.023
0.004 0.027 0.058 0.103 0.149 0.180 0.194 0.187 0.205 0.180 0.149 0.145 0.162 0.200 0.198 0.165 0.179 0.262 0.361 0.489 0.481 0.308 0.224 0.220 0.220 0.197 0.174 0.153 0.135 0.117 0.083 0.051 0.025
0.002 0.021 0.045 0.078 0.115 0.148 0.166 0.155 0.141 0.141 0.138 0.130 0.136 0.146 0.149 0.152 0.155 0.203 0.259 0.364 0.400 0.263 0.185 0.179 0.184 0.179 0.164 0.134 0.121 0.111 0.085 0.055 0.027
0.001 0.015 0.034 0.059 0.086 0.118 0.128 0.126 0.135 0.131 0.113 0.100 0.082 0.111 0.141 0.126 0.124 0.169 0.203 0.295 0.324 0.217 0.148 0.139 0.147 0.151 0.133 0.114 0.105 0.104 0.085 0.059 0.030
0.000 0.009 0.027 0.047 0.070 0.093 0.106 0.119 0.122 0.107 0.090 0.064 0.069 0.105 0.116 0.105 0.098 0.137 0.161 0.210 0.255 0.168 0.118 0.109 0.121 0.132 0.120 0.104 0.101 0.093 0.085 0.062 0.030
0.000 0.005 0.021 0.036 0.052 0.071 0.093 0.109 0.103 0.075 0.067 0.062 0.064 0.088 0.094 0.077 0.083 0.101 0.120 0.146 0.173 0.141 0.095 0.092 0.104 0.114 0.113 0.103 0.094 0.083 0.078 0.053 0.030
0.000 0.002 0.017 0.029 0.043 0.056 0.075 0.092 0.080 0.067 0.065 0.053 0.052 0.069 0.078 0.071 0.072 0.086 0.094 0.123 0.151 0.118 0.084 0.074 0.085 0.094 0.097 0.092 0.082 0.076 0.064 0.046 0.030
0.000 0.000 0.011 0.023 0.034 0.046 0.058 0.068 0.066 0.061 0.046 0.041 0.041 0.051 0.063 0.054 0.057 0.062 0.074 0.100 0.130 0.102 0.065 0.060 0.065 0.079 0.082 0.074 0.062 0.053 0.045 0.040 0.030
0.000 0.000 0.006 0.017 0.025 0.036 0.044 0.050 0.062 0.055 0.042 0.036 0.035 0.040 0.045 0.043 0.044 0.048 0.054 0.083 0.106 0.084 0.052 0.049 0.051 0.058 0.062 0.054 0.046 0.042 0.043 0.039 0.030
0.000 0.000 0.003 0.015 0.020 0.025 0.034 0.043 0.052 0.045 0.038 0.033 0.031 0.035 0.041 0.036 0.036 0.039 0.040 0.060 0.076 0.068 0.047 0.043 0.042 0.044 0.045 0.045 0.041 0.042 0.040 0.038 0.026
0.000 0.000 0.001 0.011 0.016 0.022 0.030 0.037 0.039 0.037 0.032 0.027 0.024 0.030 0.033 0.030 0.030 0.030 0.030 0.039 0.051 0.049 0.044 0.035 0.032 0.037 0.038 0.034 0.034 0.035 0.034 0.028 0.023
0.000 0.000 0.000 0.009 0.013 0.013 0.018 0.023 0.025 0.025 0.024 0.020 0.019 0.019 0.022 0.021 0.021 0.021 0.020 0.024 0.030 0.036 0.027 0.020 0.022 0.024 0.025 0.025 0.024 0.022 0.021 0.018 0.017
