ncols        33
nrows        38
xllcorner    409822.8
yllcorner    6870579.1
cellsize     5.00
NODATA_value -9999
0.000 0.000 0.000 0.000 0.000 0.000 0.000 0.000 0.000 0.000 0.000 0.002 0.016 0.033 0.037 0.030 0.016 0.003 0.000 0.000 0.000 0.000 0.000 0.000 0.000 0.000 0.000 0.000 0.000 0.000 0.000 0.000 0.000
0.000 0.000 0.000 0.000 0.000 0.000 0.000 0.000 0.000 0.000 0.006 0.045 0.093 0.128 0.130 0.108 0.069 0.037 0.012 0.000 0.000 0.000 0.000 0.000 0.000 0.000 0.000 0.000 0.000 0.000 0.000 0.000 0.000
0.000 0.000 0.000 0.000 0.000 0.000 0.000 0.000 0.000 0.005 0.051 0.130 0.244 0.332 0.358 0.309 0.190 0.103 0.051 0.018 0.000 0.000 0.000 0.000 0.000 0.000 0.000 0.000 0.000 0.000 0.000 0.000 0.000
0.000 0.000 0.000 0.000 0.000 0.000 0.000 0.000 0.001 0.028 0.116 0.282 0.514 0.714 0.797 0.648 0.422 0.260 0.124 0.051 0.016 0.000 0.000 0.000 0.000 0.000 0.000 0.000 0.000 0.000 0.000 0.000 0.000
0.000 0.000 0.000 0.000 0.000 0.000 0.000 0.000 0.007 0.070 0.208 0.496 0.885 1.243 1.373 1.150 0.843 0.522 0.269 0.115 0.041 0.013 0.000 0.000 0.000 0.000 0.000 0.000 0.000 0.000 0.000 0.000 0.000
0.000 0.000 0.000 0.000 0.000 0.000 0.000 0.000 0.019 0.103 0.304 0.703 1.298 1.840 2.050 1.854 1.399 0.887 0.487 0.223 0.086 0.034 0.012 0.000 0.000 0.000 0.000 0.000 0.000 0.000 0.000 0.000 0.000
0.000 0.000 0.000 0.000 0.000 0.000 0.000 0.001 0.031 0.126 0.380 0.891 1.637 2.373 2.798 2.632 2.033 1.354 0.797 0.375 0.160 0.058 0.031 0.012 0.000 0.000 0.000 0.000 0.000 0.000 0.000 0.000 0.000
0.000 0.000 0.000 0.000 0.000 0.000 0.000 0.002 0.035 0.136 0.420 0.937 1.783 2.734 3.291 3.239 2.677 1.855 1.086 0.574 0.259 0.109 0.050 0.030 0.010 0.000 0.000 0.000 0.000 0.000 0.000 0.000 0.000
0.000 0.000 0.000 0.000 0.000 0.000 0.000 0.002 0.034 0.127 0.365 0.895 1.785 2.837 3.563 3.623 3.177 2.251 1.444 0.822 0.409 0.184 0.084 0.041 0.028 0.008 0.000 0.000 0.000 0.000 0.000 0.000 0.000
0.000 0.000 0.000 0.000 0.000 0.000 0.000 0.001 0.027 0.098 0.297 0.760 1.534 2.529 3.376 3.811 3.409 2.636 1.841 1.118 0.630 0.297 0.139 0.068 0.035 0.025 0.003 0.000 0.000 0.000 0.000 0.000 0.000
0.000 0.000 0.000 0.000 0.000 0.000 0.000 0.001 0.018 0.067 0.208 0.546 1.184 2.177 3.137 3.626 3.483 3.036 2.195 1.525 0.990 0.498 0.240 0.103 0.050 0.030 0.021 0.003 0.000 0.000 0.000 0.000 0.000
0.000 0.000 0.000 0.000 0.000 0.000 0.000 0.000 0.010 0.042 0.129 0.359 0.847 1.612 2.494 3.308 3.430 3.092 2.588 2.113 1.527 0.857 0.413 0.177 0.080 0.047 0.028 0.017 0.002 0.000 0.000 0.000 0.000
0.000 0.000 0.000 0.000 0.000 0.000 0.000 0.000 0.004 0.028 0.080 0.218 0.528 1.107 2.043 2.820 3.114 3.056 2.954 2.846 2.235 1.375 0.716 0.310 0.126 0.071 0.035 0.020 0.016 0.003 0.000 0.000 0.000
0.000 0.000 0.000 0.000 0.000 0.000 0.000 0.000 0.001 0.017 0.045 0.125 0.327 0.730 1.488 2.243 2.786 2.996 3.341 3.429 2.867 2.071 1.155 0.510 0.207 0.095 0.045 0.028 0.020 0.016 0.003 0.000 0.000
0.000 0.000 0.000 0.000 0.000 0.000 0.000 0.002 0.003 0.013 0.039 0.083 0.182 0.424 0.989 1.762 2.286 2.891 3.424 3.679 3.556 2.770 1.642 0.761 0.316 0.133 0.060 0.038 0.024 0.015 0.013 0.003 0.000
0.000 0.000 0.000 0.000 0.001 0.013 0.033 0.044 0.046 0.045 0.052 0.065 0.117 0.295 0.721 1.373 2.075 2.802 3.365 3.848 3.811 3.136 2.069 1.028 0.440 0.183 0.088 0.049 0.029 0.019 0.015 0.013 0.003
0.000 0.000 0.000 0.004 0.037 0.072 0.097 0.111 0.112 0.098 0.089 0.084 0.115 0.233 0.543 1.090 1.875 2.577 3.209 3.648 3.710 3.306 2.345 1.244 0.580 0.258 0.128 0.066 0.038 0.027 0.018 0.013 0.013
0.000 0.000 0.004 0.045 0.099 0.156 0.199 0.222 0.219 0.189 0.161 0.149 0.163 0.230 0.441 0.889 1.633 2.413 3.062 3.409 3.429 3.147 2.396 1.373 0.657 0.313 0.163 0.094 0.050 0.033 0.022 0.015 0.011
0.000 0.001 0.030 0.097 0.192 0.279 0.330 0.352 0.350 0.299 0.250 0.238 0.234 0.260 0.400 0.737 1.446 2.308 2.872 3.033 3.007 2.894 2.198 1.343 0.742 0.371 0.214 0.123 0.068 0.042 0.027 0.019 0.011
0.000 0.009 0.069 0.166 0.303 0.407 0.455 0.477 0.469 0.389 0.338 0.328 0.319 0.324 0.424 0.672 1.301 2.101 2.748 2.786 2.525 2.355 1.912 1.319 0.749 0.419 0.251 0.158 0.091 0.049 0.032 0.024 0.013
0.000 0.023 0.103 0.236 0.395 0.503 0.551 0.550 0.533 0.443 0.407 0.383 0.386 0.383 0.417 0.648 1.192 1.956 2.499 2.485 2.066 1.830 1.611 1.216 0.742 0.423 0.268 0.191 0.111 0.061 0.036 0.024 0.016
0.000 0.041 0.131 0.285 0.453 0.552 0.578 0.568 0.548 0.483 0.421 0.409 0.465 0.450 0.433 0.559 0.989 1.712 2.296 2.101 1.701 1.510 1.349 1.041 0.690 0.395 0.296 0.211 0.143 0.074 0.042 0.025 0.019
0.000 0.052 0.150 0.307 0.457 0.545 0.575 0.569 0.539 0.462 0.412 0.452 0.502 0.487 0.416 0.507 0.838 1.431 1.952 1.928 1.450 1.156 1.068 0.898 0.622 0.392 0.311 0.238 0.157 0.091 0.048 0.029 0.019
0.000 0.054 0.146 0.286 0.424 0.504 0.517 0.516 0.511 0.437 0.407 0.406 0.434 0.423 0.369 0.437 0.715 1.246 1.744 1.719 1.162 0.892 0.826 0.730 0.541 0.380 0.296 0.225 0.165 0.110 0.058 0.036 0.019
0.000 0.050 0.131 0.256 0.377 0.453 0.464 0.484 0.457 0.379 0.336 0.363 0.436 0.423 0.352 0.374 0.586 0.911 1.386 1.378 0.968 0.703 0.636 0.596 0.468 0.352 0.275 0.222 0.181 0.124 0.070 0.039 0.019
0.000 0.044 0.111 0.214 0.313 0.382 0.402 0.451 0.399 0.330 0.317 0.344 0.404 0.375 0.298 0.321 0.502 0.751 1.100 1.199 0.825 0.562 0.496 0.472 0.399 0.321 0.253 0.213 0.184 0.129 0.081 0.043 0.022
0.000 0.036 0.089 0.169 0.259 0.327 0.334 0.319 0.324 0.312 0.289 0.300 0.306 0.290 0.276 0.284 0.404 0.556 0.832 0.994 0.689 0.444 0.380 0.373 0.349 0.298 0.223 0.195 0.177 0.136 0.091 0.049 0.028
0.000 0.029 0.067 0.126 0.202 0.246 0.266 0.295 0.295 0.260 0.231 0.187 0.235 0.269 0.232 0.231 0.342 0.442 0.668 0.796 0.552 0.343 0.280 0.281 0.280 0.236 0.192 0.170 0.168 0.138 0.102 0.057 0.032
0.000 0.022 0.050 0.101 0.156 0.197 0.239 0.261 0.238 0.207 0.147 0.158 0.215 0.221 0.195 0.183 0.279 0.352 0.476 0.616 0.413 0.266 0.211 0.221 0.235 0.207 0.174 0.165 0.154 0.142 0.111 0.061 0.034
0.000 0.016 0.039 0.072 0.115 0.165 0.210 0.213 0.163 0.152 0.141 0.143 0.179 0.178 0.145 0.155 0.208 0.263 0.327 0.407 0.334 0.212 0.174 0.183 0.198 0.192 0.169 0.154 0.139 0.135 0.102 0.066 0.036
0.000 0.010 0.030 0.053 0.087 0.129 0.171 0.161 0.141 0.145 0.126 0.124 0.145 0.147 0.132 0.135 0.176 0.207 0.269 0.335 0.272 0.183 0.139 0.148 0.161 0.163 0.152 0.137 0.130 0.116 0.095 0.071 0.037
0.000 0.006 0.023 0.041 0.066 0.098 0.124 0.129 0.129 0.112 0.102 0.097 0.116 0.125 0.108 0.116 0.134 0.169 0.218 0.278 0.231 0.143 0.113 0.113 0.135 0.141 0.127 0.108 0.098 0.091 0.088 0.074 0.038
0.000 0.002 0.017 0.029 0.047 0.068 0.093 0.123 0.123 0.104 0.083 0.077 0.090 0.099 0.089 0.095 0.114 0.139 0.187 0.225 0.188 0.114 0.095 0.092 0.107 0.116 0.100 0.086 0.084 0.089 0.083 0.071 0.037
0.000 0.001 0.012 0.023 0.033 0.048 0.080 0.114 0.113 0.093 0.071 0.062 0.071 0.086 0.070 0.073 0.088 0.108 0.156 0.171 0.152 0.098 0.074 0.071 0.086 0.096 0.087 0.073 0.078 0.078 0.075 0.057 0.036
0.000 0.000 0.008 0.019 0.028 0.044 0.067 0.094 0.097 0.075 0.055 0.045 0.055 0.064 0.053 0.057 0.065 0.080 0.118 0.131 0.112 0.082 0.053 0.052 0.070 0.078 0.065 0.056 0.058 0.061 0.052 0.047 0.037
0.000 0.000 0.005 0.017 0.022 0.034 0.047 0.073 0.078 0.062 0.042 0.040 0.040 0.046 0.042 0.043 0.047 0.060 0.086 0.091 0.085 0.050 0.039 0.043 0.052 0.060 0.054 0.044 0.042 0.042 0.041 0.042 0.037
0.000 0.000 0.003 0.016 0.021 0.028 0.043 0.060 0.063 0.046 0.037 0.034 0.033 0.039 0.039 0.040 0.037 0.041 0.054 0.061 0.054 0.043 0.035 0.039 0.042 0.044 0.045 0.039 0.037 0.040 0.040 0.040 0.036
0.000 0.000 0.001 0.013 0.015 0.018 0.028 0.032 0.035 0.033 0.027 0.024 0.027 0.030 0.029 0.028 0.026 0.028 0.035 0.037 0.032 0.029 0.028 0.027 0.030 0.033 0.033 0.030 0.029 0.027 0.030 0.032 0.032
