ncols        42
nrows        101
xllcorner    409622.8
yllcorner    6870809.1
cellsize     5.00
NODATA_value -9999
0.000 0.000 0.000 0.001 0.011 0.024 0.011 0.001 0.000 0.000 0.000 0.000 0.000 0.000 0.000 0.000 0.000 0.000 0.000 0.000 0.000 0.000 0.000 0.000 0.000 0.000 0.000 0.000 0.000 0.000 0.000 0.000 0.000 0.000 0.000 0.000 0.000 0.000 0.000 0.000 0.000 0.000
0.000 0.000 0.000 0.017 0.082 0.100 0.066 0.030 0.001 0.000 0.000 0.000 0.000 0.000 0.000 0.000 0.000 0.000 0.000 0.000 0.000 0.000 0.000 0.000 0.000 0.000 0.000 0.000 0.000 0.000 0.000 0.000 0.000 0.000 0.000 0.000 0.000 0.000 0.000 0.000 0.000 0.000
0.000 0.000 0.004 0.078 0.218 0.264 0.179 0.082 0.029 0.000 0.000 0.000 0.000 0.000 0.000 0.000 0.000 0.000 0.000 0.000 0.000 0.000 0.000 0.000 0.000 0.000 0.000 0.000 0.000 0.000 0.000 0.000 0.000 0.000 0.000 0.000 0.000 0.000 0.000 0.000 0.000 0.000
0.000 0.000 0.016 0.162 0.447 0.576 0.401 0.200 0.060 0.002 0.000 0.000 0.000 0.000 0.000 0.000 0.000 0.000 0.000 0.000 0.000 0.000 0.000 0.000 0.000 0.000 0.000 0.000 0.000 0.000 0.000 0.000 0.000 0.000 0.000 0.000 0.000 0.000 0.000 0.000 0.000 0.000
0.000 0.001 0.054 0.279 0.785 1.056 0.774 0.410 0.126 0.029 0.000 0.000 0.000 0.000 0.000 0.000 0.000 0.000 0.000 0.000 0.000 0.000 0.000 0.000 0.000 0.000 0.000 0.000 0.000 0.000 0.000 0.000 0.000 0.000 0.000 0.000 0.000 0.000 0.000 0.000 0.000 0.000
0.000 0.004 0.092 0.409 1.155 1.615 1.289 0.704 0.230 0.046 0.000 0.000 0.000 0.000 0.000 0.000 0.000 0.000 0.000 0.000 0.000 0.000 0.000 0.000 0.000 0.000 0.000 0.000 0.000 0.000 0.000 0.000 0.000 0.000 0.000 0.000 0.000 0.000 0.000 0.000 0.000 0.000
0.000 0.013 0.143 0.530 1.449 2.118 1.969 1.094 0.375 0.074 0.003 0.000 0.000 0.000 0.000 0.000 0.000 0.000 0.000 0.000 0.000 0.000 0.000 0.000 0.000 0.000 0.000 0.000 0.000 0.000 0.000 0.000 0.000 0.000 0.000 0.000 0.000 0.000 0.000 0.000 0.000 0.000
0.001 0.046 0.208 0.645 1.566 2.569 2.620 1.558 0.576 0.129 0.026 0.000 0.000 0.000 0.000 0.000 0.000 0.000 0.000 0.000 0.000 0.000 0.000 0.000 0.000 0.000 0.000 0.000 0.000 0.000 0.000 0.000 0.000 0.000 0.000 0.000 0.000 0.000 0.000 0.000 0.000 0.000
0.004 0.069 0.269 0.732 1.532 2.731 3.135 2.070 0.826 0.211 0.033 0.000 0.000 0.000 0.000 0.000 0.000 0.000 0.000 0.000 0.000 0.000 0.000 0.000 0.000 0.000 0.000 0.000 0.000 0.000 0.000 0.000 0.000 0.000 0.000 0.000 0.000 0.000 0.000 0.000 0.000 0.000
0.011 0.097 0.311 0.758 1.393 2.544 3.674 2.533 1.123 0.295 0.042 0.007 0.000 0.000 0.000 0.000 0.000 0.000 0.000 0.000 0.000 0.000 0.000 0.000 0.000 0.000 0.000 0.000 0.000 0.000 0.000 0.000 0.000 0.000 0.000 0.000 0.000 0.000 0.000 0.000 0.000 0.000
0.023 0.124 0.332 0.680 1.173 2.025 3.317 3.026 1.501 0.434 0.077 0.029 0.000 0.000 0.000 0.000 0.000 0.000 0.000 0.000 0.000 0.000 0.000 0.000 0.000 0.000 0.000 0.000 0.000 0.000 0.000 0.000 0.000 0.000 0.000 0.000 0.000 0.000 0.000 0.000 0.000 0.000
0.038 0.144 0.350 0.686 1.031 1.713 3.155 3.669 1.991 0.640 0.126 0.031 0.003 0.000 0.000 0.000 0.000 0.000 0.000 0.000 0.000 0.000 0.000 0.000 0.000 0.000 0.000 0.000 0.000 0.000 0.000 0.000 0.000 0.000 0.000 0.000 0.000 0.000 0.000 0.000 0.000 0.000
0.047 0.150 0.323 0.602 0.890 1.302 2.921 4.102 2.315 0.951 0.195 0.041 0.024 0.000 0.000 0.000 0.000 0.000 0.000 0.000 0.000 0.000 0.000 0.000 0.000 0.000 0.000 0.000 0.000 0.000 0.000 0.000 0.000 0.000 0.000 0.000 0.000 0.000 0.000 0.000 0.000 0.000
0.048 0.139 0.294 0.553 0.817 1.142 2.578 3.751 2.852 1.272 0.298 0.069 0.029 0.004 0.000 0.000 0.000 0.000 0.000 0.000 0.000 0.000 0.000 0.000 0.000 0.000 0.000 0.000 0.000 0.000 0.000 0.000 0.000 0.000 0.000 0.000 0.000 0.000 0.000 0.000 0.000 0.000
0.047 0.128 0.269 0.492 0.728 1.038 2.240 3.688 3.174 1.592 0.427 0.106 0.035 0.025 0.001 0.000 0.000 0.000 0.000 0.000 0.000 0.000 0.000 0.000 0.000 0.000 0.000 0.000 0.000 0.000 0.000 0.000 0.000 0.000 0.000 0.000 0.000 0.000 0.000 0.000 0.000 0.000
0.044 0.112 0.217 0.451 0.690 0.959 1.837 3.184 3.249 1.895 0.577 0.158 0.058 0.031 0.017 0.001 0.000 0.000 0.000 0.000 0.000 0.000 0.000 0.000 0.000 0.000 0.000 0.000 0.000 0.000 0.000 0.000 0.000 0.000 0.000 0.000 0.000 0.000 0.000 0.000 0.000 0.000
0.039 0.096 0.189 0.375 0.611 0.910 1.633 2.767 3.255 2.044 0.754 0.228 0.084 0.042 0.033 0.021 0.009 0.000 0.000 0.000 0.000 0.000 0.000 0.000 0.000 0.000 0.000 0.000 0.000 0.000 0.000 0.000 0.000 0.000 0.000 0.000 0.000 0.000 0.000 0.000 0.000 0.000
0.035 0.082 0.151 0.309 0.537 0.795 1.383 2.343 3.021 2.274 0.895 0.298 0.115 0.061 0.039 0.040 0.034 0.010 0.000 0.000 0.000 0.000 0.000 0.000 0.000 0.000 0.000 0.000 0.000 0.000 0.000 0.000 0.000 0.000 0.000 0.000 0.000 0.000 0.000 0.000 0.000 0.000
0.029 0.068 0.128 0.242 0.437 0.694 1.178 2.136 2.812 2.401 1.030 0.350 0.145 0.075 0.047 0.044 0.044 0.036 0.005 0.000 0.000 0.000 0.000 0.000 0.000 0.000 0.000 0.000 0.000 0.000 0.000 0.000 0.000 0.000 0.000 0.000 0.000 0.000 0.000 0.000 0.000 0.000
0.025 0.060 0.112 0.197 0.353 0.631 1.019 1.874 2.602 2.222 1.058 0.387 0.167 0.093 0.057 0.045 0.052 0.044 0.029 0.003 0.000 0.000 0.000 0.000 0.000 0.000 0.000 0.000 0.000 0.000 0.000 0.000 0.000 0.000 0.000 0.000 0.000 0.000 0.000 0.000 0.000 0.000
0.021 0.049 0.090 0.152 0.286 0.534 0.897 1.583 2.466 2.267 1.113 0.440 0.195 0.103 0.069 0.055 0.068 0.057 0.038 0.025 0.001 0.000 0.000 0.000 0.000 0.000 0.000 0.000 0.000 0.000 0.000 0.000 0.000 0.000 0.000 0.000 0.000 0.000 0.000 0.000 0.000 0.000
0.018 0.038 0.068 0.129 0.242 0.438 0.774 1.332 2.115 2.243 1.172 0.452 0.216 0.120 0.084 0.064 0.070 0.067 0.046 0.034 0.015 0.000 0.000 0.000 0.000 0.000 0.000 0.000 0.000 0.000 0.000 0.000 0.000 0.000 0.000 0.000 0.000 0.000 0.000 0.000 0.000 0.000
0.015 0.031 0.054 0.098 0.187 0.348 0.641 1.180 1.797 2.115 1.297 0.581 0.264 0.135 0.087 0.072 0.072 0.070 0.058 0.039 0.029 0.001 0.000 0.000 0.000 0.000 0.000 0.000 0.000 0.000 0.000 0.000 0.000 0.000 0.000 0.000 0.000 0.000 0.000 0.000 0.000 0.000
0.012 0.025 0.048 0.081 0.147 0.285 0.528 0.971 1.535 2.052 1.360 0.616 0.278 0.145 0.088 0.073 0.071 0.072 0.061 0.050 0.028 0.015 0.000 0.000 0.000 0.000 0.000 0.000 0.000 0.000 0.000 0.000 0.000 0.000 0.000 0.000 0.000 0.000 0.000 0.000 0.000 0.000
0.009 0.021 0.038 0.062 0.115 0.214 0.428 0.841 1.383 2.027 1.378 0.730 0.338 0.151 0.096 0.071 0.065 0.069 0.068 0.056 0.034 0.021 0.002 0.000 0.000 0.000 0.000 0.000 0.000 0.000 0.000 0.000 0.000 0.000 0.000 0.000 0.000 0.000 0.000 0.000 0.000 0.000
0.005 0.018 0.029 0.047 0.079 0.164 0.357 0.716 1.179 1.692 1.422 0.846 0.386 0.192 0.103 0.065 0.061 0.068 0.070 0.059 0.043 0.025 0.014 0.000 0.000 0.000 0.000 0.000 0.000 0.000 0.000 0.000 0.000 0.000 0.000 0.000 0.000 0.000 0.000 0.000 0.000 0.000
0.003 0.015 0.024 0.039 0.064 0.125 0.284 0.545 0.832 1.498 1.461 0.860 0.480 0.215 0.110 0.083 0.068 0.069 0.066 0.058 0.057 0.035 0.017 0.002 0.000 0.000 0.000 0.000 0.000 0.000 0.000 0.000 0.000 0.000 0.000 0.000 0.000 0.000 0.000 0.000 0.000 0.000
0.001 0.013 0.019 0.027 0.045 0.105 0.204 0.379 0.774 1.394 1.317 0.995 0.552 0.237 0.138 0.096 0.070 0.060 0.056 0.066 0.064 0.038 0.017 0.016 0.000 0.000 0.000 0.000 0.000 0.000 0.000 0.000 0.000 0.000 0.000 0.000 0.000 0.000 0.000 0.000 0.000 0.000
0.001 0.010 0.015 0.017 0.034 0.052 0.123 0.337 0.679 1.139 1.280 1.043 0.564 0.267 0.145 0.095 0.066 0.052 0.057 0.064 0.058 0.048 0.028 0.017 0.001 0.000 0.000 0.000 0.000 0.000 0.000 0.000 0.000 0.000 0.000 0.000 0.000 0.000 0.000 0.000 0.000 0.000
0.000 0.007 0.014 0.014 0.015 0.037 0.138 0.293 0.572 1.020 1.219 0.997 0.631 0.314 0.167 0.100 0.063 0.055 0.053 0.054 0.058 0.055 0.036 0.018 0.012 0.000 0.000 0.000 0.000 0.000 0.000 0.000 0.000 0.000 0.000 0.000 0.000 0.000 0.000 0.000 0.000 0.000
0.000 0.005 0.013 0.009 0.006 0.045 0.107 0.243 0.487 0.839 1.053 0.974 0.665 0.347 0.191 0.100 0.071 0.054 0.048 0.052 0.057 0.059 0.044 0.024 0.015 0.000 0.000 0.000 0.000 0.000 0.000 0.000 0.000 0.000 0.000 0.000 0.000 0.000 0.000 0.000 0.000 0.000
0.000 0.002 0.011 0.008 0.006 0.040 0.083 0.175 0.409 0.702 0.954 0.951 0.731 0.428 0.216 0.120 0.088 0.055 0.054 0.058 0.055 0.059 0.046 0.026 0.014 0.000 0.000 0.000 0.000 0.000 0.000 0.000 0.000 0.000 0.000 0.000 0.000 0.000 0.000 0.000 0.000 0.000
0.000 0.000 0.007 0.008 0.008 0.033 0.053 0.117 0.298 0.558 0.795 0.905 0.806 0.481 0.242 0.144 0.090 0.060 0.059 0.053 0.051 0.054 0.049 0.034 0.017 0.008 0.000 0.000 0.000 0.000 0.000 0.000 0.000 0.000 0.000 0.000 0.000 0.000 0.000 0.000 0.000 0.000
0.000 0.000 0.004 0.008 0.011 0.024 0.037 0.076 0.212 0.465 0.753 0.878 0.828 0.478 0.258 0.177 0.109 0.077 0.067 0.049 0.042 0.049 0.053 0.044 0.025 0.019 0.000 0.000 0.000 0.000 0.000 0.000 0.000 0.000 0.000 0.000 0.000 0.000 0.000 0.000 0.000 0.000
0.000 0.000 0.002 0.009 0.010 0.016 0.027 0.053 0.146 0.376 0.669 0.815 0.804 0.494 0.310 0.210 0.125 0.083 0.062 0.044 0.037 0.044 0.052 0.049 0.031 0.021 0.000 0.000 0.000 0.000 0.000 0.000 0.000 0.000 0.000 0.000 0.000 0.000 0.000 0.000 0.000 0.000
0.000 0.000 0.000 0.006 0.008 0.011 0.018 0.037 0.108 0.302 0.526 0.759 0.744 0.547 0.335 0.237 0.142 0.096 0.071 0.046 0.038 0.044 0.049 0.055 0.046 0.030 0.000 0.000 0.000 0.000 0.000 0.000 0.000 0.000 0.000 0.000 0.000 0.000 0.000 0.000 0.000 0.000
0.000 0.000 0.000 0.002 0.006 0.009 0.013 0.030 0.071 0.216 0.407 0.608 0.724 0.553 0.396 0.267 0.179 0.124 0.081 0.050 0.038 0.039 0.045 0.061 0.068 0.032 0.005 0.000 0.000 0.000 0.000 0.000 0.000 0.000 0.000 0.000 0.000 0.000 0.000 0.000 0.000 0.000
0.000 0.000 0.000 0.001 0.005 0.008 0.013 0.023 0.048 0.141 0.317 0.533 0.653 0.603 0.445 0.309 0.248 0.163 0.097 0.053 0.038 0.035 0.044 0.061 0.079 0.036 0.028 0.000 0.000 0.000 0.000 0.000 0.000 0.000 0.000 0.000 0.000 0.000 0.000 0.000 0.000 0.000
0.000 0.000 0.000 0.000 0.004 0.008 0.011 0.016 0.036 0.103 0.255 0.453 0.607 0.625 0.515 0.369 0.309 0.192 0.098 0.059 0.037 0.034 0.043 0.055 0.087 0.049 0.033 0.000 0.000 0.000 0.000 0.000 0.000 0.000 0.000 0.000 0.000 0.000 0.000 0.000 0.000 0.000
0.000 0.000 0.000 0.000 0.002 0.007 0.009 0.014 0.027 0.064 0.171 0.337 0.552 0.626 0.520 0.405 0.337 0.212 0.118 0.067 0.038 0.035 0.036 0.044 0.100 0.059 0.030 0.000 0.000 0.000 0.000 0.000 0.000 0.000 0.000 0.000 0.000 0.000 0.000 0.000 0.000 0.000
0.000 0.000 0.000 0.000 0.001 0.006 0.008 0.011 0.022 0.051 0.117 0.268 0.502 0.613 0.578 0.455 0.358 0.234 0.142 0.072 0.043 0.033 0.030 0.041 0.098 0.064 0.029 0.000 0.000 0.000 0.000 0.000 0.000 0.000 0.000 0.000 0.000 0.000 0.000 0.000 0.000 0.000
0.000 0.000 0.000 0.000 0.000 0.004 0.006 0.009 0.019 0.039 0.083 0.205 0.384 0.533 0.591 0.481 0.363 0.295 0.164 0.084 0.047 0.036 0.035 0.043 0.096 0.068 0.029 0.013 0.000 0.000 0.000 0.000 0.000 0.000 0.000 0.000 0.000 0.000 0.000 0.000 0.000 0.000
0.000 0.000 0.000 0.000 0.000 0.003 0.005 0.007 0.018 0.035 0.058 0.144 0.313 0.479 0.562 0.477 0.378 0.346 0.207 0.108 0.052 0.046 0.040 0.049 0.096 0.070 0.031 0.029 0.000 0.000 0.000 0.000 0.000 0.000 0.000 0.000 0.000 0.000 0.000 0.000 0.000 0.000
0.000 0.000 0.000 0.000 0.000 0.002 0.005 0.006 0.016 0.033 0.044 0.096 0.248 0.389 0.488 0.474 0.409 0.354 0.235 0.129 0.070 0.056 0.046 0.045 0.090 0.072 0.032 0.025 0.001 0.000 0.000 0.000 0.000 0.000 0.000 0.000 0.000 0.000 0.000 0.000 0.000 0.000
0.000 0.000 0.000 0.000 0.000 0.001 0.004 0.005 0.013 0.023 0.034 0.069 0.180 0.296 0.393 0.450 0.435 0.350 0.298 0.178 0.091 0.062 0.046 0.040 0.087 0.075 0.033 0.019 0.014 0.000 0.000 0.000 0.000 0.000 0.000 0.000 0.000 0.000 0.000 0.000 0.000 0.000
0.000 0.000 0.000 0.000 0.000 0.000 0.002 0.004 0.011 0.016 0.022 0.045 0.133 0.227 0.322 0.433 0.394 0.372 0.337 0.231 0.117 0.069 0.047 0.040 0.084 0.079 0.036 0.017 0.020 0.001 0.000 0.000 0.000 0.000 0.000 0.000 0.000 0.000 0.000 0.000 0.000 0.000
0.000 0.000 0.000 0.000 0.000 0.000 0.001 0.003 0.009 0.012 0.015 0.033 0.080 0.175 0.309 0.407 0.406 0.415 0.402 0.303 0.145 0.081 0.052 0.047 0.080 0.083 0.039 0.014 0.015 0.012 0.000 0.000 0.000 0.000 0.000 0.000 0.000 0.000 0.000 0.000 0.000 0.000
0.000 0.000 0.000 0.000 0.000 0.000 0.000 0.002 0.007 0.007 0.008 0.020 0.060 0.139 0.260 0.366 0.406 0.450 0.469 0.334 0.174 0.091 0.060 0.047 0.086 0.093 0.041 0.013 0.012 0.014 0.002 0.000 0.000 0.000 0.000 0.000 0.000 0.000 0.000 0.000 0.000 0.000
0.000 0.000 0.000 0.000 0.000 0.000 0.000 0.002 0.005 0.003 0.004 0.013 0.040 0.112 0.275 0.331 0.421 0.465 0.502 0.351 0.200 0.118 0.074 0.054 0.087 0.094 0.044 0.014 0.011 0.011 0.011 0.000 0.000 0.000 0.000 0.000 0.000 0.000 0.000 0.000 0.000 0.000
0.000 0.000 0.000 0.000 0.000 0.000 0.000 0.003 0.003 0.001 0.002 0.006 0.029 0.096 0.208 0.280 0.356 0.431 0.457 0.383 0.255 0.178 0.087 0.070 0.082 0.096 0.051 0.014 0.009 0.009 0.011 0.006 0.000 0.000 0.000 0.000 0.000 0.000 0.000 0.000 0.000 0.000
0.000 0.000 0.000 0.000 0.000 0.000 0.000 0.001 0.002 0.001 0.001 0.004 0.021 0.082 0.231 0.245 0.277 0.354 0.420 0.439 0.321 0.201 0.130 0.129 0.093 0.093 0.056 0.013 0.007 0.007 0.008 0.009 0.001 0.000 0.000 0.000 0.000 0.000 0.000 0.000 0.000 0.000
0.000 0.000 0.000 0.000 0.000 0.000 0.000 0.000 0.001 0.001 0.001 0.003 0.018 0.060 0.154 0.175 0.210 0.294 0.412 0.484 0.357 0.236 0.187 0.177 0.126 0.091 0.061 0.014 0.006 0.005 0.005 0.007 0.012 0.000 0.000 0.000 0.000 0.000 0.000 0.000 0.000 0.000
0.000 0.000 0.000 0.000 0.000 0.000 0.000 0.000 0.000 0.001 0.002 0.002 0.014 0.068 0.118 0.156 0.178 0.235 0.388 0.505 0.408 0.266 0.215 0.201 0.143 0.108 0.067 0.018 0.006 0.004 0.004 0.005 0.013 0.001 0.000 0.000 0.000 0.000 0.000 0.000 0.000 0.000
0.000 0.000 0.000 0.000 0.000 0.000 0.000 0.000 0.000 0.000 0.002 0.001 0.004 0.035 0.107 0.148 0.163 0.225 0.343 0.446 0.369 0.267 0.207 0.202 0.173 0.129 0.081 0.023 0.007 0.004 0.003 0.003 0.009 0.012 0.000 0.000 0.000 0.000 0.000 0.000 0.000 0.000
0.000 0.000 0.000 0.000 0.000 0.000 0.000 0.000 0.000 0.000 0.001 0.001 0.001 0.013 0.080 0.132 0.151 0.189 0.289 0.355 0.350 0.275 0.247 0.261 0.225 0.171 0.097 0.030 0.009 0.004 0.003 0.003 0.007 0.017 0.001 0.000 0.000 0.000 0.000 0.000 0.000 0.000
0.000 0.000 0.000 0.000 0.000 0.000 0.000 0.000 0.000 0.000 0.000 0.002 0.001 0.003 0.082 0.108 0.135 0.173 0.251 0.339 0.336 0.299 0.349 0.354 0.277 0.240 0.134 0.047 0.013 0.005 0.003 0.003 0.004 0.008 0.002 0.000 0.000 0.000 0.000 0.000 0.000 0.000
0.000 0.000 0.000 0.000 0.000 0.000 0.000 0.000 0.000 0.000 0.000 0.000 0.002 0.001 0.029 0.069 0.098 0.151 0.233 0.301 0.322 0.364 0.506 0.511 0.396 0.441 0.205 0.071 0.023 0.007 0.004 0.003 0.004 0.006 0.006 0.000 0.000 0.000 0.000 0.000 0.000 0.000
0.000 0.000 0.000 0.000 0.000 0.000 0.000 0.000 0.000 0.000 0.000 0.000 0.001 0.001 0.008 0.033 0.058 0.120 0.213 0.271 0.285 0.297 0.533 0.642 0.903 0.445 0.236 0.099 0.043 0.015 0.005 0.014 0.004 0.009 0.007 0.000 0.000 0.000 0.000 0.000 0.000 0.000
0.000 0.000 0.000 0.000 0.000 0.000 0.000 0.000 0.000 0.000 0.000 0.000 0.000 0.000 0.003 0.009 0.030 0.086 0.167 0.244 0.292 0.340 0.652 1.417 1.008 0.423 0.282 0.131 0.059 0.023 0.037 0.020 0.014 0.006 0.004 0.003 0.000 0.000 0.000 0.000 0.000 0.000
0.000 0.000 0.000 0.000 0.000 0.000 0.000 0.000 0.000 0.000 0.000 0.000 0.000 0.000 0.001 0.002 0.014 0.055 0.086 0.142 0.258 0.536 0.919 1.540 0.935 0.580 0.338 0.167 0.089 0.048 0.031 0.024 0.028 0.005 0.003 0.007 0.000 0.000 0.000 0.000 0.000 0.000
0.000 0.000 0.000 0.000 0.000 0.000 0.000 0.000 0.000 0.000 0.000 0.000 0.000 0.000 0.002 0.002 0.006 0.015 0.028 0.065 0.186 0.429 0.807 1.090 1.014 0.714 0.347 0.200 0.128 0.064 0.024 0.041 0.033 0.007 0.003 0.004 0.002 0.000 0.000 0.000 0.000 0.000
0.000 0.000 0.000 0.000 0.000 0.000 0.000 0.000 0.000 0.000 0.000 0.000 0.000 0.000 0.001 0.002 0.003 0.004 0.010 0.036 0.121 0.329 0.600 0.770 0.975 0.580 0.384 0.221 0.154 0.079 0.039 0.096 0.052 0.010 0.004 0.002 0.005 0.000 0.000 0.000 0.000 0.000
0.000 0.000 0.000 0.000 0.000 0.000 0.000 0.000 0.000 0.000 0.000 0.000 0.000 0.000 0.000 0.002 0.002 0.001 0.002 0.012 0.050 0.182 0.439 0.741 0.836 0.548 0.423 0.251 0.192 0.111 0.079 0.094 0.031 0.014 0.008 0.003 0.003 0.002 0.000 0.000 0.000 0.000
0.000 0.000 0.000 0.000 0.000 0.000 0.000 0.000 0.000 0.000 0.000 0.000 0.000 0.000 0.000 0.002 0.001 0.000 0.000 0.004 0.020 0.105 0.305 0.827 0.552 0.549 0.464 0.288 0.204 0.125 0.096 0.061 0.029 0.020 0.014 0.006 0.003 0.005 0.001 0.000 0.000 0.000
0.000 0.000 0.000 0.000 0.000 0.000 0.000 0.000 0.000 0.000 0.000 0.000 0.000 0.000 0.000 0.000 0.001 0.000 0.000 0.001 0.009 0.042 0.156 0.439 0.516 0.577 0.526 0.313 0.217 0.155 0.119 0.058 0.025 0.018 0.014 0.009 0.003 0.002 0.003 0.001 0.000 0.000
0.000 0.000 0.000 0.000 0.000 0.000 0.000 0.000 0.000 0.000 0.000 0.000 0.000 0.000 0.000 0.000 0.000 0.001 0.000 0.000 0.001 0.015 0.085 0.277 0.521 0.657 0.495 0.314 0.289 0.241 0.153 0.060 0.022 0.015 0.014 0.011 0.004 0.001 0.001 0.002 0.000 0.000
0.000 0.000 0.000 0.000 0.000 0.000 0.000 0.000 0.000 0.000 0.000 0.000 0.000 0.000 0.000 0.000 0.000 0.000 0.001 0.000 0.001 0.002 0.022 0.129 0.915 0.939 0.499 0.373 0.337 0.324 0.190 0.078 0.025 0.014 0.018 0.013 0.004 0.002 0.001 0.001 0.001 0.000
0.000 0.000 0.000 0.000 0.000 0.000 0.000 0.000 0.000 0.000 0.000 0.000 0.000 0.000 0.000 0.000 0.000 0.000 0.000 0.000 0.000 0.001 0.005 0.033 0.716 1.078 0.561 0.479 0.392 0.400 0.232 0.114 0.040 0.020 0.032 0.018 0.007 0.002 0.001 0.001 0.001 0.001
0.000 0.000 0.000 0.000 0.000 0.000 0.000 0.000 0.000 0.000 0.000 0.000 0.000 0.000 0.000 0.000 0.000 0.000 0.000 0.001 0.000 0.000 0.002 0.054 0.459 0.688 0.490 0.729 0.564 0.376 0.237 0.153 0.069 0.045 0.026 0.023 0.010 0.003 0.001 0.001 0.001 0.002
0.000 0.000 0.000 0.000 0.000 0.000 0.000 0.000 0.000 0.000 0.000 0.000 0.000 0.000 0.000 0.000 0.000 0.000 0.000 0.000 0.000 0.000 0.001 0.013 0.261 0.510 0.576 0.543 0.497 0.371 0.248 0.181 0.079 0.041 0.025 0.022 0.012 0.005 0.002 0.001 0.001 0.001
0.000 0.000 0.000 0.000 0.000 0.000 0.000 0.000 0.000 0.000 0.000 0.000 0.000 0.000 0.000 0.000 0.000 0.000 0.000 0.000 0.002 0.000 0.001 0.004 0.077 0.238 0.364 0.483 0.476 0.410 0.349 0.206 0.095 0.046 0.028 0.027 0.018 0.010 0.003 0.001 0.000 0.000
0.000 0.000 0.000 0.000 0.000 0.000 0.000 0.000 0.000 0.000 0.000 0.000 0.000 0.000 0.000 0.000 0.000 0.000 0.000 0.000 0.000 0.000 0.001 0.002 0.045 0.098 0.200 0.426 0.482 0.544 0.380 0.223 0.111 0.063 0.035 0.030 0.028 0.013 0.004 0.002 0.001 0.000
0.000 0.000 0.000 0.000 0.000 0.000 0.000 0.000 0.000 0.000 0.000 0.000 0.000 0.000 0.000 0.000 0.000 0.000 0.000 0.000 0.000 0.001 0.001 0.001 0.015 0.046 0.089 0.329 0.488 0.491 0.344 0.242 0.152 0.092 0.045 0.042 0.091 0.019 0.007 0.002 0.001 0.000
0.000 0.000 0.000 0.000 0.000 0.000 0.000 0.000 0.000 0.000 0.000 0.000 0.000 0.000 0.000 0.000 0.000 0.000 0.000 0.000 0.000 0.001 0.001 0.000 0.005 0.015 0.034 0.200 0.421 0.568 0.359 0.270 0.197 0.125 0.092 0.154 0.102 0.044 0.013 0.004 0.002 0.000
0.000 0.000 0.000 0.000 0.000 0.000 0.000 0.000 0.000 0.000 0.000 0.000 0.000 0.000 0.000 0.000 0.000 0.000 0.000 0.000 0.000 0.001 0.001 0.000 0.004 0.005 0.011 0.099 0.898 0.550 0.360 0.261 0.206 0.159 0.131 0.153 0.096 0.077 0.039 0.007 0.002 0.000
0.000 0.000 0.000 0.000 0.000 0.000 0.000 0.000 0.000 0.000 0.000 0.000 0.000 0.000 0.000 0.000 0.000 0.000 0.000 0.000 0.000 0.000 0.001 0.014 0.001 0.003 0.029 0.146 0.634 0.427 0.312 0.257 0.213 0.174 0.122 0.155 0.167 0.132 0.045 0.038 0.005 0.000
0.000 0.000 0.000 0.000 0.000 0.000 0.000 0.000 0.000 0.000 0.000 0.000 0.000 0.000 0.000 0.000 0.000 0.000 0.000 0.000 0.000 0.000 0.001 0.002 0.001 0.002 0.041 0.072 0.393 0.308 0.297 0.269 0.232 0.182 0.114 0.310 0.216 0.121 0.123 0.088 0.005 0.001
0.000 0.000 0.000 0.000 0.000 0.000 0.000 0.000 0.000 0.000 0.000 0.000 0.000 0.000 0.000 0.000 0.000 0.000 0.000 0.000 0.000 0.000 0.000 0.001 0.001 0.001 0.050 0.186 0.123 0.200 0.254 0.266 0.234 0.216 0.227 0.372 0.168 0.211 0.176 0.058 0.007 0.001
0.000 0.000 0.000 0.000 0.000 0.000 0.000 0.000 0.000 0.000 0.000 0.000 0.000 0.000 0.000 0.000 0.000 0.000 0.000 0.000 0.000 0.000 0.000 0.001 0.001 0.001 0.013 0.097 0.035 0.113 0.170 0.198 0.218 0.256 0.308 0.194 0.229 0.269 0.194 0.116 0.035 0.003
0.000 0.000 0.000 0.000 0.000 0.000 0.000 0.000 0.000 0.000 0.000 0.000 0.000 0.000 0.000 0.000 0.000 0.000 0.000 0.000 0.000 0.000 0.000 0.000 0.001 0.002 0.015 0.008 0.012 0.057 0.119 0.146 0.204 0.240 0.235 0.201 0.200 0.225 0.227 0.181 0.052 0.004
0.000 0.000 0.000 0.000 0.000 0.000 0.000 0.000 0.000 0.000 0.000 0.000 0.000 0.000 0.000 0.000 0.000 0.000 0.000 0.000 0.000 0.000 0.000 0.000 0.001 0.002 0.005 0.002 0.006 0.035 0.095 0.126 0.169 0.235 0.249 0.189 0.148 0.158 0.180 0.255 0.081 0.006
0.000 0.000 0.000 0.000 0.000 0.000 0.000 0.000 0.000 0.000 0.000 0.000 0.000 0.000 0.000 0.000 0.000 0.000 0.000 0.000 0.000 0.000 0.000 0.000 0.000 0.011 0.001 0.001 0.001 0.021 0.092 0.099 0.121 0.176 0.215 0.196 0.115 0.093 0.115 0.121 0.083 0.010
0.000 0.000 0.000 0.000 0.000 0.000 0.000 0.000 0.000 0.000 0.000 0.000 0.000 0.000 0.000 0.000 0.000 0.000 0.000 0.000 0.000 0.000 0.000 0.000 0.000 0.001 0.000 0.000 0.001 0.010 0.087 0.091 0.089 0.132 0.175 0.192 0.118 0.063 0.051 0.051 0.104 0.030
0.000 0.000 0.000 0.000 0.000 0.000 0.000 0.000 0.000 0.000 0.000 0.000 0.000 0.000 0.000 0.000 0.000 0.000 0.000 0.000 0.000 0.000 0.000 0.000 0.000 0.000 0.000 0.000 0.001 0.004 0.080 0.098 0.085 0.122 0.158 0.178 0.106 0.055 0.043 0.047 0.086 0.041
0.000 0.000 0.000 0.000 0.000 0.000 0.000 0.000 0.000 0.000 0.000 0.000 0.000 0.000 0.000 0.000 0.000 0.000 0.000 0.000 0.000 0.000 0.000 0.000 0.000 0.000 0.001 0.000 0.001 0.001 0.046 0.095 0.079 0.117 0.156 0.173 0.099 0.051 0.040 0.045 0.059 0.012
0.000 0.000 0.000 0.000 0.000 0.000 0.000 0.000 0.000 0.000 0.000 0.000 0.000 0.000 0.000 0.000 0.000 0.000 0.000 0.000 0.000 0.000 0.000 0.000 0.000 0.000 0.000 0.000 0.001 0.001 0.028 0.049 0.064 0.100 0.156 0.180 0.095 0.050 0.039 0.039 0.038 0.006
0.000 0.000 0.000 0.000 0.000 0.000 0.000 0.000 0.000 0.000 0.000 0.000 0.000 0.000 0.000 0.000 0.000 0.000 0.000 0.000 0.000 0.000 0.000 0.000 0.000 0.000 0.000 0.001 0.001 0.004 0.012 0.021 0.042 0.083 0.151 0.187 0.097 0.052 0.041 0.033 0.025 0.006
0.000 0.000 0.000 0.000 0.000 0.000 0.000 0.000 0.000 0.000 0.000 0.000 0.000 0.000 0.000 0.000 0.000 0.000 0.000 0.000 0.000 0.000 0.000 0.000 0.000 0.000 0.000 0.000 0.000 0.001 0.004 0.008 0.024 0.057 0.130 0.194 0.112 0.052 0.043 0.032 0.024 0.006
0.000 0.000 0.000 0.000 0.000 0.000 0.000 0.000 0.000 0.000 0.000 0.000 0.000 0.000 0.000 0.000 0.000 0.000 0.000 0.000 0.000 0.000 0.000 0.000 0.000 0.000 0.000 0.000 0.000 0.001 0.001 0.003 0.010 0.030 0.096 0.181 0.126 0.053 0.044 0.037 0.036 0.004
0.000 0.000 0.000 0.000 0.000 0.000 0.000 0.000 0.000 0.000 0.000 0.000 0.000 0.000 0.000 0.000 0.000 0.000 0.000 0.000 0.000 0.000 0.000 0.000 0.000 0.000 0.000 0.000 0.001 0.001 0.001 0.001 0.005 0.012 0.060 0.152 0.131 0.053 0.040 0.045 0.035 0.003
0.000 0.000 0.000 0.000 0.000 0.000 0.000 0.000 0.000 0.000 0.000 0.000 0.000 0.000 0.000 0.000 0.000 0.000 0.000 0.000 0.000 0.000 0.000 0.000 0.000 0.000 0.000 0.000 0.000 0.001 0.001 0.001 0.003 0.005 0.041 0.123 0.131 0.052 0.034 0.040 0.018 0.002
0.000 0.000 0.000 0.000 0.000 0.000 0.000 0.000 0.000 0.000 0.000 0.000 0.000 0.000 0.000 0.000 0.000 0.000 0.000 0.000 0.000 0.000 0.000 0.000 0.000 0.000 0.000 0.000 0.000 0.001 0.001 0.000 0.002 0.005 0.022 0.092 0.125 0.057 0.033 0.036 0.014 0.002
0.000 0.000 0.000 0.000 0.000 0.000 0.000 0.000 0.000 0.000 0.000 0.000 0.000 0.000 0.000 0.000 0.000 0.000 0.000 0.000 0.000 0.000 0.000 0.000 0.000 0.000 0.000 0.000 0.000 0.000 0.000 0.000 0.002 0.004 0.012 0.070 0.122 0.069 0.041 0.039 0.013 0.001
0.000 0.000 0.000 0.000 0.000 0.000 0.000 0.000 0.000 0.000 0.000 0.000 0.000 0.000 0.000 0.000 0.000 0.000 0.000 0.000 0.000 0.000 0.000 0.000 0.000 0.000 0.000 0.000 0.000 0.000 0.000 0.000 0.002 0.004 0.010 0.049 0.108 0.077 0.048 0.042 0.013 0.002
0.000 0.000 0.000 0.000 0.000 0.000 0.000 0.000 0.000 0.000 0.000 0.000 0.000 0.000 0.000 0.000 0.000 0.000 0.000 0.000 0.000 0.000 0.000 0.000 0.000 0.000 0.000 0.000 0.000 0.000 0.000 0.000 0.002 0.004 0.010 0.042 0.084 0.080 0.051 0.038 0.013 0.002
0.000 0.000 0.000 0.000 0.000 0.000 0.000 0.000 0.000 0.000 0.000 0.000 0.000 0.000 0.000 0.000 0.000 0.000 0.000 0.000 0.000 0.000 0.000 0.000 0.000 0.000 0.000 0.000 0.000 0.000 0.000 0.000 0.002 0.003 0.010 0.034 0.067 0.074 0.049 0.038 0.012 0.002
0.000 0.000 0.000 0.000 0.000 0.000 0.000 0.000 0.000 0.000 0.000 0.000 0.000 0.000 0.000 0.000 0.000 0.000 0.000 0.000 0.000 0.000 0.000 0.000 0.000 0.000 0.000 0.000 0.000 0.000 0.000 0.000 0.002 0.003 0.008 0.029 0.052 0.060 0.051 0.043 0.011 0.002
0.000 0.000 0.000 0.000 0.000 0.000 0.000 0.000 0.000 0.000 0.000 0.000 0.000 0.000 0.000 0.000 0.000 0.000 0.000 0.000 0.000 0.000 0.000 0.000 0.000 0.000 0.000 0.000 0.000 0.000 0.000 0.001 0.001 0.003 0.008 0.024 0.039 0.048 0.048 0.047 0.015 0.006
0.000 0.000 0.000 0.000 0.000 0.000 0.000 0.000 0.000 0.000 0.000 0.000 0.000 0.000 0.000 0.000 0.000 0.000 0.000 0.000 0.000 0.000 0.000 0.000 0.000 0.000 0.000 0.000 0.000 0.000 0.000 0.001 0.001 0.003 0.008 0.020 0.033 0.040 0.039 0.059 0.035 0.008
0.000 0.000 0.000 0.000 0.000 0.000 0.000 0.000 0.000 0.000 0.000 0.000 0.000 0.000 0.000 0.000 0.000 0.000 0.000 0.000 0.000 0.000 0.000 0.000 0.000 0.000 0.000 0.000 0.000 0.000 0.000 0.000 0.001 0.003 0.008 0.017 0.028 0.029 0.037 0.103 0.033 0.006
0.000 0.000 0.000 0.000 0.000 0.000 0.000 0.000 0.000 0.000 0.000 0.000 0.000 0.000 0.000 0.000 0.000 0.000 0.000 0.000 0.000 0.000 0.000 0.000 0.000 0.000 0.000 0.000 0.000 0.000 0.000 0.001 0.001 0.002 0.005 0.011 0.019 0.016 0.023 0.170 0.037 0.010
