ncols        33
nrows        37
xllcorner    409842.8
yllcorner    6870529.1
cellsize     5.00
NODATA_value -9999
0.000 0.000 0.000 0.000 0.000 0.000 0.000 0.000 0.000 0.000 0.000 0.000 0.000 0.002 0.011 0.020 0.022 0.020 0.014 0.008 0.003 0.000 0.000 0.000 0.000 0.000 0.000 0.000 0.000 0.000 0.000 0.000 0.000
0.000 0.000 0.000 0.000 0.000 0.000 0.000 0.000 0.000 0.000 0.000 0.000 0.010 0.046 0.084 0.106 0.104 0.089 0.069 0.051 0.033 0.017 0.004 0.000 0.000 0.000 0.000 0.000 0.000 0.000 0.000 0.000 0.000
0.000 0.000 0.000 0.000 0.000 0.000 0.000 0.000 0.000 0.000 0.000 0.010 0.069 0.151 0.254 0.313 0.296 0.252 0.190 0.131 0.083 0.051 0.030 0.014 0.002 0.000 0.000 0.000 0.000 0.000 0.000 0.000 0.000
0.000 0.000 0.000 0.000 0.000 0.000 0.000 0.000 0.000 0.000 0.004 0.054 0.165 0.368 0.593 0.713 0.688 0.563 0.410 0.277 0.178 0.107 0.052 0.034 0.021 0.006 0.000 0.000 0.000 0.000 0.000 0.000 0.000
0.000 0.000 0.000 0.000 0.000 0.000 0.000 0.000 0.000 0.000 0.015 0.104 0.326 0.716 1.110 1.346 1.274 1.012 0.745 0.493 0.312 0.182 0.100 0.057 0.032 0.023 0.011 0.001 0.000 0.000 0.000 0.000 0.000
0.000 0.000 0.000 0.000 0.000 0.000 0.000 0.000 0.000 0.001 0.030 0.160 0.508 1.102 1.719 2.073 1.998 1.610 1.175 0.773 0.495 0.292 0.160 0.085 0.049 0.033 0.023 0.014 0.002 0.000 0.000 0.000 0.000
0.000 0.000 0.000 0.000 0.000 0.000 0.000 0.000 0.000 0.002 0.046 0.208 0.645 1.425 2.278 2.765 2.708 2.249 1.663 1.088 0.684 0.408 0.220 0.127 0.070 0.046 0.030 0.021 0.015 0.003 0.000 0.000 0.000
0.000 0.000 0.000 0.000 0.000 0.000 0.000 0.000 0.000 0.004 0.057 0.236 0.733 1.604 2.545 3.186 3.265 2.856 2.065 1.382 0.940 0.557 0.315 0.168 0.094 0.063 0.040 0.028 0.019 0.015 0.005 0.000 0.000
0.000 0.000 0.000 0.000 0.000 0.000 0.000 0.000 0.000 0.005 0.057 0.243 0.755 1.598 2.557 3.287 3.495 3.143 2.372 1.724 1.157 0.747 0.412 0.228 0.126 0.074 0.047 0.037 0.024 0.017 0.014 0.008 0.001
0.000 0.000 0.000 0.000 0.000 0.000 0.000 0.000 0.000 0.005 0.052 0.240 0.733 1.501 2.297 2.987 3.274 3.140 2.623 1.999 1.379 0.887 0.516 0.306 0.157 0.088 0.055 0.039 0.031 0.023 0.015 0.013 0.008
0.000 0.000 0.000 0.000 0.000 0.000 0.000 0.000 0.000 0.004 0.043 0.202 0.638 1.328 1.970 2.412 2.876 3.093 2.763 2.120 1.533 0.962 0.666 0.389 0.218 0.105 0.061 0.040 0.036 0.028 0.016 0.012 0.008
0.000 0.000 0.000 0.000 0.000 0.000 0.000 0.000 0.000 0.002 0.033 0.168 0.539 1.116 1.609 2.026 2.423 2.670 2.647 2.211 1.624 1.095 0.818 0.510 0.270 0.136 0.069 0.043 0.038 0.030 0.019 0.013 0.005
0.000 0.000 0.000 0.000 0.000 0.000 0.000 0.000 0.000 0.001 0.026 0.139 0.470 1.008 1.418 1.635 1.845 2.217 2.424 2.208 1.687 1.216 0.907 0.574 0.337 0.188 0.089 0.051 0.038 0.030 0.022 0.015 0.005
0.000 0.000 0.000 0.000 0.000 0.000 0.000 0.000 0.000 0.001 0.023 0.125 0.400 0.800 1.146 1.237 1.461 1.829 2.187 2.235 1.819 1.330 0.957 0.662 0.446 0.254 0.124 0.060 0.038 0.030 0.024 0.016 0.006
0.000 0.000 0.000 0.000 0.000 0.000 0.000 0.000 0.000 0.001 0.035 0.130 0.378 0.724 0.972 1.092 1.238 1.549 1.993 2.262 2.056 1.547 1.006 0.719 0.539 0.322 0.176 0.079 0.044 0.031 0.025 0.016 0.007
0.000 0.000 0.000 0.000 0.000 0.005 0.011 0.013 0.014 0.021 0.060 0.154 0.358 0.605 0.829 0.986 1.125 1.380 1.842 2.315 2.472 1.929 1.059 0.721 0.595 0.405 0.242 0.113 0.059 0.037 0.025 0.016 0.007
0.000 0.000 0.000 0.005 0.034 0.057 0.066 0.062 0.069 0.073 0.096 0.184 0.366 0.556 0.780 0.918 1.085 1.313 1.732 2.314 2.778 2.260 1.179 0.692 0.633 0.476 0.325 0.164 0.082 0.041 0.026 0.016 0.007
0.000 0.000 0.005 0.053 0.102 0.136 0.144 0.153 0.165 0.154 0.156 0.223 0.374 0.531 0.694 0.874 1.074 1.351 1.716 2.380 3.072 2.719 1.419 0.718 0.632 0.550 0.404 0.211 0.107 0.047 0.025 0.014 0.008
0.000 0.002 0.041 0.118 0.201 0.275 0.311 0.301 0.296 0.266 0.230 0.273 0.365 0.502 0.645 0.809 1.160 1.474 1.826 2.470 3.260 3.190 1.724 0.709 0.616 0.572 0.416 0.267 0.140 0.058 0.026 0.015 0.009
0.000 0.011 0.085 0.206 0.368 0.495 0.495 0.455 0.438 0.389 0.325 0.322 0.390 0.513 0.712 0.894 1.251 1.643 1.889 2.458 3.214 3.339 1.930 0.682 0.601 0.528 0.421 0.314 0.177 0.073 0.032 0.018 0.010
0.000 0.027 0.124 0.307 0.553 0.672 0.647 0.580 0.559 0.502 0.391 0.358 0.385 0.548 0.802 0.981 1.341 1.677 1.890 2.266 3.077 3.347 1.953 0.603 0.482 0.448 0.423 0.353 0.213 0.095 0.047 0.022 0.011
0.000 0.044 0.160 0.421 0.713 0.847 0.756 0.669 0.637 0.572 0.440 0.375 0.407 0.598 0.926 1.051 1.357 1.676 1.849 2.066 2.657 3.065 1.811 0.523 0.431 0.451 0.430 0.371 0.226 0.133 0.066 0.028 0.014
0.000 0.057 0.198 0.497 0.812 0.934 0.835 0.727 0.682 0.640 0.464 0.373 0.408 0.644 1.030 1.088 1.338 1.645 1.710 1.759 2.172 2.633 1.747 0.489 0.405 0.410 0.408 0.326 0.240 0.171 0.080 0.040 0.015
0.000 0.060 0.206 0.499 0.816 0.907 0.817 0.729 0.713 0.633 0.468 0.373 0.401 0.677 1.067 1.129 1.237 1.537 1.453 1.395 1.726 2.116 1.393 0.441 0.333 0.349 0.323 0.299 0.265 0.184 0.099 0.041 0.012
0.000 0.054 0.180 0.454 0.756 0.865 0.791 0.742 0.681 0.604 0.467 0.366 0.403 0.721 1.064 1.107 1.143 1.157 1.102 1.136 1.231 1.575 1.220 0.390 0.253 0.253 0.280 0.294 0.270 0.193 0.109 0.041 0.014
0.000 0.048 0.159 0.403 0.667 0.765 0.744 0.675 0.633 0.581 0.464 0.356 0.397 0.749 0.991 1.081 0.977 0.964 0.908 0.949 0.869 1.144 1.047 0.336 0.227 0.233 0.263 0.279 0.261 0.189 0.117 0.046 0.019
0.000 0.040 0.119 0.284 0.501 0.652 0.623 0.594 0.600 0.531 0.414 0.304 0.375 0.735 0.910 1.025 0.790 0.685 0.754 0.714 0.606 0.847 0.819 0.279 0.199 0.181 0.219 0.249 0.248 0.194 0.111 0.050 0.018
0.000 0.031 0.087 0.217 0.375 0.476 0.522 0.550 0.546 0.472 0.377 0.273 0.351 0.686 0.746 0.859 0.621 0.550 0.582 0.557 0.424 0.559 0.606 0.221 0.164 0.150 0.181 0.217 0.220 0.165 0.106 0.053 0.019
0.000 0.024 0.065 0.159 0.289 0.384 0.449 0.474 0.456 0.362 0.272 0.226 0.311 0.633 0.623 0.714 0.524 0.409 0.455 0.447 0.285 0.364 0.437 0.187 0.136 0.132 0.157 0.183 0.172 0.134 0.098 0.058 0.021
0.000 0.019 0.050 0.121 0.227 0.288 0.350 0.389 0.347 0.271 0.220 0.183 0.257 0.515 0.468 0.611 0.448 0.317 0.337 0.304 0.181 0.214 0.340 0.149 0.110 0.110 0.116 0.140 0.131 0.114 0.092 0.056 0.022
0.000 0.015 0.040 0.094 0.163 0.230 0.270 0.286 0.293 0.214 0.176 0.152 0.205 0.396 0.356 0.468 0.305 0.193 0.234 0.220 0.124 0.151 0.264 0.111 0.083 0.091 0.096 0.103 0.103 0.094 0.081 0.053 0.022
0.000 0.010 0.029 0.064 0.115 0.162 0.191 0.216 0.215 0.156 0.126 0.115 0.155 0.315 0.265 0.366 0.235 0.136 0.154 0.165 0.095 0.091 0.195 0.083 0.061 0.067 0.072 0.081 0.079 0.076 0.071 0.055 0.015
0.000 0.007 0.021 0.049 0.083 0.116 0.137 0.163 0.150 0.118 0.101 0.085 0.112 0.249 0.194 0.272 0.169 0.092 0.111 0.118 0.062 0.056 0.139 0.062 0.046 0.052 0.052 0.058 0.061 0.061 0.056 0.031 0.014
0.000 0.004 0.016 0.040 0.063 0.086 0.102 0.112 0.114 0.093 0.068 0.057 0.077 0.189 0.141 0.207 0.131 0.070 0.079 0.077 0.042 0.040 0.099 0.050 0.042 0.045 0.044 0.044 0.048 0.047 0.033 0.028 0.022
0.000 0.002 0.013 0.031 0.048 0.064 0.073 0.077 0.083 0.065 0.055 0.048 0.062 0.140 0.088 0.133 0.070 0.030 0.042 0.052 0.035 0.031 0.062 0.044 0.035 0.039 0.036 0.038 0.043 0.023 0.022 0.035 0.025
0.000 0.001 0.010 0.026 0.040 0.045 0.048 0.051 0.065 0.052 0.043 0.034 0.035 0.062 0.040 0.045 0.041 0.030 0.036 0.034 0.030 0.028 0.049 0.040 0.027 0.030 0.028 0.030 0.021 0.017 0.031 0.039 0.023
0.000 0.000 0.008 0.021 0.031 0.035 0.034 0.038 0.045 0.036 0.020 0.017 0.021 0.031 0.027 0.029 0.028 0.023 0.027 0.027 0.024 0.024 0.040 0.030 0.023 0.027 0.026 0.016 0.016 0.022 0.022 0.029 0.021
