ncols        35
nrows        58
xllcorner    409717.8
yllcorner    6870749.1
cellsize     5.00
NODATA_value -9999
0.000 0.000 0.000 0.000 0.000 0.000 0.000 0.000 0.000 0.000 0.000 0.000 0.000 0.000 0.000 0.000 0.000 0.000 0.000 0.000 0.000 0.000 0.000 0.000 0.000 0.000 0.000 0.000 0.000 0.000 0.000 0.000 0.000 0.000 0.000
0.000 0.000 0.000 0.008 0.035 0.063 0.079 0.076 0.061 0.040 0.020 0.004 0.000 0.000 0.000 0.000 0.000 0.000 0.000 0.000 0.000 0.000 0.000 0.000 0.000 0.000 0.000 0.000 0.000 0.000 0.000 0.000 0.000 0.000 0.000
0.000 0.000 0.012 0.062 0.118 0.186 0.222 0.217 0.171 0.113 0.061 0.035 0.012 0.000 0.000 0.000 0.000 0.000 0.000 0.000 0.000 0.000 0.000 0.000 0.000 0.000 0.000 0.000 0.000 0.000 0.000 0.000 0.000 0.000 0.000
0.000 0.009 0.066 0.154 0.296 0.441 0.504 0.495 0.397 0.267 0.152 0.080 0.040 0.017 0.001 0.000 0.000 0.000 0.000 0.000 0.000 0.000 0.000 0.000 0.000 0.000 0.000 0.000 0.000 0.000 0.000 0.000 0.000 0.000 0.000
0.002 0.039 0.136 0.318 0.586 0.826 0.959 0.948 0.765 0.527 0.321 0.172 0.084 0.039 0.017 0.000 0.000 0.000 0.000 0.000 0.000 0.000 0.000 0.000 0.000 0.000 0.000 0.000 0.000 0.000 0.000 0.000 0.000 0.000 0.000
0.010 0.079 0.235 0.539 0.954 1.349 1.600 1.542 1.289 0.927 0.585 0.311 0.161 0.075 0.031 0.013 0.000 0.000 0.000 0.000 0.000 0.000 0.000 0.000 0.000 0.000 0.000 0.000 0.000 0.000 0.000 0.000 0.000 0.000 0.000
0.021 0.114 0.344 0.784 1.334 1.917 2.229 2.239 1.917 1.432 0.924 0.513 0.280 0.133 0.052 0.026 0.006 0.000 0.000 0.000 0.000 0.000 0.000 0.000 0.000 0.000 0.000 0.000 0.000 0.000 0.000 0.000 0.000 0.000 0.000
0.029 0.135 0.416 0.967 1.690 2.475 2.828 2.961 2.614 2.071 1.381 0.819 0.443 0.213 0.087 0.037 0.021 0.001 0.000 0.000 0.000 0.000 0.000 0.000 0.000 0.000 0.000 0.000 0.000 0.000 0.000 0.000 0.000 0.000 0.000
0.030 0.133 0.451 1.064 1.995 2.732 3.294 3.570 3.328 2.772 1.898 1.195 0.651 0.321 0.139 0.061 0.024 0.014 0.000 0.000 0.000 0.000 0.000 0.000 0.000 0.000 0.000 0.000 0.000 0.000 0.000 0.000 0.000 0.000 0.000
0.024 0.114 0.400 1.019 1.976 2.895 3.597 4.054 3.914 3.346 2.475 1.666 0.950 0.471 0.214 0.092 0.039 0.019 0.005 0.000 0.000 0.000 0.000 0.000 0.000 0.000 0.000 0.000 0.000 0.000 0.000 0.000 0.000 0.000 0.000
0.016 0.081 0.311 0.883 1.802 2.797 3.717 4.283 4.127 3.852 3.153 2.233 1.332 0.678 0.316 0.138 0.059 0.024 0.015 0.002 0.000 0.000 0.000 0.000 0.000 0.000 0.000 0.000 0.000 0.000 0.000 0.000 0.000 0.000 0.000
0.009 0.049 0.209 0.657 1.491 2.607 3.535 4.041 4.308 4.242 3.670 2.760 1.771 0.973 0.467 0.215 0.093 0.038 0.015 0.012 0.000 0.000 0.000 0.000 0.000 0.000 0.000 0.000 0.000 0.000 0.000 0.000 0.000 0.000 0.000
0.003 0.029 0.122 0.439 1.130 2.183 3.193 3.791 4.106 4.163 3.994 3.186 2.225 1.294 0.691 0.340 0.144 0.058 0.025 0.011 0.009 0.000 0.000 0.000 0.000 0.000 0.000 0.000 0.000 0.000 0.000 0.000 0.000 0.000 0.000
0.001 0.014 0.065 0.279 0.797 1.596 2.488 3.092 3.850 4.086 3.956 3.395 2.611 1.698 1.023 0.491 0.222 0.093 0.037 0.017 0.011 0.006 0.000 0.000 0.000 0.000 0.000 0.000 0.000 0.000 0.000 0.000 0.000 0.000 0.000
0.000 0.006 0.035 0.157 0.498 1.114 1.872 2.599 3.179 3.499 3.701 3.319 2.906 2.038 1.277 0.676 0.326 0.141 0.054 0.029 0.013 0.011 0.005 0.000 0.000 0.000 0.000 0.000 0.000 0.000 0.000 0.000 0.000 0.000 0.000
0.000 0.002 0.022 0.082 0.276 0.689 1.271 1.958 2.507 2.925 3.113 3.228 2.981 2.321 1.538 0.893 0.475 0.216 0.090 0.041 0.020 0.011 0.011 0.005 0.000 0.000 0.000 0.000 0.000 0.000 0.000 0.000 0.000 0.000 0.000
0.000 0.000 0.012 0.042 0.156 0.401 0.789 1.332 1.918 2.279 2.735 2.924 2.853 2.337 1.793 1.169 0.668 0.331 0.141 0.057 0.030 0.017 0.011 0.010 0.003 0.000 0.000 0.000 0.000 0.000 0.000 0.000 0.000 0.000 0.000
0.000 0.000 0.006 0.024 0.080 0.234 0.492 0.888 1.407 1.830 2.128 2.368 2.462 2.274 1.953 1.367 0.875 0.492 0.212 0.090 0.042 0.027 0.016 0.009 0.009 0.002 0.000 0.000 0.000 0.000 0.000 0.000 0.000 0.000 0.000
0.000 0.000 0.002 0.015 0.040 0.115 0.285 0.548 0.980 1.326 1.672 1.883 2.089 2.127 1.898 1.574 1.122 0.660 0.310 0.143 0.060 0.037 0.023 0.013 0.008 0.010 0.001 0.000 0.000 0.000 0.000 0.000 0.000 0.000 0.000
0.000 0.000 0.000 0.008 0.020 0.069 0.157 0.351 0.644 1.044 1.305 1.544 1.703 1.809 1.762 1.605 1.237 0.808 0.431 0.211 0.092 0.048 0.028 0.018 0.010 0.007 0.008 0.000 0.000 0.000 0.000 0.000 0.000 0.000 0.000
0.000 0.000 0.000 0.003 0.017 0.035 0.099 0.234 0.441 0.739 0.986 1.181 1.380 1.501 1.570 1.477 1.256 0.929 0.569 0.291 0.137 0.068 0.038 0.024 0.015 0.009 0.007 0.006 0.000 0.000 0.000 0.000 0.000 0.000 0.000
0.000 0.000 0.000 0.001 0.011 0.015 0.059 0.151 0.272 0.509 0.735 0.934 1.140 1.293 1.358 1.272 1.224 0.990 0.669 0.388 0.203 0.094 0.046 0.030 0.020 0.013 0.008 0.007 0.002 0.000 0.000 0.000 0.000 0.000 0.000
0.000 0.000 0.000 0.000 0.006 0.009 0.037 0.099 0.167 0.339 0.542 0.764 0.999 1.119 1.143 1.133 1.134 0.955 0.738 0.485 0.259 0.130 0.065 0.039 0.025 0.017 0.009 0.006 0.007 0.000 0.000 0.000 0.000 0.000 0.000
0.000 0.000 0.000 0.000 0.002 0.008 0.023 0.066 0.107 0.198 0.413 0.608 0.844 1.007 1.074 1.049 0.928 0.881 0.768 0.551 0.329 0.180 0.096 0.053 0.035 0.023 0.013 0.007 0.005 0.006 0.000 0.000 0.000 0.000 0.000
0.000 0.000 0.000 0.000 0.000 0.006 0.016 0.039 0.053 0.120 0.281 0.479 0.688 0.960 1.035 0.901 0.792 0.775 0.711 0.581 0.399 0.228 0.125 0.072 0.042 0.030 0.018 0.010 0.006 0.004 0.002 0.000 0.000 0.000 0.000
0.000 0.000 0.000 0.000 0.000 0.001 0.014 0.026 0.033 0.074 0.202 0.370 0.619 0.909 1.075 0.914 0.691 0.659 0.652 0.563 0.436 0.280 0.156 0.095 0.055 0.038 0.025 0.015 0.008 0.005 0.007 0.000 0.000 0.000 0.000
0.000 0.000 0.000 0.000 0.000 0.000 0.012 0.010 0.015 0.045 0.140 0.301 0.511 0.837 1.089 0.937 0.640 0.546 0.558 0.536 0.442 0.308 0.190 0.116 0.069 0.045 0.035 0.019 0.012 0.006 0.004 0.008 0.000 0.000 0.000
0.000 0.000 0.000 0.000 0.000 0.000 0.007 0.005 0.007 0.026 0.089 0.211 0.395 0.689 1.045 0.975 0.612 0.493 0.476 0.468 0.415 0.329 0.216 0.140 0.086 0.053 0.040 0.025 0.018 0.010 0.005 0.005 0.002 0.000 0.000
0.000 0.000 0.000 0.000 0.000 0.000 0.001 0.004 0.005 0.014 0.054 0.150 0.276 0.558 0.986 1.051 0.603 0.434 0.414 0.419 0.392 0.336 0.242 0.149 0.096 0.062 0.043 0.031 0.022 0.013 0.007 0.003 0.008 0.000 0.000
0.000 0.000 0.000 0.000 0.000 0.000 0.000 0.003 0.005 0.008 0.029 0.088 0.182 0.401 0.879 1.126 0.623 0.389 0.367 0.377 0.370 0.321 0.245 0.159 0.107 0.071 0.047 0.037 0.027 0.018 0.009 0.004 0.004 0.004 0.000
0.000 0.000 0.000 0.000 0.000 0.000 0.000 0.001 0.004 0.005 0.019 0.055 0.091 0.250 0.673 1.147 0.676 0.355 0.319 0.333 0.338 0.311 0.235 0.164 0.123 0.079 0.054 0.046 0.035 0.025 0.012 0.007 0.004 0.004 0.000
0.000 0.000 0.000 0.000 0.000 0.000 0.000 0.000 0.002 0.006 0.018 0.032 0.045 0.124 0.457 1.097 0.744 0.330 0.286 0.297 0.302 0.281 0.236 0.173 0.133 0.095 0.076 0.055 0.038 0.027 0.018 0.010 0.005 0.002 0.004
0.000 0.000 0.000 0.000 0.000 0.000 0.000 0.000 0.000 0.004 0.011 0.016 0.025 0.058 0.261 0.944 0.818 0.326 0.252 0.263 0.270 0.261 0.240 0.184 0.146 0.118 0.097 0.061 0.038 0.030 0.026 0.014 0.008 0.004 0.003
0.000 0.000 0.000 0.000 0.000 0.000 0.000 0.000 0.000 0.003 0.007 0.008 0.015 0.032 0.118 0.750 0.875 0.337 0.225 0.233 0.240 0.245 0.226 0.180 0.150 0.135 0.112 0.069 0.046 0.041 0.030 0.019 0.012 0.004 0.002
0.000 0.000 0.000 0.000 0.000 0.000 0.000 0.000 0.000 0.001 0.005 0.005 0.008 0.023 0.045 0.491 0.876 0.345 0.206 0.202 0.219 0.227 0.208 0.179 0.165 0.150 0.121 0.079 0.058 0.050 0.030 0.021 0.015 0.008 0.003
0.000 0.000 0.000 0.000 0.000 0.000 0.000 0.000 0.000 0.000 0.004 0.004 0.005 0.019 0.029 0.304 0.855 0.366 0.191 0.173 0.191 0.196 0.182 0.174 0.173 0.156 0.129 0.092 0.075 0.053 0.034 0.022 0.018 0.017 0.006
0.000 0.000 0.000 0.000 0.000 0.000 0.000 0.000 0.000 0.000 0.002 0.004 0.003 0.016 0.028 0.167 0.754 0.379 0.182 0.148 0.163 0.170 0.165 0.173 0.167 0.158 0.143 0.110 0.080 0.059 0.038 0.025 0.020 0.016 0.007
0.000 0.000 0.000 0.000 0.000 0.000 0.000 0.000 0.000 0.000 0.000 0.004 0.003 0.013 0.026 0.095 0.645 0.408 0.190 0.139 0.144 0.148 0.147 0.154 0.162 0.172 0.156 0.124 0.091 0.065 0.043 0.031 0.019 0.012 0.008
0.000 0.000 0.000 0.000 0.000 0.000 0.000 0.000 0.000 0.000 0.000 0.002 0.003 0.013 0.026 0.067 0.501 0.429 0.200 0.135 0.131 0.128 0.130 0.146 0.173 0.187 0.160 0.146 0.110 0.073 0.049 0.037 0.024 0.014 0.010
0.000 0.000 0.000 0.000 0.000 0.000 0.000 0.000 0.000 0.000 0.000 0.000 0.002 0.014 0.024 0.057 0.400 0.422 0.211 0.134 0.114 0.111 0.118 0.138 0.169 0.180 0.174 0.152 0.118 0.083 0.061 0.045 0.031 0.020 0.012
0.000 0.000 0.000 0.000 0.000 0.000 0.000 0.000 0.000 0.000 0.000 0.000 0.001 0.012 0.022 0.052 0.297 0.413 0.218 0.130 0.103 0.098 0.097 0.116 0.152 0.173 0.171 0.147 0.119 0.093 0.075 0.051 0.039 0.029 0.018
0.000 0.000 0.000 0.000 0.000 0.000 0.000 0.000 0.000 0.000 0.000 0.000 0.001 0.013 0.019 0.045 0.226 0.394 0.217 0.132 0.099 0.084 0.079 0.106 0.142 0.157 0.152 0.137 0.119 0.106 0.086 0.061 0.046 0.033 0.021
0.000 0.000 0.000 0.000 0.000 0.000 0.000 0.000 0.000 0.000 0.000 0.000 0.000 0.012 0.018 0.042 0.162 0.351 0.216 0.136 0.095 0.079 0.082 0.101 0.120 0.134 0.138 0.130 0.129 0.116 0.091 0.070 0.048 0.034 0.021
0.000 0.000 0.000 0.000 0.000 0.000 0.000 0.000 0.000 0.000 0.000 0.000 0.001 0.012 0.018 0.041 0.126 0.305 0.225 0.131 0.093 0.079 0.075 0.085 0.099 0.118 0.125 0.124 0.131 0.115 0.095 0.074 0.050 0.037 0.024
0.000 0.000 0.000 0.000 0.000 0.000 0.000 0.000 0.000 0.000 0.000 0.000 0.001 0.011 0.020 0.038 0.101 0.247 0.224 0.138 0.090 0.074 0.066 0.072 0.088 0.099 0.101 0.115 0.120 0.113 0.093 0.074 0.054 0.043 0.031
0.000 0.000 0.000 0.000 0.000 0.000 0.000 0.000 0.000 0.000 0.000 0.000 0.001 0.009 0.019 0.038 0.089 0.205 0.220 0.142 0.086 0.067 0.061 0.061 0.071 0.079 0.094 0.111 0.106 0.103 0.093 0.073 0.060 0.049 0.039
0.000 0.000 0.000 0.000 0.000 0.000 0.000 0.000 0.000 0.000 0.000 0.000 0.001 0.008 0.019 0.037 0.073 0.155 0.202 0.149 0.083 0.063 0.057 0.051 0.055 0.070 0.089 0.094 0.098 0.104 0.090 0.069 0.068 0.058 0.041
0.000 0.000 0.000 0.000 0.000 0.000 0.000 0.000 0.000 0.000 0.000 0.000 0.001 0.006 0.019 0.036 0.065 0.132 0.171 0.165 0.078 0.052 0.046 0.046 0.051 0.064 0.076 0.081 0.089 0.093 0.081 0.077 0.072 0.056 0.044
0.000 0.000 0.000 0.000 0.000 0.000 0.000 0.000 0.000 0.000 0.000 0.000 0.000 0.005 0.018 0.035 0.053 0.116 0.158 0.157 0.072 0.048 0.043 0.044 0.047 0.054 0.064 0.070 0.076 0.081 0.085 0.085 0.072 0.060 0.044
0.000 0.000 0.000 0.000 0.000 0.000 0.000 0.000 0.000 0.000 0.000 0.000 0.000 0.005 0.017 0.033 0.045 0.107 0.152 0.142 0.064 0.043 0.042 0.044 0.042 0.049 0.057 0.061 0.066 0.078 0.087 0.089 0.079 0.061 0.043
0.000 0.000 0.000 0.000 0.000 0.000 0.000 0.000 0.000 0.000 0.000 0.000 0.000 0.004 0.016 0.032 0.041 0.097 0.144 0.120 0.056 0.039 0.038 0.038 0.038 0.044 0.053 0.055 0.057 0.070 0.082 0.088 0.080 0.062 0.045
0.000 0.000 0.000 0.000 0.000 0.000 0.000 0.000 0.000 0.000 0.000 0.000 0.000 0.004 0.015 0.028 0.038 0.092 0.143 0.103 0.053 0.039 0.034 0.033 0.033 0.037 0.046 0.045 0.050 0.062 0.075 0.082 0.079 0.066 0.050
0.000 0.000 0.000 0.000 0.000 0.000 0.000 0.000 0.000 0.000 0.000 0.000 0.000 0.004 0.013 0.026 0.037 0.088 0.125 0.093 0.052 0.039 0.034 0.028 0.026 0.029 0.038 0.042 0.043 0.051 0.065 0.075 0.080 0.068 0.049
0.000 0.000 0.000 0.000 0.000 0.000 0.000 0.000 0.000 0.000 0.000 0.000 0.000 0.004 0.013 0.024 0.036 0.084 0.109 0.075 0.053 0.040 0.030 0.024 0.023 0.026 0.033 0.040 0.037 0.043 0.056 0.069 0.076 0.063 0.045
0.000 0.000 0.000 0.000 0.000 0.000 0.000 0.000 0.000 0.000 0.000 0.000 0.000 0.004 0.012 0.022 0.034 0.075 0.098 0.071 0.049 0.035 0.028 0.023 0.021 0.020 0.028 0.038 0.036 0.037 0.043 0.056 0.060 0.051 0.043
0.000 0.000 0.000 0.000 0.000 0.000 0.000 0.000 0.000 0.000 0.000 0.000 0.000 0.007 0.011 0.020 0.033 0.064 0.083 0.056 0.041 0.034 0.027 0.024 0.018 0.014 0.023 0.038 0.034 0.028 0.032 0.043 0.052 0.047 0.038
0.000 0.000 0.000 0.000 0.000 0.000 0.000 0.000 0.000 0.000 0.000 0.000 0.001 0.026 0.009 0.016 0.032 0.053 0.068 0.047 0.031 0.027 0.024 0.022 0.014 0.011 0.021 0.032 0.027 0.022 0.026 0.037 0.043 0.041 0.033
0.000 0.000 0.000 0.000 0.000 0.000 0.000 0.000 0.000 0.000 0.000 0.000 0.004 0.009 0.007 0.014 0.025 0.038 0.048 0.034 0.021 0.020 0.018 0.014 0.010 0.010 0.016 0.023 0.021 0.020 0.020 0.026 0.031 0.031 0.029
