ncols        41
nrows        108
xllcorner    409612.8
yllcorner    6870834.1
cellsize     5.00
NODATA_value -9999
0.000 0.000 0.000 0.000 0.000 0.000 0.000 0.000 0.000 0.000 0.000 0.000 0.000 0.000 0.000 0.000 0.000 0.000 0.000 0.000 0.000 0.000 0.000 0.000 0.000 0.000 0.000 0.000 0.000 0.000 0.000 0.000 0.000 0.000 0.000 0.000 0.000 0.000 0.000 0.000 0.000
0.000 0.000 0.005 0.041 0.071 0.066 0.043 0.004 0.000 0.000 0.000 0.000 0.000 0.000 0.000 0.000 0.000 0.000 0.000 0.000 0.000 0.000 0.000 0.000 0.000 0.000 0.000 0.000 0.000 0.000 0.000 0.000 0.000 0.000 0.000 0.000 0.000 0.000 0.000 0.000 0.000
0.000 0.003 0.043 0.113 0.177 0.156 0.095 0.040 0.000 0.000 0.000 0.000 0.000 0.000 0.000 0.000 0.000 0.000 0.000 0.000 0.000 0.000 0.000 0.000 0.000 0.000 0.000 0.000 0.000 0.000 0.000 0.000 0.000 0.000 0.000 0.000 0.000 0.000 0.000 0.000 0.000
0.000 0.020 0.109 0.267 0.406 0.328 0.191 0.070 0.020 0.000 0.000 0.000 0.000 0.000 0.000 0.000 0.000 0.000 0.000 0.000 0.000 0.000 0.000 0.000 0.000 0.000 0.000 0.000 0.000 0.000 0.000 0.000 0.000 0.000 0.000 0.000 0.000 0.000 0.000 0.000 0.000
0.002 0.044 0.204 0.511 0.777 0.650 0.372 0.143 0.041 0.003 0.000 0.000 0.000 0.000 0.000 0.000 0.000 0.000 0.000 0.000 0.000 0.000 0.000 0.000 0.000 0.000 0.000 0.000 0.000 0.000 0.000 0.000 0.000 0.000 0.000 0.000 0.000 0.000 0.000 0.000 0.000
0.005 0.064 0.277 0.737 1.109 1.189 0.614 0.231 0.077 0.029 0.000 0.000 0.000 0.000 0.000 0.000 0.000 0.000 0.000 0.000 0.000 0.000 0.000 0.000 0.000 0.000 0.000 0.000 0.000 0.000 0.000 0.000 0.000 0.000 0.000 0.000 0.000 0.000 0.000 0.000 0.000
0.007 0.068 0.314 0.947 1.602 1.825 0.963 0.397 0.142 0.041 0.006 0.000 0.000 0.000 0.000 0.000 0.000 0.000 0.000 0.000 0.000 0.000 0.000 0.000 0.000 0.000 0.000 0.000 0.000 0.000 0.000 0.000 0.000 0.000 0.000 0.000 0.000 0.000 0.000 0.000 0.000
0.007 0.063 0.323 0.989 1.942 2.307 1.504 0.598 0.200 0.065 0.035 0.000 0.000 0.000 0.000 0.000 0.000 0.000 0.000 0.000 0.000 0.000 0.000 0.000 0.000 0.000 0.000 0.000 0.000 0.000 0.000 0.000 0.000 0.000 0.000 0.000 0.000 0.000 0.000 0.000 0.000
0.006 0.054 0.262 0.987 2.392 2.847 2.034 0.827 0.304 0.107 0.042 0.000 0.000 0.000 0.000 0.000 0.000 0.000 0.000 0.000 0.000 0.000 0.000 0.000 0.000 0.000 0.000 0.000 0.000 0.000 0.000 0.000 0.000 0.000 0.000 0.000 0.000 0.000 0.000 0.000 0.000
0.004 0.037 0.182 0.894 2.305 3.366 2.560 1.159 0.433 0.139 0.051 0.002 0.000 0.000 0.000 0.000 0.000 0.000 0.000 0.000 0.000 0.000 0.000 0.000 0.000 0.000 0.000 0.000 0.000 0.000 0.000 0.000 0.000 0.000 0.000 0.000 0.000 0.000 0.000 0.000 0.000
0.002 0.023 0.120 0.655 2.289 3.640 3.101 1.600 0.573 0.196 0.073 0.025 0.000 0.000 0.000 0.000 0.000 0.000 0.000 0.000 0.000 0.000 0.000 0.000 0.000 0.000 0.000 0.000 0.000 0.000 0.000 0.000 0.000 0.000 0.000 0.000 0.000 0.000 0.000 0.000 0.000
0.001 0.015 0.078 0.462 1.957 3.793 3.805 2.009 0.745 0.238 0.097 0.041 0.000 0.000 0.000 0.000 0.000 0.000 0.000 0.000 0.000 0.000 0.000 0.000 0.000 0.000 0.000 0.000 0.000 0.000 0.000 0.000 0.000 0.000 0.000 0.000 0.000 0.000 0.000 0.000 0.000
0.000 0.009 0.050 0.264 1.538 3.854 4.431 2.527 0.877 0.334 0.123 0.040 0.000 0.000 0.000 0.000 0.000 0.000 0.000 0.000 0.000 0.000 0.000 0.000 0.000 0.000 0.000 0.000 0.000 0.000 0.000 0.000 0.000 0.000 0.000 0.000 0.000 0.000 0.000 0.000 0.000
0.000 0.008 0.046 0.173 1.228 3.703 4.821 2.950 1.049 0.446 0.152 0.044 0.000 0.000 0.000 0.000 0.000 0.000 0.000 0.000 0.000 0.000 0.000 0.000 0.000 0.000 0.000 0.000 0.000 0.000 0.000 0.000 0.000 0.000 0.000 0.000 0.000 0.000 0.000 0.000 0.000
0.000 0.013 0.049 0.148 0.850 3.300 4.744 2.887 1.328 0.585 0.193 0.051 0.000 0.000 0.000 0.000 0.000 0.000 0.000 0.000 0.000 0.000 0.000 0.000 0.000 0.000 0.000 0.000 0.000 0.000 0.000 0.000 0.000 0.000 0.000 0.000 0.000 0.000 0.000 0.000 0.000
0.001 0.018 0.049 0.140 0.540 2.391 3.843 3.137 1.647 0.798 0.258 0.064 0.011 0.000 0.000 0.000 0.000 0.000 0.000 0.000 0.000 0.000 0.000 0.000 0.000 0.000 0.000 0.000 0.000 0.000 0.000 0.000 0.000 0.000 0.000 0.000 0.000 0.000 0.000 0.000 0.000
0.001 0.020 0.052 0.147 0.363 1.795 3.377 3.491 2.079 1.083 0.336 0.078 0.030 0.000 0.000 0.000 0.000 0.000 0.000 0.000 0.000 0.000 0.000 0.000 0.000 0.000 0.000 0.000 0.000 0.000 0.000 0.000 0.000 0.000 0.000 0.000 0.000 0.000 0.000 0.000 0.000
0.001 0.022 0.054 0.157 0.301 1.298 2.813 3.514 2.481 1.346 0.431 0.098 0.030 0.000 0.000 0.000 0.000 0.000 0.000 0.000 0.000 0.000 0.000 0.000 0.000 0.000 0.000 0.000 0.000 0.000 0.000 0.000 0.000 0.000 0.000 0.000 0.000 0.000 0.000 0.000 0.000
0.002 0.022 0.056 0.153 0.264 0.923 2.239 3.168 2.883 1.627 0.557 0.125 0.027 0.005 0.000 0.000 0.000 0.000 0.000 0.000 0.000 0.000 0.000 0.000 0.000 0.000 0.000 0.000 0.000 0.000 0.000 0.000 0.000 0.000 0.000 0.000 0.000 0.000 0.000 0.000 0.000
0.002 0.024 0.062 0.143 0.249 0.703 1.673 2.886 3.008 1.881 0.711 0.170 0.032 0.023 0.000 0.000 0.000 0.000 0.000 0.000 0.000 0.000 0.000 0.000 0.000 0.000 0.000 0.000 0.000 0.000 0.000 0.000 0.000 0.000 0.000 0.000 0.000 0.000 0.000 0.000 0.000
0.002 0.026 0.064 0.131 0.222 0.563 1.161 2.375 2.906 2.096 0.878 0.234 0.041 0.024 0.001 0.000 0.000 0.000 0.000 0.000 0.000 0.000 0.000 0.000 0.000 0.000 0.000 0.000 0.000 0.000 0.000 0.000 0.000 0.000 0.000 0.000 0.000 0.000 0.000 0.000 0.000
0.002 0.025 0.064 0.121 0.192 0.436 0.773 1.732 2.878 2.204 1.059 0.291 0.051 0.026 0.018 0.000 0.000 0.000 0.000 0.000 0.000 0.000 0.000 0.000 0.000 0.000 0.000 0.000 0.000 0.000 0.000 0.000 0.000 0.000 0.000 0.000 0.000 0.000 0.000 0.000 0.000
0.002 0.023 0.063 0.110 0.165 0.298 0.500 1.062 2.144 2.275 1.265 0.389 0.077 0.034 0.034 0.006 0.000 0.000 0.000 0.000 0.000 0.000 0.000 0.000 0.000 0.000 0.000 0.000 0.000 0.000 0.000 0.000 0.000 0.000 0.000 0.000 0.000 0.000 0.000 0.000 0.000
0.003 0.022 0.061 0.104 0.151 0.265 0.369 0.730 1.781 2.480 1.530 0.530 0.112 0.043 0.036 0.031 0.013 0.001 0.000 0.000 0.000 0.000 0.000 0.000 0.000 0.000 0.000 0.000 0.000 0.000 0.000 0.000 0.000 0.000 0.000 0.000 0.000 0.000 0.000 0.000 0.000
0.002 0.022 0.059 0.091 0.121 0.209 0.285 0.446 1.412 2.524 1.626 0.740 0.159 0.051 0.039 0.041 0.041 0.021 0.001 0.000 0.000 0.000 0.000 0.000 0.000 0.000 0.000 0.000 0.000 0.000 0.000 0.000 0.000 0.000 0.000 0.000 0.000 0.000 0.000 0.000 0.000
0.001 0.024 0.052 0.076 0.102 0.180 0.248 0.345 1.084 2.071 1.868 0.932 0.226 0.064 0.042 0.046 0.050 0.036 0.016 0.000 0.000 0.000 0.000 0.000 0.000 0.000 0.000 0.000 0.000 0.000 0.000 0.000 0.000 0.000 0.000 0.000 0.000 0.000 0.000 0.000 0.000
0.001 0.024 0.049 0.066 0.093 0.155 0.212 0.295 0.845 1.873 1.949 1.104 0.309 0.087 0.048 0.045 0.051 0.043 0.028 0.008 0.000 0.000 0.000 0.000 0.000 0.000 0.000 0.000 0.000 0.000 0.000 0.000 0.000 0.000 0.000 0.000 0.000 0.000 0.000 0.000 0.000
0.001 0.022 0.041 0.056 0.074 0.144 0.200 0.267 0.628 1.473 1.862 1.248 0.402 0.117 0.056 0.044 0.051 0.047 0.039 0.026 0.001 0.000 0.000 0.000 0.000 0.000 0.000 0.000 0.000 0.000 0.000 0.000 0.000 0.000 0.000 0.000 0.000 0.000 0.000 0.000 0.000
0.004 0.017 0.033 0.048 0.065 0.118 0.176 0.254 0.530 1.180 1.751 1.280 0.507 0.161 0.067 0.048 0.046 0.048 0.055 0.029 0.018 0.000 0.000 0.000 0.000 0.000 0.000 0.000 0.000 0.000 0.000 0.000 0.000 0.000 0.000 0.000 0.000 0.000 0.000 0.000 0.000
0.002 0.015 0.031 0.044 0.052 0.096 0.154 0.221 0.432 0.933 1.521 1.366 0.584 0.204 0.084 0.054 0.047 0.059 0.059 0.040 0.026 0.010 0.000 0.000 0.000 0.000 0.000 0.000 0.000 0.000 0.000 0.000 0.000 0.000 0.000 0.000 0.000 0.000 0.000 0.000 0.000
0.001 0.012 0.026 0.040 0.047 0.075 0.125 0.193 0.360 0.815 1.337 1.372 0.655 0.236 0.102 0.059 0.048 0.060 0.067 0.056 0.028 0.026 0.001 0.000 0.000 0.000 0.000 0.000 0.000 0.000 0.000 0.000 0.000 0.000 0.000 0.000 0.000 0.000 0.000 0.000 0.000
0.000 0.008 0.022 0.039 0.046 0.061 0.102 0.179 0.306 0.690 1.180 1.206 0.645 0.255 0.116 0.069 0.049 0.051 0.068 0.062 0.036 0.026 0.017 0.000 0.000 0.000 0.000 0.000 0.000 0.000 0.000 0.000 0.000 0.000 0.000 0.000 0.000 0.000 0.000 0.000 0.000
0.000 0.006 0.019 0.032 0.042 0.050 0.084 0.152 0.267 0.565 1.082 1.187 0.654 0.282 0.134 0.073 0.054 0.051 0.075 0.065 0.042 0.028 0.023 0.000 0.000 0.000 0.000 0.000 0.000 0.000 0.000 0.000 0.000 0.000 0.000 0.000 0.000 0.000 0.000 0.000 0.000
0.000 0.007 0.016 0.025 0.035 0.048 0.074 0.126 0.229 0.462 0.894 1.139 0.669 0.281 0.145 0.085 0.062 0.052 0.065 0.068 0.048 0.032 0.021 0.011 0.000 0.000 0.000 0.000 0.000 0.000 0.000 0.000 0.000 0.000 0.000 0.000 0.000 0.000 0.000 0.000 0.000
0.000 0.005 0.015 0.021 0.031 0.042 0.060 0.102 0.190 0.401 0.733 1.041 0.724 0.352 0.173 0.095 0.064 0.055 0.060 0.063 0.055 0.037 0.023 0.015 0.000 0.000 0.000 0.000 0.000 0.000 0.000 0.000 0.000 0.000 0.000 0.000 0.000 0.000 0.000 0.000 0.000
0.000 0.005 0.013 0.018 0.029 0.039 0.050 0.084 0.157 0.324 0.607 0.982 0.743 0.366 0.177 0.097 0.062 0.054 0.057 0.061 0.054 0.046 0.025 0.012 0.005 0.000 0.000 0.000 0.000 0.000 0.000 0.000 0.000 0.000 0.000 0.000 0.000 0.000 0.000 0.000 0.000
0.000 0.002 0.012 0.017 0.024 0.033 0.044 0.064 0.128 0.279 0.535 0.951 0.739 0.428 0.213 0.098 0.065 0.051 0.051 0.057 0.058 0.049 0.030 0.015 0.014 0.000 0.000 0.000 0.000 0.000 0.000 0.000 0.000 0.000 0.000 0.000 0.000 0.000 0.000 0.000 0.000
0.000 0.001 0.009 0.016 0.019 0.026 0.033 0.051 0.108 0.236 0.446 0.777 0.748 0.491 0.241 0.126 0.069 0.046 0.047 0.056 0.060 0.052 0.039 0.024 0.012 0.004 0.000 0.000 0.000 0.000 0.000 0.000 0.000 0.000 0.000 0.000 0.000 0.000 0.000 0.000 0.000
0.000 0.000 0.007 0.015 0.016 0.021 0.030 0.043 0.088 0.181 0.311 0.672 0.757 0.492 0.296 0.140 0.074 0.057 0.051 0.057 0.056 0.051 0.052 0.032 0.013 0.013 0.000 0.000 0.000 0.000 0.000 0.000 0.000 0.000 0.000 0.000 0.000 0.000 0.000 0.000 0.000
0.000 0.000 0.005 0.013 0.013 0.013 0.022 0.039 0.065 0.129 0.289 0.617 0.670 0.564 0.337 0.152 0.093 0.067 0.052 0.049 0.048 0.060 0.059 0.035 0.016 0.013 0.001 0.000 0.000 0.000 0.000 0.000 0.000 0.000 0.000 0.000 0.000 0.000 0.000 0.000 0.000
0.000 0.000 0.005 0.011 0.010 0.008 0.016 0.019 0.047 0.116 0.256 0.495 0.640 0.582 0.339 0.168 0.096 0.065 0.049 0.041 0.049 0.058 0.054 0.044 0.026 0.014 0.010 0.000 0.000 0.000 0.000 0.000 0.000 0.000 0.000 0.000 0.000 0.000 0.000 0.000 0.000
0.000 0.000 0.002 0.009 0.010 0.007 0.006 0.014 0.064 0.105 0.216 0.439 0.598 0.549 0.375 0.195 0.109 0.068 0.046 0.044 0.046 0.049 0.055 0.052 0.034 0.019 0.014 0.000 0.000 0.000 0.000 0.000 0.000 0.000 0.000 0.000 0.000 0.000 0.000 0.000 0.000
0.000 0.000 0.001 0.008 0.010 0.004 0.002 0.022 0.054 0.093 0.185 0.355 0.507 0.530 0.392 0.213 0.122 0.067 0.050 0.043 0.041 0.047 0.053 0.056 0.042 0.024 0.012 0.003 0.000 0.000 0.000 0.000 0.000 0.000 0.000 0.000 0.000 0.000 0.000 0.000 0.000
0.000 0.000 0.000 0.004 0.009 0.005 0.003 0.020 0.047 0.070 0.157 0.293 0.450 0.511 0.429 0.262 0.137 0.080 0.062 0.042 0.046 0.054 0.050 0.055 0.043 0.027 0.015 0.015 0.000 0.000 0.000 0.000 0.000 0.000 0.000 0.000 0.000 0.000 0.000 0.000 0.000
0.000 0.000 0.000 0.000 0.008 0.005 0.005 0.019 0.030 0.049 0.117 0.233 0.369 0.479 0.470 0.293 0.152 0.095 0.062 0.045 0.049 0.048 0.046 0.050 0.046 0.034 0.021 0.014 0.000 0.000 0.000 0.000 0.000 0.000 0.000 0.000 0.000 0.000 0.000 0.000 0.000
0.000 0.000 0.000 0.000 0.006 0.006 0.007 0.015 0.019 0.036 0.086 0.196 0.348 0.457 0.475 0.289 0.162 0.115 0.075 0.056 0.055 0.041 0.036 0.044 0.050 0.043 0.028 0.014 0.000 0.000 0.000 0.000 0.000 0.000 0.000 0.000 0.000 0.000 0.000 0.000 0.000
0.000 0.000 0.000 0.000 0.004 0.008 0.007 0.010 0.014 0.025 0.062 0.159 0.310 0.418 0.456 0.297 0.195 0.136 0.085 0.060 0.050 0.036 0.031 0.039 0.049 0.047 0.034 0.019 0.003 0.000 0.000 0.000 0.000 0.000 0.000 0.000 0.000 0.000 0.000 0.000 0.000
0.000 0.000 0.000 0.000 0.001 0.006 0.005 0.007 0.009 0.017 0.049 0.130 0.242 0.387 0.417 0.327 0.210 0.154 0.096 0.069 0.056 0.037 0.030 0.037 0.044 0.053 0.050 0.031 0.027 0.000 0.000 0.000 0.000 0.000 0.000 0.000 0.000 0.000 0.000 0.000 0.000
0.000 0.000 0.000 0.000 0.000 0.003 0.004 0.006 0.007 0.015 0.035 0.095 0.187 0.305 0.402 0.331 0.247 0.174 0.120 0.088 0.062 0.040 0.030 0.031 0.039 0.058 0.074 0.038 0.038 0.000 0.000 0.000 0.000 0.000 0.000 0.000 0.000 0.000 0.000 0.000 0.000
0.000 0.000 0.000 0.000 0.000 0.002 0.004 0.006 0.007 0.011 0.024 0.064 0.146 0.263 0.358 0.362 0.278 0.202 0.169 0.117 0.073 0.041 0.028 0.027 0.036 0.056 0.084 0.045 0.034 0.000 0.000 0.000 0.000 0.000 0.000 0.000 0.000 0.000 0.000 0.000 0.000
0.000 0.000 0.000 0.000 0.000 0.001 0.003 0.006 0.006 0.008 0.016 0.049 0.121 0.221 0.327 0.374 0.323 0.243 0.213 0.136 0.073 0.045 0.026 0.025 0.034 0.048 0.090 0.061 0.028 0.000 0.000 0.000 0.000 0.000 0.000 0.000 0.000 0.000 0.000 0.000 0.000
0.000 0.000 0.000 0.000 0.000 0.000 0.002 0.005 0.006 0.007 0.013 0.033 0.083 0.163 0.293 0.374 0.327 0.265 0.229 0.148 0.086 0.049 0.027 0.024 0.026 0.035 0.101 0.068 0.028 0.003 0.000 0.000 0.000 0.000 0.000 0.000 0.000 0.000 0.000 0.000 0.000
0.000 0.000 0.000 0.000 0.000 0.000 0.001 0.004 0.005 0.006 0.011 0.026 0.059 0.129 0.265 0.365 0.367 0.297 0.243 0.163 0.102 0.052 0.031 0.023 0.021 0.031 0.097 0.073 0.030 0.020 0.000 0.000 0.000 0.000 0.000 0.000 0.000 0.000 0.000 0.000 0.000
0.000 0.000 0.000 0.000 0.000 0.000 0.001 0.003 0.004 0.005 0.011 0.018 0.046 0.097 0.197 0.313 0.377 0.313 0.246 0.209 0.118 0.060 0.034 0.025 0.025 0.034 0.092 0.077 0.032 0.026 0.000 0.000 0.000 0.000 0.000 0.000 0.000 0.000 0.000 0.000 0.000
0.000 0.000 0.000 0.000 0.000 0.000 0.000 0.003 0.003 0.004 0.010 0.018 0.033 0.067 0.156 0.277 0.359 0.313 0.252 0.244 0.149 0.076 0.036 0.033 0.030 0.039 0.091 0.077 0.033 0.024 0.003 0.000 0.000 0.000 0.000 0.000 0.000 0.000 0.000 0.000 0.000
0.000 0.000 0.000 0.000 0.000 0.000 0.000 0.002 0.003 0.003 0.010 0.018 0.024 0.047 0.120 0.215 0.309 0.314 0.269 0.246 0.170 0.091 0.048 0.041 0.035 0.032 0.082 0.078 0.033 0.019 0.019 0.000 0.000 0.000 0.000 0.000 0.000 0.000 0.000 0.000 0.000
0.000 0.000 0.000 0.000 0.000 0.000 0.000 0.002 0.002 0.002 0.008 0.012 0.017 0.035 0.085 0.156 0.246 0.301 0.288 0.241 0.216 0.127 0.061 0.044 0.033 0.027 0.076 0.080 0.034 0.016 0.020 0.002 0.000 0.000 0.000 0.000 0.000 0.000 0.000 0.000 0.000
0.000 0.000 0.000 0.000 0.000 0.000 0.000 0.000 0.001 0.002 0.007 0.009 0.010 0.021 0.063 0.112 0.201 0.291 0.261 0.253 0.243 0.165 0.079 0.047 0.032 0.028 0.070 0.082 0.037 0.014 0.014 0.012 0.000 0.000 0.000 0.000 0.000 0.000 0.000 0.000 0.000
0.000 0.000 0.000 0.000 0.000 0.000 0.000 0.000 0.001 0.001 0.005 0.007 0.007 0.014 0.040 0.079 0.196 0.277 0.270 0.283 0.288 0.215 0.097 0.053 0.036 0.033 0.063 0.083 0.040 0.012 0.011 0.012 0.002 0.000 0.000 0.000 0.000 0.000 0.000 0.000 0.000
0.000 0.000 0.000 0.000 0.000 0.000 0.000 0.000 0.000 0.002 0.004 0.004 0.004 0.008 0.030 0.055 0.168 0.252 0.272 0.308 0.334 0.233 0.114 0.058 0.040 0.031 0.066 0.089 0.043 0.011 0.009 0.009 0.010 0.000 0.000 0.000 0.000 0.000 0.000 0.000 0.000
0.000 0.000 0.000 0.000 0.000 0.000 0.000 0.000 0.000 0.002 0.003 0.001 0.002 0.005 0.017 0.041 0.189 0.233 0.285 0.317 0.352 0.243 0.132 0.074 0.046 0.036 0.064 0.084 0.046 0.011 0.008 0.008 0.010 0.005 0.000 0.000 0.000 0.000 0.000 0.000 0.000
0.000 0.000 0.000 0.000 0.000 0.000 0.000 0.000 0.000 0.003 0.001 0.001 0.001 0.002 0.012 0.036 0.144 0.201 0.238 0.289 0.315 0.266 0.170 0.112 0.053 0.047 0.058 0.080 0.052 0.012 0.006 0.007 0.007 0.008 0.001 0.000 0.000 0.000 0.000 0.000 0.000
0.000 0.000 0.000 0.000 0.000 0.000 0.000 0.000 0.000 0.001 0.001 0.001 0.001 0.002 0.009 0.034 0.175 0.177 0.182 0.233 0.288 0.308 0.212 0.126 0.082 0.086 0.066 0.073 0.054 0.011 0.005 0.005 0.005 0.005 0.008 0.000 0.000 0.000 0.000 0.000 0.000
0.000 0.000 0.000 0.000 0.000 0.000 0.000 0.000 0.000 0.000 0.001 0.000 0.001 0.001 0.007 0.033 0.112 0.128 0.137 0.190 0.282 0.341 0.232 0.144 0.117 0.119 0.086 0.070 0.055 0.011 0.004 0.004 0.004 0.005 0.014 0.000 0.000 0.000 0.000 0.000 0.000
0.000 0.000 0.000 0.000 0.000 0.000 0.000 0.000 0.000 0.000 0.000 0.001 0.001 0.001 0.004 0.043 0.086 0.118 0.117 0.150 0.263 0.352 0.257 0.153 0.124 0.123 0.090 0.078 0.057 0.014 0.004 0.003 0.003 0.003 0.007 0.008 0.000 0.000 0.000 0.000 0.000
0.000 0.000 0.000 0.000 0.000 0.000 0.000 0.000 0.000 0.000 0.000 0.000 0.001 0.001 0.001 0.016 0.078 0.120 0.111 0.145 0.228 0.298 0.221 0.144 0.109 0.113 0.102 0.086 0.066 0.019 0.005 0.003 0.002 0.002 0.005 0.018 0.001 0.000 0.000 0.000 0.000
0.000 0.000 0.000 0.000 0.000 0.000 0.000 0.000 0.000 0.000 0.000 0.000 0.001 0.000 0.000 0.003 0.058 0.116 0.110 0.125 0.192 0.230 0.205 0.145 0.124 0.136 0.116 0.098 0.075 0.024 0.006 0.002 0.002 0.002 0.004 0.012 0.002 0.000 0.000 0.000 0.000
0.000 0.000 0.000 0.000 0.000 0.000 0.000 0.000 0.000 0.000 0.000 0.000 0.000 0.001 0.000 0.001 0.073 0.099 0.103 0.121 0.171 0.222 0.194 0.156 0.174 0.170 0.109 0.097 0.104 0.038 0.009 0.003 0.002 0.002 0.003 0.006 0.004 0.000 0.000 0.000 0.000
0.000 0.000 0.000 0.000 0.000 0.000 0.000 0.000 0.000 0.000 0.000 0.000 0.000 0.000 0.002 0.000 0.019 0.060 0.076 0.112 0.169 0.197 0.180 0.185 0.245 0.196 0.106 0.560 0.216 0.058 0.016 0.004 0.002 0.001 0.002 0.005 0.006 0.000 0.000 0.000 0.000
0.000 0.000 0.000 0.000 0.000 0.000 0.000 0.000 0.000 0.000 0.000 0.000 0.000 0.000 0.001 0.000 0.005 0.026 0.045 0.096 0.170 0.183 0.150 0.125 0.202 0.113 1.010 0.541 0.233 0.084 0.033 0.009 0.002 0.014 0.003 0.007 0.005 0.001 0.000 0.000 0.000
0.000 0.000 0.000 0.000 0.000 0.000 0.000 0.000 0.000 0.000 0.000 0.000 0.000 0.000 0.000 0.000 0.002 0.006 0.021 0.078 0.148 0.176 0.159 0.138 0.228 1.536 1.287 0.297 0.283 0.116 0.045 0.014 0.040 0.019 0.015 0.005 0.003 0.004 0.000 0.000 0.000
0.000 0.000 0.000 0.000 0.000 0.000 0.000 0.000 0.000 0.000 0.000 0.000 0.000 0.000 0.000 0.000 0.001 0.001 0.008 0.056 0.069 0.094 0.145 0.356 0.939 1.956 0.993 0.685 0.398 0.154 0.073 0.045 0.034 0.025 0.030 0.004 0.003 0.005 0.000 0.000 0.000
0.000 0.000 0.000 0.000 0.000 0.000 0.000 0.000 0.000 0.000 0.000 0.000 0.000 0.000 0.000 0.000 0.002 0.001 0.004 0.011 0.020 0.045 0.125 0.339 0.947 1.378 1.134 1.068 0.343 0.186 0.121 0.060 0.016 0.042 0.039 0.006 0.003 0.003 0.002 0.000 0.000
0.000 0.000 0.000 0.000 0.000 0.000 0.000 0.000 0.000 0.000 0.000 0.000 0.000 0.000 0.000 0.000 0.001 0.001 0.002 0.003 0.007 0.025 0.096 0.253 0.696 0.479 1.334 0.557 0.363 0.190 0.140 0.063 0.028 0.098 0.065 0.009 0.004 0.002 0.004 0.000 0.000
0.000 0.000 0.000 0.000 0.000 0.000 0.000 0.000 0.000 0.000 0.000 0.000 0.000 0.000 0.000 0.000 0.000 0.002 0.002 0.001 0.001 0.007 0.037 0.138 0.370 0.711 0.930 0.440 0.377 0.213 0.189 0.087 0.096 0.119 0.033 0.012 0.007 0.003 0.002 0.002 0.000
0.000 0.000 0.000 0.000 0.000 0.000 0.000 0.000 0.000 0.000 0.000 0.000 0.000 0.000 0.000 0.000 0.000 0.002 0.001 0.000 0.000 0.002 0.011 0.092 0.199 1.172 0.383 0.401 0.409 0.253 0.173 0.090 0.097 0.085 0.027 0.018 0.013 0.005 0.002 0.004 0.002
0.000 0.000 0.000 0.000 0.000 0.000 0.000 0.000 0.000 0.000 0.000 0.000 0.000 0.000 0.000 0.000 0.000 0.000 0.001 0.000 0.000 0.000 0.005 0.031 0.115 0.337 0.293 0.361 0.539 0.251 0.150 0.095 0.127 0.068 0.021 0.015 0.012 0.008 0.003 0.002 0.002
0.000 0.000 0.000 0.000 0.000 0.000 0.000 0.000 0.000 0.000 0.000 0.000 0.000 0.000 0.000 0.000 0.000 0.000 0.000 0.001 0.000 0.000 0.001 0.008 0.062 0.154 0.207 0.590 0.416 0.206 0.213 0.227 0.175 0.058 0.017 0.012 0.012 0.009 0.003 0.001 0.001
0.000 0.000 0.000 0.000 0.000 0.000 0.000 0.000 0.000 0.000 0.000 0.000 0.000 0.000 0.000 0.000 0.000 0.000 0.000 0.000 0.001 0.000 0.000 0.001 0.012 0.040 0.956 1.095 0.447 0.279 0.205 0.337 0.212 0.071 0.019 0.010 0.013 0.011 0.004 0.001 0.001
0.000 0.000 0.000 0.000 0.000 0.000 0.000 0.000 0.000 0.000 0.000 0.000 0.000 0.000 0.000 0.000 0.000 0.000 0.000 0.000 0.000 0.000 0.000 0.000 0.003 0.022 0.699 1.293 0.477 0.316 0.334 0.524 0.272 0.108 0.031 0.014 0.036 0.016 0.006 0.002 0.001
0.000 0.000 0.000 0.000 0.000 0.000 0.000 0.000 0.000 0.000 0.000 0.000 0.000 0.000 0.000 0.000 0.000 0.000 0.000 0.000 0.000 0.000 0.000 0.000 0.001 0.057 0.469 0.850 0.325 0.955 0.739 0.479 0.231 0.155 0.062 0.042 0.022 0.020 0.008 0.002 0.001
0.000 0.000 0.000 0.000 0.000 0.000 0.000 0.000 0.000 0.000 0.000 0.000 0.000 0.000 0.000 0.000 0.000 0.000 0.000 0.000 0.000 0.000 0.000 0.000 0.001 0.009 0.301 0.662 0.832 0.581 0.571 0.349 0.202 0.184 0.066 0.031 0.018 0.017 0.009 0.003 0.001
0.000 0.000 0.000 0.000 0.000 0.000 0.000 0.000 0.000 0.000 0.000 0.000 0.000 0.000 0.000 0.000 0.000 0.000 0.000 0.000 0.000 0.000 0.002 0.000 0.001 0.003 0.063 0.238 0.368 0.486 0.418 0.310 0.447 0.209 0.074 0.032 0.019 0.020 0.013 0.008 0.002
0.000 0.000 0.000 0.000 0.000 0.000 0.000 0.000 0.000 0.000 0.000 0.000 0.000 0.000 0.000 0.000 0.000 0.000 0.000 0.000 0.000 0.000 0.000 0.000 0.001 0.001 0.047 0.089 0.162 0.392 0.435 0.715 0.461 0.206 0.081 0.043 0.022 0.017 0.026 0.009 0.002
0.000 0.000 0.000 0.000 0.000 0.000 0.000 0.000 0.000 0.000 0.000 0.000 0.000 0.000 0.000 0.000 0.000 0.000 0.000 0.000 0.000 0.000 0.000 0.001 0.000 0.001 0.010 0.041 0.061 0.263 0.421 0.495 0.346 0.213 0.117 0.060 0.026 0.042 0.095 0.014 0.004
0.000 0.000 0.000 0.000 0.000 0.000 0.000 0.000 0.000 0.000 0.000 0.000 0.000 0.000 0.000 0.000 0.000 0.000 0.000 0.000 0.000 0.000 0.000 0.001 0.000 0.000 0.003 0.010 0.021 0.104 0.343 0.763 0.393 0.247 0.161 0.084 0.065 0.152 0.099 0.049 0.008
0.000 0.000 0.000 0.000 0.000 0.000 0.000 0.000 0.000 0.000 0.000 0.000 0.000 0.000 0.000 0.000 0.000 0.000 0.000 0.000 0.000 0.000 0.000 0.001 0.001 0.000 0.003 0.003 0.007 0.046 1.042 0.862 0.386 0.231 0.164 0.113 0.086 0.153 0.096 0.075 0.041
0.000 0.000 0.000 0.000 0.000 0.000 0.000 0.000 0.000 0.000 0.000 0.000 0.000 0.000 0.000 0.000 0.000 0.000 0.000 0.000 0.000 0.000 0.000 0.000 0.001 0.014 0.001 0.002 0.029 0.150 0.853 0.578 0.304 0.223 0.167 0.122 0.058 0.161 0.169 0.132 0.046
0.000 0.000 0.000 0.000 0.000 0.000 0.000 0.000 0.000 0.000 0.000 0.000 0.000 0.000 0.000 0.000 0.000 0.000 0.000 0.000 0.000 0.000 0.000 0.000 0.001 0.002 0.001 0.001 0.042 0.088 0.670 0.360 0.294 0.243 0.185 0.122 0.051 0.315 0.214 0.119 0.129
0.000 0.000 0.000 0.000 0.000 0.000 0.000 0.000 0.000 0.000 0.000 0.000 0.000 0.000 0.000 0.000 0.000 0.000 0.000 0.000 0.000 0.000 0.000 0.000 0.000 0.001 0.001 0.001 0.049 0.201 0.138 0.207 0.249 0.244 0.188 0.146 0.232 0.452 0.174 0.219 0.169
0.000 0.000 0.000 0.000 0.000 0.000 0.000 0.000 0.000 0.000 0.000 0.000 0.000 0.000 0.000 0.000 0.000 0.000 0.000 0.000 0.000 0.000 0.000 0.000 0.000 0.001 0.001 0.001 0.014 0.099 0.031 0.105 0.156 0.173 0.182 0.207 0.366 0.158 0.257 0.264 0.199
0.000 0.000 0.000 0.000 0.000 0.000 0.000 0.000 0.000 0.000 0.000 0.000 0.000 0.000 0.000 0.000 0.000 0.000 0.000 0.000 0.000 0.000 0.000 0.000 0.000 0.000 0.001 0.001 0.018 0.006 0.010 0.050 0.106 0.129 0.181 0.210 0.207 0.168 0.238 0.240 0.226
0.000 0.000 0.000 0.000 0.000 0.000 0.000 0.000 0.000 0.000 0.000 0.000 0.000 0.000 0.000 0.000 0.000 0.000 0.000 0.000 0.000 0.000 0.000 0.000 0.000 0.000 0.000 0.002 0.005 0.002 0.004 0.029 0.086 0.115 0.153 0.214 0.224 0.165 0.123 0.185 0.185
0.000 0.000 0.000 0.000 0.000 0.000 0.000 0.000 0.000 0.000 0.000 0.000 0.000 0.000 0.000 0.000 0.000 0.000 0.000 0.000 0.000 0.000 0.000 0.000 0.000 0.000 0.000 0.011 0.001 0.000 0.001 0.016 0.085 0.091 0.104 0.151 0.183 0.166 0.096 0.073 0.132
0.000 0.000 0.000 0.000 0.000 0.000 0.000 0.000 0.000 0.000 0.000 0.000 0.000 0.000 0.000 0.000 0.000 0.000 0.000 0.000 0.000 0.000 0.000 0.000 0.000 0.000 0.000 0.001 0.000 0.000 0.001 0.007 0.084 0.086 0.075 0.110 0.144 0.161 0.101 0.046 0.043
0.000 0.000 0.000 0.000 0.000 0.000 0.000 0.000 0.000 0.000 0.000 0.000 0.000 0.000 0.000 0.000 0.000 0.000 0.000 0.000 0.000 0.000 0.000 0.000 0.000 0.000 0.000 0.000 0.000 0.000 0.001 0.002 0.083 0.107 0.075 0.104 0.131 0.149 0.085 0.045 0.038
0.000 0.000 0.000 0.000 0.000 0.000 0.000 0.000 0.000 0.000 0.000 0.000 0.000 0.000 0.000 0.000 0.000 0.000 0.000 0.000 0.000 0.000 0.000 0.000 0.000 0.000 0.000 0.000 0.001 0.000 0.000 0.001 0.046 0.111 0.073 0.103 0.132 0.149 0.081 0.044 0.036
0.000 0.000 0.000 0.000 0.000 0.000 0.000 0.000 0.000 0.000 0.000 0.000 0.000 0.000 0.000 0.000 0.000 0.000 0.000 0.000 0.000 0.000 0.000 0.000 0.000 0.000 0.000 0.000 0.000 0.000 0.000 0.001 0.028 0.049 0.059 0.088 0.136 0.158 0.078 0.043 0.035
0.000 0.000 0.000 0.000 0.000 0.000 0.000 0.000 0.000 0.000 0.000 0.000 0.000 0.000 0.000 0.000 0.000 0.000 0.000 0.000 0.000 0.000 0.000 0.000 0.000 0.000 0.000 0.000 0.000 0.001 0.000 0.004 0.011 0.019 0.038 0.075 0.134 0.165 0.081 0.046 0.038
0.000 0.000 0.000 0.000 0.000 0.000 0.000 0.000 0.000 0.000 0.000 0.000 0.000 0.000 0.000 0.000 0.000 0.000 0.000 0.000 0.000 0.000 0.000 0.000 0.000 0.000 0.000 0.000 0.000 0.000 0.000 0.001 0.003 0.007 0.022 0.052 0.116 0.171 0.095 0.046 0.040
0.000 0.000 0.000 0.000 0.000 0.000 0.000 0.000 0.000 0.000 0.000 0.000 0.000 0.000 0.000 0.000 0.000 0.000 0.000 0.000 0.000 0.000 0.000 0.000 0.000 0.000 0.000 0.000 0.000 0.000 0.000 0.001 0.001 0.002 0.009 0.026 0.083 0.154 0.106 0.046 0.040
0.000 0.000 0.000 0.000 0.000 0.000 0.000 0.000 0.000 0.000 0.000 0.000 0.000 0.000 0.000 0.000 0.000 0.000 0.000 0.000 0.000 0.000 0.000 0.000 0.000 0.000 0.000 0.000 0.000 0.000 0.000 0.001 0.001 0.001 0.004 0.009 0.050 0.125 0.107 0.044 0.033
0.000 0.000 0.000 0.000 0.000 0.000 0.000 0.000 0.000 0.000 0.000 0.000 0.000 0.000 0.000 0.000 0.000 0.000 0.000 0.000 0.000 0.000 0.000 0.000 0.000 0.000 0.000 0.000 0.000 0.000 0.000 0.001 0.000 0.000 0.002 0.004 0.033 0.099 0.104 0.040 0.025
0.000 0.000 0.000 0.000 0.000 0.000 0.000 0.000 0.000 0.000 0.000 0.000 0.000 0.000 0.000 0.000 0.000 0.000 0.000 0.000 0.000 0.000 0.000 0.000 0.000 0.000 0.000 0.000 0.000 0.000 0.000 0.001 0.000 0.000 0.002 0.004 0.017 0.072 0.097 0.042 0.023
0.000 0.000 0.000 0.000 0.000 0.000 0.000 0.000 0.000 0.000 0.000 0.000 0.000 0.000 0.000 0.000 0.000 0.000 0.000 0.000 0.000 0.000 0.000 0.000 0.000 0.000 0.000 0.000 0.000 0.000 0.000 0.000 0.000 0.000 0.002 0.003 0.009 0.055 0.093 0.047 0.029
0.000 0.000 0.000 0.000 0.000 0.000 0.000 0.000 0.000 0.000 0.000 0.000 0.000 0.000 0.000 0.000 0.000 0.000 0.000 0.000 0.000 0.000 0.000 0.000 0.000 0.000 0.000 0.000 0.000 0.000 0.000 0.000 0.000 0.000 0.002 0.003 0.008 0.040 0.080 0.050 0.035
0.000 0.000 0.000 0.000 0.000 0.000 0.000 0.000 0.000 0.000 0.000 0.000 0.000 0.000 0.000 0.000 0.000 0.000 0.000 0.000 0.000 0.000 0.000 0.000 0.000 0.000 0.000 0.000 0.000 0.000 0.000 0.000 0.000 0.000 0.002 0.003 0.008 0.032 0.056 0.047 0.035
0.000 0.000 0.000 0.000 0.000 0.000 0.000 0.000 0.000 0.000 0.000 0.000 0.000 0.000 0.000 0.000 0.000 0.000 0.000 0.000 0.000 0.000 0.000 0.000 0.000 0.000 0.000 0.000 0.000 0.000 0.000 0.000 0.000 0.000 0.001 0.002 0.006 0.020 0.036 0.035 0.024
