ncols        41
nrows        96
xllcorner    409627.8
yllcorner    6870794.1
cellsize     5.00
NODATA_value -9999
0.000 0.000 0.000 0.000 0.000 0.000 0.000 0.000 0.000 0.000 0.000 0.000 0.000 0.000 0.000 0.000 0.000 0.000 0.000 0.000 0.000 0.000 0.000 0.000 0.000 0.000 0.000 0.000 0.000 0.000 0.000 0.000 0.000 0.000 0.000 0.000 0.000 0.000 0.000 0.000 0.000
0.000 0.000 0.000 0.001 0.027 0.077 0.084 0.058 0.015 0.000 0.000 0.000 0.000 0.000 0.000 0.000 0.000 0.000 0.000 0.000 0.000 0.000 0.000 0.000 0.000 0.000 0.000 0.000 0.000 0.000 0.000 0.000 0.000 0.000 0.000 0.000 0.000 0.000 0.000 0.000 0.000
0.000 0.000 0.001 0.026 0.090 0.195 0.239 0.155 0.058 0.005 0.000 0.000 0.000 0.000 0.000 0.000 0.000 0.000 0.000 0.000 0.000 0.000 0.000 0.000 0.000 0.000 0.000 0.000 0.000 0.000 0.000 0.000 0.000 0.000 0.000 0.000 0.000 0.000 0.000 0.000 0.000
0.000 0.000 0.013 0.080 0.197 0.404 0.556 0.363 0.138 0.037 0.000 0.000 0.000 0.000 0.000 0.000 0.000 0.000 0.000 0.000 0.000 0.000 0.000 0.000 0.000 0.000 0.000 0.000 0.000 0.000 0.000 0.000 0.000 0.000 0.000 0.000 0.000 0.000 0.000 0.000 0.000
0.000 0.004 0.056 0.158 0.352 0.743 1.022 0.671 0.301 0.067 0.008 0.000 0.000 0.000 0.000 0.000 0.000 0.000 0.000 0.000 0.000 0.000 0.000 0.000 0.000 0.000 0.000 0.000 0.000 0.000 0.000 0.000 0.000 0.000 0.000 0.000 0.000 0.000 0.000 0.000 0.000
0.000 0.018 0.105 0.268 0.545 1.120 1.487 1.152 0.541 0.143 0.035 0.000 0.000 0.000 0.000 0.000 0.000 0.000 0.000 0.000 0.000 0.000 0.000 0.000 0.000 0.000 0.000 0.000 0.000 0.000 0.000 0.000 0.000 0.000 0.000 0.000 0.000 0.000 0.000 0.000 0.000
0.002 0.050 0.169 0.397 0.731 1.440 2.029 1.670 0.854 0.254 0.053 0.013 0.000 0.000 0.000 0.000 0.000 0.000 0.000 0.000 0.000 0.000 0.000 0.000 0.000 0.000 0.000 0.000 0.000 0.000 0.000 0.000 0.000 0.000 0.000 0.000 0.000 0.000 0.000 0.000 0.000
0.007 0.071 0.237 0.527 0.892 1.611 2.340 2.156 1.233 0.403 0.107 0.034 0.001 0.000 0.000 0.000 0.000 0.000 0.000 0.000 0.000 0.000 0.000 0.000 0.000 0.000 0.000 0.000 0.000 0.000 0.000 0.000 0.000 0.000 0.000 0.000 0.000 0.000 0.000 0.000 0.000
0.014 0.089 0.279 0.603 1.031 1.770 2.542 2.590 1.576 0.606 0.178 0.048 0.018 0.000 0.000 0.000 0.000 0.000 0.000 0.000 0.000 0.000 0.000 0.000 0.000 0.000 0.000 0.000 0.000 0.000 0.000 0.000 0.000 0.000 0.000 0.000 0.000 0.000 0.000 0.000 0.000
0.022 0.101 0.300 0.641 1.061 1.771 2.586 2.850 1.995 0.809 0.266 0.090 0.036 0.006 0.000 0.000 0.000 0.000 0.000 0.000 0.000 0.000 0.000 0.000 0.000 0.000 0.000 0.000 0.000 0.000 0.000 0.000 0.000 0.000 0.000 0.000 0.000 0.000 0.000 0.000 0.000
0.028 0.108 0.293 0.613 1.051 1.710 2.677 3.036 2.365 1.028 0.347 0.133 0.051 0.030 0.005 0.000 0.000 0.000 0.000 0.000 0.000 0.000 0.000 0.000 0.000 0.000 0.000 0.000 0.000 0.000 0.000 0.000 0.000 0.000 0.000 0.000 0.000 0.000 0.000 0.000 0.000
0.031 0.110 0.276 0.564 1.045 1.632 2.612 3.139 2.445 1.164 0.420 0.175 0.086 0.041 0.029 0.010 0.000 0.000 0.000 0.000 0.000 0.000 0.000 0.000 0.000 0.000 0.000 0.000 0.000 0.000 0.000 0.000 0.000 0.000 0.000 0.000 0.000 0.000 0.000 0.000 0.000
0.031 0.100 0.239 0.505 0.959 1.551 2.422 3.244 2.700 1.321 0.517 0.223 0.108 0.063 0.040 0.037 0.011 0.000 0.000 0.000 0.000 0.000 0.000 0.000 0.000 0.000 0.000 0.000 0.000 0.000 0.000 0.000 0.000 0.000 0.000 0.000 0.000 0.000 0.000 0.000 0.000
0.029 0.085 0.216 0.455 0.844 1.426 2.210 3.028 2.859 1.476 0.567 0.265 0.140 0.087 0.054 0.045 0.037 0.010 0.000 0.000 0.000 0.000 0.000 0.000 0.000 0.000 0.000 0.000 0.000 0.000 0.000 0.000 0.000 0.000 0.000 0.000 0.000 0.000 0.000 0.000 0.000
0.025 0.072 0.175 0.374 0.712 1.251 2.083 2.776 2.882 1.714 0.760 0.340 0.167 0.100 0.072 0.057 0.045 0.036 0.009 0.000 0.000 0.000 0.000 0.000 0.000 0.000 0.000 0.000 0.000 0.000 0.000 0.000 0.000 0.000 0.000 0.000 0.000 0.000 0.000 0.000 0.000
0.022 0.062 0.148 0.307 0.610 1.082 1.816 2.532 2.970 1.878 0.837 0.376 0.192 0.109 0.081 0.067 0.057 0.043 0.036 0.011 0.000 0.000 0.000 0.000 0.000 0.000 0.000 0.000 0.000 0.000 0.000 0.000 0.000 0.000 0.000 0.000 0.000 0.000 0.000 0.000 0.000
0.018 0.048 0.116 0.250 0.478 0.914 1.645 2.403 3.076 1.977 1.018 0.467 0.207 0.128 0.088 0.071 0.065 0.055 0.044 0.032 0.006 0.000 0.000 0.000 0.000 0.000 0.000 0.000 0.000 0.000 0.000 0.000 0.000 0.000 0.000 0.000 0.000 0.000 0.000 0.000 0.000
0.014 0.037 0.083 0.178 0.381 0.788 1.456 2.148 2.692 2.123 1.207 0.542 0.268 0.141 0.086 0.074 0.073 0.068 0.052 0.040 0.029 0.000 0.000 0.000 0.000 0.000 0.000 0.000 0.000 0.000 0.000 0.000 0.000 0.000 0.000 0.000 0.000 0.000 0.000 0.000 0.000
0.010 0.030 0.064 0.140 0.300 0.647 1.145 1.585 2.503 2.250 1.260 0.684 0.302 0.152 0.112 0.086 0.081 0.070 0.059 0.055 0.035 0.011 0.000 0.000 0.000 0.000 0.000 0.000 0.000 0.000 0.000 0.000 0.000 0.000 0.000 0.000 0.000 0.000 0.000 0.000 0.000
0.006 0.023 0.044 0.093 0.255 0.473 0.820 1.520 2.410 2.092 1.486 0.797 0.337 0.191 0.130 0.092 0.076 0.065 0.073 0.067 0.039 0.023 0.001 0.000 0.000 0.000 0.000 0.000 0.000 0.000 0.000 0.000 0.000 0.000 0.000 0.000 0.000 0.000 0.000 0.000 0.000
0.004 0.018 0.029 0.065 0.122 0.288 0.747 1.361 2.037 2.085 1.591 0.828 0.384 0.203 0.130 0.089 0.067 0.070 0.075 0.064 0.050 0.028 0.016 0.000 0.000 0.000 0.000 0.000 0.000 0.000 0.000 0.000 0.000 0.000 0.000 0.000 0.000 0.000 0.000 0.000 0.000
0.002 0.014 0.023 0.033 0.076 0.313 0.659 1.170 1.867 2.036 1.550 0.940 0.459 0.237 0.138 0.086 0.073 0.068 0.065 0.066 0.060 0.038 0.023 0.000 0.000 0.000 0.000 0.000 0.000 0.000 0.000 0.000 0.000 0.000 0.000 0.000 0.000 0.000 0.000 0.000 0.000
0.001 0.012 0.015 0.017 0.082 0.241 0.550 1.013 1.574 1.800 1.541 1.002 0.513 0.274 0.138 0.097 0.073 0.061 0.064 0.066 0.067 0.047 0.023 0.011 0.000 0.000 0.000 0.000 0.000 0.000 0.000 0.000 0.000 0.000 0.000 0.000 0.000 0.000 0.000 0.000 0.000
0.000 0.007 0.012 0.014 0.063 0.179 0.400 0.864 1.346 1.667 1.529 1.113 0.634 0.312 0.168 0.120 0.074 0.069 0.069 0.063 0.067 0.050 0.027 0.019 0.000 0.000 0.000 0.000 0.000 0.000 0.000 0.000 0.000 0.000 0.000 0.000 0.000 0.000 0.000 0.000 0.000
0.000 0.003 0.010 0.014 0.049 0.110 0.269 0.638 1.087 1.422 1.479 1.238 0.720 0.352 0.202 0.122 0.080 0.075 0.063 0.058 0.061 0.053 0.036 0.018 0.000 0.000 0.000 0.000 0.000 0.000 0.000 0.000 0.000 0.000 0.000 0.000 0.000 0.000 0.000 0.000 0.000
0.000 0.001 0.008 0.015 0.037 0.067 0.173 0.462 0.918 1.368 1.462 1.291 0.721 0.377 0.250 0.149 0.100 0.084 0.057 0.048 0.054 0.059 0.045 0.021 0.005 0.000 0.000 0.000 0.000 0.000 0.000 0.000 0.000 0.000 0.000 0.000 0.000 0.000 0.000 0.000 0.000
0.000 0.000 0.007 0.013 0.024 0.047 0.116 0.322 0.754 1.230 1.379 1.270 0.751 0.455 0.299 0.173 0.109 0.077 0.052 0.043 0.049 0.058 0.050 0.028 0.022 0.000 0.000 0.000 0.000 0.000 0.000 0.000 0.000 0.000 0.000 0.000 0.000 0.000 0.000 0.000 0.000
0.000 0.000 0.004 0.010 0.016 0.032 0.071 0.239 0.612 0.981 1.300 1.187 0.839 0.496 0.339 0.197 0.127 0.089 0.054 0.044 0.049 0.054 0.058 0.044 0.033 0.000 0.000 0.000 0.000 0.000 0.000 0.000 0.000 0.000 0.000 0.000 0.000 0.000 0.000 0.000 0.000
0.000 0.000 0.001 0.008 0.012 0.021 0.052 0.155 0.446 0.772 1.058 1.169 0.852 0.591 0.384 0.249 0.165 0.102 0.061 0.045 0.045 0.050 0.066 0.065 0.031 0.000 0.000 0.000 0.000 0.000 0.000 0.000 0.000 0.000 0.000 0.000 0.000 0.000 0.000 0.000 0.000
0.000 0.000 0.000 0.004 0.011 0.019 0.042 0.101 0.296 0.610 0.943 1.066 0.933 0.668 0.447 0.344 0.216 0.123 0.065 0.045 0.041 0.049 0.067 0.073 0.031 0.002 0.000 0.000 0.000 0.000 0.000 0.000 0.000 0.000 0.000 0.000 0.000 0.000 0.000 0.000 0.000
0.000 0.000 0.000 0.003 0.010 0.016 0.029 0.065 0.216 0.492 0.812 1.003 0.972 0.774 0.534 0.428 0.258 0.126 0.074 0.045 0.041 0.049 0.063 0.081 0.040 0.023 0.000 0.000 0.000 0.000 0.000 0.000 0.000 0.000 0.000 0.000 0.000 0.000 0.000 0.000 0.000
0.000 0.000 0.000 0.001 0.009 0.014 0.024 0.047 0.135 0.337 0.612 0.924 0.980 0.785 0.589 0.470 0.286 0.153 0.085 0.047 0.043 0.045 0.052 0.094 0.049 0.033 0.000 0.000 0.000 0.000 0.000 0.000 0.000 0.000 0.000 0.000 0.000 0.000 0.000 0.000 0.000
0.000 0.000 0.000 0.000 0.007 0.011 0.019 0.039 0.099 0.233 0.495 0.845 0.964 0.868 0.664 0.501 0.317 0.186 0.092 0.054 0.042 0.038 0.049 0.095 0.057 0.032 0.000 0.000 0.000 0.000 0.000 0.000 0.000 0.000 0.000 0.000 0.000 0.000 0.000 0.000 0.000
0.000 0.000 0.000 0.000 0.004 0.009 0.015 0.033 0.063 0.166 0.388 0.656 0.846 0.886 0.703 0.511 0.397 0.215 0.109 0.060 0.045 0.044 0.051 0.094 0.061 0.030 0.000 0.000 0.000 0.000 0.000 0.000 0.000 0.000 0.000 0.000 0.000 0.000 0.000 0.000 0.000
0.000 0.000 0.000 0.000 0.002 0.007 0.011 0.028 0.051 0.113 0.278 0.542 0.766 0.844 0.694 0.535 0.466 0.270 0.139 0.066 0.057 0.049 0.059 0.095 0.063 0.029 0.013 0.000 0.000 0.000 0.000 0.000 0.000 0.000 0.000 0.000 0.000 0.000 0.000 0.000 0.000
0.000 0.000 0.000 0.000 0.001 0.006 0.009 0.025 0.046 0.077 0.189 0.439 0.633 0.737 0.685 0.582 0.477 0.304 0.166 0.090 0.071 0.057 0.054 0.091 0.065 0.030 0.028 0.000 0.000 0.000 0.000 0.000 0.000 0.000 0.000 0.000 0.000 0.000 0.000 0.000 0.000
0.000 0.000 0.000 0.000 0.001 0.005 0.007 0.019 0.036 0.057 0.137 0.326 0.489 0.599 0.646 0.616 0.474 0.384 0.228 0.118 0.079 0.057 0.049 0.089 0.069 0.031 0.024 0.002 0.000 0.000 0.000 0.000 0.000 0.000 0.000 0.000 0.000 0.000 0.000 0.000 0.000
0.000 0.000 0.000 0.000 0.000 0.002 0.006 0.016 0.025 0.039 0.084 0.251 0.376 0.492 0.618 0.557 0.503 0.433 0.294 0.152 0.090 0.059 0.051 0.088 0.073 0.034 0.019 0.016 0.000 0.000 0.000 0.000 0.000 0.000 0.000 0.000 0.000 0.000 0.000 0.000 0.000
0.000 0.000 0.000 0.000 0.000 0.001 0.005 0.012 0.019 0.027 0.059 0.160 0.291 0.467 0.578 0.570 0.560 0.516 0.386 0.190 0.107 0.068 0.062 0.086 0.078 0.038 0.016 0.019 0.003 0.000 0.000 0.000 0.000 0.000 0.000 0.000 0.000 0.000 0.000 0.000 0.000
0.000 0.000 0.000 0.000 0.000 0.000 0.003 0.010 0.012 0.016 0.040 0.124 0.231 0.388 0.515 0.569 0.605 0.604 0.428 0.227 0.122 0.079 0.062 0.094 0.089 0.040 0.014 0.015 0.015 0.000 0.000 0.000 0.000 0.000 0.000 0.000 0.000 0.000 0.000 0.000 0.000
0.000 0.000 0.000 0.000 0.000 0.000 0.001 0.007 0.005 0.009 0.028 0.080 0.187 0.393 0.460 0.579 0.624 0.650 0.449 0.259 0.157 0.099 0.072 0.098 0.091 0.043 0.015 0.013 0.014 0.005 0.000 0.000 0.000 0.000 0.000 0.000 0.000 0.000 0.000 0.000 0.000
0.000 0.000 0.000 0.000 0.000 0.000 0.003 0.004 0.003 0.005 0.014 0.054 0.162 0.288 0.385 0.491 0.582 0.595 0.487 0.328 0.232 0.115 0.091 0.095 0.096 0.050 0.016 0.010 0.011 0.013 0.002 0.000 0.000 0.000 0.000 0.000 0.000 0.000 0.000 0.000 0.000
0.000 0.000 0.000 0.000 0.000 0.000 0.000 0.003 0.002 0.002 0.009 0.041 0.141 0.296 0.336 0.386 0.481 0.547 0.556 0.412 0.263 0.168 0.158 0.109 0.096 0.056 0.015 0.008 0.009 0.010 0.010 0.000 0.000 0.000 0.000 0.000 0.000 0.000 0.000 0.000 0.000
0.000 0.000 0.000 0.000 0.000 0.000 0.000 0.001 0.002 0.001 0.005 0.033 0.097 0.199 0.237 0.294 0.402 0.534 0.608 0.461 0.311 0.241 0.215 0.148 0.099 0.062 0.016 0.007 0.007 0.007 0.010 0.004 0.000 0.000 0.000 0.000 0.000 0.000 0.000 0.000 0.000
0.000 0.000 0.000 0.000 0.000 0.000 0.000 0.000 0.001 0.002 0.004 0.029 0.095 0.151 0.202 0.246 0.324 0.506 0.636 0.532 0.361 0.287 0.253 0.172 0.119 0.069 0.020 0.007 0.006 0.005 0.006 0.014 0.000 0.000 0.000 0.000 0.000 0.000 0.000 0.000 0.000
0.000 0.000 0.000 0.000 0.000 0.000 0.000 0.000 0.000 0.002 0.002 0.010 0.051 0.131 0.182 0.217 0.307 0.451 0.575 0.492 0.370 0.289 0.264 0.213 0.146 0.086 0.027 0.009 0.005 0.004 0.005 0.013 0.005 0.000 0.000 0.000 0.000 0.000 0.000 0.000 0.000
0.000 0.000 0.000 0.000 0.000 0.000 0.000 0.000 0.000 0.001 0.001 0.003 0.025 0.094 0.154 0.193 0.252 0.380 0.463 0.471 0.385 0.349 0.348 0.280 0.194 0.105 0.035 0.011 0.005 0.004 0.005 0.009 0.016 0.000 0.000 0.000 0.000 0.000 0.000 0.000 0.000
0.000 0.000 0.000 0.000 0.000 0.000 0.000 0.000 0.000 0.000 0.002 0.001 0.010 0.089 0.120 0.164 0.222 0.325 0.439 0.452 0.413 0.481 0.472 0.357 0.264 0.142 0.052 0.017 0.006 0.004 0.004 0.006 0.011 0.001 0.000 0.000 0.000 0.000 0.000 0.000 0.000
0.000 0.000 0.000 0.000 0.000 0.000 0.000 0.000 0.000 0.000 0.000 0.002 0.002 0.037 0.075 0.116 0.184 0.289 0.388 0.436 0.498 0.667 0.670 0.500 0.407 0.205 0.079 0.028 0.010 0.005 0.005 0.005 0.008 0.004 0.000 0.000 0.000 0.000 0.000 0.000 0.000
0.000 0.000 0.000 0.000 0.000 0.000 0.000 0.000 0.000 0.000 0.000 0.001 0.001 0.011 0.038 0.069 0.139 0.249 0.340 0.392 0.434 0.720 0.853 0.802 0.438 0.242 0.108 0.049 0.020 0.009 0.014 0.006 0.010 0.008 0.000 0.000 0.000 0.000 0.000 0.000 0.000
0.000 0.000 0.000 0.000 0.000 0.000 0.000 0.000 0.000 0.000 0.000 0.000 0.001 0.004 0.012 0.036 0.092 0.184 0.289 0.380 0.477 0.829 1.278 0.904 0.454 0.289 0.143 0.069 0.031 0.033 0.020 0.013 0.007 0.005 0.002 0.000 0.000 0.000 0.000 0.000 0.000
0.000 0.000 0.000 0.000 0.000 0.000 0.000 0.000 0.000 0.000 0.000 0.000 0.000 0.001 0.003 0.018 0.057 0.098 0.172 0.318 0.623 0.954 1.329 0.923 0.567 0.345 0.181 0.100 0.053 0.033 0.025 0.026 0.005 0.003 0.007 0.000 0.000 0.000 0.000 0.000 0.000
0.000 0.000 0.000 0.000 0.000 0.000 0.000 0.000 0.000 0.000 0.000 0.000 0.000 0.003 0.003 0.008 0.018 0.035 0.080 0.224 0.488 0.827 1.079 0.983 0.688 0.373 0.219 0.138 0.071 0.032 0.040 0.029 0.008 0.004 0.005 0.001 0.000 0.000 0.000 0.000 0.000
0.000 0.000 0.000 0.000 0.000 0.000 0.000 0.000 0.000 0.000 0.000 0.000 0.000 0.001 0.002 0.004 0.005 0.013 0.045 0.144 0.379 0.657 0.871 0.953 0.629 0.419 0.248 0.167 0.090 0.045 0.088 0.039 0.011 0.005 0.003 0.005 0.000 0.000 0.000 0.000 0.000
0.000 0.000 0.000 0.000 0.000 0.000 0.000 0.000 0.000 0.000 0.000 0.000 0.000 0.000 0.002 0.003 0.002 0.003 0.017 0.065 0.218 0.509 0.792 0.879 0.623 0.466 0.285 0.206 0.122 0.080 0.068 0.031 0.015 0.009 0.004 0.004 0.001 0.000 0.000 0.000 0.000
0.000 0.000 0.000 0.000 0.000 0.000 0.000 0.000 0.000 0.000 0.000 0.000 0.000 0.000 0.002 0.002 0.000 0.001 0.007 0.029 0.128 0.365 0.828 0.674 0.636 0.511 0.327 0.230 0.141 0.095 0.056 0.030 0.021 0.015 0.006 0.003 0.006 0.001 0.000 0.000 0.000
0.000 0.000 0.000 0.000 0.000 0.000 0.000 0.000 0.000 0.000 0.000 0.000 0.000 0.000 0.000 0.002 0.001 0.001 0.001 0.014 0.054 0.197 0.535 0.662 0.674 0.564 0.363 0.257 0.175 0.118 0.058 0.028 0.020 0.016 0.010 0.004 0.002 0.003 0.000 0.000 0.000
0.000 0.000 0.000 0.000 0.000 0.000 0.000 0.000 0.000 0.000 0.000 0.000 0.000 0.000 0.000 0.000 0.001 0.001 0.001 0.003 0.022 0.106 0.372 0.695 0.742 0.555 0.378 0.326 0.251 0.152 0.064 0.026 0.018 0.016 0.012 0.004 0.002 0.001 0.002 0.000 0.000
0.000 0.000 0.000 0.000 0.000 0.000 0.000 0.000 0.000 0.000 0.000 0.000 0.000 0.000 0.000 0.000 0.000 0.001 0.000 0.001 0.004 0.031 0.207 0.893 0.850 0.554 0.436 0.380 0.321 0.191 0.085 0.031 0.017 0.020 0.014 0.005 0.002 0.001 0.002 0.001 0.000
0.000 0.000 0.000 0.000 0.000 0.000 0.000 0.000 0.000 0.000 0.000 0.000 0.000 0.000 0.000 0.000 0.000 0.000 0.000 0.000 0.001 0.008 0.066 0.744 0.844 0.607 0.531 0.418 0.378 0.233 0.122 0.047 0.025 0.031 0.020 0.008 0.002 0.001 0.001 0.002 0.001
0.000 0.000 0.000 0.000 0.000 0.000 0.000 0.000 0.000 0.000 0.000 0.000 0.000 0.000 0.000 0.000 0.000 0.000 0.001 0.000 0.000 0.003 0.052 0.471 0.598 0.532 0.670 0.538 0.377 0.250 0.161 0.078 0.048 0.030 0.025 0.012 0.003 0.001 0.001 0.001 0.002
0.000 0.000 0.000 0.000 0.000 0.000 0.000 0.000 0.000 0.000 0.000 0.000 0.000 0.000 0.000 0.000 0.000 0.000 0.000 0.001 0.000 0.002 0.017 0.264 0.456 0.537 0.559 0.507 0.394 0.267 0.191 0.092 0.048 0.031 0.026 0.014 0.006 0.002 0.001 0.001 0.001
0.000 0.000 0.000 0.000 0.000 0.000 0.000 0.000 0.000 0.000 0.000 0.000 0.000 0.000 0.000 0.000 0.000 0.000 0.000 0.002 0.000 0.002 0.006 0.095 0.242 0.380 0.505 0.505 0.428 0.344 0.220 0.114 0.058 0.037 0.032 0.022 0.012 0.003 0.001 0.001 0.000
0.000 0.000 0.000 0.000 0.000 0.000 0.000 0.000 0.000 0.000 0.000 0.000 0.000 0.000 0.000 0.000 0.000 0.000 0.000 0.000 0.001 0.001 0.003 0.050 0.109 0.225 0.452 0.501 0.513 0.380 0.247 0.136 0.082 0.046 0.040 0.033 0.015 0.005 0.002 0.001 0.000
0.000 0.000 0.000 0.000 0.000 0.000 0.000 0.000 0.000 0.000 0.000 0.000 0.000 0.000 0.000 0.000 0.000 0.000 0.000 0.000 0.001 0.001 0.001 0.020 0.052 0.111 0.363 0.515 0.478 0.358 0.270 0.180 0.120 0.068 0.058 0.084 0.024 0.009 0.003 0.002 0.000
0.000 0.000 0.000 0.000 0.000 0.000 0.000 0.000 0.000 0.000 0.000 0.000 0.000 0.000 0.000 0.000 0.000 0.000 0.000 0.000 0.001 0.001 0.001 0.007 0.020 0.045 0.254 0.496 0.510 0.365 0.295 0.228 0.157 0.128 0.141 0.098 0.043 0.017 0.006 0.003 0.001
0.000 0.000 0.000 0.000 0.000 0.000 0.000 0.000 0.000 0.000 0.000 0.000 0.000 0.000 0.000 0.000 0.000 0.000 0.000 0.000 0.001 0.001 0.000 0.005 0.007 0.017 0.169 0.649 0.480 0.367 0.289 0.239 0.191 0.169 0.158 0.100 0.076 0.038 0.010 0.003 0.000
0.000 0.000 0.000 0.000 0.000 0.000 0.000 0.000 0.000 0.000 0.000 0.000 0.000 0.000 0.000 0.000 0.000 0.000 0.000 0.000 0.000 0.001 0.014 0.002 0.003 0.028 0.149 0.468 0.390 0.323 0.284 0.246 0.209 0.171 0.190 0.160 0.131 0.045 0.036 0.006 0.001
0.000 0.000 0.000 0.000 0.000 0.000 0.000 0.000 0.000 0.000 0.000 0.000 0.000 0.000 0.000 0.000 0.000 0.000 0.000 0.000 0.000 0.001 0.002 0.001 0.002 0.040 0.070 0.295 0.292 0.303 0.289 0.264 0.223 0.173 0.283 0.193 0.123 0.120 0.086 0.008 0.001
0.000 0.000 0.000 0.000 0.000 0.000 0.000 0.000 0.000 0.000 0.000 0.000 0.000 0.000 0.000 0.000 0.000 0.000 0.000 0.000 0.000 0.000 0.002 0.001 0.002 0.050 0.167 0.116 0.196 0.256 0.281 0.262 0.252 0.251 0.304 0.186 0.203 0.182 0.054 0.011 0.002
0.000 0.000 0.000 0.000 0.000 0.000 0.000 0.000 0.000 0.000 0.000 0.000 0.000 0.000 0.000 0.000 0.000 0.000 0.000 0.000 0.000 0.000 0.001 0.001 0.001 0.012 0.090 0.037 0.117 0.176 0.213 0.241 0.281 0.311 0.222 0.223 0.245 0.189 0.116 0.035 0.004
0.000 0.000 0.000 0.000 0.000 0.000 0.000 0.000 0.000 0.000 0.000 0.000 0.000 0.000 0.000 0.000 0.000 0.000 0.000 0.000 0.000 0.000 0.000 0.001 0.002 0.014 0.009 0.014 0.062 0.125 0.156 0.221 0.262 0.259 0.222 0.211 0.206 0.207 0.185 0.051 0.006
0.000 0.000 0.000 0.000 0.000 0.000 0.000 0.000 0.000 0.000 0.000 0.000 0.000 0.000 0.000 0.000 0.000 0.000 0.000 0.000 0.000 0.000 0.000 0.001 0.002 0.006 0.003 0.007 0.039 0.099 0.133 0.182 0.253 0.272 0.212 0.168 0.172 0.167 0.234 0.079 0.008
0.000 0.000 0.000 0.000 0.000 0.000 0.000 0.000 0.000 0.000 0.000 0.000 0.000 0.000 0.000 0.000 0.000 0.000 0.000 0.000 0.000 0.000 0.000 0.000 0.011 0.001 0.001 0.002 0.024 0.094 0.104 0.134 0.197 0.242 0.222 0.136 0.114 0.126 0.122 0.083 0.013
0.000 0.000 0.000 0.000 0.000 0.000 0.000 0.000 0.000 0.000 0.000 0.000 0.000 0.000 0.000 0.000 0.000 0.000 0.000 0.000 0.000 0.000 0.000 0.000 0.001 0.000 0.000 0.001 0.013 0.086 0.093 0.099 0.150 0.201 0.219 0.140 0.084 0.072 0.073 0.097 0.029
0.000 0.000 0.000 0.000 0.000 0.000 0.000 0.000 0.000 0.000 0.000 0.000 0.000 0.000 0.000 0.000 0.000 0.000 0.000 0.000 0.000 0.000 0.000 0.000 0.000 0.000 0.000 0.001 0.006 0.078 0.094 0.092 0.136 0.182 0.204 0.130 0.075 0.057 0.055 0.074 0.038
0.000 0.000 0.000 0.000 0.000 0.000 0.000 0.000 0.000 0.000 0.000 0.000 0.000 0.000 0.000 0.000 0.000 0.000 0.000 0.000 0.000 0.000 0.000 0.000 0.000 0.001 0.000 0.001 0.001 0.046 0.088 0.084 0.129 0.177 0.198 0.122 0.069 0.049 0.046 0.052 0.015
0.000 0.000 0.000 0.000 0.000 0.000 0.000 0.000 0.000 0.000 0.000 0.000 0.000 0.000 0.000 0.000 0.000 0.000 0.000 0.000 0.000 0.000 0.000 0.000 0.000 0.000 0.000 0.001 0.002 0.028 0.048 0.067 0.109 0.174 0.202 0.116 0.064 0.045 0.041 0.041 0.009
0.000 0.000 0.000 0.000 0.000 0.000 0.000 0.000 0.000 0.000 0.000 0.000 0.000 0.000 0.000 0.000 0.000 0.000 0.000 0.000 0.000 0.000 0.000 0.000 0.000 0.000 0.001 0.001 0.004 0.013 0.021 0.044 0.089 0.166 0.207 0.116 0.064 0.045 0.037 0.031 0.009
0.000 0.000 0.000 0.000 0.000 0.000 0.000 0.000 0.000 0.000 0.000 0.000 0.000 0.000 0.000 0.000 0.000 0.000 0.000 0.000 0.000 0.000 0.000 0.000 0.000 0.000 0.000 0.001 0.001 0.004 0.009 0.025 0.062 0.143 0.213 0.128 0.061 0.046 0.036 0.030 0.009
0.000 0.000 0.000 0.000 0.000 0.000 0.000 0.000 0.000 0.000 0.000 0.000 0.000 0.000 0.000 0.000 0.000 0.000 0.000 0.000 0.000 0.000 0.000 0.000 0.000 0.000 0.000 0.001 0.001 0.001 0.003 0.012 0.033 0.106 0.200 0.142 0.061 0.047 0.040 0.037 0.007
0.000 0.000 0.000 0.000 0.000 0.000 0.000 0.000 0.000 0.000 0.000 0.000 0.000 0.000 0.000 0.000 0.000 0.000 0.000 0.000 0.000 0.000 0.000 0.000 0.000 0.000 0.000 0.001 0.001 0.001 0.001 0.006 0.014 0.067 0.169 0.148 0.062 0.044 0.047 0.035 0.005
0.000 0.000 0.000 0.000 0.000 0.000 0.000 0.000 0.000 0.000 0.000 0.000 0.000 0.000 0.000 0.000 0.000 0.000 0.000 0.000 0.000 0.000 0.000 0.000 0.000 0.000 0.000 0.000 0.001 0.001 0.001 0.004 0.006 0.046 0.140 0.150 0.063 0.040 0.045 0.023 0.003
0.000 0.000 0.000 0.000 0.000 0.000 0.000 0.000 0.000 0.000 0.000 0.000 0.000 0.000 0.000 0.000 0.000 0.000 0.000 0.000 0.000 0.000 0.000 0.000 0.000 0.000 0.000 0.000 0.001 0.001 0.000 0.003 0.005 0.025 0.106 0.144 0.070 0.040 0.042 0.019 0.003
0.000 0.000 0.000 0.000 0.000 0.000 0.000 0.000 0.000 0.000 0.000 0.000 0.000 0.000 0.000 0.000 0.000 0.000 0.000 0.000 0.000 0.000 0.000 0.000 0.000 0.000 0.000 0.000 0.000 0.001 0.000 0.003 0.005 0.014 0.081 0.141 0.084 0.048 0.044 0.018 0.003
0.000 0.000 0.000 0.000 0.000 0.000 0.000 0.000 0.000 0.000 0.000 0.000 0.000 0.000 0.000 0.000 0.000 0.000 0.000 0.000 0.000 0.000 0.000 0.000 0.000 0.000 0.000 0.000 0.000 0.001 0.000 0.003 0.005 0.011 0.057 0.125 0.094 0.059 0.047 0.018 0.003
0.000 0.000 0.000 0.000 0.000 0.000 0.000 0.000 0.000 0.000 0.000 0.000 0.000 0.000 0.000 0.000 0.000 0.000 0.000 0.000 0.000 0.000 0.000 0.000 0.000 0.000 0.000 0.000 0.000 0.000 0.000 0.003 0.004 0.011 0.047 0.098 0.099 0.065 0.045 0.018 0.004
0.000 0.000 0.000 0.000 0.000 0.000 0.000 0.000 0.000 0.000 0.000 0.000 0.000 0.000 0.000 0.000 0.000 0.000 0.000 0.000 0.000 0.000 0.000 0.000 0.000 0.000 0.000 0.000 0.000 0.000 0.001 0.002 0.004 0.011 0.039 0.079 0.093 0.066 0.046 0.016 0.003
0.000 0.000 0.000 0.000 0.000 0.000 0.000 0.000 0.000 0.000 0.000 0.000 0.000 0.000 0.000 0.000 0.000 0.000 0.000 0.000 0.000 0.000 0.000 0.000 0.000 0.000 0.000 0.000 0.000 0.000 0.000 0.002 0.003 0.010 0.033 0.060 0.078 0.072 0.055 0.015 0.003
0.000 0.000 0.000 0.000 0.000 0.000 0.000 0.000 0.000 0.000 0.000 0.000 0.000 0.000 0.000 0.000 0.000 0.000 0.000 0.000 0.000 0.000 0.000 0.000 0.000 0.000 0.000 0.000 0.000 0.000 0.000 0.002 0.003 0.010 0.027 0.045 0.063 0.072 0.065 0.021 0.008
0.000 0.000 0.000 0.000 0.000 0.000 0.000 0.000 0.000 0.000 0.000 0.000 0.000 0.000 0.000 0.000 0.000 0.000 0.000 0.000 0.000 0.000 0.000 0.000 0.000 0.000 0.000 0.000 0.000 0.000 0.001 0.002 0.003 0.010 0.023 0.039 0.049 0.059 0.086 0.038 0.011
0.000 0.000 0.000 0.000 0.000 0.000 0.000 0.000 0.000 0.000 0.000 0.000 0.000 0.000 0.000 0.000 0.000 0.000 0.000 0.000 0.000 0.000 0.000 0.000 0.000 0.000 0.000 0.000 0.000 0.000 0.000 0.001 0.004 0.010 0.021 0.034 0.038 0.054 0.128 0.038 0.009
0.000 0.000 0.000 0.000 0.000 0.000 0.000 0.000 0.000 0.000 0.000 0.000 0.000 0.000 0.000 0.000 0.000 0.000 0.000 0.000 0.000 0.000 0.000 0.000 0.000 0.000 0.000 0.000 0.000 0.000 0.001 0.001 0.004 0.010 0.018 0.028 0.026 0.039 0.172 0.041 0.013
0.000 0.000 0.000 0.000 0.000 0.000 0.000 0.000 0.000 0.000 0.000 0.000 0.000 0.000 0.000 0.000 0.000 0.000 0.000 0.000 0.000 0.000 0.000 0.000 0.000 0.000 0.000 0.000 0.000 0.000 0.001 0.001 0.003 0.009 0.014 0.016 0.018 0.027 0.213 0.034 0.004
0.000 0.000 0.000 0.000 0.000 0.000 0.000 0.000 0.000 0.000 0.000 0.000 0.000 0.000 0.000 0.000 0.000 0.000 0.000 0.000 0.000 0.000 0.000 0.000 0.000 0.000 0.000 0.000 0.000 0.000 0.000 0.001 0.002 0.006 0.009 0.009 0.010 0.029 0.088 0.007 0.001
0.000 0.000 0.000 0.000 0.000 0.000 0.000 0.000 0.000 0.000 0.000 0.000 0.000 0.000 0.000 0.000 0.000 0.000 0.000 0.000 0.000 0.000 0.000 0.000 0.000 0.000 0.000 0.000 0.000 0.000 0.000 0.000 0.001 0.003 0.003 0.005 0.005 0.019 0.029 0.002 0.000
