ncols        35
nrows        61
xllcorner    409702.8
yllcorner    6870759.1
cellsize     5.00
NODATA_value -9999
0.000 0.000 0.000 0.000 0.006 0.018 0.027 0.032 0.022 0.009 0.001 0.000 0.000 0.000 0.000 0.000 0.000 0.000 0.000 0.000 0.000 0.000 0.000 0.000 0.000 0.000 0.000 0.000 0.000 0.000 0.000 0.000 0.000 0.000 0.000
0.000 0.000 0.002 0.023 0.062 0.089 0.107 0.111 0.088 0.055 0.030 0.006 0.000 0.000 0.000 0.000 0.000 0.000 0.000 0.000 0.000 0.000 0.000 0.000 0.000 0.000 0.000 0.000 0.000 0.000 0.000 0.000 0.000 0.000 0.000
0.000 0.002 0.030 0.090 0.168 0.236 0.275 0.267 0.218 0.144 0.075 0.037 0.011 0.000 0.000 0.000 0.000 0.000 0.000 0.000 0.000 0.000 0.000 0.000 0.000 0.000 0.000 0.000 0.000 0.000 0.000 0.000 0.000 0.000 0.000
0.000 0.019 0.088 0.200 0.351 0.482 0.534 0.519 0.451 0.310 0.177 0.078 0.035 0.013 0.000 0.000 0.000 0.000 0.000 0.000 0.000 0.000 0.000 0.000 0.000 0.000 0.000 0.000 0.000 0.000 0.000 0.000 0.000 0.000 0.000
0.006 0.061 0.170 0.361 0.634 0.823 0.939 0.959 0.826 0.586 0.344 0.158 0.068 0.031 0.013 0.000 0.000 0.000 0.000 0.000 0.000 0.000 0.000 0.000 0.000 0.000 0.000 0.000 0.000 0.000 0.000 0.000 0.000 0.000 0.000
0.020 0.098 0.273 0.582 0.953 1.251 1.547 1.593 1.324 0.968 0.595 0.296 0.131 0.051 0.029 0.013 0.000 0.000 0.000 0.000 0.000 0.000 0.000 0.000 0.000 0.000 0.000 0.000 0.000 0.000 0.000 0.000 0.000 0.000 0.000
0.032 0.131 0.375 0.799 1.328 1.838 2.306 2.359 1.968 1.537 0.959 0.489 0.221 0.096 0.043 0.027 0.008 0.000 0.000 0.000 0.000 0.000 0.000 0.000 0.000 0.000 0.000 0.000 0.000 0.000 0.000 0.000 0.000 0.000 0.000
0.036 0.146 0.437 0.948 1.640 2.268 2.963 3.092 2.859 2.116 1.356 0.728 0.361 0.165 0.074 0.037 0.024 0.004 0.000 0.000 0.000 0.000 0.000 0.000 0.000 0.000 0.000 0.000 0.000 0.000 0.000 0.000 0.000 0.000 0.000
0.033 0.139 0.435 1.014 1.775 2.676 3.589 4.036 3.678 2.644 1.807 1.031 0.530 0.243 0.122 0.058 0.027 0.019 0.001 0.000 0.000 0.000 0.000 0.000 0.000 0.000 0.000 0.000 0.000 0.000 0.000 0.000 0.000 0.000 0.000
0.026 0.115 0.378 0.917 1.769 3.059 4.117 4.704 4.198 3.222 2.314 1.368 0.733 0.365 0.175 0.083 0.041 0.019 0.011 0.000 0.000 0.000 0.000 0.000 0.000 0.000 0.000 0.000 0.000 0.000 0.000 0.000 0.000 0.000 0.000
0.017 0.075 0.252 0.697 1.625 2.922 4.190 4.853 4.627 3.917 2.741 1.744 0.999 0.522 0.235 0.118 0.056 0.026 0.017 0.003 0.000 0.000 0.000 0.000 0.000 0.000 0.000 0.000 0.000 0.000 0.000 0.000 0.000 0.000 0.000
0.009 0.043 0.159 0.530 1.374 2.697 4.000 4.704 4.763 4.070 3.125 2.088 1.266 0.679 0.319 0.164 0.078 0.036 0.017 0.015 0.000 0.000 0.000 0.000 0.000 0.000 0.000 0.000 0.000 0.000 0.000 0.000 0.000 0.000 0.000
0.003 0.026 0.082 0.321 0.969 2.072 3.486 4.319 4.798 4.120 3.439 2.424 1.591 0.890 0.453 0.222 0.103 0.046 0.026 0.013 0.006 0.000 0.000 0.000 0.000 0.000 0.000 0.000 0.000 0.000 0.000 0.000 0.000 0.000 0.000
0.000 0.012 0.041 0.186 0.598 1.576 2.834 4.044 4.165 3.993 3.577 2.737 1.919 1.105 0.604 0.291 0.136 0.062 0.036 0.017 0.014 0.001 0.000 0.000 0.000 0.000 0.000 0.000 0.000 0.000 0.000 0.000 0.000 0.000 0.000
0.000 0.004 0.023 0.089 0.344 0.996 2.055 3.187 3.698 3.771 3.616 2.941 2.141 1.352 0.795 0.397 0.181 0.084 0.045 0.025 0.011 0.010 0.000 0.000 0.000 0.000 0.000 0.000 0.000 0.000 0.000 0.000 0.000 0.000 0.000
0.000 0.001 0.012 0.037 0.161 0.571 1.427 2.428 3.082 3.457 3.460 2.869 2.345 1.670 1.035 0.537 0.246 0.114 0.057 0.034 0.016 0.009 0.005 0.000 0.000 0.000 0.000 0.000 0.000 0.000 0.000 0.000 0.000 0.000 0.000
0.000 0.000 0.004 0.018 0.067 0.284 0.847 1.709 2.572 2.995 2.997 2.825 2.493 1.908 1.260 0.712 0.345 0.158 0.080 0.044 0.022 0.010 0.008 0.002 0.000 0.000 0.000 0.000 0.000 0.000 0.000 0.000 0.000 0.000 0.000
0.000 0.000 0.000 0.010 0.025 0.127 0.461 1.108 1.932 2.495 2.665 2.606 2.361 2.058 1.451 0.902 0.469 0.231 0.120 0.059 0.032 0.014 0.007 0.008 0.001 0.000 0.000 0.000 0.000 0.000 0.000 0.000 0.000 0.000 0.000
0.000 0.000 0.000 0.002 0.008 0.051 0.249 0.684 1.258 1.790 2.053 2.402 2.335 2.033 1.561 1.077 0.629 0.354 0.167 0.083 0.043 0.020 0.009 0.006 0.007 0.000 0.000 0.000 0.000 0.000 0.000 0.000 0.000 0.000 0.000
0.000 0.000 0.000 0.000 0.005 0.021 0.116 0.373 0.798 1.265 1.672 1.957 2.009 1.948 1.563 1.238 0.777 0.450 0.230 0.116 0.057 0.029 0.016 0.007 0.006 0.007 0.000 0.000 0.000 0.000 0.000 0.000 0.000 0.000 0.000
0.000 0.000 0.000 0.000 0.002 0.012 0.052 0.180 0.445 0.800 1.226 1.540 1.731 1.713 1.606 1.329 0.926 0.563 0.312 0.168 0.082 0.043 0.023 0.011 0.007 0.006 0.007 0.000 0.000 0.000 0.000 0.000 0.000 0.000 0.000
0.000 0.000 0.000 0.000 0.000 0.007 0.027 0.094 0.238 0.464 0.808 1.197 1.406 1.607 1.565 1.363 0.994 0.694 0.425 0.241 0.124 0.058 0.030 0.017 0.010 0.007 0.006 0.005 0.000 0.000 0.000 0.000 0.000 0.000 0.000
0.000 0.000 0.000 0.000 0.000 0.005 0.013 0.046 0.130 0.273 0.526 0.889 1.197 1.359 1.394 1.298 1.054 0.813 0.529 0.328 0.186 0.084 0.043 0.024 0.016 0.010 0.006 0.005 0.003 0.000 0.000 0.000 0.000 0.000 0.000
0.000 0.000 0.000 0.000 0.000 0.002 0.008 0.022 0.060 0.149 0.317 0.628 0.918 1.183 1.250 1.244 1.101 0.859 0.653 0.447 0.259 0.123 0.062 0.033 0.023 0.014 0.008 0.005 0.007 0.002 0.000 0.000 0.000 0.000 0.000
0.000 0.000 0.000 0.000 0.000 0.001 0.006 0.010 0.040 0.078 0.204 0.418 0.772 1.012 1.164 1.170 1.074 0.886 0.715 0.522 0.332 0.176 0.088 0.045 0.029 0.016 0.010 0.006 0.005 0.006 0.000 0.000 0.000 0.000 0.000
0.000 0.000 0.000 0.000 0.000 0.000 0.003 0.013 0.017 0.048 0.141 0.283 0.557 0.819 0.996 1.095 1.045 0.902 0.714 0.565 0.404 0.244 0.125 0.063 0.038 0.023 0.014 0.009 0.006 0.004 0.007 0.000 0.000 0.000 0.000
0.000 0.000 0.000 0.000 0.000 0.000 0.001 0.007 0.006 0.030 0.096 0.171 0.376 0.626 0.845 1.010 1.044 0.913 0.684 0.589 0.456 0.304 0.174 0.091 0.046 0.028 0.017 0.011 0.008 0.005 0.004 0.003 0.000 0.000 0.000
0.000 0.000 0.000 0.000 0.000 0.000 0.000 0.005 0.004 0.016 0.065 0.105 0.234 0.449 0.692 0.925 1.000 0.902 0.695 0.586 0.469 0.357 0.230 0.120 0.062 0.036 0.023 0.015 0.010 0.006 0.005 0.004 0.001 0.000 0.000
0.000 0.000 0.000 0.000 0.000 0.000 0.000 0.002 0.005 0.011 0.045 0.068 0.123 0.318 0.516 0.753 0.923 0.944 0.760 0.521 0.459 0.394 0.280 0.163 0.087 0.050 0.033 0.021 0.013 0.007 0.005 0.003 0.005 0.000 0.000
0.000 0.000 0.000 0.000 0.000 0.000 0.000 0.000 0.004 0.009 0.030 0.033 0.067 0.194 0.367 0.551 0.828 0.936 0.739 0.489 0.428 0.385 0.312 0.210 0.114 0.063 0.042 0.026 0.018 0.010 0.006 0.004 0.002 0.003 0.000
0.000 0.000 0.000 0.000 0.000 0.000 0.000 0.000 0.001 0.009 0.020 0.018 0.043 0.126 0.253 0.434 0.693 0.917 0.807 0.475 0.382 0.370 0.318 0.243 0.149 0.080 0.052 0.036 0.025 0.016 0.009 0.005 0.003 0.004 0.000
0.000 0.000 0.000 0.000 0.000 0.000 0.000 0.000 0.000 0.011 0.006 0.007 0.025 0.081 0.190 0.310 0.548 0.825 0.829 0.495 0.335 0.329 0.314 0.257 0.172 0.102 0.064 0.044 0.032 0.024 0.012 0.007 0.004 0.002 0.009
0.000 0.000 0.000 0.000 0.000 0.000 0.000 0.000 0.000 0.006 0.003 0.003 0.013 0.048 0.126 0.212 0.383 0.680 0.813 0.526 0.322 0.294 0.284 0.250 0.193 0.120 0.078 0.052 0.038 0.029 0.017 0.012 0.006 0.003 0.003
0.000 0.000 0.000 0.000 0.000 0.000 0.000 0.000 0.000 0.002 0.002 0.003 0.007 0.031 0.091 0.138 0.274 0.555 0.797 0.565 0.300 0.269 0.265 0.244 0.204 0.138 0.082 0.056 0.042 0.031 0.022 0.015 0.009 0.004 0.002
0.000 0.000 0.000 0.000 0.000 0.000 0.000 0.000 0.000 0.000 0.003 0.003 0.005 0.014 0.055 0.092 0.181 0.434 0.760 0.621 0.285 0.250 0.249 0.239 0.200 0.144 0.090 0.061 0.045 0.035 0.027 0.020 0.013 0.006 0.003
0.000 0.000 0.000 0.000 0.000 0.000 0.000 0.000 0.000 0.000 0.001 0.003 0.004 0.011 0.039 0.050 0.108 0.293 0.679 0.690 0.277 0.228 0.230 0.226 0.202 0.143 0.097 0.072 0.049 0.039 0.036 0.027 0.018 0.008 0.004
0.000 0.000 0.000 0.000 0.000 0.000 0.000 0.000 0.000 0.000 0.000 0.002 0.004 0.012 0.023 0.029 0.057 0.181 0.564 0.748 0.278 0.214 0.215 0.211 0.189 0.151 0.106 0.082 0.060 0.052 0.042 0.029 0.020 0.013 0.007
0.000 0.000 0.000 0.000 0.000 0.000 0.000 0.000 0.000 0.000 0.000 0.000 0.003 0.007 0.011 0.015 0.034 0.098 0.414 0.779 0.301 0.196 0.199 0.196 0.182 0.159 0.117 0.093 0.078 0.067 0.044 0.028 0.023 0.021 0.009
0.000 0.000 0.000 0.000 0.000 0.000 0.000 0.000 0.000 0.000 0.000 0.000 0.003 0.005 0.005 0.009 0.022 0.048 0.276 0.759 0.344 0.181 0.183 0.182 0.178 0.155 0.119 0.099 0.091 0.077 0.049 0.035 0.033 0.024 0.013
0.000 0.000 0.000 0.000 0.000 0.000 0.000 0.000 0.000 0.000 0.000 0.000 0.001 0.003 0.003 0.005 0.017 0.027 0.149 0.666 0.386 0.171 0.164 0.173 0.170 0.148 0.123 0.112 0.103 0.084 0.057 0.046 0.043 0.023 0.014
0.000 0.000 0.000 0.000 0.000 0.000 0.000 0.000 0.000 0.000 0.000 0.000 0.000 0.003 0.003 0.003 0.014 0.020 0.078 0.557 0.435 0.163 0.143 0.155 0.151 0.133 0.124 0.121 0.109 0.091 0.066 0.058 0.044 0.026 0.014
0.000 0.000 0.000 0.000 0.000 0.000 0.000 0.000 0.000 0.000 0.000 0.000 0.000 0.002 0.003 0.002 0.012 0.020 0.044 0.412 0.458 0.163 0.124 0.136 0.135 0.125 0.128 0.121 0.114 0.102 0.078 0.058 0.046 0.029 0.017
0.000 0.000 0.000 0.000 0.000 0.000 0.000 0.000 0.000 0.000 0.000 0.000 0.000 0.000 0.003 0.002 0.010 0.019 0.035 0.298 0.475 0.179 0.119 0.123 0.121 0.116 0.118 0.123 0.128 0.114 0.090 0.065 0.048 0.033 0.021
0.000 0.000 0.000 0.000 0.000 0.000 0.000 0.000 0.000 0.000 0.000 0.000 0.000 0.000 0.002 0.002 0.011 0.019 0.032 0.200 0.458 0.198 0.117 0.112 0.108 0.107 0.117 0.137 0.145 0.120 0.108 0.079 0.053 0.038 0.025
0.000 0.000 0.000 0.000 0.000 0.000 0.000 0.000 0.000 0.000 0.000 0.000 0.000 0.000 0.000 0.002 0.011 0.018 0.031 0.146 0.400 0.222 0.117 0.098 0.095 0.098 0.113 0.137 0.143 0.134 0.113 0.086 0.059 0.045 0.030
0.000 0.000 0.000 0.000 0.000 0.000 0.000 0.000 0.000 0.000 0.000 0.000 0.000 0.000 0.000 0.001 0.009 0.016 0.031 0.103 0.340 0.241 0.116 0.089 0.083 0.081 0.096 0.126 0.140 0.132 0.110 0.088 0.068 0.054 0.034
0.000 0.000 0.000 0.000 0.000 0.000 0.000 0.000 0.000 0.000 0.000 0.000 0.000 0.000 0.000 0.001 0.010 0.013 0.029 0.083 0.272 0.247 0.123 0.088 0.073 0.068 0.091 0.120 0.128 0.118 0.103 0.088 0.077 0.061 0.039
0.000 0.000 0.000 0.000 0.000 0.000 0.000 0.000 0.000 0.000 0.000 0.000 0.000 0.000 0.000 0.000 0.009 0.013 0.029 0.068 0.199 0.241 0.136 0.088 0.073 0.073 0.088 0.101 0.110 0.109 0.099 0.097 0.084 0.063 0.041
0.000 0.000 0.000 0.000 0.000 0.000 0.000 0.000 0.000 0.000 0.000 0.000 0.000 0.000 0.000 0.001 0.009 0.013 0.029 0.059 0.150 0.229 0.145 0.092 0.076 0.068 0.075 0.085 0.097 0.099 0.095 0.098 0.083 0.064 0.041
0.000 0.000 0.000 0.000 0.000 0.000 0.000 0.000 0.000 0.000 0.000 0.000 0.000 0.000 0.000 0.001 0.008 0.015 0.029 0.049 0.115 0.194 0.171 0.098 0.074 0.061 0.064 0.075 0.082 0.080 0.088 0.089 0.080 0.060 0.039
0.000 0.000 0.000 0.000 0.000 0.000 0.000 0.000 0.000 0.000 0.000 0.000 0.000 0.000 0.000 0.001 0.006 0.015 0.030 0.045 0.097 0.159 0.186 0.106 0.069 0.058 0.055 0.061 0.066 0.076 0.085 0.077 0.072 0.059 0.038
0.000 0.000 0.000 0.000 0.000 0.000 0.000 0.000 0.000 0.000 0.000 0.000 0.000 0.000 0.000 0.001 0.006 0.014 0.030 0.041 0.077 0.130 0.186 0.116 0.064 0.054 0.047 0.048 0.059 0.072 0.072 0.071 0.072 0.056 0.035
0.000 0.000 0.000 0.000 0.000 0.000 0.000 0.000 0.000 0.000 0.000 0.000 0.000 0.000 0.000 0.001 0.004 0.014 0.030 0.040 0.069 0.113 0.188 0.116 0.050 0.043 0.042 0.045 0.054 0.062 0.061 0.064 0.063 0.050 0.038
0.000 0.000 0.000 0.000 0.000 0.000 0.000 0.000 0.000 0.000 0.000 0.000 0.000 0.000 0.000 0.000 0.004 0.014 0.029 0.035 0.063 0.111 0.178 0.101 0.045 0.040 0.040 0.042 0.046 0.052 0.052 0.053 0.053 0.050 0.040
0.000 0.000 0.000 0.000 0.000 0.000 0.000 0.000 0.000 0.000 0.000 0.000 0.000 0.000 0.000 0.000 0.003 0.013 0.028 0.032 0.061 0.114 0.165 0.081 0.039 0.038 0.040 0.037 0.042 0.047 0.047 0.046 0.048 0.047 0.038
0.000 0.000 0.000 0.000 0.000 0.000 0.000 0.000 0.000 0.000 0.000 0.000 0.000 0.000 0.000 0.000 0.003 0.013 0.027 0.029 0.056 0.113 0.143 0.060 0.035 0.034 0.033 0.033 0.038 0.045 0.044 0.040 0.042 0.042 0.037
0.000 0.000 0.000 0.000 0.000 0.000 0.000 0.000 0.000 0.000 0.000 0.000 0.000 0.000 0.000 0.000 0.003 0.012 0.023 0.028 0.054 0.113 0.125 0.049 0.034 0.029 0.028 0.028 0.031 0.038 0.036 0.036 0.039 0.039 0.034
0.000 0.000 0.000 0.000 0.000 0.000 0.000 0.000 0.000 0.000 0.000 0.000 0.000 0.000 0.000 0.000 0.003 0.010 0.021 0.027 0.050 0.095 0.106 0.046 0.033 0.027 0.022 0.021 0.023 0.031 0.033 0.030 0.033 0.036 0.031
0.000 0.000 0.000 0.000 0.000 0.000 0.000 0.000 0.000 0.000 0.000 0.000 0.000 0.000 0.000 0.000 0.003 0.010 0.019 0.027 0.044 0.074 0.076 0.045 0.032 0.022 0.018 0.017 0.019 0.025 0.031 0.026 0.028 0.033 0.031
0.000 0.000 0.000 0.000 0.000 0.000 0.000 0.000 0.000 0.000 0.000 0.000 0.000 0.000 0.000 0.000 0.002 0.009 0.017 0.024 0.036 0.053 0.063 0.038 0.024 0.019 0.015 0.014 0.013 0.018 0.027 0.024 0.023 0.024 0.027
0.000 0.000 0.000 0.000 0.000 0.000 0.000 0.000 0.000 0.000 0.000 0.000 0.000 0.000 0.000 0.000 0.005 0.006 0.012 0.018 0.024 0.031 0.036 0.022 0.017 0.013 0.011 0.008 0.006 0.010 0.019 0.017 0.013 0.013 0.018
