ncols        40
nrows        92
xllcorner    409632.8
yllcorner    6870794.1
cellsize     5.00
NODATA_value -9999
0.000 0.000 0.000 0.000 0.000 0.000 0.000 0.000 0.000 0.000 0.000 0.000 0.000 0.000 0.000 0.000 0.000 0.000 0.000 0.000 0.000 0.000 0.000 0.000 0.000 0.000 0.000 0.000 0.000 0.000 0.000 0.000 0.000 0.000 0.000 0.000 0.000 0.000 0.000 0.000
0.000 0.000 0.000 0.001 0.015 0.047 0.056 0.033 0.004 0.000 0.000 0.000 0.000 0.000 0.000 0.000 0.000 0.000 0.000 0.000 0.000 0.000 0.000 0.000 0.000 0.000 0.000 0.000 0.000 0.000 0.000 0.000 0.000 0.000 0.000 0.000 0.000 0.000 0.000 0.000
0.000 0.000 0.001 0.024 0.082 0.146 0.162 0.103 0.041 0.002 0.000 0.000 0.000 0.000 0.000 0.000 0.000 0.000 0.000 0.000 0.000 0.000 0.000 0.000 0.000 0.000 0.000 0.000 0.000 0.000 0.000 0.000 0.000 0.000 0.000 0.000 0.000 0.000 0.000 0.000
0.000 0.001 0.020 0.082 0.195 0.334 0.377 0.253 0.095 0.030 0.000 0.000 0.000 0.000 0.000 0.000 0.000 0.000 0.000 0.000 0.000 0.000 0.000 0.000 0.000 0.000 0.000 0.000 0.000 0.000 0.000 0.000 0.000 0.000 0.000 0.000 0.000 0.000 0.000 0.000
0.000 0.006 0.069 0.177 0.386 0.620 0.701 0.490 0.214 0.060 0.015 0.000 0.000 0.000 0.000 0.000 0.000 0.000 0.000 0.000 0.000 0.000 0.000 0.000 0.000 0.000 0.000 0.000 0.000 0.000 0.000 0.000 0.000 0.000 0.000 0.000 0.000 0.000 0.000 0.000
0.001 0.027 0.123 0.307 0.615 0.966 1.106 0.835 0.380 0.127 0.041 0.002 0.000 0.000 0.000 0.000 0.000 0.000 0.000 0.000 0.000 0.000 0.000 0.000 0.000 0.000 0.000 0.000 0.000 0.000 0.000 0.000 0.000 0.000 0.000 0.000 0.000 0.000 0.000 0.000
0.005 0.061 0.187 0.453 0.843 1.349 1.549 1.251 0.598 0.207 0.068 0.027 0.000 0.000 0.000 0.000 0.000 0.000 0.000 0.000 0.000 0.000 0.000 0.000 0.000 0.000 0.000 0.000 0.000 0.000 0.000 0.000 0.000 0.000 0.000 0.000 0.000 0.000 0.000 0.000
0.013 0.084 0.250 0.597 1.047 1.661 1.981 1.585 0.817 0.298 0.118 0.044 0.016 0.000 0.000 0.000 0.000 0.000 0.000 0.000 0.000 0.000 0.000 0.000 0.000 0.000 0.000 0.000 0.000 0.000 0.000 0.000 0.000 0.000 0.000 0.000 0.000 0.000 0.000 0.000
0.020 0.103 0.300 0.684 1.206 1.857 2.392 2.008 1.059 0.420 0.173 0.073 0.038 0.012 0.000 0.000 0.000 0.000 0.000 0.000 0.000 0.000 0.000 0.000 0.000 0.000 0.000 0.000 0.000 0.000 0.000 0.000 0.000 0.000 0.000 0.000 0.000 0.000 0.000 0.000
0.027 0.118 0.332 0.715 1.279 1.969 2.560 2.369 1.302 0.517 0.236 0.114 0.059 0.038 0.016 0.000 0.000 0.000 0.000 0.000 0.000 0.000 0.000 0.000 0.000 0.000 0.000 0.000 0.000 0.000 0.000 0.000 0.000 0.000 0.000 0.000 0.000 0.000 0.000 0.000
0.033 0.119 0.322 0.690 1.258 2.062 2.628 2.624 1.622 0.740 0.331 0.155 0.084 0.051 0.040 0.016 0.000 0.000 0.000 0.000 0.000 0.000 0.000 0.000 0.000 0.000 0.000 0.000 0.000 0.000 0.000 0.000 0.000 0.000 0.000 0.000 0.000 0.000 0.000 0.000
0.035 0.117 0.301 0.650 1.186 1.966 2.619 2.925 1.888 0.864 0.395 0.197 0.105 0.070 0.049 0.040 0.017 0.000 0.000 0.000 0.000 0.000 0.000 0.000 0.000 0.000 0.000 0.000 0.000 0.000 0.000 0.000 0.000 0.000 0.000 0.000 0.000 0.000 0.000 0.000
0.033 0.106 0.271 0.556 1.075 1.903 2.661 3.214 2.089 1.092 0.512 0.230 0.137 0.086 0.062 0.048 0.039 0.016 0.001 0.000 0.000 0.000 0.000 0.000 0.000 0.000 0.000 0.000 0.000 0.000 0.000 0.000 0.000 0.000 0.000 0.000 0.000 0.000 0.000 0.000
0.028 0.085 0.215 0.478 0.981 1.782 2.521 2.977 2.352 1.337 0.612 0.308 0.161 0.095 0.074 0.064 0.049 0.039 0.023 0.003 0.000 0.000 0.000 0.000 0.000 0.000 0.000 0.000 0.000 0.000 0.000 0.000 0.000 0.000 0.000 0.000 0.000 0.000 0.000 0.000
0.024 0.069 0.179 0.403 0.847 1.473 1.970 2.929 2.589 1.445 0.790 0.355 0.179 0.130 0.094 0.079 0.061 0.047 0.043 0.027 0.000 0.000 0.000 0.000 0.000 0.000 0.000 0.000 0.000 0.000 0.000 0.000 0.000 0.000 0.000 0.000 0.000 0.000 0.000 0.000
0.019 0.048 0.125 0.360 0.646 1.107 1.966 2.937 2.494 1.750 0.939 0.403 0.229 0.153 0.106 0.082 0.064 0.064 0.054 0.036 0.013 0.000 0.000 0.000 0.000 0.000 0.000 0.000 0.000 0.000 0.000 0.000 0.000 0.000 0.000 0.000 0.000 0.000 0.000 0.000
0.013 0.034 0.090 0.178 0.420 1.050 1.820 2.580 2.559 1.919 0.994 0.466 0.246 0.157 0.105 0.077 0.075 0.073 0.059 0.046 0.031 0.002 0.000 0.000 0.000 0.000 0.000 0.000 0.000 0.000 0.000 0.000 0.000 0.000 0.000 0.000 0.000 0.000 0.000 0.000
0.009 0.027 0.046 0.113 0.466 0.958 1.611 2.434 2.563 1.913 1.148 0.563 0.290 0.167 0.103 0.087 0.077 0.070 0.067 0.060 0.035 0.021 0.000 0.000 0.000 0.000 0.000 0.000 0.000 0.000 0.000 0.000 0.000 0.000 0.000 0.000 0.000 0.000 0.000 0.000
0.005 0.018 0.025 0.121 0.367 0.817 1.433 2.111 2.322 1.940 1.243 0.637 0.339 0.169 0.117 0.087 0.071 0.072 0.071 0.069 0.047 0.026 0.002 0.000 0.000 0.000 0.000 0.000 0.000 0.000 0.000 0.000 0.000 0.000 0.000 0.000 0.000 0.000 0.000 0.000
0.002 0.013 0.020 0.091 0.275 0.608 1.248 1.850 2.197 1.957 1.399 0.795 0.388 0.205 0.145 0.089 0.080 0.079 0.070 0.072 0.053 0.027 0.016 0.000 0.000 0.000 0.000 0.000 0.000 0.000 0.000 0.000 0.000 0.000 0.000 0.000 0.000 0.000 0.000 0.000
0.001 0.010 0.019 0.066 0.171 0.418 0.942 1.526 1.920 1.927 1.576 0.910 0.440 0.248 0.148 0.096 0.089 0.074 0.067 0.067 0.057 0.036 0.022 0.000 0.000 0.000 0.000 0.000 0.000 0.000 0.000 0.000 0.000 0.000 0.000 0.000 0.000 0.000 0.000 0.000
0.000 0.007 0.019 0.046 0.103 0.275 0.697 1.310 1.880 1.933 1.664 0.919 0.475 0.309 0.181 0.120 0.098 0.067 0.056 0.061 0.064 0.047 0.022 0.000 0.000 0.000 0.000 0.000 0.000 0.000 0.000 0.000 0.000 0.000 0.000 0.000 0.000 0.000 0.000 0.000
0.000 0.005 0.015 0.031 0.069 0.186 0.495 1.096 1.712 1.852 1.657 0.964 0.575 0.371 0.211 0.129 0.091 0.061 0.049 0.056 0.063 0.052 0.026 0.011 0.000 0.000 0.000 0.000 0.000 0.000 0.000 0.000 0.000 0.000 0.000 0.000 0.000 0.000 0.000 0.000
0.000 0.002 0.011 0.020 0.045 0.115 0.373 0.903 1.385 1.764 1.565 1.086 0.631 0.423 0.241 0.151 0.105 0.064 0.050 0.056 0.060 0.061 0.041 0.033 0.000 0.000 0.000 0.000 0.000 0.000 0.000 0.000 0.000 0.000 0.000 0.000 0.000 0.000 0.000 0.000
0.000 0.000 0.007 0.015 0.029 0.081 0.247 0.668 1.106 1.455 1.553 1.110 0.758 0.481 0.305 0.197 0.120 0.072 0.050 0.050 0.056 0.070 0.064 0.033 0.000 0.000 0.000 0.000 0.000 0.000 0.000 0.000 0.000 0.000 0.000 0.000 0.000 0.000 0.000 0.000
0.000 0.000 0.003 0.013 0.025 0.058 0.164 0.450 0.886 1.313 1.429 1.219 0.858 0.561 0.421 0.258 0.144 0.077 0.051 0.046 0.055 0.072 0.072 0.031 0.000 0.000 0.000 0.000 0.000 0.000 0.000 0.000 0.000 0.000 0.000 0.000 0.000 0.000 0.000 0.000
0.000 0.000 0.002 0.011 0.019 0.040 0.105 0.331 0.721 1.140 1.355 1.278 0.997 0.672 0.525 0.309 0.147 0.086 0.051 0.045 0.055 0.069 0.078 0.037 0.006 0.000 0.000 0.000 0.000 0.000 0.000 0.000 0.000 0.000 0.000 0.000 0.000 0.000 0.000 0.000
0.000 0.000 0.000 0.009 0.017 0.033 0.070 0.209 0.500 0.869 1.256 1.295 1.017 0.746 0.578 0.345 0.179 0.099 0.053 0.048 0.050 0.058 0.091 0.044 0.029 0.000 0.000 0.000 0.000 0.000 0.000 0.000 0.000 0.000 0.000 0.000 0.000 0.000 0.000 0.000
0.000 0.000 0.000 0.006 0.014 0.025 0.051 0.152 0.351 0.711 1.153 1.278 1.123 0.842 0.619 0.384 0.219 0.108 0.062 0.047 0.044 0.055 0.093 0.053 0.034 0.000 0.000 0.000 0.000 0.000 0.000 0.000 0.000 0.000 0.000 0.000 0.000 0.000 0.000 0.000
0.000 0.000 0.000 0.003 0.011 0.020 0.043 0.096 0.252 0.562 0.903 1.128 1.150 0.895 0.634 0.480 0.255 0.128 0.069 0.050 0.049 0.058 0.093 0.058 0.031 0.000 0.000 0.000 0.000 0.000 0.000 0.000 0.000 0.000 0.000 0.000 0.000 0.000 0.000 0.000
0.000 0.000 0.000 0.002 0.008 0.015 0.037 0.074 0.174 0.409 0.750 1.026 1.098 0.886 0.668 0.565 0.322 0.164 0.077 0.065 0.056 0.066 0.094 0.060 0.029 0.003 0.000 0.000 0.000 0.000 0.000 0.000 0.000 0.000 0.000 0.000 0.000 0.000 0.000 0.000
0.000 0.000 0.000 0.001 0.007 0.012 0.032 0.061 0.118 0.282 0.612 0.856 0.964 0.873 0.733 0.582 0.362 0.196 0.105 0.082 0.065 0.061 0.091 0.062 0.029 0.021 0.000 0.000 0.000 0.000 0.000 0.000 0.000 0.000 0.000 0.000 0.000 0.000 0.000 0.000
0.000 0.000 0.000 0.000 0.005 0.010 0.024 0.045 0.085 0.208 0.457 0.666 0.788 0.824 0.774 0.580 0.457 0.268 0.138 0.091 0.065 0.056 0.090 0.066 0.030 0.027 0.000 0.000 0.000 0.000 0.000 0.000 0.000 0.000 0.000 0.000 0.000 0.000 0.000 0.000
0.000 0.000 0.000 0.000 0.002 0.008 0.019 0.032 0.053 0.130 0.354 0.514 0.649 0.788 0.701 0.618 0.516 0.344 0.178 0.104 0.068 0.058 0.090 0.070 0.034 0.021 0.008 0.000 0.000 0.000 0.000 0.000 0.000 0.000 0.000 0.000 0.000 0.000 0.000 0.000
0.000 0.000 0.000 0.000 0.001 0.006 0.015 0.024 0.039 0.089 0.229 0.397 0.614 0.736 0.717 0.686 0.613 0.451 0.222 0.125 0.078 0.070 0.088 0.075 0.037 0.017 0.020 0.001 0.000 0.000 0.000 0.000 0.000 0.000 0.000 0.000 0.000 0.000 0.000 0.000
0.000 0.000 0.000 0.000 0.000 0.003 0.012 0.015 0.023 0.055 0.181 0.313 0.506 0.652 0.714 0.738 0.716 0.500 0.266 0.143 0.092 0.071 0.097 0.085 0.040 0.015 0.017 0.011 0.000 0.000 0.000 0.000 0.000 0.000 0.000 0.000 0.000 0.000 0.000 0.000
0.000 0.000 0.000 0.000 0.000 0.001 0.009 0.007 0.013 0.041 0.122 0.251 0.502 0.578 0.720 0.760 0.772 0.525 0.301 0.185 0.115 0.082 0.103 0.089 0.042 0.016 0.014 0.016 0.002 0.000 0.000 0.000 0.000 0.000 0.000 0.000 0.000 0.000 0.000 0.000
0.000 0.000 0.000 0.000 0.000 0.002 0.005 0.004 0.007 0.024 0.088 0.214 0.362 0.481 0.612 0.710 0.707 0.567 0.378 0.268 0.133 0.104 0.101 0.094 0.049 0.017 0.011 0.012 0.012 0.001 0.000 0.000 0.000 0.000 0.000 0.000 0.000 0.000 0.000 0.000
0.000 0.000 0.000 0.000 0.000 0.000 0.003 0.003 0.003 0.015 0.062 0.183 0.360 0.420 0.481 0.588 0.648 0.644 0.476 0.303 0.191 0.174 0.117 0.097 0.056 0.016 0.009 0.010 0.011 0.008 0.000 0.000 0.000 0.000 0.000 0.000 0.000 0.000 0.000 0.000
0.000 0.000 0.000 0.000 0.000 0.000 0.001 0.002 0.002 0.008 0.045 0.124 0.241 0.293 0.366 0.492 0.631 0.701 0.533 0.360 0.273 0.235 0.159 0.101 0.062 0.017 0.008 0.008 0.008 0.012 0.001 0.000 0.000 0.000 0.000 0.000 0.000 0.000 0.000 0.000
0.000 0.000 0.000 0.000 0.000 0.000 0.000 0.001 0.003 0.006 0.039 0.115 0.179 0.244 0.304 0.396 0.599 0.734 0.617 0.422 0.330 0.280 0.186 0.123 0.070 0.022 0.008 0.006 0.006 0.008 0.011 0.000 0.000 0.000 0.000 0.000 0.000 0.000 0.000 0.000
0.000 0.000 0.000 0.000 0.000 0.000 0.000 0.000 0.002 0.003 0.016 0.064 0.151 0.214 0.263 0.373 0.534 0.669 0.576 0.437 0.338 0.296 0.230 0.152 0.087 0.029 0.010 0.006 0.005 0.005 0.015 0.002 0.000 0.000 0.000 0.000 0.000 0.000 0.000 0.000
0.000 0.000 0.000 0.000 0.000 0.000 0.000 0.000 0.001 0.002 0.004 0.033 0.104 0.174 0.227 0.301 0.450 0.541 0.554 0.455 0.409 0.392 0.303 0.202 0.108 0.037 0.013 0.006 0.004 0.005 0.011 0.013 0.000 0.000 0.000 0.000 0.000 0.000 0.000 0.000
0.000 0.000 0.000 0.000 0.000 0.000 0.000 0.000 0.000 0.002 0.001 0.016 0.094 0.131 0.188 0.260 0.380 0.510 0.530 0.484 0.554 0.527 0.387 0.271 0.145 0.055 0.019 0.007 0.005 0.005 0.007 0.012 0.000 0.000 0.000 0.000 0.000 0.000 0.000 0.000
0.000 0.000 0.000 0.000 0.000 0.000 0.000 0.000 0.000 0.000 0.003 0.003 0.042 0.080 0.130 0.209 0.330 0.450 0.512 0.580 0.750 0.732 0.527 0.399 0.206 0.083 0.031 0.011 0.006 0.006 0.006 0.009 0.003 0.000 0.000 0.000 0.000 0.000 0.000 0.000
0.000 0.000 0.000 0.000 0.000 0.000 0.000 0.000 0.000 0.000 0.001 0.002 0.014 0.042 0.076 0.153 0.277 0.388 0.461 0.517 0.809 0.907 0.783 0.442 0.246 0.114 0.052 0.022 0.011 0.015 0.007 0.011 0.008 0.000 0.000 0.000 0.000 0.000 0.000 0.000
0.000 0.000 0.000 0.000 0.000 0.000 0.000 0.000 0.000 0.000 0.000 0.001 0.005 0.013 0.040 0.098 0.197 0.321 0.436 0.554 0.904 1.246 0.891 0.471 0.296 0.150 0.074 0.035 0.033 0.021 0.014 0.007 0.005 0.001 0.000 0.000 0.000 0.000 0.000 0.000
0.000 0.000 0.000 0.000 0.000 0.000 0.000 0.000 0.000 0.000 0.000 0.000 0.002 0.004 0.021 0.060 0.106 0.193 0.357 0.680 0.995 1.295 0.930 0.575 0.356 0.190 0.105 0.055 0.035 0.027 0.024 0.006 0.004 0.007 0.000 0.000 0.000 0.000 0.000 0.000
0.000 0.000 0.000 0.000 0.000 0.000 0.000 0.000 0.000 0.000 0.000 0.000 0.003 0.003 0.010 0.020 0.040 0.092 0.250 0.533 0.869 1.100 0.989 0.699 0.393 0.232 0.144 0.075 0.037 0.039 0.027 0.008 0.004 0.006 0.001 0.000 0.000 0.000 0.000 0.000
0.000 0.000 0.000 0.000 0.000 0.000 0.000 0.000 0.000 0.000 0.000 0.000 0.001 0.003 0.005 0.006 0.015 0.051 0.161 0.417 0.707 0.926 0.969 0.663 0.445 0.266 0.176 0.096 0.049 0.074 0.036 0.012 0.005 0.003 0.005 0.000 0.000 0.000 0.000 0.000
0.000 0.000 0.000 0.000 0.000 0.000 0.000 0.000 0.000 0.000 0.000 0.000 0.000 0.003 0.004 0.002 0.003 0.021 0.075 0.245 0.558 0.832 0.918 0.668 0.498 0.308 0.217 0.127 0.080 0.061 0.031 0.016 0.010 0.004 0.004 0.001 0.000 0.000 0.000 0.000
0.000 0.000 0.000 0.000 0.000 0.000 0.000 0.000 0.000 0.000 0.000 0.000 0.000 0.002 0.002 0.001 0.001 0.009 0.035 0.146 0.406 0.860 0.738 0.684 0.545 0.355 0.248 0.149 0.096 0.055 0.031 0.022 0.016 0.007 0.003 0.006 0.001 0.000 0.000 0.000
0.000 0.000 0.000 0.000 0.000 0.000 0.000 0.000 0.000 0.000 0.000 0.000 0.000 0.000 0.002 0.001 0.001 0.002 0.018 0.064 0.228 0.592 0.728 0.720 0.597 0.397 0.280 0.187 0.119 0.058 0.030 0.021 0.017 0.011 0.004 0.003 0.003 0.000 0.000 0.000
0.000 0.000 0.000 0.000 0.000 0.000 0.000 0.000 0.000 0.000 0.000 0.000 0.000 0.000 0.000 0.001 0.001 0.001 0.004 0.028 0.123 0.430 0.749 0.771 0.598 0.417 0.349 0.259 0.155 0.067 0.029 0.020 0.018 0.013 0.005 0.002 0.002 0.002 0.000 0.000
0.000 0.000 0.000 0.000 0.000 0.000 0.000 0.000 0.000 0.000 0.000 0.000 0.000 0.000 0.000 0.000 0.001 0.001 0.001 0.006 0.038 0.260 0.876 0.834 0.593 0.475 0.406 0.328 0.196 0.090 0.034 0.020 0.022 0.015 0.006 0.002 0.001 0.002 0.001 0.000
0.000 0.000 0.000 0.000 0.000 0.000 0.000 0.000 0.000 0.000 0.000 0.000 0.000 0.000 0.000 0.000 0.000 0.001 0.001 0.001 0.010 0.107 0.734 0.800 0.638 0.561 0.439 0.383 0.240 0.129 0.052 0.028 0.032 0.021 0.009 0.003 0.001 0.001 0.002 0.001
0.000 0.000 0.000 0.000 0.000 0.000 0.000 0.000 0.000 0.000 0.000 0.000 0.000 0.000 0.000 0.000 0.000 0.001 0.000 0.001 0.004 0.063 0.477 0.579 0.556 0.671 0.547 0.390 0.262 0.168 0.084 0.050 0.032 0.026 0.013 0.004 0.002 0.001 0.001 0.002
0.000 0.000 0.000 0.000 0.000 0.000 0.000 0.000 0.000 0.000 0.000 0.000 0.000 0.000 0.000 0.000 0.000 0.000 0.001 0.000 0.002 0.020 0.276 0.441 0.540 0.578 0.523 0.413 0.281 0.202 0.101 0.053 0.034 0.028 0.016 0.006 0.003 0.001 0.001 0.001
0.000 0.000 0.000 0.000 0.000 0.000 0.000 0.000 0.000 0.000 0.000 0.000 0.000 0.000 0.000 0.000 0.000 0.000 0.002 0.001 0.002 0.008 0.108 0.246 0.394 0.522 0.524 0.442 0.353 0.233 0.127 0.066 0.042 0.036 0.024 0.013 0.004 0.002 0.001 0.001
0.000 0.000 0.000 0.000 0.000 0.000 0.000 0.000 0.000 0.000 0.000 0.000 0.000 0.000 0.000 0.000 0.000 0.000 0.000 0.001 0.001 0.004 0.055 0.115 0.240 0.467 0.512 0.512 0.390 0.264 0.152 0.094 0.054 0.045 0.038 0.017 0.005 0.003 0.001 0.001
0.000 0.000 0.000 0.000 0.000 0.000 0.000 0.000 0.000 0.000 0.000 0.000 0.000 0.000 0.000 0.000 0.000 0.000 0.000 0.001 0.001 0.002 0.023 0.058 0.125 0.378 0.520 0.478 0.373 0.288 0.198 0.136 0.081 0.069 0.077 0.027 0.010 0.004 0.002 0.001
0.000 0.000 0.000 0.000 0.000 0.000 0.000 0.000 0.000 0.000 0.000 0.000 0.000 0.000 0.000 0.000 0.000 0.000 0.000 0.001 0.001 0.001 0.008 0.024 0.053 0.274 0.491 0.496 0.375 0.313 0.246 0.176 0.146 0.139 0.092 0.045 0.020 0.007 0.003 0.001
0.000 0.000 0.000 0.000 0.000 0.000 0.000 0.000 0.000 0.000 0.000 0.000 0.000 0.000 0.000 0.000 0.000 0.000 0.000 0.001 0.001 0.000 0.005 0.009 0.024 0.192 0.566 0.461 0.375 0.307 0.259 0.210 0.185 0.165 0.108 0.075 0.039 0.012 0.004 0.001
0.000 0.000 0.000 0.000 0.000 0.000 0.000 0.000 0.000 0.000 0.000 0.000 0.000 0.000 0.000 0.000 0.000 0.000 0.000 0.000 0.001 0.013 0.002 0.004 0.028 0.154 0.411 0.377 0.332 0.301 0.266 0.229 0.192 0.203 0.160 0.123 0.049 0.034 0.008 0.001
0.000 0.000 0.000 0.000 0.000 0.000 0.000 0.000 0.000 0.000 0.000 0.000 0.000 0.000 0.000 0.000 0.000 0.000 0.000 0.000 0.001 0.002 0.001 0.002 0.039 0.072 0.263 0.286 0.307 0.302 0.282 0.245 0.197 0.274 0.192 0.128 0.119 0.081 0.009 0.001
0.000 0.000 0.000 0.000 0.000 0.000 0.000 0.000 0.000 0.000 0.000 0.000 0.000 0.000 0.000 0.000 0.000 0.000 0.000 0.000 0.000 0.002 0.001 0.002 0.050 0.155 0.113 0.194 0.258 0.290 0.279 0.271 0.262 0.292 0.199 0.194 0.174 0.057 0.014 0.002
0.000 0.000 0.000 0.000 0.000 0.000 0.000 0.000 0.000 0.000 0.000 0.000 0.000 0.000 0.000 0.000 0.000 0.000 0.000 0.000 0.000 0.001 0.002 0.001 0.013 0.083 0.038 0.119 0.179 0.222 0.254 0.296 0.318 0.233 0.227 0.234 0.183 0.113 0.036 0.006
0.000 0.000 0.000 0.000 0.000 0.000 0.000 0.000 0.000 0.000 0.000 0.000 0.000 0.000 0.000 0.000 0.000 0.000 0.000 0.000 0.000 0.000 0.001 0.002 0.014 0.010 0.015 0.064 0.127 0.162 0.231 0.276 0.273 0.233 0.216 0.208 0.203 0.181 0.051 0.008
0.000 0.000 0.000 0.000 0.000 0.000 0.000 0.000 0.000 0.000 0.000 0.000 0.000 0.000 0.000 0.000 0.000 0.000 0.000 0.000 0.000 0.000 0.001 0.002 0.006 0.003 0.007 0.041 0.101 0.136 0.191 0.265 0.287 0.226 0.178 0.180 0.177 0.206 0.077 0.011
0.000 0.000 0.000 0.000 0.000 0.000 0.000 0.000 0.000 0.000 0.000 0.000 0.000 0.000 0.000 0.000 0.000 0.000 0.000 0.000 0.000 0.000 0.000 0.011 0.001 0.001 0.002 0.026 0.094 0.107 0.142 0.209 0.258 0.237 0.149 0.127 0.137 0.132 0.083 0.016
0.000 0.000 0.000 0.000 0.000 0.000 0.000 0.000 0.000 0.000 0.000 0.000 0.000 0.000 0.000 0.000 0.000 0.000 0.000 0.000 0.000 0.000 0.000 0.001 0.000 0.000 0.001 0.014 0.085 0.094 0.105 0.162 0.217 0.236 0.154 0.098 0.086 0.089 0.094 0.030
0.000 0.000 0.000 0.000 0.000 0.000 0.000 0.000 0.000 0.000 0.000 0.000 0.000 0.000 0.000 0.000 0.000 0.000 0.000 0.000 0.000 0.000 0.000 0.001 0.000 0.001 0.001 0.006 0.076 0.092 0.097 0.146 0.197 0.222 0.145 0.089 0.070 0.067 0.076 0.035
0.000 0.000 0.000 0.000 0.000 0.000 0.000 0.000 0.000 0.000 0.000 0.000 0.000 0.000 0.000 0.000 0.000 0.000 0.000 0.000 0.000 0.000 0.000 0.000 0.001 0.000 0.001 0.002 0.046 0.085 0.086 0.136 0.190 0.214 0.137 0.082 0.061 0.053 0.053 0.017
0.000 0.000 0.000 0.000 0.000 0.000 0.000 0.000 0.000 0.000 0.000 0.000 0.000 0.000 0.000 0.000 0.000 0.000 0.000 0.000 0.000 0.000 0.000 0.000 0.000 0.000 0.001 0.002 0.028 0.047 0.068 0.114 0.186 0.217 0.131 0.076 0.054 0.045 0.043 0.011
0.000 0.000 0.000 0.000 0.000 0.000 0.000 0.000 0.000 0.000 0.000 0.000 0.000 0.000 0.000 0.000 0.000 0.000 0.000 0.000 0.000 0.000 0.000 0.000 0.000 0.001 0.001 0.005 0.013 0.022 0.045 0.093 0.176 0.221 0.129 0.075 0.053 0.041 0.034 0.011
0.000 0.000 0.000 0.000 0.000 0.000 0.000 0.000 0.000 0.000 0.000 0.000 0.000 0.000 0.000 0.000 0.000 0.000 0.000 0.000 0.000 0.000 0.000 0.000 0.000 0.000 0.001 0.002 0.004 0.009 0.026 0.064 0.150 0.226 0.141 0.071 0.052 0.040 0.033 0.012
0.000 0.000 0.000 0.000 0.000 0.000 0.000 0.000 0.000 0.000 0.000 0.000 0.000 0.000 0.000 0.000 0.000 0.000 0.000 0.000 0.000 0.000 0.000 0.000 0.000 0.000 0.001 0.001 0.002 0.003 0.012 0.035 0.113 0.212 0.155 0.069 0.050 0.043 0.038 0.009
0.000 0.000 0.000 0.000 0.000 0.000 0.000 0.000 0.000 0.000 0.000 0.000 0.000 0.000 0.000 0.000 0.000 0.000 0.000 0.000 0.000 0.000 0.000 0.000 0.000 0.000 0.001 0.001 0.001 0.001 0.007 0.015 0.072 0.180 0.159 0.068 0.047 0.049 0.037 0.007
0.000 0.000 0.000 0.000 0.000 0.000 0.000 0.000 0.000 0.000 0.000 0.000 0.000 0.000 0.000 0.000 0.000 0.000 0.000 0.000 0.000 0.000 0.000 0.000 0.000 0.000 0.000 0.001 0.001 0.001 0.004 0.007 0.048 0.149 0.162 0.070 0.043 0.047 0.027 0.005
0.000 0.000 0.000 0.000 0.000 0.000 0.000 0.000 0.000 0.000 0.000 0.000 0.000 0.000 0.000 0.000 0.000 0.000 0.000 0.000 0.000 0.000 0.000 0.000 0.000 0.000 0.000 0.001 0.001 0.000 0.003 0.006 0.028 0.113 0.155 0.078 0.044 0.045 0.022 0.004
0.000 0.000 0.000 0.000 0.000 0.000 0.000 0.000 0.000 0.000 0.000 0.000 0.000 0.000 0.000 0.000 0.000 0.000 0.000 0.000 0.000 0.000 0.000 0.000 0.000 0.000 0.000 0.000 0.001 0.000 0.003 0.006 0.015 0.087 0.151 0.093 0.053 0.047 0.021 0.004
0.000 0.000 0.000 0.000 0.000 0.000 0.000 0.000 0.000 0.000 0.000 0.000 0.000 0.000 0.000 0.000 0.000 0.000 0.000 0.000 0.000 0.000 0.000 0.000 0.000 0.000 0.000 0.000 0.001 0.000 0.003 0.005 0.012 0.061 0.134 0.104 0.065 0.051 0.022 0.005
0.000 0.000 0.000 0.000 0.000 0.000 0.000 0.000 0.000 0.000 0.000 0.000 0.000 0.000 0.000 0.000 0.000 0.000 0.000 0.000 0.000 0.000 0.000 0.000 0.000 0.000 0.000 0.000 0.000 0.000 0.003 0.005 0.012 0.049 0.106 0.110 0.073 0.048 0.021 0.005
0.000 0.000 0.000 0.000 0.000 0.000 0.000 0.000 0.000 0.000 0.000 0.000 0.000 0.000 0.000 0.000 0.000 0.000 0.000 0.000 0.000 0.000 0.000 0.000 0.000 0.000 0.000 0.000 0.000 0.001 0.002 0.004 0.012 0.041 0.085 0.104 0.076 0.051 0.020 0.004
0.000 0.000 0.000 0.000 0.000 0.000 0.000 0.000 0.000 0.000 0.000 0.000 0.000 0.000 0.000 0.000 0.000 0.000 0.000 0.000 0.000 0.000 0.000 0.000 0.000 0.000 0.000 0.000 0.000 0.000 0.002 0.003 0.010 0.035 0.065 0.088 0.084 0.063 0.019 0.005
0.000 0.000 0.000 0.000 0.000 0.000 0.000 0.000 0.000 0.000 0.000 0.000 0.000 0.000 0.000 0.000 0.000 0.000 0.000 0.000 0.000 0.000 0.000 0.000 0.000 0.000 0.000 0.000 0.000 0.000 0.002 0.003 0.011 0.029 0.048 0.070 0.087 0.075 0.025 0.010
0.000 0.000 0.000 0.000 0.000 0.000 0.000 0.000 0.000 0.000 0.000 0.000 0.000 0.000 0.000 0.000 0.000 0.000 0.000 0.000 0.000 0.000 0.000 0.000 0.000 0.000 0.000 0.000 0.000 0.001 0.002 0.004 0.011 0.026 0.042 0.055 0.074 0.101 0.041 0.013
0.000 0.000 0.000 0.000 0.000 0.000 0.000 0.000 0.000 0.000 0.000 0.000 0.000 0.000 0.000 0.000 0.000 0.000 0.000 0.000 0.000 0.000 0.000 0.000 0.000 0.000 0.000 0.000 0.000 0.000 0.002 0.005 0.011 0.023 0.036 0.042 0.070 0.146 0.041 0.012
0.000 0.000 0.000 0.000 0.000 0.000 0.000 0.000 0.000 0.000 0.000 0.000 0.000 0.000 0.000 0.000 0.000 0.000 0.000 0.000 0.000 0.000 0.000 0.000 0.000 0.000 0.000 0.000 0.000 0.001 0.001 0.004 0.011 0.021 0.031 0.030 0.049 0.183 0.042 0.015
0.000 0.000 0.000 0.000 0.000 0.000 0.000 0.000 0.000 0.000 0.000 0.000 0.000 0.000 0.000 0.000 0.000 0.000 0.000 0.000 0.000 0.000 0.000 0.000 0.000 0.000 0.000 0.000 0.000 0.001 0.001 0.004 0.010 0.016 0.018 0.021 0.032 0.202 0.036 0.006
0.000 0.000 0.000 0.000 0.000 0.000 0.000 0.000 0.000 0.000 0.000 0.000 0.000 0.000 0.000 0.000 0.000 0.000 0.000 0.000 0.000 0.000 0.000 0.000 0.000 0.000 0.000 0.000 0.000 0.000 0.001 0.003 0.008 0.012 0.012 0.013 0.033 0.093 0.010 0.002
0.000 0.000 0.000 0.000 0.000 0.000 0.000 0.000 0.000 0.000 0.000 0.000 0.000 0.000 0.000 0.000 0.000 0.000 0.000 0.000 0.000 0.000 0.000 0.000 0.000 0.000 0.000 0.000 0.000 0.000 0.000 0.002 0.004 0.005 0.007 0.008 0.022 0.034 0.004 0.001
