ncols        45
nrows        40
xllcorner    409867.8
yllcorner    6870409.1
cellsize     5.00
NODATA_value -9999
0.000 0.000 0.000 0.000 0.000 0.000 0.000 0.000 0.000 0.000 0.000 0.000 0.000 0.000 0.000 0.000 0.000 0.000 0.000 0.000 0.000 0.000 0.000 0.000 0.000 0.000 0.000 0.000 0.000 0.000 0.000 0.000 0.000 0.000 0.000 0.000 0.002 0.006 0.012 0.005 0.002 0.002 0.001 0.000 0.000
0.000 0.000 0.000 0.000 0.000 0.000 0.000 0.000 0.000 0.000 0.000 0.000 0.000 0.000 0.000 0.000 0.000 0.000 0.000 0.000 0.000 0.000 0.000 0.000 0.000 0.000 0.000 0.000 0.000 0.000 0.000 0.000 0.000 0.000 0.007 0.027 0.042 0.075 0.103 0.060 0.040 0.045 0.028 0.001 0.000
0.000 0.000 0.000 0.000 0.000 0.000 0.000 0.000 0.000 0.000 0.000 0.000 0.000 0.000 0.000 0.000 0.000 0.000 0.000 0.000 0.000 0.000 0.000 0.000 0.000 0.000 0.000 0.000 0.000 0.000 0.000 0.000 0.002 0.022 0.081 0.157 0.187 0.357 0.382 0.281 0.179 0.239 0.136 0.019 0.000
0.000 0.000 0.000 0.000 0.000 0.000 0.000 0.000 0.000 0.000 0.000 0.000 0.000 0.000 0.000 0.000 0.000 0.000 0.000 0.000 0.000 0.000 0.000 0.000 0.000 0.000 0.000 0.000 0.000 0.000 0.000 0.001 0.032 0.134 0.310 0.387 0.438 0.652 0.698 0.692 0.507 0.706 0.352 0.067 0.000
0.000 0.000 0.000 0.000 0.000 0.000 0.000 0.000 0.000 0.000 0.000 0.000 0.000 0.000 0.000 0.000 0.000 0.000 0.000 0.000 0.000 0.000 0.000 0.000 0.000 0.000 0.000 0.000 0.000 0.000 0.000 0.017 0.115 0.390 0.635 0.576 0.558 0.576 0.873 0.972 0.915 0.784 0.452 0.175 0.000
0.000 0.000 0.000 0.000 0.000 0.000 0.000 0.000 0.000 0.000 0.000 0.000 0.000 0.000 0.000 0.000 0.000 0.000 0.000 0.000 0.000 0.000 0.000 0.000 0.000 0.000 0.000 0.000 0.000 0.000 0.001 0.050 0.252 0.666 0.900 0.703 0.736 0.815 1.034 0.952 0.871 0.690 0.592 0.248 0.000
0.000 0.000 0.000 0.000 0.000 0.000 0.000 0.000 0.000 0.000 0.000 0.000 0.000 0.000 0.000 0.000 0.000 0.000 0.000 0.000 0.000 0.000 0.000 0.000 0.000 0.000 0.000 0.000 0.000 0.000 0.006 0.074 0.300 0.631 0.563 0.574 1.007 1.254 0.988 0.889 0.877 0.827 0.536 0.206 0.000
0.000 0.000 0.000 0.000 0.000 0.000 0.000 0.000 0.000 0.000 0.000 0.000 0.000 0.000 0.000 0.000 0.000 0.000 0.000 0.000 0.000 0.000 0.000 0.000 0.000 0.000 0.000 0.000 0.000 0.000 0.018 0.105 0.305 0.442 0.459 0.822 1.148 0.966 0.947 0.997 0.887 0.643 0.396 0.064 0.000
0.000 0.000 0.000 0.000 0.000 0.000 0.000 0.000 0.000 0.000 0.000 0.000 0.000 0.000 0.000 0.000 0.000 0.000 0.000 0.000 0.000 0.000 0.000 0.000 0.000 0.000 0.000 0.000 0.000 0.006 0.081 0.269 0.509 0.580 0.717 0.989 0.821 0.836 1.077 0.886 0.754 0.407 0.138 0.000 0.000
0.000 0.000 0.000 0.000 0.000 0.000 0.000 0.000 0.000 0.000 0.000 0.000 0.000 0.000 0.000 0.000 0.000 0.000 0.000 0.000 0.000 0.000 0.000 0.001 0.003 0.002 0.001 0.000 0.003 0.049 0.254 0.613 0.848 0.717 0.725 0.604 0.666 0.925 0.864 0.705 0.415 0.129 0.016 0.000 0.000
0.000 0.000 0.000 0.000 0.000 0.000 0.000 0.000 0.000 0.000 0.000 0.000 0.000 0.000 0.000 0.000 0.000 0.000 0.000 0.000 0.000 0.001 0.014 0.046 0.058 0.038 0.031 0.008 0.055 0.215 0.498 0.967 1.011 0.658 0.443 0.445 0.723 0.629 0.458 0.266 0.075 0.000 0.000 0.000 0.000
0.000 0.000 0.000 0.000 0.000 0.000 0.000 0.000 0.000 0.000 0.000 0.000 0.000 0.000 0.000 0.000 0.000 0.000 0.000 0.000 0.001 0.027 0.102 0.214 0.229 0.120 0.075 0.074 0.348 0.594 0.735 1.101 1.299 0.867 0.340 0.579 0.536 0.336 0.092 0.018 0.000 0.000 0.000 0.000 0.000
0.000 0.000 0.000 0.000 0.000 0.000 0.000 0.000 0.000 0.000 0.000 0.000 0.000 0.000 0.000 0.000 0.000 0.000 0.000 0.001 0.027 0.135 0.328 0.519 0.457 0.190 0.203 0.471 0.912 1.035 0.856 0.919 1.184 0.538 0.285 0.780 0.301 0.000 0.000 0.000 0.000 0.000 0.000 0.000 0.000
0.000 0.000 0.000 0.000 0.000 0.000 0.000 0.000 0.000 0.000 0.000 0.000 0.000 0.000 0.000 0.000 0.000 0.000 0.002 0.022 0.124 0.383 0.639 0.734 0.307 0.321 0.593 1.007 1.308 1.120 0.810 0.838 0.660 0.339 0.458 0.485 0.029 0.000 0.000 0.000 0.000 0.000 0.000 0.000 0.000
0.000 0.000 0.000 0.000 0.000 0.000 0.000 0.000 0.000 0.000 0.000 0.000 0.000 0.000 0.000 0.000 0.000 0.016 0.045 0.115 0.371 0.827 0.917 0.424 0.291 0.902 1.096 0.953 1.328 0.982 0.663 1.067 0.824 0.676 0.386 0.127 0.000 0.000 0.000 0.000 0.000 0.000 0.000 0.000 0.000
0.000 0.000 0.000 0.000 0.000 0.000 0.000 0.000 0.000 0.000 0.000 0.000 0.000 0.001 0.004 0.009 0.024 0.124 0.221 0.363 0.768 1.183 0.674 0.471 0.653 0.627 0.706 0.960 1.410 1.253 1.098 0.988 0.720 0.566 0.164 0.000 0.000 0.000 0.000 0.000 0.000 0.000 0.000 0.000 0.000
0.000 0.000 0.000 0.000 0.000 0.000 0.000 0.000 0.000 0.000 0.000 0.000 0.006 0.036 0.055 0.083 0.132 0.459 0.694 0.718 0.875 0.699 0.508 0.851 0.672 0.752 0.796 1.390 1.257 1.210 1.105 0.851 0.589 0.288 0.029 0.000 0.000 0.000 0.000 0.000 0.000 0.000 0.000 0.000 0.000
0.000 0.000 0.000 0.000 0.000 0.000 0.000 0.000 0.000 0.000 0.001 0.022 0.069 0.166 0.194 0.321 0.438 0.968 1.122 0.728 0.633 0.537 0.434 0.906 1.314 1.138 1.612 1.240 1.147 1.006 0.727 0.697 0.423 0.054 0.000 0.000 0.000 0.000 0.000 0.000 0.000 0.000 0.000 0.000 0.000
0.000 0.000 0.000 0.000 0.000 0.000 0.000 0.000 0.000 0.007 0.031 0.131 0.223 0.386 0.439 0.665 0.831 1.161 0.890 0.630 0.873 0.784 0.582 0.851 1.118 1.105 1.258 0.820 1.102 1.037 0.885 0.584 0.082 0.000 0.000 0.000 0.000 0.000 0.000 0.000 0.000 0.000 0.000 0.000 0.000
0.000 0.000 0.000 0.000 0.000 0.000 0.000 0.000 0.003 0.065 0.118 0.335 0.461 0.547 0.523 0.632 0.790 0.902 0.693 0.818 1.043 1.122 1.308 0.639 0.695 0.936 0.899 0.703 1.383 1.050 0.576 0.100 0.000 0.000 0.000 0.000 0.000 0.000 0.000 0.000 0.000 0.000 0.000 0.000 0.000
0.000 0.000 0.000 0.000 0.000 0.000 0.000 0.002 0.042 0.195 0.294 0.504 0.589 0.564 0.513 0.534 0.630 0.914 0.897 0.781 1.029 0.956 0.702 0.445 0.557 0.607 0.930 0.825 0.962 0.486 0.072 0.000 0.000 0.000 0.000 0.000 0.000 0.000 0.000 0.000 0.000 0.000 0.000 0.000 0.000
0.000 0.000 0.000 0.000 0.000 0.000 0.001 0.029 0.126 0.352 0.483 0.538 0.576 0.703 0.749 0.893 1.031 1.085 0.826 0.555 0.656 0.742 0.575 0.602 0.706 0.774 0.960 1.184 0.480 0.084 0.000 0.000 0.000 0.000 0.000 0.000 0.000 0.000 0.000 0.000 0.000 0.000 0.000 0.000 0.000
0.000 0.000 0.000 0.000 0.000 0.000 0.008 0.079 0.272 0.498 0.601 0.668 0.731 0.859 1.218 1.247 1.207 1.000 0.738 0.755 0.625 0.863 0.904 1.174 1.160 1.105 1.083 0.623 0.068 0.000 0.000 0.000 0.000 0.000 0.000 0.000 0.000 0.000 0.000 0.000 0.000 0.000 0.000 0.000 0.000
0.000 0.000 0.000 0.000 0.000 0.013 0.047 0.177 0.507 0.764 0.835 0.964 1.008 0.799 0.915 1.114 1.062 0.940 0.755 1.415 1.655 1.657 1.343 0.714 0.960 0.808 0.442 0.035 0.000 0.000 0.000 0.000 0.000 0.000 0.000 0.000 0.000 0.000 0.000 0.000 0.000 0.000 0.000 0.000 0.000
0.000 0.000 0.000 0.001 0.021 0.098 0.203 0.464 0.878 1.060 1.133 1.014 1.174 1.066 1.143 1.153 0.937 1.046 1.734 1.439 1.617 1.630 1.026 0.587 0.652 0.299 0.024 0.000 0.000 0.000 0.000 0.000 0.000 0.000 0.000 0.000 0.000 0.000 0.000 0.000 0.000 0.000 0.000 0.000 0.000
0.000 0.000 0.002 0.035 0.126 0.348 0.687 1.217 1.357 1.102 0.941 0.833 1.109 1.307 1.471 1.369 1.162 1.208 1.627 1.241 1.199 0.910 0.489 0.273 0.128 0.000 0.000 0.000 0.000 0.000 0.000 0.000 0.000 0.000 0.000 0.000 0.000 0.000 0.000 0.000 0.000 0.000 0.000 0.000 0.000
0.000 0.001 0.039 0.167 0.426 0.752 1.212 1.112 1.021 0.902 0.995 0.883 1.002 0.949 1.083 1.473 1.330 1.308 1.249 1.142 0.960 0.420 0.073 0.000 0.000 0.000 0.000 0.000 0.000 0.000 0.000 0.000 0.000 0.000 0.000 0.000 0.000 0.000 0.000 0.000 0.000 0.000 0.000 0.000 0.000
0.000 0.030 0.171 0.541 0.958 1.133 1.048 0.757 0.748 0.867 0.906 1.065 1.290 1.109 0.939 1.423 1.402 1.259 1.283 0.973 0.527 0.082 0.000 0.000 0.000 0.000 0.000 0.000 0.000 0.000 0.000 0.000 0.000 0.000 0.000 0.000 0.000 0.000 0.000 0.000 0.000 0.000 0.000 0.000 0.000
0.002 0.118 0.539 1.183 1.261 1.140 0.994 0.771 0.704 0.909 1.048 0.981 1.179 1.458 1.400 1.453 1.403 1.337 1.063 0.560 0.156 0.000 0.000 0.000 0.000 0.000 0.000 0.000 0.000 0.000 0.000 0.000 0.000 0.000 0.000 0.000 0.000 0.000 0.000 0.000 0.000 0.000 0.000 0.000 0.000
0.002 0.277 1.144 1.407 0.948 0.909 1.102 1.246 1.263 0.896 1.209 1.075 1.041 1.204 1.411 1.286 1.289 1.061 0.539 0.210 0.037 0.000 0.000 0.000 0.000 0.000 0.000 0.000 0.000 0.000 0.000 0.000 0.000 0.000 0.000 0.000 0.000 0.000 0.000 0.000 0.000 0.000 0.000 0.000 0.000
0.001 0.313 1.052 1.113 0.988 1.025 0.963 1.183 1.184 1.061 1.230 1.181 1.074 0.954 0.990 0.927 0.866 0.555 0.230 0.079 0.024 0.002 0.000 0.000 0.000 0.000 0.000 0.000 0.000 0.000 0.000 0.000 0.000 0.000 0.000 0.000 0.000 0.000 0.000 0.000 0.000 0.000 0.000 0.000 0.000
0.007 0.145 0.721 0.934 1.127 1.127 0.993 0.853 0.977 1.194 1.189 1.264 0.986 0.769 0.731 0.668 0.494 0.351 0.265 0.051 0.003 0.000 0.000 0.000 0.000 0.000 0.000 0.000 0.000 0.000 0.000 0.000 0.000 0.000 0.000 0.000 0.000 0.000 0.000 0.000 0.000 0.000 0.000 0.000 0.000
0.002 0.057 0.410 0.850 0.837 1.072 0.912 0.951 1.098 1.390 1.098 1.071 0.838 0.764 0.811 0.623 0.445 0.228 0.050 0.001 0.000 0.000 0.000 0.000 0.000 0.000 0.000 0.000 0.000 0.000 0.000 0.000 0.000 0.000 0.000 0.000 0.000 0.000 0.000 0.000 0.000 0.000 0.000 0.000 0.000
0.003 0.043 0.264 0.767 0.697 1.006 0.974 1.138 1.437 1.308 1.066 0.945 0.863 0.947 0.917 0.515 0.146 0.000 0.000 0.000 0.000 0.000 0.000 0.000 0.000 0.000 0.000 0.000 0.000 0.000 0.000 0.000 0.000 0.000 0.000 0.000 0.000 0.000 0.000 0.000 0.000 0.000 0.000 0.000 0.000
0.000 0.013 0.198 0.655 0.757 1.067 1.198 1.067 1.232 0.997 0.924 1.144 1.056 0.916 0.417 0.062 0.000 0.000 0.000 0.000 0.000 0.000 0.000 0.000 0.000 0.000 0.000 0.000 0.000 0.000 0.000 0.000 0.000 0.000 0.000 0.000 0.000 0.000 0.000 0.000 0.000 0.000 0.000 0.000 0.000
0.000 0.000 0.036 0.268 0.559 0.923 1.018 1.013 0.852 0.780 0.908 1.270 0.877 0.341 0.045 0.000 0.000 0.000 0.000 0.000 0.000 0.000 0.000 0.000 0.000 0.000 0.000 0.000 0.000 0.000 0.000 0.000 0.000 0.000 0.000 0.000 0.000 0.000 0.000 0.000 0.000 0.000 0.000 0.000 0.000
0.000 0.000 0.000 0.000 0.157 0.406 0.562 0.497 0.536 0.848 1.128 0.937 0.261 0.043 0.000 0.000 0.000 0.000 0.000 0.000 0.000 0.000 0.000 0.000 0.000 0.000 0.000 0.000 0.000 0.000 0.000 0.000 0.000 0.000 0.000 0.000 0.000 0.000 0.000 0.000 0.000 0.000 0.000 0.000 0.000
0.000 0.000 0.000 0.000 0.010 0.056 0.113 0.108 0.395 0.779 1.164 0.306 0.032 0.000 0.000 0.000 0.000 0.000 0.000 0.000 0.000 0.000 0.000 0.000 0.000 0.000 0.000 0.000 0.000 0.000 0.000 0.000 0.000 0.000 0.000 0.000 0.000 0.000 0.000 0.000 0.000 0.000 0.000 0.000 0.000
0.000 0.000 0.000 0.000 0.000 0.000 0.000 0.018 0.101 0.361 0.338 0.047 0.000 0.000 0.000 0.000 0.000 0.000 0.000 0.000 0.000 0.000 0.000 0.000 0.000 0.000 0.000 0.000 0.000 0.000 0.000 0.000 0.000 0.000 0.000 0.000 0.000 0.000 0.000 0.000 0.000 0.000 0.000 0.000 0.000
0.000 0.000 0.000 0.000 0.000 0.000 0.000 0.000 0.012 0.039 0.040 0.000 0.000 0.000 0.000 0.000 0.000 0.000 0.000 0.000 0.000 0.000 0.000 0.000 0.000 0.000 0.000 0.000 0.000 0.000 0.000 0.000 0.000 0.000 0.000 0.000 0.000 0.000 0.000 0.000 0.000 0.000 0.000 0.000 0.000
