ncols        33
nrows        38
xllcorner    409837.8
yllcorner    6870544.1
cellsize     5.00
NODATA_value -9999
0.000 0.000 0.000 0.000 0.000 0.000 0.000 0.000 0.000 0.000 0.000 0.000 0.000 0.000 0.000 0.000 0.000 0.000 0.000 0.000 0.000 0.000 0.000 0.000 0.000 0.000 0.000 0.000 0.000 0.000 0.000 0.000 0.000
0.000 0.000 0.000 0.000 0.000 0.000 0.000 0.000 0.000 0.000 0.000 0.002 0.016 0.042 0.056 0.055 0.041 0.025 0.011 0.002 0.000 0.000 0.000 0.000 0.000 0.000 0.000 0.000 0.000 0.000 0.000 0.000 0.000
0.000 0.000 0.000 0.000 0.000 0.000 0.000 0.000 0.000 0.000 0.003 0.030 0.090 0.149 0.190 0.181 0.134 0.090 0.055 0.032 0.013 0.002 0.000 0.000 0.000 0.000 0.000 0.000 0.000 0.000 0.000 0.000 0.000
0.000 0.000 0.000 0.000 0.000 0.000 0.000 0.000 0.000 0.000 0.021 0.098 0.233 0.390 0.492 0.458 0.351 0.244 0.142 0.081 0.044 0.024 0.006 0.000 0.000 0.000 0.000 0.000 0.000 0.000 0.000 0.000 0.000
0.000 0.000 0.000 0.000 0.000 0.000 0.000 0.000 0.000 0.005 0.065 0.206 0.488 0.808 0.985 0.939 0.754 0.529 0.311 0.174 0.094 0.047 0.031 0.011 0.001 0.000 0.000 0.000 0.000 0.000 0.000 0.000 0.000
0.000 0.000 0.000 0.000 0.000 0.000 0.000 0.000 0.000 0.016 0.103 0.356 0.811 1.337 1.635 1.624 1.393 0.962 0.561 0.320 0.174 0.088 0.050 0.029 0.014 0.002 0.000 0.000 0.000 0.000 0.000 0.000 0.000
0.000 0.000 0.000 0.000 0.000 0.000 0.000 0.000 0.000 0.027 0.140 0.477 1.127 1.878 2.341 2.489 2.128 1.452 0.909 0.518 0.280 0.149 0.084 0.041 0.027 0.018 0.003 0.000 0.000 0.000 0.000 0.000 0.000
0.000 0.000 0.000 0.000 0.000 0.000 0.000 0.000 0.001 0.030 0.153 0.536 1.334 2.215 2.986 3.206 2.763 2.059 1.312 0.747 0.408 0.222 0.119 0.057 0.037 0.024 0.017 0.004 0.000 0.000 0.000 0.000 0.000
0.000 0.000 0.000 0.000 0.000 0.000 0.000 0.000 0.001 0.029 0.149 0.540 1.351 2.446 3.423 3.654 3.337 2.525 1.641 1.001 0.558 0.309 0.162 0.084 0.050 0.030 0.021 0.018 0.006 0.000 0.000 0.000 0.000
0.000 0.000 0.000 0.000 0.000 0.000 0.000 0.000 0.001 0.026 0.129 0.473 1.229 2.384 3.362 3.734 3.517 2.825 1.979 1.267 0.728 0.426 0.233 0.120 0.064 0.040 0.029 0.020 0.017 0.007 0.000 0.000 0.000
0.000 0.000 0.000 0.000 0.000 0.000 0.000 0.000 0.001 0.020 0.099 0.373 1.013 2.034 3.025 3.523 3.463 2.966 2.236 1.523 0.912 0.535 0.304 0.158 0.088 0.048 0.036 0.025 0.018 0.015 0.007 0.001 0.000
0.000 0.000 0.000 0.000 0.000 0.000 0.000 0.000 0.000 0.013 0.066 0.266 0.762 1.651 2.575 3.014 3.114 2.945 2.486 1.715 1.083 0.703 0.406 0.226 0.117 0.062 0.044 0.031 0.024 0.016 0.014 0.009 0.001
0.000 0.000 0.000 0.000 0.000 0.000 0.000 0.000 0.000 0.008 0.046 0.193 0.578 1.310 2.023 2.501 2.743 2.772 2.528 1.936 1.367 0.868 0.539 0.302 0.166 0.086 0.049 0.037 0.031 0.020 0.014 0.012 0.010
0.000 0.000 0.000 0.000 0.000 0.000 0.000 0.000 0.000 0.004 0.032 0.133 0.467 1.073 1.630 1.949 2.261 2.463 2.517 2.274 1.747 1.122 0.658 0.383 0.233 0.118 0.061 0.041 0.031 0.026 0.018 0.012 0.008
0.000 0.000 0.000 0.000 0.000 0.000 0.000 0.000 0.000 0.002 0.024 0.103 0.346 0.821 1.303 1.583 1.778 2.200 2.628 2.680 2.207 1.479 0.786 0.500 0.306 0.178 0.084 0.047 0.033 0.030 0.021 0.012 0.006
0.000 0.000 0.000 0.000 0.000 0.001 0.004 0.005 0.004 0.005 0.028 0.090 0.295 0.671 1.060 1.307 1.603 2.035 2.522 2.935 2.774 1.954 1.045 0.624 0.400 0.231 0.121 0.060 0.037 0.032 0.023 0.013 0.007
0.000 0.000 0.000 0.001 0.016 0.038 0.051 0.054 0.048 0.050 0.060 0.102 0.275 0.590 0.977 1.251 1.508 1.859 2.433 3.045 3.188 2.459 1.385 0.718 0.441 0.288 0.173 0.085 0.048 0.032 0.023 0.015 0.007
0.000 0.000 0.003 0.034 0.078 0.108 0.124 0.122 0.117 0.124 0.124 0.155 0.286 0.523 0.804 1.146 1.416 1.860 2.394 3.033 3.415 2.869 1.724 0.804 0.490 0.365 0.228 0.119 0.059 0.034 0.024 0.017 0.008
0.000 0.002 0.033 0.095 0.177 0.221 0.244 0.244 0.236 0.242 0.221 0.224 0.318 0.512 0.782 1.115 1.507 1.952 2.388 2.939 3.368 3.060 2.006 0.888 0.515 0.416 0.272 0.159 0.076 0.040 0.026 0.017 0.008
0.000 0.012 0.078 0.180 0.303 0.396 0.418 0.395 0.367 0.351 0.332 0.312 0.359 0.494 0.720 1.102 1.575 2.034 2.345 2.729 3.128 3.105 2.181 0.921 0.506 0.434 0.317 0.202 0.100 0.054 0.031 0.018 0.008
0.001 0.033 0.126 0.281 0.484 0.599 0.578 0.514 0.413 0.469 0.469 0.379 0.376 0.507 0.725 1.162 1.607 2.031 2.206 2.371 2.662 2.747 1.965 0.907 0.477 0.441 0.348 0.249 0.134 0.069 0.034 0.019 0.008
0.005 0.058 0.171 0.388 0.626 0.728 0.671 0.524 0.518 0.596 0.542 0.424 0.379 0.511 0.744 1.136 1.591 1.884 2.008 1.992 2.229 2.378 1.797 0.890 0.487 0.425 0.380 0.290 0.158 0.082 0.038 0.018 0.008
0.010 0.069 0.206 0.453 0.683 0.690 0.685 0.635 0.599 0.639 0.570 0.418 0.384 0.487 0.727 1.075 1.432 1.781 1.801 1.726 1.856 1.978 1.649 0.880 0.468 0.402 0.379 0.282 0.186 0.100 0.044 0.018 0.008
0.013 0.073 0.213 0.456 0.631 0.710 0.766 0.663 0.617 0.636 0.568 0.439 0.385 0.494 0.722 1.094 1.418 1.627 1.634 1.423 1.488 1.551 1.368 0.809 0.428 0.384 0.338 0.274 0.207 0.118 0.050 0.022 0.010
0.013 0.069 0.196 0.382 0.561 0.699 0.684 0.618 0.574 0.599 0.552 0.414 0.371 0.455 0.715 1.064 1.345 1.466 1.342 1.152 1.095 1.223 1.140 0.681 0.349 0.299 0.277 0.265 0.226 0.136 0.060 0.033 0.012
0.013 0.058 0.156 0.311 0.536 0.665 0.653 0.556 0.517 0.532 0.492 0.382 0.338 0.437 0.696 1.020 1.224 1.253 1.092 0.942 0.839 0.883 0.892 0.536 0.279 0.259 0.274 0.263 0.230 0.140 0.081 0.042 0.015
0.010 0.044 0.119 0.272 0.484 0.604 0.589 0.506 0.462 0.462 0.456 0.334 0.290 0.389 0.644 0.939 1.045 1.045 0.902 0.742 0.617 0.635 0.683 0.467 0.240 0.239 0.246 0.245 0.197 0.145 0.103 0.048 0.025
0.007 0.037 0.095 0.219 0.392 0.507 0.482 0.419 0.386 0.408 0.375 0.284 0.254 0.332 0.563 0.790 0.887 0.805 0.726 0.547 0.432 0.465 0.512 0.344 0.200 0.190 0.207 0.190 0.177 0.157 0.109 0.059 0.025
0.005 0.029 0.067 0.153 0.301 0.409 0.412 0.360 0.344 0.330 0.303 0.244 0.220 0.292 0.500 0.648 0.702 0.634 0.458 0.360 0.324 0.314 0.368 0.297 0.168 0.140 0.148 0.163 0.170 0.157 0.112 0.064 0.023
0.004 0.024 0.051 0.120 0.243 0.334 0.337 0.310 0.279 0.266 0.256 0.217 0.194 0.252 0.437 0.502 0.568 0.457 0.351 0.279 0.259 0.219 0.269 0.258 0.141 0.122 0.137 0.154 0.160 0.148 0.105 0.066 0.026
0.002 0.019 0.039 0.081 0.155 0.232 0.271 0.241 0.224 0.229 0.209 0.172 0.149 0.210 0.363 0.401 0.451 0.310 0.223 0.224 0.187 0.154 0.207 0.209 0.117 0.106 0.104 0.126 0.140 0.138 0.106 0.059 0.028
0.001 0.015 0.028 0.057 0.118 0.170 0.189 0.192 0.197 0.194 0.171 0.146 0.124 0.178 0.293 0.285 0.314 0.211 0.169 0.169 0.143 0.110 0.142 0.162 0.094 0.086 0.084 0.102 0.119 0.117 0.085 0.053 0.027
0.001 0.011 0.022 0.046 0.088 0.132 0.151 0.163 0.163 0.150 0.118 0.094 0.095 0.145 0.243 0.213 0.227 0.166 0.120 0.131 0.115 0.073 0.097 0.124 0.081 0.072 0.073 0.086 0.096 0.087 0.064 0.045 0.029
0.000 0.007 0.019 0.040 0.069 0.106 0.114 0.124 0.130 0.108 0.082 0.072 0.073 0.112 0.175 0.144 0.175 0.134 0.093 0.097 0.076 0.046 0.062 0.104 0.066 0.061 0.062 0.062 0.071 0.062 0.050 0.042 0.028
0.000 0.003 0.015 0.032 0.056 0.077 0.090 0.093 0.093 0.091 0.061 0.053 0.058 0.085 0.121 0.102 0.121 0.084 0.053 0.063 0.051 0.039 0.051 0.087 0.051 0.050 0.054 0.053 0.052 0.048 0.043 0.040 0.028
0.000 0.001 0.011 0.023 0.043 0.052 0.059 0.061 0.067 0.064 0.043 0.040 0.045 0.062 0.088 0.072 0.088 0.060 0.043 0.043 0.041 0.037 0.042 0.070 0.045 0.046 0.046 0.046 0.046 0.043 0.041 0.040 0.029
0.000 0.000 0.008 0.017 0.036 0.041 0.041 0.042 0.046 0.042 0.038 0.040 0.040 0.046 0.064 0.050 0.062 0.043 0.038 0.039 0.037 0.033 0.036 0.053 0.041 0.039 0.043 0.040 0.041 0.041 0.040 0.035 0.015
0.000 0.000 0.005 0.013 0.027 0.034 0.033 0.034 0.035 0.035 0.035 0.032 0.032 0.036 0.042 0.039 0.046 0.039 0.034 0.033 0.030 0.026 0.027 0.041 0.035 0.033 0.036 0.034 0.033 0.036 0.033 0.019 0.013
