ncols        36
nrows        59
xllcorner    409707.8
yllcorner    6870754.1
cellsize     5.00
NODATA_value -9999
0.000 0.000 0.000 0.000 0.006 0.023 0.040 0.049 0.044 0.029 0.012 0.002 0.000 0.000 0.000 0.000 0.000 0.000 0.000 0.000 0.000 0.000 0.000 0.000 0.000 0.000 0.000 0.000 0.000 0.000 0.000 0.000 0.000 0.000 0.000 0.000
0.000 0.000 0.001 0.015 0.057 0.097 0.136 0.152 0.137 0.096 0.056 0.029 0.007 0.000 0.000 0.000 0.000 0.000 0.000 0.000 0.000 0.000 0.000 0.000 0.000 0.000 0.000 0.000 0.000 0.000 0.000 0.000 0.000 0.000 0.000 0.000
0.000 0.000 0.017 0.075 0.148 0.257 0.353 0.372 0.337 0.247 0.145 0.071 0.035 0.013 0.001 0.000 0.000 0.000 0.000 0.000 0.000 0.000 0.000 0.000 0.000 0.000 0.000 0.000 0.000 0.000 0.000 0.000 0.000 0.000 0.000 0.000
0.000 0.008 0.068 0.165 0.325 0.547 0.721 0.759 0.707 0.525 0.315 0.160 0.075 0.036 0.016 0.001 0.000 0.000 0.000 0.000 0.000 0.000 0.000 0.000 0.000 0.000 0.000 0.000 0.000 0.000 0.000 0.000 0.000 0.000 0.000 0.000
0.000 0.030 0.122 0.302 0.567 0.942 1.234 1.381 1.224 0.923 0.576 0.318 0.155 0.070 0.035 0.015 0.000 0.000 0.000 0.000 0.000 0.000 0.000 0.000 0.000 0.000 0.000 0.000 0.000 0.000 0.000 0.000 0.000 0.000 0.000 0.000
0.000 0.056 0.186 0.443 0.871 1.440 1.952 2.139 1.842 1.449 0.946 0.540 0.269 0.136 0.062 0.030 0.011 0.000 0.000 0.000 0.000 0.000 0.000 0.000 0.000 0.000 0.000 0.000 0.000 0.000 0.000 0.000 0.000 0.000 0.000 0.000
0.000 0.070 0.230 0.575 1.213 1.974 2.680 2.852 2.577 2.100 1.406 0.832 0.448 0.223 0.105 0.046 0.023 0.005 0.000 0.000 0.000 0.000 0.000 0.000 0.000 0.000 0.000 0.000 0.000 0.000 0.000 0.000 0.000 0.000 0.000 0.000
0.000 0.067 0.237 0.661 1.407 2.364 3.207 3.567 3.450 2.747 1.950 1.223 0.688 0.328 0.164 0.075 0.029 0.020 0.001 0.000 0.000 0.000 0.000 0.000 0.000 0.000 0.000 0.000 0.000 0.000 0.000 0.000 0.000 0.000 0.000 0.000
0.000 0.057 0.223 0.673 1.505 2.591 3.506 4.074 3.941 3.372 2.492 1.641 0.947 0.473 0.245 0.113 0.047 0.021 0.013 0.000 0.000 0.000 0.000 0.000 0.000 0.000 0.000 0.000 0.000 0.000 0.000 0.000 0.000 0.000 0.000 0.000
0.000 0.041 0.173 0.568 1.353 2.536 3.588 4.442 4.282 3.917 3.029 2.144 1.286 0.693 0.349 0.160 0.065 0.032 0.017 0.003 0.000 0.000 0.000 0.000 0.000 0.000 0.000 0.000 0.000 0.000 0.000 0.000 0.000 0.000 0.000 0.000
0.000 0.028 0.118 0.414 1.159 2.283 3.613 4.174 4.388 4.249 3.531 2.656 1.639 0.946 0.474 0.221 0.094 0.046 0.020 0.016 0.000 0.000 0.000 0.000 0.000 0.000 0.000 0.000 0.000 0.000 0.000 0.000 0.000 0.000 0.000 0.000
0.000 0.016 0.066 0.273 0.825 1.820 3.073 3.914 4.321 4.429 3.875 3.015 2.029 1.258 0.660 0.306 0.136 0.062 0.031 0.014 0.009 0.000 0.000 0.000 0.000 0.000 0.000 0.000 0.000 0.000 0.000 0.000 0.000 0.000 0.000 0.000
0.000 0.007 0.035 0.149 0.527 1.361 2.478 3.408 4.094 4.347 3.843 3.324 2.506 1.639 0.897 0.424 0.192 0.087 0.043 0.020 0.012 0.004 0.000 0.000 0.000 0.000 0.000 0.000 0.000 0.000 0.000 0.000 0.000 0.000 0.000 0.000
0.000 0.002 0.019 0.072 0.294 0.875 1.837 2.930 3.627 3.837 3.818 3.536 2.848 1.983 1.178 0.597 0.274 0.129 0.060 0.028 0.012 0.010 0.001 0.000 0.000 0.000 0.000 0.000 0.000 0.000 0.000 0.000 0.000 0.000 0.000 0.000
0.000 0.000 0.009 0.031 0.147 0.513 1.254 2.271 3.081 3.434 3.508 3.348 3.040 2.258 1.470 0.796 0.401 0.197 0.087 0.042 0.019 0.008 0.009 0.001 0.000 0.000 0.000 0.000 0.000 0.000 0.000 0.000 0.000 0.000 0.000 0.000
0.000 0.000 0.002 0.014 0.067 0.293 0.809 1.532 2.255 2.664 3.198 3.235 2.959 2.385 1.722 1.047 0.601 0.280 0.129 0.058 0.027 0.012 0.008 0.007 0.000 0.000 0.000 0.000 0.000 0.000 0.000 0.000 0.000 0.000 0.000 0.000
0.000 0.000 0.000 0.007 0.031 0.145 0.463 1.001 1.616 2.164 2.570 2.722 2.752 2.324 1.927 1.266 0.753 0.385 0.186 0.084 0.038 0.021 0.010 0.008 0.006 0.000 0.000 0.000 0.000 0.000 0.000 0.000 0.000 0.000 0.000 0.000
0.000 0.000 0.000 0.002 0.018 0.069 0.234 0.578 1.044 1.582 1.986 2.263 2.320 2.286 1.995 1.463 0.921 0.515 0.271 0.126 0.056 0.029 0.014 0.009 0.008 0.006 0.000 0.000 0.000 0.000 0.000 0.000 0.000 0.000 0.000 0.000
0.000 0.000 0.000 0.000 0.010 0.036 0.125 0.318 0.619 1.046 1.507 1.765 2.066 2.110 1.946 1.504 1.097 0.686 0.384 0.192 0.084 0.040 0.022 0.013 0.009 0.008 0.004 0.000 0.000 0.000 0.000 0.000 0.000 0.000 0.000 0.000
0.000 0.000 0.000 0.000 0.005 0.019 0.062 0.179 0.373 0.683 1.100 1.439 1.645 1.760 1.736 1.508 1.230 0.825 0.514 0.288 0.125 0.057 0.031 0.020 0.012 0.008 0.007 0.002 0.000 0.000 0.000 0.000 0.000 0.000 0.000 0.000
0.000 0.000 0.000 0.000 0.002 0.011 0.031 0.084 0.208 0.414 0.766 1.061 1.347 1.468 1.545 1.473 1.236 0.982 0.682 0.394 0.184 0.086 0.042 0.028 0.017 0.010 0.006 0.008 0.001 0.000 0.000 0.000 0.000 0.000 0.000 0.000
0.000 0.000 0.000 0.000 0.001 0.007 0.015 0.051 0.112 0.264 0.505 0.864 1.102 1.283 1.348 1.331 1.200 1.034 0.773 0.495 0.261 0.128 0.059 0.037 0.021 0.013 0.008 0.006 0.007 0.000 0.000 0.000 0.000 0.000 0.000 0.000
0.000 0.000 0.000 0.000 0.000 0.003 0.015 0.025 0.069 0.178 0.344 0.622 0.872 1.053 1.189 1.201 1.138 0.988 0.810 0.586 0.354 0.180 0.086 0.047 0.029 0.018 0.011 0.007 0.005 0.007 0.000 0.000 0.000 0.000 0.000 0.000
0.000 0.000 0.000 0.000 0.000 0.001 0.009 0.009 0.042 0.119 0.209 0.429 0.671 0.885 1.066 1.138 1.071 0.895 0.817 0.644 0.430 0.246 0.128 0.061 0.035 0.023 0.015 0.010 0.006 0.005 0.003 0.000 0.000 0.000 0.000 0.000
0.000 0.000 0.000 0.000 0.000 0.000 0.006 0.006 0.025 0.082 0.127 0.279 0.498 0.744 0.986 1.072 0.998 0.853 0.785 0.642 0.491 0.318 0.167 0.084 0.045 0.029 0.019 0.013 0.007 0.005 0.006 0.001 0.000 0.000 0.000 0.000
0.000 0.000 0.000 0.000 0.000 0.000 0.002 0.006 0.015 0.055 0.081 0.156 0.372 0.586 0.842 1.010 1.022 0.867 0.670 0.612 0.527 0.375 0.220 0.118 0.065 0.041 0.027 0.017 0.009 0.006 0.004 0.005 0.000 0.000 0.000 0.000
0.000 0.000 0.000 0.000 0.000 0.000 0.000 0.005 0.011 0.035 0.041 0.090 0.241 0.443 0.661 0.954 1.031 0.809 0.599 0.556 0.503 0.408 0.277 0.155 0.085 0.052 0.033 0.023 0.013 0.008 0.005 0.003 0.003 0.000 0.000 0.000
0.000 0.000 0.000 0.000 0.000 0.000 0.000 0.001 0.011 0.023 0.024 0.055 0.165 0.323 0.556 0.854 1.057 0.873 0.552 0.486 0.475 0.407 0.313 0.196 0.107 0.066 0.043 0.031 0.020 0.012 0.006 0.004 0.006 0.000 0.000 0.000
0.000 0.000 0.000 0.000 0.000 0.000 0.000 0.000 0.011 0.008 0.010 0.034 0.108 0.249 0.422 0.723 1.012 0.914 0.542 0.416 0.416 0.397 0.325 0.221 0.134 0.082 0.051 0.037 0.029 0.015 0.009 0.005 0.003 0.009 0.000 0.000
0.000 0.000 0.000 0.000 0.000 0.000 0.000 0.000 0.007 0.003 0.004 0.018 0.064 0.167 0.300 0.538 0.891 0.936 0.548 0.388 0.364 0.354 0.311 0.243 0.155 0.100 0.063 0.044 0.034 0.020 0.014 0.008 0.004 0.004 0.003 0.000
0.000 0.000 0.000 0.000 0.000 0.000 0.000 0.000 0.002 0.003 0.004 0.010 0.040 0.117 0.196 0.399 0.767 0.965 0.568 0.352 0.326 0.325 0.300 0.253 0.177 0.107 0.070 0.048 0.036 0.026 0.018 0.011 0.005 0.003 0.007 0.000
0.000 0.000 0.000 0.000 0.000 0.000 0.000 0.000 0.000 0.003 0.004 0.006 0.020 0.068 0.125 0.266 0.623 0.971 0.615 0.324 0.296 0.299 0.289 0.246 0.182 0.116 0.078 0.054 0.040 0.032 0.023 0.015 0.007 0.004 0.003 0.004
0.000 0.000 0.000 0.000 0.000 0.000 0.000 0.000 0.000 0.001 0.004 0.004 0.014 0.045 0.064 0.157 0.432 0.915 0.689 0.304 0.264 0.271 0.270 0.244 0.179 0.123 0.091 0.060 0.045 0.040 0.031 0.021 0.010 0.005 0.003 0.003
0.000 0.000 0.000 0.000 0.000 0.000 0.000 0.000 0.000 0.000 0.002 0.005 0.015 0.027 0.035 0.077 0.267 0.800 0.768 0.291 0.243 0.248 0.247 0.226 0.184 0.132 0.101 0.074 0.061 0.047 0.033 0.023 0.015 0.008 0.004 0.002
0.000 0.000 0.000 0.000 0.000 0.000 0.000 0.000 0.000 0.000 0.000 0.003 0.009 0.013 0.019 0.042 0.140 0.621 0.835 0.299 0.219 0.225 0.226 0.214 0.192 0.144 0.114 0.093 0.078 0.050 0.033 0.027 0.023 0.012 0.006 0.003
0.000 0.000 0.000 0.000 0.000 0.000 0.000 0.000 0.000 0.000 0.000 0.003 0.006 0.006 0.011 0.025 0.063 0.441 0.860 0.324 0.199 0.204 0.206 0.205 0.184 0.143 0.119 0.108 0.091 0.057 0.040 0.036 0.027 0.017 0.010 0.003
0.000 0.000 0.000 0.000 0.000 0.000 0.000 0.000 0.000 0.000 0.000 0.001 0.004 0.004 0.006 0.020 0.033 0.253 0.810 0.350 0.185 0.180 0.192 0.194 0.172 0.145 0.133 0.122 0.099 0.066 0.050 0.046 0.026 0.018 0.013 0.006
0.000 0.000 0.000 0.000 0.000 0.000 0.000 0.000 0.000 0.000 0.000 0.000 0.003 0.003 0.004 0.016 0.023 0.141 0.729 0.392 0.174 0.156 0.170 0.170 0.154 0.145 0.142 0.128 0.106 0.077 0.064 0.048 0.030 0.019 0.016 0.013
0.000 0.000 0.000 0.000 0.000 0.000 0.000 0.000 0.000 0.000 0.000 0.000 0.002 0.003 0.003 0.014 0.023 0.073 0.582 0.423 0.170 0.135 0.148 0.150 0.142 0.147 0.141 0.132 0.119 0.091 0.067 0.051 0.033 0.021 0.018 0.012
0.000 0.000 0.000 0.000 0.000 0.000 0.000 0.000 0.000 0.000 0.000 0.000 0.000 0.003 0.002 0.011 0.022 0.044 0.451 0.459 0.181 0.128 0.132 0.133 0.129 0.134 0.140 0.147 0.132 0.104 0.076 0.055 0.037 0.027 0.016 0.008
0.000 0.000 0.000 0.000 0.000 0.000 0.000 0.000 0.000 0.000 0.000 0.000 0.000 0.002 0.002 0.012 0.022 0.039 0.321 0.469 0.194 0.125 0.120 0.117 0.117 0.130 0.153 0.163 0.138 0.125 0.092 0.062 0.044 0.032 0.020 0.010
0.000 0.000 0.000 0.000 0.000 0.000 0.000 0.000 0.000 0.000 0.000 0.000 0.000 0.000 0.002 0.012 0.020 0.037 0.242 0.439 0.210 0.124 0.105 0.102 0.107 0.124 0.151 0.160 0.152 0.130 0.100 0.070 0.052 0.040 0.027 0.015
0.000 0.000 0.000 0.000 0.000 0.000 0.000 0.000 0.000 0.000 0.000 0.000 0.000 0.000 0.001 0.011 0.019 0.037 0.171 0.404 0.224 0.121 0.094 0.089 0.088 0.105 0.137 0.155 0.149 0.127 0.102 0.080 0.064 0.045 0.034 0.021
0.000 0.000 0.000 0.000 0.000 0.000 0.000 0.000 0.000 0.000 0.000 0.000 0.000 0.000 0.001 0.011 0.016 0.034 0.129 0.353 0.231 0.124 0.091 0.077 0.073 0.098 0.130 0.141 0.133 0.119 0.102 0.091 0.073 0.052 0.040 0.024
0.000 0.000 0.000 0.000 0.000 0.000 0.000 0.000 0.000 0.000 0.000 0.000 0.000 0.000 0.000 0.010 0.015 0.034 0.097 0.280 0.236 0.131 0.089 0.075 0.077 0.094 0.110 0.121 0.123 0.113 0.112 0.099 0.078 0.059 0.041 0.024
0.000 0.000 0.000 0.000 0.000 0.000 0.000 0.000 0.000 0.000 0.000 0.000 0.000 0.000 0.001 0.010 0.015 0.033 0.082 0.220 0.241 0.132 0.089 0.076 0.071 0.079 0.092 0.107 0.111 0.108 0.113 0.098 0.080 0.061 0.042 0.026
0.000 0.000 0.000 0.000 0.000 0.000 0.000 0.000 0.000 0.000 0.000 0.000 0.000 0.000 0.001 0.009 0.017 0.033 0.069 0.169 0.223 0.149 0.091 0.073 0.064 0.068 0.082 0.091 0.090 0.101 0.104 0.096 0.078 0.061 0.044 0.029
0.000 0.000 0.000 0.000 0.000 0.000 0.000 0.000 0.000 0.000 0.000 0.000 0.000 0.000 0.001 0.008 0.017 0.033 0.063 0.139 0.197 0.164 0.091 0.068 0.060 0.058 0.066 0.073 0.085 0.098 0.091 0.088 0.078 0.060 0.047 0.033
0.000 0.000 0.000 0.000 0.000 0.000 0.000 0.000 0.000 0.000 0.000 0.000 0.000 0.000 0.001 0.007 0.016 0.033 0.051 0.108 0.165 0.174 0.095 0.064 0.056 0.049 0.052 0.065 0.081 0.083 0.084 0.088 0.075 0.055 0.052 0.038
0.000 0.000 0.000 0.000 0.000 0.000 0.000 0.000 0.000 0.000 0.000 0.000 0.000 0.000 0.001 0.005 0.016 0.033 0.045 0.093 0.138 0.182 0.094 0.052 0.045 0.044 0.048 0.060 0.070 0.071 0.077 0.079 0.067 0.062 0.054 0.036
0.000 0.000 0.000 0.000 0.000 0.000 0.000 0.000 0.000 0.000 0.000 0.000 0.000 0.000 0.000 0.004 0.016 0.032 0.040 0.083 0.131 0.171 0.085 0.047 0.041 0.042 0.045 0.050 0.059 0.062 0.066 0.068 0.069 0.068 0.053 0.037
0.000 0.000 0.000 0.000 0.000 0.000 0.000 0.000 0.000 0.000 0.000 0.000 0.000 0.000 0.000 0.004 0.014 0.031 0.037 0.079 0.131 0.157 0.072 0.041 0.040 0.042 0.040 0.046 0.053 0.055 0.057 0.065 0.070 0.069 0.057 0.037
0.000 0.000 0.000 0.000 0.000 0.000 0.000 0.000 0.000 0.000 0.000 0.000 0.000 0.000 0.000 0.004 0.014 0.030 0.034 0.073 0.129 0.135 0.058 0.037 0.036 0.036 0.036 0.041 0.049 0.049 0.049 0.057 0.065 0.067 0.055 0.036
0.000 0.000 0.000 0.000 0.000 0.000 0.000 0.000 0.000 0.000 0.000 0.000 0.000 0.000 0.000 0.003 0.013 0.026 0.032 0.071 0.131 0.117 0.052 0.037 0.031 0.031 0.030 0.034 0.042 0.041 0.044 0.050 0.058 0.060 0.052 0.035
0.000 0.000 0.000 0.000 0.000 0.000 0.000 0.000 0.000 0.000 0.000 0.000 0.000 0.000 0.000 0.003 0.011 0.024 0.031 0.069 0.115 0.102 0.049 0.037 0.031 0.025 0.024 0.026 0.035 0.038 0.037 0.043 0.049 0.051 0.048 0.035
0.000 0.000 0.000 0.000 0.000 0.000 0.000 0.000 0.000 0.000 0.000 0.000 0.000 0.000 0.000 0.004 0.012 0.022 0.031 0.065 0.098 0.078 0.049 0.037 0.026 0.021 0.020 0.023 0.030 0.036 0.032 0.036 0.043 0.045 0.044 0.034
0.000 0.000 0.000 0.000 0.000 0.000 0.000 0.000 0.000 0.000 0.000 0.000 0.000 0.000 0.000 0.003 0.010 0.020 0.029 0.052 0.083 0.071 0.045 0.030 0.024 0.020 0.018 0.017 0.024 0.034 0.031 0.030 0.033 0.039 0.037 0.030
0.000 0.000 0.000 0.000 0.000 0.000 0.000 0.000 0.000 0.000 0.000 0.000 0.000 0.000 0.000 0.006 0.009 0.017 0.028 0.041 0.062 0.053 0.034 0.028 0.022 0.020 0.014 0.011 0.019 0.032 0.028 0.022 0.024 0.032 0.037 0.032
0.000 0.000 0.000 0.000 0.000 0.000 0.000 0.000 0.000 0.000 0.000 0.000 0.000 0.000 0.001 0.028 0.007 0.011 0.023 0.032 0.041 0.038 0.021 0.018 0.016 0.014 0.009 0.007 0.014 0.022 0.018 0.015 0.017 0.026 0.031 0.026
