ncols        36
nrows        70
xllcorner    409672.8
yllcorner    6870774.1
cellsize     5.00
NODATA_value -9999
0.000 0.000 0.000 0.000 0.000 0.000 0.000 0.000 0.000 0.000 0.000 0.000 0.000 0.000 0.000 0.000 0.000 0.000 0.000 0.000 0.000 0.000 0.000 0.000 0.000 0.000 0.000 0.000 0.000 0.000 0.000 0.000 0.000 0.000 0.000 0.000
0.000 0.000 0.000 0.006 0.029 0.053 0.066 0.060 0.044 0.025 0.010 0.002 0.000 0.000 0.000 0.000 0.000 0.000 0.000 0.000 0.000 0.000 0.000 0.000 0.000 0.000 0.000 0.000 0.000 0.000 0.000 0.000 0.000 0.000 0.000 0.000
0.000 0.000 0.008 0.056 0.116 0.164 0.179 0.164 0.122 0.073 0.052 0.033 0.017 0.006 0.000 0.000 0.000 0.000 0.000 0.000 0.000 0.000 0.000 0.000 0.000 0.000 0.000 0.000 0.000 0.000 0.000 0.000 0.000 0.000 0.000 0.000
0.000 0.005 0.051 0.138 0.274 0.387 0.379 0.374 0.263 0.166 0.101 0.070 0.054 0.042 0.017 0.000 0.000 0.000 0.000 0.000 0.000 0.000 0.000 0.000 0.000 0.000 0.000 0.000 0.000 0.000 0.000 0.000 0.000 0.000 0.000 0.000
0.000 0.020 0.103 0.269 0.488 0.686 0.698 0.677 0.487 0.304 0.172 0.135 0.097 0.072 0.048 0.005 0.000 0.000 0.000 0.000 0.000 0.000 0.000 0.000 0.000 0.000 0.000 0.000 0.000 0.000 0.000 0.000 0.000 0.000 0.000 0.000
0.002 0.045 0.169 0.427 0.728 0.989 1.144 1.003 0.731 0.484 0.305 0.223 0.158 0.113 0.074 0.035 0.000 0.000 0.000 0.000 0.000 0.000 0.000 0.000 0.000 0.000 0.000 0.000 0.000 0.000 0.000 0.000 0.000 0.000 0.000 0.000
0.008 0.071 0.231 0.576 0.941 1.342 1.607 1.354 1.116 0.766 0.472 0.314 0.213 0.149 0.110 0.045 0.003 0.000 0.000 0.000 0.000 0.000 0.000 0.000 0.000 0.000 0.000 0.000 0.000 0.000 0.000 0.000 0.000 0.000 0.000 0.000
0.015 0.088 0.279 0.642 1.123 1.721 1.902 1.830 1.527 1.136 0.683 0.420 0.262 0.191 0.143 0.061 0.028 0.000 0.000 0.000 0.000 0.000 0.000 0.000 0.000 0.000 0.000 0.000 0.000 0.000 0.000 0.000 0.000 0.000 0.000 0.000
0.021 0.101 0.297 0.701 1.320 2.025 2.342 2.393 2.130 1.630 0.939 0.553 0.330 0.246 0.171 0.085 0.036 0.001 0.000 0.000 0.000 0.000 0.000 0.000 0.000 0.000 0.000 0.000 0.000 0.000 0.000 0.000 0.000 0.000 0.000 0.000
0.021 0.100 0.318 0.680 1.395 2.197 2.775 2.937 2.787 2.029 1.213 0.687 0.412 0.270 0.207 0.109 0.038 0.015 0.000 0.000 0.000 0.000 0.000 0.000 0.000 0.000 0.000 0.000 0.000 0.000 0.000 0.000 0.000 0.000 0.000 0.000
0.020 0.094 0.292 0.683 1.506 2.272 3.124 3.422 3.338 2.328 1.412 0.920 0.539 0.323 0.239 0.127 0.049 0.026 0.002 0.000 0.000 0.000 0.000 0.000 0.000 0.000 0.000 0.000 0.000 0.000 0.000 0.000 0.000 0.000 0.000 0.000
0.018 0.076 0.257 0.655 1.330 2.200 3.062 3.620 3.405 2.628 1.795 1.258 0.602 0.400 0.257 0.149 0.063 0.025 0.018 0.000 0.000 0.000 0.000 0.000 0.000 0.000 0.000 0.000 0.000 0.000 0.000 0.000 0.000 0.000 0.000 0.000
0.012 0.060 0.223 0.597 1.338 2.106 2.748 3.355 3.375 3.076 2.258 1.404 0.801 0.568 0.310 0.169 0.077 0.028 0.019 0.010 0.000 0.000 0.000 0.000 0.000 0.000 0.000 0.000 0.000 0.000 0.000 0.000 0.000 0.000 0.000 0.000
0.007 0.043 0.166 0.471 1.025 1.639 2.348 3.073 3.458 3.442 2.608 1.668 1.065 0.728 0.417 0.191 0.094 0.033 0.017 0.019 0.004 0.000 0.000 0.000 0.000 0.000 0.000 0.000 0.000 0.000 0.000 0.000 0.000 0.000 0.000 0.000
0.003 0.031 0.124 0.387 0.773 1.365 2.030 2.697 3.468 3.743 3.079 2.018 1.324 0.868 0.484 0.242 0.113 0.043 0.020 0.016 0.017 0.001 0.000 0.000 0.000 0.000 0.000 0.000 0.000 0.000 0.000 0.000 0.000 0.000 0.000 0.000
0.001 0.019 0.068 0.242 0.593 1.111 1.729 2.539 3.300 3.670 3.035 2.146 1.373 0.911 0.582 0.302 0.148 0.055 0.025 0.015 0.014 0.013 0.000 0.000 0.000 0.000 0.000 0.000 0.000 0.000 0.000 0.000 0.000 0.000 0.000 0.000
0.000 0.009 0.031 0.126 0.370 0.812 1.393 2.046 2.864 3.114 3.002 2.227 1.589 1.153 0.738 0.398 0.192 0.072 0.033 0.017 0.012 0.018 0.005 0.000 0.000 0.000 0.000 0.000 0.000 0.000 0.000 0.000 0.000 0.000 0.000 0.000
0.000 0.001 0.017 0.069 0.244 0.546 1.033 1.640 2.366 2.924 2.858 2.273 1.952 1.431 0.890 0.503 0.254 0.106 0.045 0.022 0.015 0.014 0.018 0.000 0.000 0.000 0.000 0.000 0.000 0.000 0.000 0.000 0.000 0.000 0.000 0.000
0.000 0.000 0.006 0.029 0.111 0.298 0.644 1.175 1.921 2.556 2.740 2.567 2.353 1.770 1.073 0.676 0.346 0.151 0.064 0.031 0.019 0.014 0.015 0.007 0.000 0.000 0.000 0.000 0.000 0.000 0.000 0.000 0.000 0.000 0.000 0.000
0.000 0.000 0.001 0.015 0.043 0.142 0.341 0.756 1.442 2.084 2.460 2.384 2.443 1.932 1.374 0.791 0.427 0.200 0.095 0.047 0.028 0.021 0.013 0.018 0.001 0.000 0.000 0.000 0.000 0.000 0.000 0.000 0.000 0.000 0.000 0.000
0.000 0.000 0.000 0.006 0.018 0.052 0.154 0.419 0.938 1.592 2.092 2.314 2.493 2.246 1.568 0.879 0.521 0.264 0.131 0.063 0.042 0.028 0.017 0.012 0.010 0.000 0.000 0.000 0.000 0.000 0.000 0.000 0.000 0.000 0.000 0.000
0.000 0.000 0.000 0.000 0.011 0.023 0.074 0.234 0.545 1.033 1.615 2.343 2.516 2.330 1.641 1.013 0.637 0.339 0.175 0.089 0.050 0.035 0.023 0.010 0.010 0.002 0.000 0.000 0.000 0.000 0.000 0.000 0.000 0.000 0.000 0.000
0.000 0.000 0.000 0.000 0.004 0.013 0.034 0.091 0.228 0.545 1.174 1.844 2.233 2.143 1.705 1.223 0.740 0.428 0.238 0.123 0.061 0.043 0.029 0.014 0.007 0.011 0.000 0.000 0.000 0.000 0.000 0.000 0.000 0.000 0.000 0.000
0.000 0.000 0.000 0.000 0.000 0.010 0.015 0.036 0.101 0.328 0.808 1.487 1.899 1.919 1.696 1.249 0.856 0.521 0.305 0.160 0.080 0.053 0.036 0.019 0.010 0.007 0.002 0.000 0.000 0.000 0.000 0.000 0.000 0.000 0.000 0.000
0.000 0.000 0.000 0.000 0.000 0.003 0.012 0.017 0.040 0.144 0.453 0.952 1.529 1.644 1.692 1.288 0.977 0.629 0.396 0.215 0.112 0.063 0.040 0.025 0.015 0.006 0.009 0.000 0.000 0.000 0.000 0.000 0.000 0.000 0.000 0.000
0.000 0.000 0.000 0.000 0.000 0.000 0.007 0.006 0.017 0.071 0.223 0.635 1.162 1.601 1.464 1.302 1.076 0.753 0.501 0.277 0.149 0.075 0.045 0.031 0.022 0.011 0.006 0.005 0.000 0.000 0.000 0.000 0.000 0.000 0.000 0.000
0.000 0.000 0.000 0.000 0.000 0.000 0.001 0.005 0.007 0.032 0.106 0.336 0.771 1.228 1.352 1.310 1.171 0.876 0.602 0.364 0.202 0.098 0.050 0.035 0.026 0.016 0.007 0.007 0.002 0.000 0.000 0.000 0.000 0.000 0.000 0.000
0.000 0.000 0.000 0.000 0.000 0.000 0.000 0.002 0.004 0.012 0.043 0.158 0.495 0.938 1.195 1.292 1.217 0.946 0.729 0.492 0.281 0.133 0.061 0.038 0.029 0.020 0.009 0.004 0.005 0.001 0.000 0.000 0.000 0.000 0.000 0.000
0.000 0.000 0.000 0.000 0.000 0.000 0.000 0.000 0.003 0.005 0.017 0.060 0.254 0.658 1.068 1.224 1.176 1.043 0.860 0.622 0.373 0.190 0.084 0.045 0.035 0.024 0.011 0.005 0.003 0.004 0.000 0.000 0.000 0.000 0.000 0.000
0.000 0.000 0.000 0.000 0.000 0.000 0.000 0.000 0.000 0.003 0.004 0.023 0.116 0.419 0.827 1.089 1.172 1.117 0.918 0.746 0.474 0.266 0.125 0.062 0.046 0.031 0.017 0.006 0.003 0.003 0.003 0.000 0.000 0.000 0.000 0.000
0.000 0.000 0.000 0.000 0.000 0.000 0.000 0.000 0.000 0.002 0.001 0.005 0.051 0.256 0.544 0.819 0.991 1.174 1.066 0.823 0.563 0.350 0.185 0.103 0.056 0.039 0.023 0.009 0.004 0.003 0.004 0.002 0.000 0.000 0.000 0.000
0.000 0.000 0.000 0.000 0.000 0.000 0.000 0.000 0.000 0.000 0.002 0.003 0.019 0.128 0.345 0.598 0.874 1.059 1.032 0.892 0.630 0.441 0.244 0.133 0.073 0.048 0.030 0.014 0.007 0.003 0.003 0.005 0.001 0.000 0.000 0.000
0.000 0.000 0.000 0.000 0.000 0.000 0.000 0.000 0.000 0.000 0.002 0.002 0.010 0.052 0.187 0.370 0.667 0.908 0.993 0.889 0.732 0.525 0.318 0.177 0.100 0.064 0.041 0.023 0.010 0.004 0.003 0.002 0.009 0.002 0.000 0.000
0.000 0.000 0.000 0.000 0.000 0.000 0.000 0.000 0.000 0.000 0.000 0.002 0.005 0.030 0.099 0.203 0.439 0.754 0.878 0.919 0.789 0.599 0.381 0.241 0.142 0.089 0.055 0.031 0.014 0.007 0.005 0.003 0.003 0.003 0.000 0.000
0.000 0.000 0.000 0.000 0.000 0.000 0.000 0.000 0.000 0.000 0.000 0.003 0.003 0.012 0.054 0.113 0.275 0.575 0.792 0.825 0.752 0.629 0.453 0.315 0.195 0.127 0.082 0.044 0.022 0.011 0.008 0.005 0.003 0.002 0.003 0.000
0.000 0.000 0.000 0.000 0.000 0.000 0.000 0.000 0.000 0.000 0.000 0.001 0.002 0.005 0.026 0.058 0.155 0.407 0.618 0.742 0.703 0.643 0.522 0.371 0.270 0.187 0.113 0.061 0.035 0.017 0.011 0.006 0.004 0.003 0.003 0.002
0.000 0.000 0.000 0.000 0.000 0.000 0.000 0.000 0.000 0.000 0.000 0.001 0.003 0.003 0.016 0.031 0.094 0.267 0.517 0.624 0.658 0.618 0.541 0.420 0.322 0.232 0.150 0.086 0.049 0.026 0.014 0.007 0.004 0.003 0.002 0.002
0.000 0.000 0.000 0.000 0.000 0.000 0.000 0.000 0.000 0.000 0.000 0.000 0.002 0.010 0.006 0.017 0.063 0.180 0.348 0.478 0.542 0.574 0.542 0.459 0.348 0.272 0.192 0.123 0.069 0.041 0.021 0.010 0.006 0.004 0.003 0.002
0.000 0.000 0.000 0.000 0.000 0.000 0.000 0.000 0.000 0.000 0.000 0.000 0.001 0.004 0.002 0.008 0.045 0.110 0.214 0.338 0.440 0.514 0.541 0.488 0.364 0.311 0.226 0.157 0.097 0.055 0.025 0.012 0.007 0.005 0.004 0.002
0.000 0.000 0.000 0.000 0.000 0.000 0.000 0.000 0.000 0.000 0.000 0.000 0.000 0.004 0.002 0.005 0.037 0.078 0.117 0.220 0.336 0.448 0.501 0.497 0.408 0.335 0.244 0.196 0.132 0.068 0.034 0.017 0.009 0.006 0.004 0.003
0.000 0.000 0.000 0.000 0.000 0.000 0.000 0.000 0.000 0.000 0.000 0.000 0.000 0.002 0.003 0.004 0.025 0.048 0.053 0.142 0.229 0.337 0.437 0.512 0.487 0.325 0.254 0.225 0.168 0.099 0.051 0.029 0.015 0.009 0.005 0.003
0.000 0.000 0.000 0.000 0.000 0.000 0.000 0.000 0.000 0.000 0.000 0.000 0.000 0.000 0.002 0.004 0.019 0.018 0.029 0.082 0.155 0.231 0.372 0.479 0.464 0.337 0.250 0.226 0.196 0.138 0.069 0.037 0.022 0.012 0.008 0.004
0.000 0.000 0.000 0.000 0.000 0.000 0.000 0.000 0.000 0.000 0.000 0.000 0.000 0.000 0.001 0.005 0.012 0.007 0.016 0.056 0.111 0.179 0.296 0.443 0.492 0.356 0.233 0.222 0.204 0.168 0.096 0.048 0.030 0.018 0.012 0.006
0.000 0.000 0.000 0.000 0.000 0.000 0.000 0.000 0.000 0.000 0.000 0.000 0.000 0.000 0.000 0.009 0.003 0.002 0.008 0.040 0.092 0.132 0.225 0.370 0.468 0.391 0.219 0.197 0.200 0.178 0.118 0.065 0.041 0.025 0.017 0.011
0.000 0.000 0.000 0.000 0.000 0.000 0.000 0.000 0.000 0.000 0.000 0.000 0.000 0.000 0.000 0.003 0.001 0.001 0.004 0.025 0.073 0.102 0.162 0.293 0.420 0.412 0.233 0.179 0.178 0.171 0.136 0.077 0.049 0.034 0.022 0.014
0.000 0.000 0.000 0.000 0.000 0.000 0.000 0.000 0.000 0.000 0.000 0.000 0.000 0.000 0.000 0.001 0.001 0.001 0.003 0.012 0.062 0.082 0.130 0.246 0.386 0.418 0.239 0.172 0.169 0.164 0.140 0.084 0.048 0.034 0.025 0.015
0.000 0.000 0.000 0.000 0.000 0.000 0.000 0.000 0.000 0.000 0.000 0.000 0.000 0.000 0.000 0.000 0.002 0.001 0.002 0.004 0.042 0.067 0.100 0.207 0.358 0.423 0.246 0.168 0.163 0.160 0.132 0.083 0.050 0.036 0.026 0.017
0.000 0.000 0.000 0.000 0.000 0.000 0.000 0.000 0.000 0.000 0.000 0.000 0.000 0.000 0.000 0.000 0.001 0.001 0.002 0.005 0.029 0.041 0.071 0.155 0.322 0.431 0.257 0.161 0.156 0.153 0.132 0.082 0.052 0.041 0.028 0.020
0.000 0.000 0.000 0.000 0.000 0.000 0.000 0.000 0.000 0.000 0.000 0.000 0.000 0.000 0.000 0.000 0.000 0.001 0.002 0.007 0.016 0.021 0.044 0.111 0.275 0.429 0.268 0.160 0.152 0.144 0.125 0.089 0.058 0.046 0.035 0.030
0.000 0.000 0.000 0.000 0.000 0.000 0.000 0.000 0.000 0.000 0.000 0.000 0.000 0.000 0.000 0.000 0.000 0.000 0.001 0.004 0.006 0.010 0.027 0.070 0.212 0.414 0.293 0.154 0.146 0.138 0.122 0.096 0.064 0.051 0.045 0.037
0.000 0.000 0.000 0.000 0.000 0.000 0.000 0.000 0.000 0.000 0.000 0.000 0.000 0.000 0.000 0.000 0.000 0.000 0.001 0.002 0.003 0.005 0.016 0.039 0.150 0.372 0.319 0.149 0.139 0.133 0.120 0.094 0.066 0.053 0.049 0.039
0.000 0.000 0.000 0.000 0.000 0.000 0.000 0.000 0.000 0.000 0.000 0.000 0.000 0.000 0.000 0.000 0.000 0.000 0.001 0.002 0.002 0.002 0.011 0.020 0.092 0.301 0.324 0.148 0.127 0.131 0.116 0.089 0.069 0.060 0.053 0.039
0.000 0.000 0.000 0.000 0.000 0.000 0.000 0.000 0.000 0.000 0.000 0.000 0.000 0.000 0.000 0.000 0.000 0.000 0.000 0.002 0.002 0.002 0.008 0.013 0.059 0.236 0.324 0.148 0.112 0.120 0.103 0.081 0.071 0.065 0.054 0.039
0.000 0.000 0.000 0.000 0.000 0.000 0.000 0.000 0.000 0.000 0.000 0.000 0.000 0.000 0.000 0.000 0.000 0.000 0.000 0.002 0.002 0.001 0.007 0.012 0.037 0.167 0.299 0.157 0.101 0.108 0.094 0.077 0.073 0.065 0.055 0.041
0.000 0.000 0.000 0.000 0.000 0.000 0.000 0.000 0.000 0.000 0.000 0.000 0.000 0.000 0.000 0.000 0.000 0.000 0.000 0.000 0.002 0.001 0.006 0.012 0.025 0.118 0.276 0.178 0.105 0.101 0.087 0.073 0.069 0.067 0.061 0.041
0.000 0.000 0.000 0.000 0.000 0.000 0.000 0.000 0.000 0.000 0.000 0.000 0.000 0.000 0.000 0.000 0.000 0.000 0.000 0.000 0.001 0.001 0.007 0.011 0.021 0.078 0.236 0.195 0.112 0.096 0.081 0.070 0.070 0.077 0.069 0.040
0.000 0.000 0.000 0.000 0.000 0.000 0.000 0.000 0.000 0.000 0.000 0.000 0.000 0.000 0.000 0.000 0.000 0.000 0.000 0.000 0.000 0.001 0.007 0.010 0.020 0.059 0.184 0.206 0.121 0.086 0.071 0.064 0.067 0.075 0.066 0.043
0.000 0.000 0.000 0.000 0.000 0.000 0.000 0.000 0.000 0.000 0.000 0.000 0.000 0.000 0.000 0.000 0.000 0.000 0.000 0.000 0.000 0.001 0.005 0.009 0.020 0.048 0.144 0.203 0.132 0.082 0.061 0.050 0.054 0.065 0.059 0.040
0.000 0.000 0.000 0.000 0.000 0.000 0.000 0.000 0.000 0.000 0.000 0.000 0.000 0.000 0.000 0.000 0.000 0.000 0.000 0.000 0.000 0.001 0.005 0.007 0.018 0.045 0.107 0.183 0.151 0.089 0.054 0.042 0.049 0.058 0.050 0.035
0.000 0.000 0.000 0.000 0.000 0.000 0.000 0.000 0.000 0.000 0.000 0.000 0.000 0.000 0.000 0.000 0.000 0.000 0.000 0.000 0.000 0.000 0.005 0.007 0.019 0.040 0.075 0.155 0.170 0.102 0.056 0.046 0.047 0.047 0.045 0.035
0.000 0.000 0.000 0.000 0.000 0.000 0.000 0.000 0.000 0.000 0.000 0.000 0.000 0.000 0.000 0.000 0.000 0.000 0.000 0.000 0.000 0.001 0.005 0.008 0.020 0.038 0.057 0.129 0.173 0.125 0.064 0.046 0.044 0.043 0.043 0.034
0.000 0.000 0.000 0.000 0.000 0.000 0.000 0.000 0.000 0.000 0.000 0.000 0.000 0.000 0.000 0.000 0.000 0.000 0.000 0.000 0.000 0.001 0.004 0.009 0.021 0.036 0.047 0.098 0.188 0.159 0.066 0.045 0.041 0.043 0.038 0.028
0.000 0.000 0.000 0.000 0.000 0.000 0.000 0.000 0.000 0.000 0.000 0.000 0.000 0.000 0.000 0.000 0.000 0.000 0.000 0.000 0.000 0.001 0.003 0.009 0.022 0.035 0.044 0.075 0.176 0.191 0.064 0.047 0.037 0.035 0.032 0.031
0.000 0.000 0.000 0.000 0.000 0.000 0.000 0.000 0.000 0.000 0.000 0.000 0.000 0.000 0.000 0.000 0.000 0.000 0.000 0.000 0.000 0.001 0.003 0.009 0.022 0.032 0.036 0.061 0.150 0.209 0.058 0.042 0.030 0.027 0.031 0.033
0.000 0.000 0.000 0.000 0.000 0.000 0.000 0.000 0.000 0.000 0.000 0.000 0.000 0.000 0.000 0.000 0.000 0.000 0.000 0.000 0.000 0.001 0.002 0.009 0.022 0.030 0.033 0.047 0.147 0.179 0.041 0.031 0.028 0.027 0.030 0.028
0.000 0.000 0.000 0.000 0.000 0.000 0.000 0.000 0.000 0.000 0.000 0.000 0.000 0.000 0.000 0.000 0.000 0.000 0.000 0.000 0.000 0.000 0.002 0.009 0.021 0.025 0.031 0.042 0.128 0.130 0.034 0.028 0.027 0.025 0.025 0.024
0.000 0.000 0.000 0.000 0.000 0.000 0.000 0.000 0.000 0.000 0.000 0.000 0.000 0.000 0.000 0.000 0.000 0.000 0.000 0.000 0.000 0.000 0.002 0.008 0.020 0.021 0.029 0.039 0.104 0.085 0.026 0.026 0.026 0.022 0.023 0.022
0.000 0.000 0.000 0.000 0.000 0.000 0.000 0.000 0.000 0.000 0.000 0.000 0.000 0.000 0.000 0.000 0.000 0.000 0.000 0.000 0.000 0.000 0.002 0.007 0.018 0.017 0.025 0.035 0.074 0.049 0.020 0.020 0.019 0.017 0.018 0.019
0.000 0.000 0.000 0.000 0.000 0.000 0.000 0.000 0.000 0.000 0.000 0.000 0.000 0.000 0.000 0.000 0.000 0.000 0.000 0.000 0.000 0.000 0.001 0.006 0.013 0.014 0.021 0.033 0.050 0.030 0.016 0.013 0.012 0.011 0.012 0.012
0.000 0.000 0.000 0.000 0.000 0.000 0.000 0.000 0.000 0.000 0.000 0.000 0.000 0.000 0.000 0.000 0.000 0.000 0.000 0.000 0.000 0.000 0.001 0.003 0.008 0.009 0.014 0.018 0.031 0.015 0.009 0.008 0.005 0.005 0.005 0.005
