ncols        32
nrows        42
xllcorner    409802.8
yllcorner    6870634.1
cellsize     5.00
NODATA_value -9999
0.000 0.000 0.000 0.000 0.000 0.000 0.000 0.000 0.003 0.017 0.033 0.041 0.037 0.025 0.010 0.001 0.000 0.000 0.000 0.000 0.000 0.000 0.000 0.000 0.000 0.000 0.000 0.000 0.000 0.000 0.000 0.000
0.000 0.000 0.000 0.000 0.000 0.000 0.000 0.009 0.049 0.092 0.124 0.135 0.122 0.091 0.057 0.027 0.003 0.000 0.000 0.000 0.000 0.000 0.000 0.000 0.000 0.000 0.000 0.000 0.000 0.000 0.000 0.000
0.000 0.000 0.000 0.000 0.000 0.000 0.011 0.068 0.138 0.233 0.309 0.333 0.314 0.235 0.146 0.072 0.034 0.003 0.000 0.000 0.000 0.000 0.000 0.000 0.000 0.000 0.000 0.000 0.000 0.000 0.000 0.000
0.000 0.000 0.000 0.000 0.000 0.007 0.061 0.150 0.299 0.482 0.613 0.689 0.646 0.486 0.321 0.167 0.071 0.032 0.002 0.000 0.000 0.000 0.000 0.000 0.000 0.000 0.000 0.000 0.000 0.000 0.000 0.000
0.000 0.000 0.000 0.000 0.001 0.030 0.116 0.279 0.540 0.814 1.033 1.158 1.078 0.853 0.577 0.315 0.151 0.059 0.027 0.001 0.000 0.000 0.000 0.000 0.000 0.000 0.000 0.000 0.000 0.000 0.000 0.000
0.000 0.000 0.000 0.000 0.007 0.068 0.188 0.434 0.785 1.101 1.509 1.676 1.595 1.289 0.876 0.529 0.288 0.137 0.054 0.022 0.001 0.000 0.000 0.000 0.000 0.000 0.000 0.000 0.000 0.000 0.000 0.000
0.000 0.000 0.000 0.000 0.018 0.093 0.262 0.554 0.924 1.424 1.943 2.073 2.025 1.822 1.258 0.818 0.521 0.281 0.130 0.054 0.021 0.000 0.000 0.000 0.000 0.000 0.000 0.000 0.000 0.000 0.000 0.000
0.000 0.000 0.000 0.001 0.028 0.111 0.287 0.583 1.033 1.623 2.098 2.382 2.555 2.253 1.630 1.305 0.869 0.507 0.273 0.132 0.056 0.021 0.000 0.000 0.000 0.000 0.000 0.000 0.000 0.000 0.000 0.000
0.000 0.000 0.000 0.001 0.034 0.114 0.282 0.593 1.053 1.589 2.061 2.524 2.711 2.392 2.270 1.871 1.291 0.893 0.522 0.281 0.135 0.055 0.016 0.000 0.000 0.000 0.000 0.000 0.000 0.000 0.000 0.000
0.000 0.000 0.000 0.001 0.033 0.103 0.257 0.531 0.899 1.378 1.886 2.322 2.556 2.729 2.766 2.408 1.950 1.402 0.900 0.527 0.295 0.139 0.048 0.006 0.000 0.000 0.000 0.000 0.000 0.000 0.000 0.000
0.000 0.000 0.000 0.001 0.028 0.088 0.219 0.420 0.735 1.113 1.553 1.993 2.496 2.880 3.085 3.026 2.611 2.025 1.436 0.956 0.574 0.286 0.104 0.034 0.000 0.000 0.000 0.000 0.000 0.000 0.000 0.000
0.000 0.000 0.000 0.001 0.022 0.069 0.164 0.320 0.555 0.895 1.245 1.577 2.151 2.744 3.206 3.341 3.132 2.762 2.221 1.553 0.900 0.498 0.207 0.052 0.004 0.000 0.000 0.000 0.000 0.000 0.000 0.000
0.000 0.000 0.000 0.000 0.014 0.050 0.120 0.238 0.406 0.635 0.854 1.222 1.729 2.388 2.971 3.401 3.620 3.554 3.021 2.116 1.271 0.726 0.326 0.101 0.027 0.000 0.000 0.000 0.000 0.000 0.000 0.000
0.000 0.000 0.000 0.000 0.008 0.038 0.084 0.154 0.261 0.421 0.612 0.877 1.273 1.867 2.570 3.369 3.940 4.060 3.582 2.539 1.653 0.984 0.496 0.172 0.039 0.005 0.000 0.000 0.000 0.000 0.000 0.000
0.000 0.000 0.000 0.000 0.003 0.029 0.060 0.108 0.190 0.292 0.431 0.600 0.920 1.437 2.159 3.141 3.806 4.112 3.777 2.807 2.075 1.231 0.673 0.258 0.070 0.022 0.000 0.000 0.000 0.000 0.000 0.000
0.000 0.000 0.000 0.000 0.001 0.027 0.055 0.093 0.135 0.203 0.301 0.431 0.646 0.990 1.640 2.400 3.331 4.166 3.809 3.101 2.348 1.438 0.805 0.350 0.102 0.024 0.005 0.000 0.000 0.000 0.000 0.000
0.000 0.000 0.000 0.001 0.012 0.050 0.075 0.100 0.117 0.170 0.250 0.333 0.427 0.642 1.136 1.935 2.908 3.660 3.532 3.149 2.397 1.473 0.881 0.430 0.137 0.037 0.021 0.000 0.000 0.000 0.000 0.000
0.000 0.000 0.001 0.020 0.062 0.097 0.129 0.132 0.142 0.191 0.233 0.251 0.295 0.465 0.850 1.515 2.336 2.988 3.369 3.203 2.302 1.514 0.971 0.516 0.195 0.056 0.020 0.006 0.000 0.000 0.000 0.000
0.000 0.001 0.020 0.070 0.125 0.189 0.203 0.186 0.223 0.248 0.249 0.230 0.261 0.364 0.613 1.069 1.765 2.551 3.190 2.907 2.056 1.564 0.991 0.556 0.203 0.071 0.026 0.022 0.000 0.000 0.000 0.000
0.000 0.010 0.064 0.126 0.214 0.273 0.269 0.297 0.318 0.304 0.298 0.270 0.255 0.295 0.442 0.796 1.348 2.072 2.592 2.427 2.024 1.485 0.973 0.522 0.216 0.085 0.038 0.023 0.007 0.000 0.000 0.000
0.003 0.040 0.102 0.195 0.282 0.325 0.381 0.402 0.380 0.362 0.351 0.310 0.269 0.274 0.352 0.569 1.022 1.662 2.165 2.240 1.849 1.324 0.865 0.488 0.224 0.102 0.049 0.033 0.023 0.000 0.000 0.000
0.011 0.067 0.139 0.229 0.332 0.408 0.452 0.451 0.401 0.393 0.403 0.361 0.287 0.252 0.288 0.461 0.805 1.306 1.884 2.048 1.698 1.205 0.829 0.468 0.249 0.113 0.068 0.048 0.024 0.011 0.000 0.000
0.023 0.087 0.164 0.258 0.362 0.417 0.452 0.407 0.379 0.429 0.422 0.363 0.291 0.245 0.270 0.348 0.597 1.037 1.506 1.730 1.532 1.091 0.692 0.448 0.254 0.136 0.089 0.058 0.032 0.025 0.002 0.000
0.038 0.102 0.181 0.262 0.339 0.385 0.409 0.383 0.391 0.436 0.404 0.343 0.295 0.252 0.230 0.288 0.466 0.812 1.257 1.454 1.339 0.923 0.621 0.428 0.269 0.159 0.096 0.065 0.045 0.027 0.015 0.000
0.048 0.108 0.178 0.252 0.295 0.330 0.359 0.358 0.376 0.394 0.347 0.321 0.284 0.231 0.213 0.249 0.350 0.585 0.949 1.232 1.143 0.813 0.557 0.392 0.275 0.172 0.110 0.076 0.052 0.033 0.017 0.008
0.049 0.104 0.175 0.233 0.260 0.292 0.313 0.330 0.323 0.335 0.309 0.288 0.269 0.215 0.186 0.203 0.268 0.455 0.783 1.009 0.979 0.762 0.485 0.360 0.286 0.186 0.126 0.079 0.058 0.043 0.024 0.019
0.045 0.097 0.164 0.203 0.217 0.238 0.257 0.276 0.283 0.285 0.279 0.261 0.218 0.188 0.162 0.169 0.214 0.333 0.570 0.836 0.859 0.646 0.439 0.344 0.287 0.203 0.137 0.090 0.065 0.053 0.033 0.014
0.041 0.089 0.142 0.175 0.190 0.200 0.222 0.239 0.239 0.249 0.248 0.220 0.199 0.169 0.150 0.146 0.165 0.247 0.466 0.679 0.724 0.563 0.399 0.336 0.284 0.205 0.151 0.104 0.071 0.060 0.035 0.015
0.035 0.073 0.118 0.150 0.160 0.163 0.186 0.205 0.201 0.203 0.192 0.195 0.171 0.146 0.131 0.122 0.138 0.192 0.353 0.525 0.622 0.508 0.386 0.315 0.254 0.210 0.159 0.114 0.082 0.059 0.036 0.019
0.029 0.059 0.093 0.121 0.138 0.150 0.168 0.180 0.174 0.172 0.175 0.166 0.151 0.136 0.121 0.115 0.111 0.145 0.252 0.413 0.490 0.456 0.349 0.273 0.247 0.211 0.161 0.119 0.088 0.058 0.035 0.022
0.022 0.045 0.070 0.103 0.126 0.120 0.149 0.159 0.136 0.149 0.147 0.138 0.129 0.120 0.108 0.100 0.091 0.131 0.206 0.325 0.437 0.427 0.316 0.252 0.220 0.191 0.157 0.122 0.093 0.062 0.039 0.023
0.017 0.035 0.057 0.092 0.107 0.115 0.139 0.132 0.126 0.129 0.123 0.118 0.113 0.104 0.097 0.085 0.084 0.114 0.166 0.254 0.380 0.370 0.283 0.220 0.194 0.178 0.153 0.120 0.099 0.071 0.045 0.024
0.011 0.028 0.048 0.072 0.091 0.109 0.118 0.119 0.117 0.109 0.104 0.100 0.096 0.091 0.087 0.079 0.081 0.099 0.131 0.196 0.304 0.321 0.256 0.198 0.175 0.163 0.144 0.117 0.093 0.071 0.046 0.027
0.006 0.023 0.039 0.057 0.077 0.097 0.109 0.111 0.104 0.094 0.089 0.088 0.086 0.080 0.073 0.071 0.068 0.080 0.103 0.147 0.239 0.279 0.229 0.174 0.157 0.154 0.131 0.107 0.094 0.072 0.051 0.029
0.003 0.019 0.031 0.045 0.068 0.090 0.100 0.097 0.094 0.082 0.075 0.077 0.076 0.063 0.062 0.063 0.060 0.070 0.092 0.120 0.193 0.223 0.205 0.162 0.139 0.135 0.120 0.105 0.087 0.071 0.048 0.030
0.001 0.014 0.024 0.035 0.056 0.078 0.087 0.087 0.081 0.069 0.061 0.059 0.058 0.047 0.050 0.051 0.053 0.060 0.073 0.108 0.162 0.188 0.172 0.144 0.122 0.118 0.112 0.100 0.082 0.064 0.043 0.030
0.000 0.009 0.021 0.031 0.050 0.073 0.075 0.075 0.069 0.055 0.046 0.044 0.045 0.043 0.042 0.042 0.053 0.058 0.064 0.082 0.122 0.150 0.148 0.121 0.109 0.113 0.108 0.091 0.073 0.053 0.043 0.029
0.000 0.004 0.017 0.027 0.045 0.059 0.066 0.065 0.054 0.044 0.041 0.040 0.042 0.039 0.037 0.042 0.047 0.052 0.051 0.066 0.096 0.118 0.121 0.112 0.097 0.096 0.097 0.084 0.063 0.044 0.041 0.030
0.000 0.001 0.013 0.021 0.037 0.050 0.050 0.048 0.044 0.040 0.037 0.036 0.040 0.037 0.035 0.035 0.037 0.038 0.040 0.049 0.074 0.104 0.114 0.099 0.079 0.080 0.082 0.071 0.051 0.041 0.038 0.026
0.000 0.000 0.008 0.017 0.030 0.043 0.043 0.043 0.041 0.038 0.034 0.036 0.037 0.033 0.030 0.030 0.038 0.041 0.040 0.042 0.051 0.068 0.088 0.077 0.065 0.064 0.066 0.057 0.044 0.039 0.036 0.025
0.000 0.000 0.004 0.015 0.025 0.036 0.039 0.039 0.038 0.035 0.031 0.034 0.031 0.031 0.032 0.035 0.038 0.037 0.035 0.037 0.042 0.053 0.062 0.062 0.050 0.048 0.048 0.044 0.040 0.037 0.034 0.024
0.000 0.000 0.002 0.011 0.017 0.026 0.029 0.029 0.030 0.028 0.023 0.021 0.021 0.027 0.028 0.027 0.023 0.025 0.032 0.029 0.029 0.033 0.035 0.038 0.035 0.034 0.034 0.033 0.032 0.031 0.026 0.019
