ncols        46
nrows        119
xllcorner    409582.8
yllcorner    6870854.1
cellsize     5.00
NODATA_value -9999
0.000 0.000 0.000 0.000 0.000 0.000 0.000 0.000 0.000 0.000 0.000 0.000 0.000 0.000 0.000 0.000 0.000 0.000 0.000 0.000 0.000 0.000 0.000 0.000 0.000 0.000 0.000 0.000 0.000 0.000 0.000 0.000 0.000 0.000 0.000 0.000 0.000 0.000 0.000 0.000 0.000 0.000 0.000 0.000 0.000 0.000
0.000 0.000 0.001 0.014 0.042 0.059 0.058 0.044 0.017 0.002 0.000 0.000 0.000 0.000 0.000 0.000 0.000 0.000 0.000 0.000 0.000 0.000 0.000 0.000 0.000 0.000 0.000 0.000 0.000 0.000 0.000 0.000 0.000 0.000 0.000 0.000 0.000 0.000 0.000 0.000 0.000 0.000 0.000 0.000 0.000 0.000
0.000 0.003 0.027 0.072 0.113 0.141 0.140 0.102 0.054 0.028 0.000 0.000 0.000 0.000 0.000 0.000 0.000 0.000 0.000 0.000 0.000 0.000 0.000 0.000 0.000 0.000 0.000 0.000 0.000 0.000 0.000 0.000 0.000 0.000 0.000 0.000 0.000 0.000 0.000 0.000 0.000 0.000 0.000 0.000 0.000 0.000
0.002 0.027 0.089 0.163 0.244 0.287 0.273 0.207 0.132 0.050 0.017 0.000 0.000 0.000 0.000 0.000 0.000 0.000 0.000 0.000 0.000 0.000 0.000 0.000 0.000 0.000 0.000 0.000 0.000 0.000 0.000 0.000 0.000 0.000 0.000 0.000 0.000 0.000 0.000 0.000 0.000 0.000 0.000 0.000 0.000 0.000
0.012 0.080 0.187 0.335 0.471 0.523 0.486 0.391 0.240 0.087 0.036 0.005 0.000 0.000 0.000 0.000 0.000 0.000 0.000 0.000 0.000 0.000 0.000 0.000 0.000 0.000 0.000 0.000 0.000 0.000 0.000 0.000 0.000 0.000 0.000 0.000 0.000 0.000 0.000 0.000 0.000 0.000 0.000 0.000 0.000 0.000
0.030 0.139 0.312 0.570 0.765 0.797 0.739 0.610 0.318 0.149 0.063 0.030 0.000 0.000 0.000 0.000 0.000 0.000 0.000 0.000 0.000 0.000 0.000 0.000 0.000 0.000 0.000 0.000 0.000 0.000 0.000 0.000 0.000 0.000 0.000 0.000 0.000 0.000 0.000 0.000 0.000 0.000 0.000 0.000 0.000 0.000
0.046 0.158 0.408 0.769 1.050 1.127 1.106 0.841 0.462 0.261 0.113 0.036 0.004 0.000 0.000 0.000 0.000 0.000 0.000 0.000 0.000 0.000 0.000 0.000 0.000 0.000 0.000 0.000 0.000 0.000 0.000 0.000 0.000 0.000 0.000 0.000 0.000 0.000 0.000 0.000 0.000 0.000 0.000 0.000 0.000 0.000
0.043 0.154 0.476 0.933 1.287 1.531 1.546 1.126 0.709 0.383 0.150 0.048 0.025 0.000 0.000 0.000 0.000 0.000 0.000 0.000 0.000 0.000 0.000 0.000 0.000 0.000 0.000 0.000 0.000 0.000 0.000 0.000 0.000 0.000 0.000 0.000 0.000 0.000 0.000 0.000 0.000 0.000 0.000 0.000 0.000 0.000
0.031 0.134 0.419 0.921 1.646 1.980 2.029 1.508 0.946 0.485 0.180 0.076 0.029 0.000 0.000 0.000 0.000 0.000 0.000 0.000 0.000 0.000 0.000 0.000 0.000 0.000 0.000 0.000 0.000 0.000 0.000 0.000 0.000 0.000 0.000 0.000 0.000 0.000 0.000 0.000 0.000 0.000 0.000 0.000 0.000 0.000
0.020 0.099 0.326 0.792 1.488 2.031 2.476 1.924 1.176 0.627 0.272 0.107 0.036 0.008 0.000 0.000 0.000 0.000 0.000 0.000 0.000 0.000 0.000 0.000 0.000 0.000 0.000 0.000 0.000 0.000 0.000 0.000 0.000 0.000 0.000 0.000 0.000 0.000 0.000 0.000 0.000 0.000 0.000 0.000 0.000 0.000
0.012 0.067 0.232 0.576 1.129 2.036 2.889 2.439 1.477 0.906 0.400 0.159 0.058 0.026 0.000 0.000 0.000 0.000 0.000 0.000 0.000 0.000 0.000 0.000 0.000 0.000 0.000 0.000 0.000 0.000 0.000 0.000 0.000 0.000 0.000 0.000 0.000 0.000 0.000 0.000 0.000 0.000 0.000 0.000 0.000 0.000
0.007 0.046 0.146 0.370 0.909 1.710 2.366 2.618 2.159 1.316 0.608 0.227 0.080 0.026 0.001 0.000 0.000 0.000 0.000 0.000 0.000 0.000 0.000 0.000 0.000 0.000 0.000 0.000 0.000 0.000 0.000 0.000 0.000 0.000 0.000 0.000 0.000 0.000 0.000 0.000 0.000 0.000 0.000 0.000 0.000 0.000
0.004 0.035 0.100 0.267 0.662 1.293 2.119 2.803 2.705 1.793 0.858 0.308 0.109 0.030 0.018 0.000 0.000 0.000 0.000 0.000 0.000 0.000 0.000 0.000 0.000 0.000 0.000 0.000 0.000 0.000 0.000 0.000 0.000 0.000 0.000 0.000 0.000 0.000 0.000 0.000 0.000 0.000 0.000 0.000 0.000 0.000
0.003 0.026 0.070 0.201 0.459 1.018 1.768 2.481 2.860 2.120 1.207 0.455 0.144 0.045 0.026 0.001 0.000 0.000 0.000 0.000 0.000 0.000 0.000 0.000 0.000 0.000 0.000 0.000 0.000 0.000 0.000 0.000 0.000 0.000 0.000 0.000 0.000 0.000 0.000 0.000 0.000 0.000 0.000 0.000 0.000 0.000
0.001 0.019 0.051 0.139 0.324 0.759 1.428 1.953 2.712 2.522 1.432 0.594 0.204 0.067 0.026 0.016 0.000 0.000 0.000 0.000 0.000 0.000 0.000 0.000 0.000 0.000 0.000 0.000 0.000 0.000 0.000 0.000 0.000 0.000 0.000 0.000 0.000 0.000 0.000 0.000 0.000 0.000 0.000 0.000 0.000 0.000
0.000 0.012 0.037 0.098 0.241 0.550 1.053 2.133 2.752 2.365 1.392 0.820 0.294 0.090 0.036 0.028 0.000 0.000 0.000 0.000 0.000 0.000 0.000 0.000 0.000 0.000 0.000 0.000 0.000 0.000 0.000 0.000 0.000 0.000 0.000 0.000 0.000 0.000 0.000 0.000 0.000 0.000 0.000 0.000 0.000 0.000
0.000 0.006 0.027 0.069 0.168 0.390 0.853 1.520 2.407 2.307 1.573 0.825 0.327 0.126 0.051 0.028 0.011 0.000 0.000 0.000 0.000 0.000 0.000 0.000 0.000 0.000 0.000 0.000 0.000 0.000 0.000 0.000 0.000 0.000 0.000 0.000 0.000 0.000 0.000 0.000 0.000 0.000 0.000 0.000 0.000 0.000
0.000 0.002 0.019 0.045 0.109 0.261 0.666 1.340 1.987 2.035 1.562 0.848 0.384 0.155 0.060 0.038 0.025 0.000 0.000 0.000 0.000 0.000 0.000 0.000 0.000 0.000 0.000 0.000 0.000 0.000 0.000 0.000 0.000 0.000 0.000 0.000 0.000 0.000 0.000 0.000 0.000 0.000 0.000 0.000 0.000 0.000
0.000 0.000 0.012 0.031 0.073 0.186 0.479 1.034 1.710 2.084 1.828 0.963 0.419 0.173 0.071 0.053 0.026 0.000 0.000 0.000 0.000 0.000 0.000 0.000 0.000 0.000 0.000 0.000 0.000 0.000 0.000 0.000 0.000 0.000 0.000 0.000 0.000 0.000 0.000 0.000 0.000 0.000 0.000 0.000 0.000 0.000
0.000 0.000 0.006 0.021 0.046 0.121 0.319 0.738 1.499 2.107 2.013 1.186 0.543 0.219 0.078 0.052 0.030 0.000 0.000 0.000 0.000 0.000 0.000 0.000 0.000 0.000 0.000 0.000 0.000 0.000 0.000 0.000 0.000 0.000 0.000 0.000 0.000 0.000 0.000 0.000 0.000 0.000 0.000 0.000 0.000 0.000
0.000 0.000 0.002 0.016 0.032 0.079 0.200 0.525 1.223 1.877 1.810 1.417 0.616 0.241 0.097 0.063 0.037 0.013 0.000 0.000 0.000 0.000 0.000 0.000 0.000 0.000 0.000 0.000 0.000 0.000 0.000 0.000 0.000 0.000 0.000 0.000 0.000 0.000 0.000 0.000 0.000 0.000 0.000 0.000 0.000 0.000
0.000 0.000 0.000 0.010 0.022 0.047 0.129 0.359 0.905 1.737 1.951 1.664 0.742 0.329 0.129 0.058 0.045 0.028 0.000 0.000 0.000 0.000 0.000 0.000 0.000 0.000 0.000 0.000 0.000 0.000 0.000 0.000 0.000 0.000 0.000 0.000 0.000 0.000 0.000 0.000 0.000 0.000 0.000 0.000 0.000 0.000
0.000 0.000 0.000 0.004 0.017 0.029 0.072 0.221 0.688 1.372 1.831 1.686 0.965 0.410 0.151 0.066 0.050 0.031 0.000 0.000 0.000 0.000 0.000 0.000 0.000 0.000 0.000 0.000 0.000 0.000 0.000 0.000 0.000 0.000 0.000 0.000 0.000 0.000 0.000 0.000 0.000 0.000 0.000 0.000 0.000 0.000
0.000 0.000 0.000 0.001 0.012 0.020 0.045 0.153 0.457 1.108 1.905 1.804 1.136 0.481 0.197 0.084 0.052 0.033 0.000 0.000 0.000 0.000 0.000 0.000 0.000 0.000 0.000 0.000 0.000 0.000 0.000 0.000 0.000 0.000 0.000 0.000 0.000 0.000 0.000 0.000 0.000 0.000 0.000 0.000 0.000 0.000
0.000 0.000 0.000 0.000 0.007 0.017 0.034 0.089 0.268 0.884 1.573 1.879 1.283 0.595 0.250 0.093 0.056 0.037 0.000 0.000 0.000 0.000 0.000 0.000 0.000 0.000 0.000 0.000 0.000 0.000 0.000 0.000 0.000 0.000 0.000 0.000 0.000 0.000 0.000 0.000 0.000 0.000 0.000 0.000 0.000 0.000
0.000 0.000 0.000 0.000 0.003 0.015 0.026 0.049 0.165 0.588 1.423 1.867 1.412 0.748 0.297 0.118 0.062 0.039 0.000 0.000 0.000 0.000 0.000 0.000 0.000 0.000 0.000 0.000 0.000 0.000 0.000 0.000 0.000 0.000 0.000 0.000 0.000 0.000 0.000 0.000 0.000 0.000 0.000 0.000 0.000 0.000
0.000 0.000 0.000 0.000 0.001 0.015 0.026 0.035 0.098 0.398 1.117 1.832 1.644 0.867 0.353 0.129 0.071 0.042 0.000 0.000 0.000 0.000 0.000 0.000 0.000 0.000 0.000 0.000 0.000 0.000 0.000 0.000 0.000 0.000 0.000 0.000 0.000 0.000 0.000 0.000 0.000 0.000 0.000 0.000 0.000 0.000
0.000 0.000 0.000 0.000 0.001 0.015 0.025 0.027 0.053 0.218 0.815 1.796 1.844 1.037 0.382 0.170 0.083 0.043 0.006 0.000 0.000 0.000 0.000 0.000 0.000 0.000 0.000 0.000 0.000 0.000 0.000 0.000 0.000 0.000 0.000 0.000 0.000 0.000 0.000 0.000 0.000 0.000 0.000 0.000 0.000 0.000
0.000 0.000 0.000 0.000 0.001 0.014 0.025 0.022 0.033 0.126 0.614 1.696 1.977 1.154 0.430 0.213 0.095 0.055 0.029 0.000 0.000 0.000 0.000 0.000 0.000 0.000 0.000 0.000 0.000 0.000 0.000 0.000 0.000 0.000 0.000 0.000 0.000 0.000 0.000 0.000 0.000 0.000 0.000 0.000 0.000 0.000
0.000 0.000 0.000 0.000 0.000 0.011 0.023 0.024 0.030 0.079 0.389 1.493 1.917 1.087 0.524 0.265 0.113 0.060 0.028 0.000 0.000 0.000 0.000 0.000 0.000 0.000 0.000 0.000 0.000 0.000 0.000 0.000 0.000 0.000 0.000 0.000 0.000 0.000 0.000 0.000 0.000 0.000 0.000 0.000 0.000 0.000
0.000 0.000 0.000 0.000 0.000 0.008 0.021 0.026 0.027 0.047 0.211 1.055 1.550 1.173 0.633 0.347 0.143 0.063 0.025 0.002 0.000 0.000 0.000 0.000 0.000 0.000 0.000 0.000 0.000 0.000 0.000 0.000 0.000 0.000 0.000 0.000 0.000 0.000 0.000 0.000 0.000 0.000 0.000 0.000 0.000 0.000
0.000 0.000 0.000 0.000 0.000 0.006 0.019 0.024 0.029 0.041 0.110 0.775 1.385 1.324 0.790 0.462 0.175 0.066 0.030 0.023 0.000 0.000 0.000 0.000 0.000 0.000 0.000 0.000 0.000 0.000 0.000 0.000 0.000 0.000 0.000 0.000 0.000 0.000 0.000 0.000 0.000 0.000 0.000 0.000 0.000 0.000
0.000 0.000 0.000 0.000 0.000 0.003 0.019 0.025 0.030 0.041 0.067 0.538 1.176 1.339 0.943 0.562 0.212 0.074 0.041 0.029 0.016 0.002 0.000 0.000 0.000 0.000 0.000 0.000 0.000 0.000 0.000 0.000 0.000 0.000 0.000 0.000 0.000 0.000 0.000 0.000 0.000 0.000 0.000 0.000 0.000 0.000
0.000 0.000 0.000 0.000 0.000 0.002 0.017 0.020 0.031 0.040 0.050 0.356 0.965 1.217 1.101 0.670 0.264 0.084 0.044 0.030 0.034 0.023 0.001 0.000 0.000 0.000 0.000 0.000 0.000 0.000 0.000 0.000 0.000 0.000 0.000 0.000 0.000 0.000 0.000 0.000 0.000 0.000 0.000 0.000 0.000 0.000
0.000 0.000 0.000 0.000 0.000 0.002 0.011 0.017 0.035 0.038 0.047 0.244 0.732 1.133 1.150 0.770 0.330 0.101 0.043 0.035 0.037 0.038 0.016 0.000 0.000 0.000 0.000 0.000 0.000 0.000 0.000 0.000 0.000 0.000 0.000 0.000 0.000 0.000 0.000 0.000 0.000 0.000 0.000 0.000 0.000 0.000
0.000 0.000 0.000 0.000 0.000 0.000 0.007 0.018 0.035 0.036 0.044 0.187 0.497 0.935 1.116 0.855 0.403 0.128 0.042 0.039 0.039 0.041 0.030 0.001 0.000 0.000 0.000 0.000 0.000 0.000 0.000 0.000 0.000 0.000 0.000 0.000 0.000 0.000 0.000 0.000 0.000 0.000 0.000 0.000 0.000 0.000
0.000 0.000 0.000 0.000 0.000 0.000 0.005 0.016 0.035 0.036 0.042 0.137 0.308 0.679 1.110 0.898 0.484 0.152 0.042 0.044 0.047 0.047 0.032 0.012 0.000 0.000 0.000 0.000 0.000 0.000 0.000 0.000 0.000 0.000 0.000 0.000 0.000 0.000 0.000 0.000 0.000 0.000 0.000 0.000 0.000 0.000
0.000 0.000 0.000 0.000 0.000 0.000 0.006 0.016 0.034 0.038 0.043 0.092 0.176 0.402 0.838 0.937 0.579 0.198 0.054 0.051 0.056 0.052 0.035 0.020 0.004 0.000 0.000 0.000 0.000 0.000 0.000 0.000 0.000 0.000 0.000 0.000 0.000 0.000 0.000 0.000 0.000 0.000 0.000 0.000 0.000 0.000
0.000 0.000 0.000 0.000 0.000 0.000 0.005 0.014 0.032 0.043 0.045 0.083 0.112 0.252 0.701 1.047 0.706 0.270 0.068 0.049 0.062 0.055 0.045 0.025 0.015 0.000 0.000 0.000 0.000 0.000 0.000 0.000 0.000 0.000 0.000 0.000 0.000 0.000 0.000 0.000 0.000 0.000 0.000 0.000 0.000 0.000
0.000 0.000 0.000 0.000 0.000 0.000 0.002 0.013 0.033 0.046 0.041 0.065 0.078 0.128 0.540 1.085 0.761 0.384 0.090 0.044 0.054 0.060 0.063 0.034 0.012 0.005 0.000 0.000 0.000 0.000 0.000 0.000 0.000 0.000 0.000 0.000 0.000 0.000 0.000 0.000 0.000 0.000 0.000 0.000 0.000 0.000
0.000 0.000 0.000 0.000 0.000 0.000 0.001 0.015 0.037 0.045 0.037 0.058 0.068 0.084 0.390 0.889 0.891 0.491 0.127 0.046 0.046 0.063 0.065 0.040 0.014 0.011 0.000 0.000 0.000 0.000 0.000 0.000 0.000 0.000 0.000 0.000 0.000 0.000 0.000 0.000 0.000 0.000 0.000 0.000 0.000 0.000
0.000 0.000 0.000 0.000 0.000 0.000 0.001 0.017 0.039 0.042 0.038 0.054 0.059 0.067 0.283 0.797 0.940 0.590 0.176 0.054 0.042 0.052 0.062 0.048 0.025 0.012 0.010 0.000 0.000 0.000 0.000 0.000 0.000 0.000 0.000 0.000 0.000 0.000 0.000 0.000 0.000 0.000 0.000 0.000 0.000 0.000
0.000 0.000 0.000 0.000 0.000 0.000 0.003 0.016 0.030 0.038 0.033 0.058 0.063 0.064 0.191 0.599 0.891 0.674 0.234 0.072 0.041 0.043 0.056 0.053 0.044 0.021 0.028 0.010 0.000 0.000 0.000 0.000 0.000 0.000 0.000 0.000 0.000 0.000 0.000 0.000 0.000 0.000 0.000 0.000 0.000 0.000
0.000 0.000 0.000 0.000 0.000 0.000 0.007 0.013 0.025 0.033 0.031 0.051 0.059 0.067 0.154 0.454 0.818 0.694 0.301 0.099 0.046 0.040 0.045 0.048 0.056 0.030 0.021 0.023 0.001 0.000 0.000 0.000 0.000 0.000 0.000 0.000 0.000 0.000 0.000 0.000 0.000 0.000 0.000 0.000 0.000 0.000
0.000 0.000 0.000 0.000 0.000 0.000 0.004 0.011 0.025 0.029 0.027 0.046 0.054 0.062 0.124 0.342 0.688 0.741 0.352 0.130 0.056 0.041 0.041 0.054 0.056 0.038 0.022 0.023 0.014 0.000 0.000 0.000 0.000 0.000 0.000 0.000 0.000 0.000 0.000 0.000 0.000 0.000 0.000 0.000 0.000 0.000
0.000 0.000 0.000 0.000 0.000 0.000 0.001 0.009 0.020 0.028 0.029 0.038 0.048 0.059 0.104 0.292 0.583 0.725 0.397 0.153 0.068 0.043 0.039 0.052 0.062 0.052 0.026 0.021 0.022 0.000 0.000 0.000 0.000 0.000 0.000 0.000 0.000 0.000 0.000 0.000 0.000 0.000 0.000 0.000 0.000 0.000
0.000 0.000 0.000 0.000 0.000 0.000 0.001 0.006 0.017 0.028 0.030 0.032 0.044 0.058 0.090 0.245 0.503 0.620 0.383 0.167 0.079 0.049 0.038 0.043 0.063 0.057 0.033 0.023 0.018 0.003 0.000 0.000 0.000 0.000 0.000 0.000 0.000 0.000 0.000 0.000 0.000 0.000 0.000 0.000 0.000 0.000
0.000 0.000 0.000 0.000 0.000 0.000 0.000 0.007 0.014 0.023 0.025 0.028 0.040 0.052 0.080 0.199 0.455 0.599 0.378 0.181 0.093 0.053 0.042 0.043 0.069 0.060 0.038 0.026 0.017 0.014 0.000 0.000 0.000 0.000 0.000 0.000 0.000 0.000 0.000 0.000 0.000 0.000 0.000 0.000 0.000 0.000
0.000 0.000 0.000 0.000 0.000 0.000 0.000 0.009 0.012 0.017 0.020 0.028 0.038 0.047 0.071 0.162 0.368 0.567 0.380 0.176 0.101 0.062 0.049 0.044 0.059 0.062 0.044 0.029 0.018 0.013 0.001 0.000 0.000 0.000 0.000 0.000 0.000 0.000 0.000 0.000 0.000 0.000 0.000 0.000 0.000 0.000
0.000 0.000 0.000 0.000 0.000 0.000 0.000 0.009 0.013 0.015 0.019 0.025 0.033 0.042 0.060 0.141 0.296 0.512 0.407 0.217 0.118 0.071 0.051 0.048 0.054 0.059 0.050 0.033 0.021 0.009 0.009 0.000 0.000 0.000 0.000 0.000 0.000 0.000 0.000 0.000 0.000 0.000 0.000 0.000 0.000 0.000
0.000 0.000 0.000 0.000 0.000 0.000 0.001 0.008 0.011 0.014 0.018 0.022 0.028 0.037 0.052 0.115 0.241 0.478 0.414 0.222 0.116 0.069 0.049 0.047 0.051 0.056 0.050 0.042 0.023 0.010 0.010 0.000 0.000 0.000 0.000 0.000 0.000 0.000 0.000 0.000 0.000 0.000 0.000 0.000 0.000 0.000
0.000 0.000 0.000 0.000 0.000 0.000 0.000 0.005 0.010 0.014 0.015 0.018 0.022 0.029 0.046 0.101 0.213 0.461 0.409 0.258 0.139 0.068 0.048 0.041 0.046 0.052 0.054 0.046 0.028 0.015 0.009 0.006 0.000 0.000 0.000 0.000 0.000 0.000 0.000 0.000 0.000 0.000 0.000 0.000 0.000 0.000
0.000 0.000 0.000 0.000 0.000 0.000 0.000 0.002 0.008 0.013 0.012 0.014 0.016 0.024 0.041 0.087 0.176 0.373 0.411 0.295 0.157 0.087 0.049 0.035 0.041 0.051 0.056 0.049 0.037 0.023 0.011 0.009 0.000 0.000 0.000 0.000 0.000 0.000 0.000 0.000 0.000 0.000 0.000 0.000 0.000 0.000
0.000 0.000 0.000 0.000 0.000 0.000 0.000 0.000 0.008 0.012 0.010 0.011 0.015 0.019 0.033 0.069 0.125 0.320 0.415 0.293 0.192 0.096 0.052 0.043 0.044 0.051 0.052 0.049 0.049 0.031 0.013 0.009 0.003 0.000 0.000 0.000 0.000 0.000 0.000 0.000 0.000 0.000 0.000 0.000 0.000 0.000
0.000 0.000 0.000 0.000 0.000 0.000 0.000 0.000 0.011 0.010 0.008 0.007 0.010 0.016 0.023 0.052 0.121 0.295 0.363 0.336 0.217 0.103 0.066 0.050 0.042 0.042 0.044 0.056 0.056 0.034 0.016 0.012 0.010 0.000 0.000 0.000 0.000 0.000 0.000 0.000 0.000 0.000 0.000 0.000 0.000 0.000
0.000 0.000 0.000 0.000 0.000 0.000 0.000 0.001 0.008 0.009 0.007 0.004 0.007 0.008 0.018 0.051 0.113 0.233 0.341 0.341 0.215 0.111 0.066 0.047 0.037 0.034 0.044 0.054 0.051 0.043 0.026 0.016 0.010 0.000 0.000 0.000 0.000 0.000 0.000 0.000 0.000 0.000 0.000 0.000 0.000 0.000
0.000 0.000 0.000 0.000 0.000 0.000 0.000 0.000 0.004 0.007 0.007 0.004 0.003 0.006 0.034 0.055 0.095 0.208 0.314 0.319 0.235 0.126 0.073 0.048 0.034 0.034 0.039 0.044 0.051 0.049 0.034 0.020 0.013 0.007 0.000 0.000 0.000 0.000 0.000 0.000 0.000 0.000 0.000 0.000 0.000 0.000
0.000 0.000 0.000 0.000 0.000 0.000 0.000 0.000 0.002 0.006 0.008 0.003 0.001 0.010 0.032 0.052 0.083 0.166 0.262 0.306 0.245 0.136 0.081 0.047 0.036 0.032 0.035 0.042 0.050 0.053 0.041 0.025 0.014 0.010 0.000 0.000 0.000 0.000 0.000 0.000 0.000 0.000 0.000 0.000 0.000 0.000
0.000 0.000 0.000 0.000 0.000 0.000 0.000 0.000 0.001 0.003 0.007 0.003 0.002 0.010 0.029 0.039 0.073 0.137 0.228 0.292 0.266 0.169 0.089 0.053 0.045 0.031 0.039 0.048 0.046 0.052 0.042 0.027 0.017 0.010 0.000 0.000 0.000 0.000 0.000 0.000 0.000 0.000 0.000 0.000 0.000 0.000
0.000 0.000 0.000 0.000 0.000 0.000 0.000 0.000 0.000 0.000 0.006 0.004 0.003 0.011 0.017 0.025 0.057 0.111 0.184 0.269 0.290 0.186 0.099 0.063 0.044 0.033 0.042 0.041 0.040 0.046 0.044 0.034 0.022 0.012 0.010 0.000 0.000 0.000 0.000 0.000 0.000 0.000 0.000 0.000 0.000 0.000
0.000 0.000 0.000 0.000 0.000 0.000 0.000 0.000 0.000 0.002 0.006 0.004 0.004 0.009 0.010 0.017 0.045 0.096 0.175 0.252 0.288 0.182 0.104 0.076 0.050 0.041 0.046 0.033 0.030 0.039 0.047 0.042 0.029 0.015 0.027 0.000 0.000 0.000 0.000 0.000 0.000 0.000 0.000 0.000 0.000 0.000
0.000 0.000 0.000 0.000 0.000 0.000 0.000 0.000 0.000 0.000 0.004 0.006 0.004 0.006 0.007 0.012 0.034 0.080 0.158 0.227 0.271 0.186 0.126 0.088 0.056 0.043 0.040 0.028 0.024 0.033 0.044 0.045 0.034 0.020 0.034 0.003 0.000 0.000 0.000 0.000 0.000 0.000 0.000 0.000 0.000 0.000
0.000 0.000 0.000 0.000 0.000 0.000 0.000 0.000 0.000 0.000 0.001 0.004 0.004 0.005 0.005 0.008 0.027 0.068 0.124 0.210 0.244 0.202 0.134 0.100 0.062 0.048 0.044 0.028 0.023 0.030 0.038 0.049 0.048 0.035 0.042 0.005 0.000 0.000 0.000 0.000 0.000 0.000 0.000 0.000 0.000 0.000
0.000 0.000 0.000 0.000 0.000 0.000 0.000 0.000 0.000 0.000 0.001 0.003 0.003 0.004 0.004 0.007 0.018 0.051 0.096 0.164 0.232 0.203 0.157 0.112 0.078 0.060 0.047 0.030 0.021 0.024 0.032 0.051 0.069 0.044 0.034 0.000 0.000 0.000 0.000 0.000 0.000 0.000 0.000 0.000 0.000 0.000
0.000 0.000 0.000 0.000 0.000 0.000 0.000 0.000 0.000 0.000 0.000 0.002 0.002 0.004 0.004 0.005 0.012 0.036 0.075 0.139 0.203 0.223 0.176 0.130 0.111 0.080 0.053 0.030 0.019 0.019 0.028 0.048 0.075 0.049 0.030 0.001 0.000 0.000 0.000 0.000 0.000 0.000 0.000 0.000 0.000 0.000
0.000 0.000 0.000 0.000 0.000 0.000 0.000 0.000 0.000 0.000 0.000 0.001 0.002 0.004 0.004 0.004 0.008 0.027 0.065 0.116 0.181 0.229 0.206 0.157 0.141 0.092 0.051 0.032 0.017 0.017 0.025 0.038 0.078 0.063 0.028 0.014 0.000 0.000 0.000 0.000 0.000 0.000 0.000 0.000 0.000 0.000
0.000 0.000 0.000 0.000 0.000 0.000 0.000 0.000 0.000 0.000 0.000 0.000 0.002 0.003 0.003 0.004 0.007 0.016 0.046 0.086 0.159 0.226 0.208 0.170 0.149 0.098 0.060 0.035 0.017 0.016 0.017 0.025 0.084 0.069 0.029 0.024 0.000 0.000 0.000 0.000 0.000 0.000 0.000 0.000 0.000 0.000
0.000 0.000 0.000 0.000 0.000 0.000 0.000 0.000 0.000 0.000 0.000 0.000 0.001 0.003 0.003 0.003 0.006 0.012 0.033 0.069 0.143 0.218 0.234 0.189 0.156 0.107 0.069 0.036 0.019 0.014 0.014 0.021 0.076 0.072 0.032 0.021 0.000 0.000 0.000 0.000 0.000 0.000 0.000 0.000 0.000 0.000
0.000 0.000 0.000 0.000 0.000 0.000 0.000 0.000 0.000 0.000 0.000 0.000 0.001 0.002 0.002 0.003 0.006 0.008 0.023 0.053 0.103 0.183 0.240 0.199 0.155 0.137 0.078 0.040 0.021 0.016 0.017 0.024 0.068 0.073 0.033 0.018 0.008 0.000 0.000 0.000 0.000 0.000 0.000 0.000 0.000 0.000
0.000 0.000 0.000 0.000 0.000 0.000 0.000 0.000 0.000 0.000 0.000 0.000 0.000 0.002 0.001 0.002 0.006 0.009 0.016 0.037 0.080 0.155 0.226 0.201 0.155 0.157 0.097 0.049 0.023 0.023 0.021 0.028 0.064 0.070 0.033 0.020 0.021 0.000 0.000 0.000 0.000 0.000 0.000 0.000 0.000 0.000
0.000 0.000 0.000 0.000 0.000 0.000 0.000 0.000 0.000 0.000 0.000 0.000 0.000 0.002 0.001 0.001 0.005 0.008 0.012 0.023 0.061 0.113 0.189 0.205 0.163 0.155 0.111 0.058 0.031 0.029 0.025 0.021 0.053 0.067 0.033 0.016 0.017 0.005 0.000 0.000 0.000 0.000 0.000 0.000 0.000 0.000
0.000 0.000 0.000 0.000 0.000 0.000 0.000 0.000 0.000 0.000 0.000 0.000 0.000 0.001 0.001 0.001 0.004 0.006 0.008 0.015 0.045 0.076 0.144 0.200 0.174 0.147 0.140 0.081 0.039 0.030 0.021 0.017 0.047 0.066 0.033 0.012 0.012 0.015 0.000 0.000 0.000 0.000 0.000 0.000 0.000 0.000
0.000 0.000 0.000 0.000 0.000 0.000 0.000 0.000 0.000 0.000 0.000 0.000 0.000 0.000 0.001 0.001 0.003 0.004 0.004 0.009 0.033 0.052 0.112 0.197 0.157 0.152 0.155 0.105 0.048 0.031 0.020 0.018 0.043 0.064 0.036 0.011 0.009 0.010 0.003 0.000 0.000 0.000 0.000 0.000 0.000 0.000
0.000 0.000 0.000 0.000 0.000 0.000 0.000 0.000 0.000 0.000 0.000 0.000 0.000 0.000 0.001 0.001 0.002 0.003 0.003 0.006 0.019 0.037 0.102 0.191 0.162 0.168 0.181 0.134 0.056 0.033 0.022 0.021 0.039 0.061 0.038 0.009 0.008 0.007 0.010 0.000 0.000 0.000 0.000 0.000 0.000 0.000
0.000 0.000 0.000 0.000 0.000 0.000 0.000 0.000 0.000 0.000 0.000 0.000 0.000 0.000 0.000 0.001 0.002 0.002 0.002 0.004 0.014 0.024 0.082 0.180 0.165 0.183 0.205 0.139 0.063 0.033 0.023 0.019 0.040 0.062 0.039 0.008 0.006 0.006 0.009 0.005 0.000 0.000 0.000 0.000 0.000 0.000
0.000 0.000 0.000 0.000 0.000 0.000 0.000 0.000 0.000 0.000 0.000 0.000 0.000 0.000 0.000 0.003 0.001 0.001 0.001 0.002 0.007 0.017 0.095 0.172 0.175 0.186 0.209 0.141 0.071 0.040 0.025 0.020 0.037 0.053 0.040 0.009 0.005 0.005 0.006 0.008 0.002 0.000 0.000 0.000 0.000 0.000
0.000 0.000 0.000 0.000 0.000 0.000 0.000 0.000 0.000 0.000 0.000 0.000 0.000 0.000 0.000 0.002 0.001 0.000 0.001 0.001 0.005 0.016 0.073 0.153 0.144 0.166 0.181 0.153 0.090 0.056 0.027 0.024 0.031 0.047 0.043 0.009 0.004 0.004 0.004 0.005 0.008 0.000 0.000 0.000 0.000 0.000
0.000 0.000 0.000 0.000 0.000 0.000 0.000 0.000 0.000 0.000 0.000 0.000 0.000 0.000 0.000 0.001 0.001 0.000 0.000 0.001 0.003 0.015 0.097 0.134 0.106 0.130 0.162 0.176 0.109 0.059 0.039 0.042 0.034 0.040 0.043 0.008 0.003 0.003 0.004 0.004 0.008 0.001 0.000 0.000 0.000 0.000
0.000 0.000 0.000 0.000 0.000 0.000 0.000 0.000 0.000 0.000 0.000 0.000 0.000 0.000 0.000 0.000 0.001 0.000 0.000 0.001 0.002 0.015 0.059 0.093 0.079 0.103 0.157 0.193 0.113 0.063 0.049 0.050 0.039 0.036 0.039 0.008 0.003 0.002 0.002 0.003 0.008 0.009 0.000 0.000 0.000 0.000
0.000 0.000 0.000 0.000 0.000 0.000 0.000 0.000 0.000 0.000 0.000 0.000 0.000 0.000 0.000 0.000 0.000 0.000 0.001 0.001 0.001 0.028 0.047 0.088 0.069 0.080 0.143 0.192 0.115 0.057 0.045 0.044 0.034 0.035 0.037 0.010 0.003 0.002 0.002 0.002 0.004 0.014 0.000 0.000 0.000 0.000
0.000 0.000 0.000 0.000 0.000 0.000 0.000 0.000 0.000 0.000 0.000 0.000 0.000 0.000 0.000 0.000 0.000 0.000 0.001 0.000 0.000 0.006 0.040 0.095 0.069 0.079 0.122 0.148 0.087 0.047 0.036 0.035 0.032 0.032 0.038 0.013 0.003 0.002 0.001 0.001 0.003 0.013 0.003 0.000 0.000 0.000
0.000 0.000 0.000 0.000 0.000 0.000 0.000 0.000 0.000 0.000 0.000 0.000 0.000 0.000 0.000 0.000 0.000 0.000 0.001 0.000 0.000 0.001 0.025 0.099 0.073 0.070 0.101 0.107 0.072 0.042 0.035 0.036 0.033 0.032 0.034 0.015 0.004 0.001 0.001 0.001 0.002 0.008 0.005 0.000 0.000 0.000
0.000 0.000 0.000 0.000 0.000 0.000 0.000 0.000 0.000 0.000 0.000 0.000 0.000 0.000 0.000 0.000 0.000 0.000 0.000 0.001 0.000 0.001 0.093 0.087 0.072 0.071 0.092 0.101 0.062 0.041 0.040 0.037 0.032 0.038 0.032 0.025 0.005 0.001 0.001 0.001 0.002 0.004 0.005 0.000 0.000 0.000
0.000 0.000 0.000 0.000 0.000 0.000 0.000 0.000 0.000 0.000 0.000 0.000 0.000 0.000 0.000 0.000 0.000 0.000 0.000 0.000 0.001 0.000 0.011 0.051 0.052 0.070 0.100 0.089 0.051 0.043 0.047 0.038 0.061 0.531 0.250 0.041 0.009 0.002 0.001 0.001 0.001 0.004 0.004 0.000 0.000 0.000
0.000 0.000 0.000 0.000 0.000 0.000 0.000 0.000 0.000 0.000 0.000 0.000 0.000 0.000 0.000 0.000 0.000 0.000 0.000 0.000 0.000 0.000 0.002 0.018 0.029 0.061 0.113 0.082 0.040 0.026 0.038 0.027 0.960 0.586 0.252 0.059 0.021 0.004 0.001 0.014 0.002 0.005 0.003 0.002 0.000 0.000
0.000 0.000 0.000 0.000 0.000 0.000 0.000 0.000 0.000 0.000 0.000 0.000 0.000 0.000 0.000 0.000 0.000 0.000 0.000 0.000 0.000 0.000 0.001 0.004 0.012 0.060 0.120 0.078 0.038 0.023 0.086 1.601 1.287 0.291 0.305 0.104 0.027 0.005 0.040 0.019 0.016 0.005 0.002 0.004 0.000 0.000
0.000 0.000 0.000 0.000 0.000 0.000 0.000 0.000 0.000 0.000 0.000 0.000 0.000 0.000 0.000 0.000 0.000 0.000 0.000 0.000 0.000 0.000 0.000 0.001 0.003 0.062 0.044 0.037 0.034 0.311 0.981 1.938 1.070 0.660 0.445 0.155 0.041 0.048 0.038 0.026 0.032 0.004 0.002 0.004 0.000 0.000
0.000 0.000 0.000 0.000 0.000 0.000 0.000 0.000 0.000 0.000 0.000 0.000 0.000 0.000 0.000 0.000 0.000 0.000 0.000 0.000 0.000 0.000 0.001 0.001 0.002 0.007 0.012 0.023 0.045 0.376 0.956 1.486 1.077 1.214 0.384 0.203 0.127 0.073 0.009 0.043 0.048 0.006 0.002 0.002 0.003 0.000
0.000 0.000 0.000 0.000 0.000 0.000 0.000 0.000 0.000 0.000 0.000 0.000 0.000 0.000 0.000 0.000 0.000 0.000 0.000 0.000 0.000 0.000 0.001 0.001 0.001 0.002 0.004 0.013 0.069 0.237 0.769 0.305 1.463 0.684 0.406 0.168 0.135 0.048 0.027 0.099 0.067 0.008 0.003 0.002 0.003 0.000
0.000 0.000 0.000 0.000 0.000 0.000 0.000 0.000 0.000 0.000 0.000 0.000 0.000 0.000 0.000 0.000 0.000 0.000 0.000 0.000 0.000 0.000 0.000 0.002 0.001 0.000 0.001 0.003 0.022 0.072 0.436 0.762 1.242 0.366 0.371 0.163 0.239 0.080 0.100 0.124 0.042 0.010 0.006 0.002 0.002 0.002
0.000 0.000 0.000 0.000 0.000 0.000 0.000 0.000 0.000 0.000 0.000 0.000 0.000 0.000 0.000 0.000 0.000 0.000 0.000 0.000 0.000 0.000 0.000 0.002 0.001 0.000 0.000 0.001 0.005 0.113 0.134 1.408 0.245 0.246 0.361 0.280 0.186 0.045 0.100 0.103 0.026 0.016 0.011 0.004 0.002 0.003
0.000 0.000 0.000 0.000 0.000 0.000 0.000 0.000 0.000 0.000 0.000 0.000 0.000 0.000 0.000 0.000 0.000 0.000 0.000 0.000 0.000 0.000 0.000 0.001 0.001 0.000 0.000 0.000 0.002 0.022 0.084 0.324 0.131 0.266 0.656 0.228 0.071 0.042 0.131 0.097 0.017 0.012 0.009 0.007 0.002 0.001
0.000 0.000 0.000 0.000 0.000 0.000 0.000 0.000 0.000 0.000 0.000 0.000 0.000 0.000 0.000 0.000 0.000 0.000 0.000 0.000 0.000 0.000 0.000 0.000 0.000 0.001 0.000 0.000 0.000 0.003 0.045 0.075 0.134 0.582 0.390 0.070 0.177 0.224 0.199 0.068 0.012 0.008 0.008 0.008 0.002 0.001
0.000 0.000 0.000 0.000 0.000 0.000 0.000 0.000 0.000 0.000 0.000 0.000 0.000 0.000 0.000 0.000 0.000 0.000 0.000 0.000 0.000 0.000 0.000 0.000 0.000 0.000 0.000 0.000 0.000 0.000 0.005 0.018 0.985 1.150 0.461 0.269 0.137 0.318 0.245 0.065 0.012 0.006 0.008 0.008 0.002 0.001
0.000 0.000 0.000 0.000 0.000 0.000 0.000 0.000 0.000 0.000 0.000 0.000 0.000 0.000 0.000 0.000 0.000 0.000 0.000 0.000 0.000 0.000 0.000 0.000 0.000 0.000 0.000 0.000 0.000 0.000 0.002 0.021 0.686 1.253 0.473 0.328 0.349 0.543 0.349 0.098 0.020 0.009 0.047 0.014 0.004 0.001
0.000 0.000 0.000 0.000 0.000 0.000 0.000 0.000 0.000 0.000 0.000 0.000 0.000 0.000 0.000 0.000 0.000 0.000 0.000 0.000 0.000 0.000 0.000 0.000 0.000 0.000 0.000 0.000 0.000 0.000 0.001 0.059 0.491 0.835 0.339 0.954 0.719 0.524 0.252 0.183 0.058 0.043 0.018 0.017 0.005 0.001
0.000 0.000 0.000 0.000 0.000 0.000 0.000 0.000 0.000 0.000 0.000 0.000 0.000 0.000 0.000 0.000 0.000 0.000 0.000 0.000 0.000 0.000 0.000 0.000 0.000 0.000 0.000 0.000 0.000 0.000 0.001 0.007 0.289 0.718 0.857 0.578 0.601 0.374 0.143 0.227 0.057 0.022 0.012 0.012 0.006 0.002
0.000 0.000 0.000 0.000 0.000 0.000 0.000 0.000 0.000 0.000 0.000 0.000 0.000 0.000 0.000 0.000 0.000 0.000 0.000 0.000 0.000 0.000 0.000 0.000 0.000 0.000 0.000 0.000 0.001 0.000 0.001 0.002 0.065 0.253 0.445 0.536 0.388 0.248 0.513 0.306 0.057 0.020 0.011 0.014 0.009 0.004
0.000 0.000 0.000 0.000 0.000 0.000 0.000 0.000 0.000 0.000 0.000 0.000 0.000 0.000 0.000 0.000 0.000 0.000 0.000 0.000 0.000 0.000 0.000 0.000 0.000 0.000 0.000 0.000 0.000 0.000 0.000 0.001 0.053 0.099 0.093 0.412 0.432 0.771 0.664 0.234 0.055 0.027 0.012 0.010 0.032 0.005
0.000 0.000 0.000 0.000 0.000 0.000 0.000 0.000 0.000 0.000 0.000 0.000 0.000 0.000 0.000 0.000 0.000 0.000 0.000 0.000 0.000 0.000 0.000 0.000 0.000 0.000 0.000 0.000 0.000 0.001 0.000 0.001 0.006 0.041 0.032 0.219 0.413 0.578 0.388 0.193 0.087 0.037 0.012 0.049 0.090 0.011
0.000 0.000 0.000 0.000 0.000 0.000 0.000 0.000 0.000 0.000 0.000 0.000 0.000 0.000 0.000 0.000 0.000 0.000 0.000 0.000 0.000 0.000 0.000 0.000 0.000 0.000 0.000 0.000 0.000 0.001 0.000 0.000 0.002 0.006 0.010 0.039 0.346 0.815 0.571 0.258 0.132 0.046 0.053 0.149 0.095 0.049
0.000 0.000 0.000 0.000 0.000 0.000 0.000 0.000 0.000 0.000 0.000 0.000 0.000 0.000 0.000 0.000 0.000 0.000 0.000 0.000 0.000 0.000 0.000 0.000 0.000 0.000 0.000 0.000 0.000 0.001 0.001 0.001 0.002 0.002 0.005 0.034 1.102 1.075 0.619 0.214 0.119 0.067 0.075 0.152 0.096 0.073
0.000 0.000 0.000 0.000 0.000 0.000 0.000 0.000 0.000 0.000 0.000 0.000 0.000 0.000 0.000 0.000 0.000 0.000 0.000 0.000 0.000 0.000 0.000 0.000 0.000 0.000 0.000 0.000 0.000 0.000 0.001 0.014 0.001 0.001 0.031 0.151 0.892 0.994 0.337 0.193 0.119 0.075 0.031 0.159 0.172 0.131
0.000 0.000 0.000 0.000 0.000 0.000 0.000 0.000 0.000 0.000 0.000 0.000 0.000 0.000 0.000 0.000 0.000 0.000 0.000 0.000 0.000 0.000 0.000 0.000 0.000 0.000 0.000 0.000 0.000 0.000 0.001 0.001 0.000 0.001 0.046 0.102 0.887 0.546 0.306 0.224 0.131 0.062 0.021 0.351 0.211 0.115
0.000 0.000 0.000 0.000 0.000 0.000 0.000 0.000 0.000 0.000 0.000 0.000 0.000 0.000 0.000 0.000 0.000 0.000 0.000 0.000 0.000 0.000 0.000 0.000 0.000 0.000 0.000 0.000 0.000 0.000 0.000 0.001 0.000 0.000 0.049 0.210 0.172 0.231 0.245 0.217 0.125 0.074 0.289 0.393 0.189 0.223
0.000 0.000 0.000 0.000 0.000 0.000 0.000 0.000 0.000 0.000 0.000 0.000 0.000 0.000 0.000 0.000 0.000 0.000 0.000 0.000 0.000 0.000 0.000 0.000 0.000 0.000 0.000 0.000 0.000 0.000 0.000 0.000 0.001 0.000 0.017 0.094 0.026 0.092 0.134 0.138 0.134 0.145 0.479 0.171 0.256 0.255
0.000 0.000 0.000 0.000 0.000 0.000 0.000 0.000 0.000 0.000 0.000 0.000 0.000 0.000 0.000 0.000 0.000 0.000 0.000 0.000 0.000 0.000 0.000 0.000 0.000 0.000 0.000 0.000 0.000 0.000 0.000 0.000 0.000 0.001 0.019 0.005 0.007 0.041 0.086 0.105 0.154 0.177 0.196 0.185 0.251 0.234
0.000 0.000 0.000 0.000 0.000 0.000 0.000 0.000 0.000 0.000 0.000 0.000 0.000 0.000 0.000 0.000 0.000 0.000 0.000 0.000 0.000 0.000 0.000 0.000 0.000 0.000 0.000 0.000 0.000 0.000 0.000 0.000 0.000 0.002 0.005 0.001 0.003 0.022 0.070 0.101 0.135 0.204 0.217 0.178 0.135 0.184
0.000 0.000 0.000 0.000 0.000 0.000 0.000 0.000 0.000 0.000 0.000 0.000 0.000 0.000 0.000 0.000 0.000 0.000 0.000 0.000 0.000 0.000 0.000 0.000 0.000 0.000 0.000 0.000 0.000 0.000 0.000 0.000 0.000 0.010 0.001 0.000 0.001 0.011 0.070 0.077 0.087 0.128 0.153 0.145 0.105 0.084
0.000 0.000 0.000 0.000 0.000 0.000 0.000 0.000 0.000 0.000 0.000 0.000 0.000 0.000 0.000 0.000 0.000 0.000 0.000 0.000 0.000 0.000 0.000 0.000 0.000 0.000 0.000 0.000 0.000 0.000 0.000 0.000 0.000 0.000 0.000 0.000 0.000 0.003 0.074 0.070 0.061 0.089 0.117 0.134 0.128 0.045
0.000 0.000 0.000 0.000 0.000 0.000 0.000 0.000 0.000 0.000 0.000 0.000 0.000 0.000 0.000 0.000 0.000 0.000 0.000 0.000 0.000 0.000 0.000 0.000 0.000 0.000 0.000 0.000 0.000 0.000 0.000 0.000 0.000 0.000 0.000 0.000 0.000 0.001 0.084 0.132 0.065 0.088 0.108 0.128 0.078 0.040
0.000 0.000 0.000 0.000 0.000 0.000 0.000 0.000 0.000 0.000 0.000 0.000 0.000 0.000 0.000 0.000 0.000 0.000 0.000 0.000 0.000 0.000 0.000 0.000 0.000 0.000 0.000 0.000 0.000 0.000 0.000 0.000 0.000 0.000 0.000 0.000 0.000 0.001 0.044 0.165 0.067 0.090 0.111 0.129 0.069 0.034
0.000 0.000 0.000 0.000 0.000 0.000 0.000 0.000 0.000 0.000 0.000 0.000 0.000 0.000 0.000 0.000 0.000 0.000 0.000 0.000 0.000 0.000 0.000 0.000 0.000 0.000 0.000 0.000 0.000 0.000 0.000 0.000 0.000 0.000 0.000 0.000 0.000 0.001 0.027 0.049 0.054 0.076 0.117 0.138 0.062 0.031
0.000 0.000 0.000 0.000 0.000 0.000 0.000 0.000 0.000 0.000 0.000 0.000 0.000 0.000 0.000 0.000 0.000 0.000 0.000 0.000 0.000 0.000 0.000 0.000 0.000 0.000 0.000 0.000 0.000 0.000 0.000 0.000 0.000 0.000 0.000 0.001 0.000 0.004 0.010 0.017 0.034 0.066 0.115 0.142 0.062 0.033
0.000 0.000 0.000 0.000 0.000 0.000 0.000 0.000 0.000 0.000 0.000 0.000 0.000 0.000 0.000 0.000 0.000 0.000 0.000 0.000 0.000 0.000 0.000 0.000 0.000 0.000 0.000 0.000 0.000 0.000 0.000 0.000 0.000 0.000 0.000 0.000 0.000 0.001 0.003 0.006 0.019 0.046 0.098 0.142 0.074 0.031
0.000 0.000 0.000 0.000 0.000 0.000 0.000 0.000 0.000 0.000 0.000 0.000 0.000 0.000 0.000 0.000 0.000 0.000 0.000 0.000 0.000 0.000 0.000 0.000 0.000 0.000 0.000 0.000 0.000 0.000 0.000 0.000 0.000 0.000 0.000 0.000 0.000 0.001 0.001 0.002 0.007 0.021 0.066 0.116 0.076 0.030
0.000 0.000 0.000 0.000 0.000 0.000 0.000 0.000 0.000 0.000 0.000 0.000 0.000 0.000 0.000 0.000 0.000 0.000 0.000 0.000 0.000 0.000 0.000 0.000 0.000 0.000 0.000 0.000 0.000 0.000 0.000 0.000 0.000 0.000 0.000 0.000 0.000 0.000 0.000 0.000 0.003 0.007 0.039 0.084 0.067 0.026
0.000 0.000 0.000 0.000 0.000 0.000 0.000 0.000 0.000 0.000 0.000 0.000 0.000 0.000 0.000 0.000 0.000 0.000 0.000 0.000 0.000 0.000 0.000 0.000 0.000 0.000 0.000 0.000 0.000 0.000 0.000 0.000 0.000 0.000 0.000 0.000 0.000 0.000 0.000 0.000 0.002 0.003 0.023 0.055 0.049 0.018
0.000 0.000 0.000 0.000 0.000 0.000 0.000 0.000 0.000 0.000 0.000 0.000 0.000 0.000 0.000 0.000 0.000 0.000 0.000 0.000 0.000 0.000 0.000 0.000 0.000 0.000 0.000 0.000 0.000 0.000 0.000 0.000 0.000 0.000 0.000 0.000 0.000 0.000 0.000 0.000 0.001 0.002 0.009 0.029 0.029 0.012
