ncols        32
nrows        37
xllcorner    409852.8
yllcorner    6870499.1
cellsize     5.00
NODATA_value -9999
0.000 0.000 0.000 0.000 0.000 0.000 0.000 0.000 0.000 0.000 0.000 0.000 0.000 0.000 0.000 0.000 0.000 0.005 0.016 0.026 0.032 0.033 0.026 0.017 0.008 0.002 0.000 0.000 0.000 0.000 0.000 0.000
0.000 0.000 0.000 0.000 0.000 0.000 0.000 0.000 0.000 0.000 0.000 0.000 0.000 0.000 0.000 0.008 0.027 0.057 0.083 0.101 0.107 0.096 0.078 0.055 0.036 0.023 0.009 0.001 0.000 0.000 0.000 0.000
0.000 0.000 0.000 0.000 0.000 0.000 0.000 0.000 0.000 0.000 0.000 0.000 0.000 0.003 0.027 0.071 0.114 0.168 0.220 0.263 0.251 0.223 0.174 0.119 0.076 0.046 0.029 0.017 0.005 0.000 0.000 0.000
0.000 0.000 0.000 0.000 0.000 0.000 0.000 0.000 0.000 0.000 0.000 0.000 0.003 0.036 0.103 0.203 0.308 0.403 0.485 0.522 0.492 0.426 0.315 0.215 0.140 0.080 0.049 0.032 0.021 0.010 0.002 0.000
0.000 0.000 0.000 0.000 0.000 0.000 0.000 0.000 0.000 0.000 0.000 0.001 0.025 0.101 0.248 0.463 0.667 0.791 0.884 0.860 0.843 0.688 0.526 0.331 0.217 0.126 0.084 0.052 0.029 0.021 0.015 0.004
0.000 0.000 0.000 0.000 0.000 0.000 0.000 0.000 0.000 0.000 0.000 0.010 0.077 0.219 0.477 0.824 1.159 1.327 1.363 1.308 1.270 1.029 0.708 0.463 0.295 0.185 0.121 0.074 0.044 0.030 0.019 0.014
0.000 0.000 0.000 0.000 0.000 0.000 0.000 0.000 0.000 0.000 0.001 0.033 0.152 0.384 0.742 1.226 1.686 1.896 1.854 1.777 1.673 1.292 0.896 0.622 0.380 0.254 0.153 0.095 0.058 0.041 0.023 0.012
0.000 0.000 0.000 0.000 0.000 0.000 0.000 0.000 0.000 0.000 0.005 0.066 0.241 0.561 1.010 1.559 2.099 2.362 2.260 2.146 2.001 1.597 1.164 0.770 0.469 0.295 0.179 0.115 0.074 0.046 0.029 0.015
0.000 0.000 0.000 0.000 0.000 0.000 0.000 0.000 0.000 0.000 0.011 0.097 0.334 0.742 1.208 1.728 2.279 2.562 2.460 2.385 2.213 1.839 1.395 0.876 0.555 0.324 0.206 0.135 0.087 0.050 0.032 0.018
0.000 0.000 0.000 0.000 0.000 0.000 0.000 0.000 0.000 0.000 0.017 0.125 0.417 0.872 1.287 1.691 2.173 2.490 2.539 2.459 2.193 1.912 1.537 1.008 0.640 0.362 0.241 0.154 0.090 0.051 0.033 0.017
0.000 0.000 0.000 0.000 0.000 0.000 0.000 0.000 0.000 0.000 0.026 0.160 0.492 0.925 1.233 1.470 1.816 2.122 2.286 2.142 2.005 1.857 1.642 1.129 0.754 0.417 0.261 0.152 0.089 0.048 0.031 0.016
0.000 0.000 0.000 0.000 0.000 0.000 0.000 0.000 0.000 0.002 0.047 0.198 0.518 0.896 1.066 1.192 1.416 1.735 1.961 1.865 1.772 1.827 1.619 1.284 0.874 0.442 0.263 0.142 0.079 0.041 0.031 0.017
0.000 0.000 0.000 0.000 0.000 0.000 0.000 0.000 0.000 0.004 0.065 0.226 0.500 0.779 0.942 0.967 1.143 1.435 1.666 1.680 1.592 1.607 1.499 1.326 0.874 0.516 0.286 0.138 0.068 0.040 0.032 0.017
0.000 0.000 0.000 0.000 0.000 0.000 0.000 0.000 0.000 0.009 0.090 0.258 0.505 0.739 0.830 0.829 0.909 1.173 1.401 1.460 1.375 1.321 1.345 1.177 0.881 0.612 0.337 0.146 0.068 0.042 0.032 0.017
0.000 0.000 0.000 0.000 0.000 0.000 0.000 0.000 0.001 0.029 0.118 0.290 0.501 0.678 0.753 0.678 0.745 0.945 1.267 1.389 1.174 0.987 0.981 0.957 0.887 0.711 0.412 0.179 0.094 0.046 0.032 0.017
0.000 0.000 0.000 0.000 0.000 0.000 0.000 0.000 0.005 0.056 0.154 0.319 0.508 0.600 0.671 0.602 0.658 0.826 1.164 1.413 1.110 0.758 0.826 0.934 0.906 0.766 0.452 0.260 0.130 0.055 0.036 0.022
0.000 0.000 0.000 0.000 0.001 0.005 0.010 0.017 0.038 0.083 0.184 0.337 0.507 0.512 0.611 0.597 0.613 0.738 1.136 1.596 1.340 0.673 0.760 0.850 0.874 0.700 0.506 0.348 0.165 0.082 0.040 0.022
0.000 0.000 0.000 0.006 0.032 0.053 0.062 0.068 0.079 0.125 0.209 0.347 0.488 0.456 0.542 0.617 0.593 0.693 1.180 1.862 1.669 0.636 0.639 0.747 0.726 0.680 0.594 0.408 0.223 0.100 0.039 0.022
0.000 0.000 0.006 0.056 0.102 0.138 0.144 0.146 0.147 0.179 0.238 0.373 0.480 0.410 0.510 0.565 0.601 0.753 1.226 2.189 2.369 0.657 0.511 0.571 0.669 0.713 0.651 0.462 0.264 0.106 0.045 0.025
0.000 0.002 0.045 0.128 0.227 0.279 0.282 0.266 0.242 0.242 0.264 0.406 0.476 0.402 0.461 0.598 0.695 0.897 1.303 2.585 3.298 0.734 0.492 0.545 0.647 0.706 0.665 0.489 0.302 0.132 0.059 0.027
0.000 0.011 0.092 0.244 0.393 0.470 0.467 0.407 0.339 0.283 0.286 0.439 0.501 0.420 0.430 0.601 0.830 1.021 1.410 2.987 4.121 0.850 0.480 0.444 0.555 0.651 0.660 0.523 0.303 0.147 0.058 0.028
0.001 0.031 0.155 0.373 0.596 0.707 0.656 0.545 0.441 0.330 0.310 0.476 0.502 0.437 0.436 0.686 0.933 1.183 1.487 3.054 4.676 0.962 0.463 0.384 0.465 0.582 0.614 0.472 0.303 0.155 0.062 0.030
0.003 0.058 0.220 0.511 0.805 0.913 0.808 0.625 0.477 0.364 0.330 0.532 0.544 0.496 0.503 0.755 1.046 1.356 1.456 2.867 4.887 1.102 0.456 0.359 0.405 0.498 0.503 0.408 0.296 0.173 0.066 0.031
0.007 0.073 0.268 0.597 0.937 1.058 0.889 0.678 0.540 0.397 0.340 0.552 0.577 0.610 0.604 0.831 1.073 1.344 1.311 2.356 4.960 1.163 0.445 0.317 0.300 0.389 0.403 0.374 0.299 0.175 0.064 0.029
0.010 0.080 0.280 0.646 0.987 1.086 0.992 0.739 0.603 0.440 0.348 0.578 0.640 0.723 0.642 0.788 1.039 1.325 1.218 1.990 4.546 1.108 0.410 0.287 0.243 0.290 0.336 0.336 0.294 0.183 0.058 0.020
0.011 0.073 0.260 0.598 0.924 1.079 0.980 0.750 0.636 0.462 0.346 0.634 0.704 0.871 0.727 0.793 0.939 1.311 1.171 1.422 3.739 0.986 0.370 0.239 0.184 0.230 0.272 0.304 0.291 0.206 0.042 0.019
0.010 0.061 0.220 0.511 0.823 1.022 0.906 0.769 0.691 0.471 0.336 0.695 0.753 1.001 0.772 0.779 0.870 1.195 0.987 0.987 2.745 0.801 0.301 0.202 0.132 0.164 0.213 0.256 0.243 0.117 0.043 0.027
0.008 0.048 0.175 0.413 0.708 0.880 0.866 0.768 0.654 0.443 0.314 0.742 0.778 1.125 0.815 0.766 0.775 0.968 0.747 0.670 1.839 0.627 0.251 0.165 0.099 0.115 0.158 0.182 0.131 0.131 0.068 0.027
0.005 0.037 0.130 0.319 0.569 0.738 0.773 0.680 0.643 0.443 0.307 0.758 0.712 1.120 0.617 0.418 0.614 0.815 0.513 0.408 0.939 0.432 0.183 0.130 0.073 0.087 0.128 0.079 0.089 0.206 0.081 0.026
0.003 0.028 0.094 0.229 0.419 0.590 0.694 0.612 0.512 0.320 0.210 0.606 0.494 0.848 0.585 0.458 0.482 0.552 0.346 0.286 0.551 0.282 0.108 0.083 0.050 0.062 0.057 0.065 0.120 0.206 0.077 0.023
0.002 0.022 0.068 0.152 0.262 0.449 0.563 0.430 0.218 0.167 0.147 0.533 0.397 0.740 0.487 0.323 0.320 0.379 0.215 0.190 0.320 0.150 0.078 0.066 0.046 0.035 0.044 0.083 0.077 0.134 0.067 0.023
0.001 0.019 0.050 0.100 0.168 0.196 0.228 0.221 0.197 0.177 0.126 0.430 0.270 0.569 0.367 0.214 0.213 0.254 0.148 0.108 0.148 0.097 0.059 0.055 0.030 0.022 0.044 0.059 0.049 0.093 0.055 0.019
0.001 0.020 0.040 0.071 0.111 0.129 0.129 0.117 0.173 0.137 0.097 0.293 0.178 0.284 0.190 0.143 0.139 0.113 0.074 0.061 0.086 0.063 0.040 0.031 0.025 0.020 0.036 0.052 0.043 0.070 0.041 0.016
0.001 0.019 0.029 0.038 0.057 0.063 0.081 0.129 0.128 0.087 0.051 0.168 0.121 0.181 0.126 0.090 0.080 0.074 0.054 0.049 0.060 0.042 0.028 0.032 0.026 0.018 0.027 0.040 0.029 0.043 0.030 0.013
0.001 0.011 0.015 0.027 0.036 0.050 0.075 0.073 0.065 0.047 0.040 0.109 0.063 0.079 0.075 0.050 0.046 0.040 0.038 0.039 0.042 0.030 0.028 0.031 0.027 0.026 0.019 0.028 0.020 0.028 0.024 0.011
0.000 0.006 0.014 0.024 0.027 0.031 0.039 0.042 0.039 0.035 0.033 0.063 0.041 0.043 0.041 0.035 0.029 0.029 0.030 0.031 0.035 0.031 0.027 0.030 0.024 0.017 0.013 0.022 0.011 0.024 0.022 0.004
0.000 0.005 0.015 0.019 0.017 0.022 0.030 0.028 0.026 0.027 0.026 0.034 0.025 0.023 0.022 0.021 0.021 0.022 0.026 0.027 0.028 0.024 0.019 0.020 0.017 0.012 0.011 0.019 0.010 0.015 0.015 0.001
