ncols        39
nrows        87
xllcorner    409637.8
yllcorner    6870794.1
cellsize     5.00
NODATA_value -9999
0.000 0.000 0.000 0.002 0.022 0.045 0.049 0.027 0.002 0.000 0.000 0.000 0.000 0.000 0.000 0.000 0.000 0.000 0.000 0.000 0.000 0.000 0.000 0.000 0.000 0.000 0.000 0.000 0.000 0.000 0.000 0.000 0.000 0.000 0.000 0.000 0.000 0.000 0.000
0.000 0.000 0.003 0.040 0.092 0.140 0.142 0.084 0.037 0.003 0.000 0.000 0.000 0.000 0.000 0.000 0.000 0.000 0.000 0.000 0.000 0.000 0.000 0.000 0.000 0.000 0.000 0.000 0.000 0.000 0.000 0.000 0.000 0.000 0.000 0.000 0.000 0.000 0.000
0.000 0.002 0.040 0.110 0.222 0.332 0.320 0.202 0.079 0.036 0.001 0.000 0.000 0.000 0.000 0.000 0.000 0.000 0.000 0.000 0.000 0.000 0.000 0.000 0.000 0.000 0.000 0.000 0.000 0.000 0.000 0.000 0.000 0.000 0.000 0.000 0.000 0.000 0.000
0.000 0.014 0.092 0.231 0.429 0.632 0.618 0.394 0.168 0.063 0.026 0.001 0.000 0.000 0.000 0.000 0.000 0.000 0.000 0.000 0.000 0.000 0.000 0.000 0.000 0.000 0.000 0.000 0.000 0.000 0.000 0.000 0.000 0.000 0.000 0.000 0.000 0.000 0.000
0.003 0.050 0.161 0.389 0.702 0.979 0.998 0.653 0.284 0.124 0.051 0.022 0.000 0.000 0.000 0.000 0.000 0.000 0.000 0.000 0.000 0.000 0.000 0.000 0.000 0.000 0.000 0.000 0.000 0.000 0.000 0.000 0.000 0.000 0.000 0.000 0.000 0.000 0.000
0.009 0.078 0.238 0.549 1.003 1.352 1.423 1.001 0.495 0.217 0.092 0.043 0.020 0.001 0.000 0.000 0.000 0.000 0.000 0.000 0.000 0.000 0.000 0.000 0.000 0.000 0.000 0.000 0.000 0.000 0.000 0.000 0.000 0.000 0.000 0.000 0.000 0.000 0.000
0.019 0.103 0.303 0.673 1.223 1.688 1.923 1.365 0.676 0.316 0.147 0.069 0.041 0.023 0.001 0.000 0.000 0.000 0.000 0.000 0.000 0.000 0.000 0.000 0.000 0.000 0.000 0.000 0.000 0.000 0.000 0.000 0.000 0.000 0.000 0.000 0.000 0.000 0.000
0.030 0.123 0.331 0.743 1.406 2.012 2.417 1.697 0.940 0.459 0.206 0.112 0.060 0.041 0.024 0.002 0.000 0.000 0.000 0.000 0.000 0.000 0.000 0.000 0.000 0.000 0.000 0.000 0.000 0.000 0.000 0.000 0.000 0.000 0.000 0.000 0.000 0.000 0.000
0.036 0.129 0.348 0.781 1.506 2.163 2.512 2.105 1.234 0.592 0.304 0.152 0.084 0.056 0.043 0.028 0.002 0.000 0.000 0.000 0.000 0.000 0.000 0.000 0.000 0.000 0.000 0.000 0.000 0.000 0.000 0.000 0.000 0.000 0.000 0.000 0.000 0.000 0.000
0.036 0.129 0.345 0.759 1.390 1.900 2.744 2.481 1.424 0.802 0.373 0.186 0.129 0.085 0.061 0.043 0.025 0.004 0.000 0.000 0.000 0.000 0.000 0.000 0.000 0.000 0.000 0.000 0.000 0.000 0.000 0.000 0.000 0.000 0.000 0.000 0.000 0.000 0.000
0.032 0.108 0.350 0.636 1.154 2.046 2.953 2.537 1.805 0.989 0.441 0.251 0.164 0.107 0.076 0.050 0.045 0.033 0.011 0.000 0.000 0.000 0.000 0.000 0.000 0.000 0.000 0.000 0.000 0.000 0.000 0.000 0.000 0.000 0.000 0.000 0.000 0.000 0.000
0.026 0.092 0.193 0.478 1.185 2.014 2.764 2.728 2.056 1.085 0.524 0.281 0.178 0.116 0.081 0.069 0.058 0.046 0.037 0.012 0.000 0.000 0.000 0.000 0.000 0.000 0.000 0.000 0.000 0.000 0.000 0.000 0.000 0.000 0.000 0.000 0.000 0.000 0.000
0.022 0.048 0.134 0.567 1.151 1.875 2.729 2.839 2.128 1.290 0.647 0.338 0.195 0.120 0.097 0.080 0.065 0.055 0.048 0.034 0.003 0.000 0.000 0.000 0.000 0.000 0.000 0.000 0.000 0.000 0.000 0.000 0.000 0.000 0.000 0.000 0.000 0.000 0.000
0.014 0.032 0.150 0.471 1.028 1.742 2.472 2.671 2.226 1.433 0.750 0.403 0.200 0.139 0.101 0.080 0.075 0.067 0.063 0.042 0.024 0.000 0.000 0.000 0.000 0.000 0.000 0.000 0.000 0.000 0.000 0.000 0.000 0.000 0.000 0.000 0.000 0.000 0.000
0.009 0.026 0.116 0.366 0.798 1.572 2.252 2.607 2.303 1.649 0.950 0.468 0.247 0.174 0.106 0.093 0.087 0.073 0.071 0.050 0.029 0.004 0.000 0.000 0.000 0.000 0.000 0.000 0.000 0.000 0.000 0.000 0.000 0.000 0.000 0.000 0.000 0.000 0.000
0.006 0.023 0.084 0.237 0.572 1.230 1.924 2.364 2.329 1.894 1.103 0.536 0.300 0.178 0.115 0.105 0.084 0.074 0.071 0.059 0.035 0.023 0.000 0.000 0.000 0.000 0.000 0.000 0.000 0.000 0.000 0.000 0.000 0.000 0.000 0.000 0.000 0.000 0.000
0.003 0.021 0.057 0.145 0.390 0.942 1.694 2.380 2.390 2.039 1.130 0.584 0.377 0.218 0.143 0.116 0.079 0.064 0.067 0.068 0.048 0.025 0.000 0.000 0.000 0.000 0.000 0.000 0.000 0.000 0.000 0.000 0.000 0.000 0.000 0.000 0.000 0.000 0.000
0.002 0.016 0.036 0.097 0.270 0.690 1.458 2.212 2.346 2.067 1.202 0.713 0.456 0.255 0.155 0.107 0.072 0.057 0.064 0.068 0.055 0.026 0.001 0.000 0.000 0.000 0.000 0.000 0.000 0.000 0.000 0.000 0.000 0.000 0.000 0.000 0.000 0.000 0.000
0.001 0.010 0.023 0.059 0.171 0.531 1.228 1.829 2.272 1.986 1.368 0.790 0.523 0.293 0.181 0.123 0.076 0.059 0.065 0.066 0.064 0.038 0.022 0.000 0.000 0.000 0.000 0.000 0.000 0.000 0.000 0.000 0.000 0.000 0.000 0.000 0.000 0.000 0.000
0.000 0.005 0.017 0.038 0.120 0.362 0.929 1.490 1.911 1.995 1.413 0.957 0.598 0.372 0.235 0.142 0.085 0.060 0.059 0.063 0.075 0.063 0.034 0.000 0.000 0.000 0.000 0.000 0.000 0.000 0.000 0.000 0.000 0.000 0.000 0.000 0.000 0.000 0.000
0.000 0.002 0.014 0.031 0.083 0.244 0.641 1.215 1.752 1.859 1.563 1.091 0.701 0.514 0.308 0.169 0.090 0.060 0.054 0.062 0.078 0.072 0.032 0.000 0.000 0.000 0.000 0.000 0.000 0.000 0.000 0.000 0.000 0.000 0.000 0.000 0.000 0.000 0.000
0.000 0.001 0.011 0.023 0.053 0.159 0.478 1.003 1.539 1.782 1.652 1.273 0.843 0.642 0.370 0.173 0.102 0.061 0.052 0.063 0.076 0.078 0.036 0.000 0.000 0.000 0.000 0.000 0.000 0.000 0.000 0.000 0.000 0.000 0.000 0.000 0.000 0.000 0.000
0.000 0.000 0.008 0.019 0.043 0.107 0.309 0.709 1.188 1.666 1.687 1.306 0.942 0.712 0.416 0.211 0.117 0.063 0.056 0.057 0.064 0.090 0.041 0.014 0.000 0.000 0.000 0.000 0.000 0.000 0.000 0.000 0.000 0.000 0.000 0.000 0.000 0.000 0.000
0.000 0.000 0.005 0.016 0.033 0.075 0.225 0.506 0.984 1.539 1.672 1.446 1.066 0.766 0.464 0.260 0.127 0.073 0.054 0.049 0.062 0.091 0.048 0.034 0.000 0.000 0.000 0.000 0.000 0.000 0.000 0.000 0.000 0.000 0.000 0.000 0.000 0.000 0.000
0.000 0.000 0.002 0.013 0.025 0.056 0.142 0.368 0.786 1.214 1.487 1.485 1.139 0.787 0.580 0.303 0.150 0.080 0.058 0.056 0.065 0.092 0.055 0.033 0.000 0.000 0.000 0.000 0.000 0.000 0.000 0.000 0.000 0.000 0.000 0.000 0.000 0.000 0.000
0.000 0.000 0.001 0.009 0.019 0.046 0.107 0.257 0.580 1.015 1.360 1.422 1.129 0.834 0.686 0.382 0.193 0.089 0.075 0.064 0.074 0.094 0.058 0.030 0.000 0.000 0.000 0.000 0.000 0.000 0.000 0.000 0.000 0.000 0.000 0.000 0.000 0.000 0.000
0.000 0.000 0.000 0.007 0.015 0.040 0.085 0.177 0.407 0.834 1.144 1.255 1.113 0.920 0.709 0.430 0.231 0.123 0.094 0.074 0.069 0.091 0.060 0.029 0.010 0.000 0.000 0.000 0.000 0.000 0.000 0.000 0.000 0.000 0.000 0.000 0.000 0.000 0.000
0.000 0.000 0.000 0.005 0.012 0.029 0.058 0.126 0.303 0.627 0.897 1.032 1.051 0.973 0.710 0.544 0.315 0.161 0.105 0.074 0.064 0.091 0.063 0.030 0.026 0.000 0.000 0.000 0.000 0.000 0.000 0.000 0.000 0.000 0.000 0.000 0.000 0.000 0.000
0.000 0.000 0.000 0.002 0.010 0.022 0.041 0.078 0.192 0.489 0.693 0.854 1.008 0.883 0.759 0.616 0.405 0.208 0.121 0.077 0.066 0.092 0.067 0.033 0.024 0.002 0.000 0.000 0.000 0.000 0.000 0.000 0.000 0.000 0.000 0.000 0.000 0.000 0.000
0.000 0.000 0.000 0.000 0.007 0.017 0.031 0.052 0.134 0.318 0.535 0.806 0.942 0.905 0.845 0.736 0.530 0.260 0.145 0.089 0.079 0.091 0.072 0.036 0.018 0.016 0.000 0.000 0.000 0.000 0.000 0.000 0.000 0.000 0.000 0.000 0.000 0.000 0.000
0.000 0.000 0.000 0.000 0.004 0.014 0.020 0.034 0.082 0.251 0.419 0.663 0.834 0.902 0.908 0.856 0.589 0.311 0.167 0.105 0.080 0.100 0.083 0.039 0.016 0.019 0.005 0.000 0.000 0.000 0.000 0.000 0.000 0.000 0.000 0.000 0.000 0.000 0.000
0.000 0.000 0.000 0.000 0.001 0.010 0.010 0.019 0.057 0.170 0.334 0.647 0.737 0.904 0.936 0.926 0.618 0.351 0.215 0.132 0.093 0.107 0.086 0.042 0.017 0.016 0.017 0.001 0.000 0.000 0.000 0.000 0.000 0.000 0.000 0.000 0.000 0.000 0.000
0.000 0.000 0.000 0.000 0.002 0.006 0.005 0.010 0.036 0.123 0.281 0.462 0.610 0.769 0.876 0.849 0.664 0.436 0.308 0.152 0.116 0.107 0.093 0.048 0.018 0.012 0.014 0.009 0.000 0.000 0.000 0.000 0.000 0.000 0.000 0.000 0.000 0.000 0.000
0.000 0.000 0.000 0.000 0.000 0.004 0.004 0.005 0.025 0.090 0.237 0.445 0.531 0.606 0.727 0.777 0.751 0.549 0.347 0.215 0.189 0.124 0.096 0.055 0.017 0.010 0.011 0.013 0.004 0.000 0.000 0.000 0.000 0.000 0.000 0.000 0.000 0.000 0.000
0.000 0.000 0.000 0.000 0.000 0.001 0.003 0.002 0.014 0.064 0.159 0.296 0.367 0.461 0.609 0.755 0.815 0.615 0.412 0.306 0.254 0.168 0.102 0.062 0.018 0.009 0.009 0.009 0.013 0.000 0.000 0.000 0.000 0.000 0.000 0.000 0.000 0.000 0.000
0.000 0.000 0.000 0.000 0.000 0.000 0.001 0.003 0.009 0.051 0.141 0.216 0.300 0.379 0.490 0.715 0.852 0.714 0.487 0.374 0.305 0.197 0.126 0.070 0.023 0.009 0.007 0.007 0.010 0.007 0.000 0.000 0.000 0.000 0.000 0.000 0.000 0.000 0.000
0.000 0.000 0.000 0.000 0.000 0.000 0.000 0.003 0.005 0.023 0.079 0.177 0.256 0.323 0.457 0.639 0.783 0.671 0.508 0.387 0.325 0.245 0.156 0.088 0.030 0.011 0.006 0.006 0.006 0.016 0.001 0.000 0.000 0.000 0.000 0.000 0.000 0.000 0.000
0.000 0.000 0.000 0.000 0.000 0.000 0.000 0.001 0.002 0.006 0.041 0.118 0.202 0.272 0.364 0.536 0.633 0.646 0.529 0.468 0.431 0.322 0.208 0.110 0.039 0.014 0.006 0.005 0.006 0.013 0.010 0.000 0.000 0.000 0.000 0.000 0.000 0.000 0.000
0.000 0.000 0.000 0.000 0.000 0.000 0.000 0.000 0.002 0.002 0.023 0.101 0.148 0.219 0.307 0.447 0.594 0.617 0.557 0.623 0.573 0.410 0.275 0.148 0.058 0.021 0.008 0.006 0.006 0.008 0.012 0.000 0.000 0.000 0.000 0.000 0.000 0.000 0.000
0.000 0.000 0.000 0.000 0.000 0.000 0.000 0.000 0.000 0.003 0.005 0.046 0.087 0.148 0.240 0.382 0.521 0.596 0.665 0.827 0.782 0.546 0.396 0.208 0.087 0.034 0.013 0.008 0.007 0.006 0.010 0.002 0.000 0.000 0.000 0.000 0.000 0.000 0.000
0.000 0.000 0.000 0.000 0.000 0.000 0.000 0.000 0.000 0.001 0.002 0.016 0.045 0.084 0.171 0.311 0.443 0.537 0.601 0.890 0.945 0.778 0.448 0.252 0.119 0.056 0.025 0.013 0.015 0.007 0.012 0.008 0.000 0.000 0.000 0.000 0.000 0.000 0.000
0.000 0.000 0.000 0.000 0.000 0.000 0.000 0.000 0.000 0.000 0.002 0.006 0.015 0.044 0.106 0.215 0.358 0.496 0.631 0.974 1.238 0.894 0.489 0.305 0.157 0.079 0.038 0.033 0.021 0.014 0.008 0.006 0.001 0.000 0.000 0.000 0.000 0.000 0.000
0.000 0.000 0.000 0.000 0.000 0.000 0.000 0.000 0.000 0.000 0.000 0.002 0.005 0.024 0.064 0.117 0.218 0.401 0.744 1.047 1.292 0.946 0.590 0.369 0.200 0.110 0.058 0.037 0.028 0.022 0.006 0.004 0.007 0.000 0.000 0.000 0.000 0.000 0.000
0.000 0.000 0.000 0.000 0.000 0.000 0.000 0.000 0.000 0.000 0.000 0.004 0.004 0.011 0.023 0.044 0.105 0.282 0.584 0.922 1.131 1.006 0.719 0.415 0.246 0.150 0.079 0.040 0.040 0.027 0.009 0.004 0.007 0.001 0.000 0.000 0.000 0.000 0.000
0.000 0.000 0.000 0.000 0.000 0.000 0.000 0.000 0.000 0.000 0.000 0.001 0.003 0.005 0.008 0.018 0.059 0.183 0.460 0.763 0.979 0.995 0.700 0.473 0.285 0.185 0.101 0.053 0.063 0.034 0.013 0.006 0.003 0.005 0.000 0.000 0.000 0.000 0.000
0.000 0.000 0.000 0.000 0.000 0.000 0.000 0.000 0.000 0.000 0.000 0.000 0.003 0.005 0.003 0.004 0.026 0.088 0.275 0.610 0.875 0.961 0.713 0.532 0.332 0.229 0.133 0.080 0.057 0.031 0.017 0.010 0.004 0.005 0.001 0.000 0.000 0.000 0.000
0.000 0.000 0.000 0.000 0.000 0.000 0.000 0.000 0.000 0.000 0.000 0.000 0.002 0.002 0.001 0.001 0.012 0.041 0.167 0.449 0.898 0.797 0.732 0.583 0.385 0.267 0.159 0.098 0.054 0.032 0.023 0.016 0.007 0.003 0.006 0.001 0.000 0.000 0.000
0.000 0.000 0.000 0.000 0.000 0.000 0.000 0.000 0.000 0.000 0.000 0.000 0.000 0.002 0.001 0.001 0.003 0.022 0.075 0.262 0.646 0.784 0.765 0.638 0.434 0.304 0.199 0.123 0.060 0.031 0.022 0.018 0.011 0.004 0.003 0.003 0.000 0.000 0.000
0.000 0.000 0.000 0.000 0.000 0.000 0.000 0.000 0.000 0.000 0.000 0.000 0.000 0.000 0.001 0.001 0.001 0.005 0.033 0.144 0.483 0.787 0.803 0.644 0.458 0.374 0.271 0.160 0.070 0.031 0.021 0.019 0.013 0.005 0.002 0.002 0.002 0.000 0.000
0.000 0.000 0.000 0.000 0.000 0.000 0.000 0.000 0.000 0.000 0.000 0.000 0.000 0.000 0.000 0.002 0.001 0.002 0.008 0.045 0.312 0.864 0.839 0.636 0.516 0.434 0.340 0.203 0.096 0.038 0.022 0.023 0.016 0.006 0.002 0.002 0.002 0.001 0.000
0.000 0.000 0.000 0.000 0.000 0.000 0.000 0.000 0.000 0.000 0.000 0.000 0.000 0.000 0.000 0.000 0.001 0.001 0.002 0.013 0.153 0.718 0.790 0.674 0.596 0.464 0.396 0.250 0.136 0.057 0.031 0.033 0.022 0.010 0.003 0.001 0.002 0.002 0.000
0.000 0.000 0.000 0.000 0.000 0.000 0.000 0.000 0.000 0.000 0.000 0.000 0.000 0.000 0.000 0.000 0.001 0.000 0.001 0.006 0.082 0.474 0.580 0.584 0.688 0.567 0.409 0.277 0.177 0.090 0.054 0.034 0.027 0.014 0.004 0.002 0.001 0.001 0.002
0.000 0.000 0.000 0.000 0.000 0.000 0.000 0.000 0.000 0.000 0.000 0.000 0.000 0.000 0.000 0.000 0.000 0.001 0.001 0.003 0.025 0.288 0.436 0.554 0.603 0.545 0.435 0.299 0.214 0.110 0.059 0.038 0.030 0.018 0.007 0.003 0.001 0.001 0.001
0.000 0.000 0.000 0.000 0.000 0.000 0.000 0.000 0.000 0.000 0.000 0.000 0.000 0.000 0.000 0.000 0.000 0.002 0.001 0.002 0.010 0.120 0.251 0.412 0.542 0.545 0.460 0.367 0.249 0.140 0.075 0.046 0.039 0.026 0.014 0.004 0.002 0.001 0.001
0.000 0.000 0.000 0.000 0.000 0.000 0.000 0.000 0.000 0.000 0.000 0.000 0.000 0.000 0.000 0.000 0.000 0.000 0.001 0.001 0.005 0.060 0.122 0.256 0.481 0.524 0.520 0.405 0.283 0.168 0.106 0.063 0.049 0.041 0.019 0.006 0.003 0.002 0.001
0.000 0.000 0.000 0.000 0.000 0.000 0.000 0.000 0.000 0.000 0.000 0.000 0.000 0.000 0.000 0.000 0.000 0.000 0.001 0.001 0.002 0.026 0.063 0.139 0.390 0.524 0.485 0.390 0.309 0.216 0.151 0.093 0.077 0.072 0.029 0.011 0.005 0.003 0.001
0.000 0.000 0.000 0.000 0.000 0.000 0.000 0.000 0.000 0.000 0.000 0.000 0.000 0.000 0.000 0.000 0.000 0.000 0.001 0.001 0.001 0.010 0.028 0.063 0.288 0.481 0.491 0.389 0.332 0.265 0.193 0.159 0.140 0.090 0.047 0.022 0.008 0.004 0.001
0.000 0.000 0.000 0.000 0.000 0.000 0.000 0.000 0.000 0.000 0.000 0.000 0.000 0.000 0.000 0.000 0.000 0.000 0.001 0.001 0.000 0.006 0.011 0.031 0.205 0.514 0.451 0.387 0.326 0.278 0.227 0.199 0.171 0.113 0.075 0.040 0.014 0.005 0.001
0.000 0.000 0.000 0.000 0.000 0.000 0.000 0.000 0.000 0.000 0.000 0.000 0.000 0.000 0.000 0.000 0.000 0.000 0.000 0.001 0.013 0.002 0.005 0.028 0.159 0.372 0.370 0.341 0.318 0.285 0.248 0.209 0.210 0.161 0.117 0.055 0.035 0.009 0.001
0.000 0.000 0.000 0.000 0.000 0.000 0.000 0.000 0.000 0.000 0.000 0.000 0.000 0.000 0.000 0.000 0.000 0.000 0.000 0.001 0.002 0.001 0.002 0.039 0.076 0.240 0.281 0.311 0.315 0.301 0.265 0.215 0.269 0.192 0.134 0.114 0.072 0.011 0.002
0.000 0.000 0.000 0.000 0.000 0.000 0.000 0.000 0.000 0.000 0.000 0.000 0.000 0.000 0.000 0.000 0.000 0.000 0.000 0.000 0.002 0.001 0.002 0.049 0.142 0.111 0.192 0.260 0.299 0.294 0.289 0.272 0.287 0.206 0.193 0.156 0.060 0.017 0.003
0.000 0.000 0.000 0.000 0.000 0.000 0.000 0.000 0.000 0.000 0.000 0.000 0.000 0.000 0.000 0.000 0.000 0.000 0.000 0.000 0.001 0.002 0.001 0.013 0.075 0.039 0.119 0.181 0.229 0.268 0.311 0.328 0.242 0.228 0.227 0.181 0.110 0.038 0.007
0.000 0.000 0.000 0.000 0.000 0.000 0.000 0.000 0.000 0.000 0.000 0.000 0.000 0.000 0.000 0.000 0.000 0.000 0.000 0.000 0.000 0.001 0.002 0.014 0.011 0.016 0.066 0.129 0.167 0.241 0.291 0.288 0.242 0.219 0.209 0.205 0.170 0.053 0.010
0.000 0.000 0.000 0.000 0.000 0.000 0.000 0.000 0.000 0.000 0.000 0.000 0.000 0.000 0.000 0.000 0.000 0.000 0.000 0.000 0.000 0.001 0.002 0.007 0.003 0.008 0.043 0.101 0.140 0.199 0.277 0.303 0.239 0.186 0.187 0.186 0.193 0.078 0.013
0.000 0.000 0.000 0.000 0.000 0.000 0.000 0.000 0.000 0.000 0.000 0.000 0.000 0.000 0.000 0.000 0.000 0.000 0.000 0.000 0.000 0.000 0.011 0.001 0.001 0.003 0.028 0.094 0.109 0.149 0.222 0.275 0.252 0.161 0.139 0.149 0.143 0.087 0.019
0.000 0.000 0.000 0.000 0.000 0.000 0.000 0.000 0.000 0.000 0.000 0.000 0.000 0.000 0.000 0.000 0.000 0.000 0.000 0.000 0.000 0.000 0.001 0.000 0.001 0.001 0.016 0.084 0.095 0.111 0.173 0.233 0.252 0.167 0.112 0.100 0.103 0.096 0.030
0.000 0.000 0.000 0.000 0.000 0.000 0.000 0.000 0.000 0.000 0.000 0.000 0.000 0.000 0.000 0.000 0.000 0.000 0.000 0.000 0.000 0.000 0.001 0.000 0.001 0.001 0.007 0.074 0.091 0.101 0.155 0.212 0.239 0.160 0.103 0.085 0.080 0.081 0.033
0.000 0.000 0.000 0.000 0.000 0.000 0.000 0.000 0.000 0.000 0.000 0.000 0.000 0.000 0.000 0.000 0.000 0.000 0.000 0.000 0.000 0.000 0.000 0.001 0.001 0.001 0.002 0.046 0.082 0.088 0.143 0.204 0.231 0.153 0.096 0.075 0.066 0.057 0.020
0.000 0.000 0.000 0.000 0.000 0.000 0.000 0.000 0.000 0.000 0.000 0.000 0.000 0.000 0.000 0.000 0.000 0.000 0.000 0.000 0.000 0.000 0.000 0.000 0.000 0.001 0.002 0.028 0.047 0.070 0.119 0.197 0.232 0.147 0.090 0.067 0.053 0.046 0.014
0.000 0.000 0.000 0.000 0.000 0.000 0.000 0.000 0.000 0.000 0.000 0.000 0.000 0.000 0.000 0.000 0.000 0.000 0.000 0.000 0.000 0.000 0.000 0.000 0.001 0.001 0.005 0.013 0.022 0.045 0.096 0.185 0.236 0.144 0.088 0.064 0.046 0.038 0.014
0.000 0.000 0.000 0.000 0.000 0.000 0.000 0.000 0.000 0.000 0.000 0.000 0.000 0.000 0.000 0.000 0.000 0.000 0.000 0.000 0.000 0.000 0.000 0.000 0.000 0.001 0.002 0.004 0.009 0.027 0.066 0.157 0.239 0.155 0.082 0.061 0.044 0.036 0.015
0.000 0.000 0.000 0.000 0.000 0.000 0.000 0.000 0.000 0.000 0.000 0.000 0.000 0.000 0.000 0.000 0.000 0.000 0.000 0.000 0.000 0.000 0.000 0.000 0.000 0.001 0.001 0.002 0.003 0.013 0.036 0.119 0.224 0.168 0.079 0.058 0.047 0.039 0.013
0.000 0.000 0.000 0.000 0.000 0.000 0.000 0.000 0.000 0.000 0.000 0.000 0.000 0.000 0.000 0.000 0.000 0.000 0.000 0.000 0.000 0.000 0.000 0.000 0.000 0.001 0.001 0.001 0.001 0.007 0.016 0.077 0.190 0.172 0.077 0.051 0.052 0.039 0.010
0.000 0.000 0.000 0.000 0.000 0.000 0.000 0.000 0.000 0.000 0.000 0.000 0.000 0.000 0.000 0.000 0.000 0.000 0.000 0.000 0.000 0.000 0.000 0.000 0.000 0.000 0.001 0.001 0.001 0.004 0.008 0.051 0.157 0.174 0.077 0.047 0.049 0.030 0.007
0.000 0.000 0.000 0.000 0.000 0.000 0.000 0.000 0.000 0.000 0.000 0.000 0.000 0.000 0.000 0.000 0.000 0.000 0.000 0.000 0.000 0.000 0.000 0.000 0.000 0.000 0.001 0.001 0.001 0.004 0.007 0.030 0.119 0.166 0.085 0.047 0.048 0.026 0.006
0.000 0.000 0.000 0.000 0.000 0.000 0.000 0.000 0.000 0.000 0.000 0.000 0.000 0.000 0.000 0.000 0.000 0.000 0.000 0.000 0.000 0.000 0.000 0.000 0.000 0.000 0.000 0.001 0.000 0.003 0.006 0.017 0.092 0.161 0.102 0.058 0.050 0.025 0.006
0.000 0.000 0.000 0.000 0.000 0.000 0.000 0.000 0.000 0.000 0.000 0.000 0.000 0.000 0.000 0.000 0.000 0.000 0.000 0.000 0.000 0.000 0.000 0.000 0.000 0.000 0.000 0.001 0.000 0.003 0.006 0.013 0.065 0.143 0.115 0.071 0.054 0.026 0.007
0.000 0.000 0.000 0.000 0.000 0.000 0.000 0.000 0.000 0.000 0.000 0.000 0.000 0.000 0.000 0.000 0.000 0.000 0.000 0.000 0.000 0.000 0.000 0.000 0.000 0.000 0.000 0.000 0.000 0.003 0.005 0.013 0.052 0.113 0.121 0.080 0.052 0.025 0.007
0.000 0.000 0.000 0.000 0.000 0.000 0.000 0.000 0.000 0.000 0.000 0.000 0.000 0.000 0.000 0.000 0.000 0.000 0.000 0.000 0.000 0.000 0.000 0.000 0.000 0.000 0.000 0.000 0.001 0.003 0.005 0.013 0.043 0.091 0.115 0.085 0.056 0.023 0.006
0.000 0.000 0.000 0.000 0.000 0.000 0.000 0.000 0.000 0.000 0.000 0.000 0.000 0.000 0.000 0.000 0.000 0.000 0.000 0.000 0.000 0.000 0.000 0.000 0.000 0.000 0.000 0.000 0.001 0.002 0.004 0.011 0.037 0.069 0.097 0.095 0.069 0.022 0.006
0.000 0.000 0.000 0.000 0.000 0.000 0.000 0.000 0.000 0.000 0.000 0.000 0.000 0.000 0.000 0.000 0.000 0.000 0.000 0.000 0.000 0.000 0.000 0.000 0.000 0.000 0.000 0.000 0.000 0.002 0.004 0.012 0.031 0.051 0.078 0.100 0.084 0.030 0.013
0.000 0.000 0.000 0.000 0.000 0.000 0.000 0.000 0.000 0.000 0.000 0.000 0.000 0.000 0.000 0.000 0.000 0.000 0.000 0.000 0.000 0.000 0.000 0.000 0.000 0.000 0.000 0.000 0.001 0.002 0.004 0.012 0.027 0.044 0.060 0.088 0.114 0.044 0.016
0.000 0.000 0.000 0.000 0.000 0.000 0.000 0.000 0.000 0.000 0.000 0.000 0.000 0.000 0.000 0.000 0.000 0.000 0.000 0.000 0.000 0.000 0.000 0.000 0.000 0.000 0.000 0.000 0.000 0.002 0.005 0.012 0.025 0.038 0.045 0.086 0.160 0.044 0.014
0.000 0.000 0.000 0.000 0.000 0.000 0.000 0.000 0.000 0.000 0.000 0.000 0.000 0.000 0.000 0.000 0.000 0.000 0.000 0.000 0.000 0.000 0.000 0.000 0.000 0.000 0.000 0.000 0.001 0.002 0.005 0.013 0.023 0.033 0.033 0.062 0.194 0.044 0.018
0.000 0.000 0.000 0.000 0.000 0.000 0.000 0.000 0.000 0.000 0.000 0.000 0.000 0.000 0.000 0.000 0.000 0.000 0.000 0.000 0.000 0.000 0.000 0.000 0.000 0.000 0.000 0.000 0.001 0.001 0.005 0.012 0.018 0.021 0.024 0.038 0.199 0.038 0.008
0.000 0.000 0.000 0.000 0.000 0.000 0.000 0.000 0.000 0.000 0.000 0.000 0.000 0.000 0.000 0.000 0.000 0.000 0.000 0.000 0.000 0.000 0.000 0.000 0.000 0.000 0.000 0.000 0.000 0.001 0.004 0.010 0.014 0.015 0.016 0.037 0.103 0.013 0.003
0.000 0.000 0.000 0.000 0.000 0.000 0.000 0.000 0.000 0.000 0.000 0.000 0.000 0.000 0.000 0.000 0.000 0.000 0.000 0.000 0.000 0.000 0.000 0.000 0.000 0.000 0.000 0.000 0.000 0.001 0.002 0.006 0.007 0.010 0.011 0.027 0.041 0.006 0.002
