ncols        42
nrows        105
xllcorner    409617.8
yllcorner    6870829.1
cellsize     5.00
NODATA_value -9999
0.000 0.000 0.000 0.008 0.022 0.018 0.003 0.000 0.000 0.000 0.000 0.000 0.000 0.000 0.000 0.000 0.000 0.000 0.000 0.000 0.000 0.000 0.000 0.000 0.000 0.000 0.000 0.000 0.000 0.000 0.000 0.000 0.000 0.000 0.000 0.000 0.000 0.000 0.000 0.000 0.000 0.000
0.000 0.000 0.012 0.065 0.107 0.077 0.038 0.006 0.000 0.000 0.000 0.000 0.000 0.000 0.000 0.000 0.000 0.000 0.000 0.000 0.000 0.000 0.000 0.000 0.000 0.000 0.000 0.000 0.000 0.000 0.000 0.000 0.000 0.000 0.000 0.000 0.000 0.000 0.000 0.000 0.000 0.000
0.000 0.005 0.066 0.174 0.296 0.214 0.100 0.042 0.002 0.000 0.000 0.000 0.000 0.000 0.000 0.000 0.000 0.000 0.000 0.000 0.000 0.000 0.000 0.000 0.000 0.000 0.000 0.000 0.000 0.000 0.000 0.000 0.000 0.000 0.000 0.000 0.000 0.000 0.000 0.000 0.000 0.000
0.000 0.019 0.124 0.360 0.589 0.497 0.222 0.077 0.028 0.000 0.000 0.000 0.000 0.000 0.000 0.000 0.000 0.000 0.000 0.000 0.000 0.000 0.000 0.000 0.000 0.000 0.000 0.000 0.000 0.000 0.000 0.000 0.000 0.000 0.000 0.000 0.000 0.000 0.000 0.000 0.000 0.000
0.001 0.033 0.205 0.653 1.006 0.897 0.413 0.161 0.050 0.007 0.000 0.000 0.000 0.000 0.000 0.000 0.000 0.000 0.000 0.000 0.000 0.000 0.000 0.000 0.000 0.000 0.000 0.000 0.000 0.000 0.000 0.000 0.000 0.000 0.000 0.000 0.000 0.000 0.000 0.000 0.000 0.000
0.002 0.043 0.271 0.876 1.565 1.397 0.716 0.279 0.088 0.038 0.000 0.000 0.000 0.000 0.000 0.000 0.000 0.000 0.000 0.000 0.000 0.000 0.000 0.000 0.000 0.000 0.000 0.000 0.000 0.000 0.000 0.000 0.000 0.000 0.000 0.000 0.000 0.000 0.000 0.000 0.000 0.000
0.002 0.044 0.276 1.104 2.092 2.045 1.150 0.429 0.145 0.048 0.000 0.000 0.000 0.000 0.000 0.000 0.000 0.000 0.000 0.000 0.000 0.000 0.000 0.000 0.000 0.000 0.000 0.000 0.000 0.000 0.000 0.000 0.000 0.000 0.000 0.000 0.000 0.000 0.000 0.000 0.000 0.000
0.002 0.034 0.251 1.158 2.585 2.879 1.630 0.621 0.198 0.070 0.006 0.000 0.000 0.000 0.000 0.000 0.000 0.000 0.000 0.000 0.000 0.000 0.000 0.000 0.000 0.000 0.000 0.000 0.000 0.000 0.000 0.000 0.000 0.000 0.000 0.000 0.000 0.000 0.000 0.000 0.000 0.000
0.001 0.023 0.176 1.105 2.999 3.763 2.244 0.803 0.300 0.104 0.035 0.000 0.000 0.000 0.000 0.000 0.000 0.000 0.000 0.000 0.000 0.000 0.000 0.000 0.000 0.000 0.000 0.000 0.000 0.000 0.000 0.000 0.000 0.000 0.000 0.000 0.000 0.000 0.000 0.000 0.000 0.000
0.000 0.014 0.125 1.034 3.194 4.469 2.820 1.026 0.423 0.140 0.043 0.000 0.000 0.000 0.000 0.000 0.000 0.000 0.000 0.000 0.000 0.000 0.000 0.000 0.000 0.000 0.000 0.000 0.000 0.000 0.000 0.000 0.000 0.000 0.000 0.000 0.000 0.000 0.000 0.000 0.000 0.000
0.000 0.017 0.105 0.849 3.092 4.728 2.965 1.364 0.582 0.185 0.045 0.000 0.000 0.000 0.000 0.000 0.000 0.000 0.000 0.000 0.000 0.000 0.000 0.000 0.000 0.000 0.000 0.000 0.000 0.000 0.000 0.000 0.000 0.000 0.000 0.000 0.000 0.000 0.000 0.000 0.000 0.000
0.001 0.037 0.106 0.649 2.441 4.108 3.379 1.762 0.826 0.257 0.057 0.001 0.000 0.000 0.000 0.000 0.000 0.000 0.000 0.000 0.000 0.000 0.000 0.000 0.000 0.000 0.000 0.000 0.000 0.000 0.000 0.000 0.000 0.000 0.000 0.000 0.000 0.000 0.000 0.000 0.000 0.000
0.005 0.048 0.130 0.508 1.956 3.780 3.888 2.299 1.158 0.348 0.075 0.016 0.000 0.000 0.000 0.000 0.000 0.000 0.000 0.000 0.000 0.000 0.000 0.000 0.000 0.000 0.000 0.000 0.000 0.000 0.000 0.000 0.000 0.000 0.000 0.000 0.000 0.000 0.000 0.000 0.000 0.000
0.008 0.050 0.158 0.453 1.511 3.275 4.044 2.825 1.483 0.459 0.099 0.032 0.000 0.000 0.000 0.000 0.000 0.000 0.000 0.000 0.000 0.000 0.000 0.000 0.000 0.000 0.000 0.000 0.000 0.000 0.000 0.000 0.000 0.000 0.000 0.000 0.000 0.000 0.000 0.000 0.000 0.000
0.010 0.052 0.172 0.406 1.150 2.696 3.764 3.367 1.840 0.608 0.131 0.028 0.000 0.000 0.000 0.000 0.000 0.000 0.000 0.000 0.000 0.000 0.000 0.000 0.000 0.000 0.000 0.000 0.000 0.000 0.000 0.000 0.000 0.000 0.000 0.000 0.000 0.000 0.000 0.000 0.000 0.000
0.013 0.061 0.176 0.381 0.928 2.081 3.512 3.601 2.176 0.793 0.181 0.029 0.009 0.000 0.000 0.000 0.000 0.000 0.000 0.000 0.000 0.000 0.000 0.000 0.000 0.000 0.000 0.000 0.000 0.000 0.000 0.000 0.000 0.000 0.000 0.000 0.000 0.000 0.000 0.000 0.000 0.000
0.018 0.068 0.169 0.340 0.768 1.504 2.966 3.558 2.476 0.999 0.256 0.039 0.026 0.000 0.000 0.000 0.000 0.000 0.000 0.000 0.000 0.000 0.000 0.000 0.000 0.000 0.000 0.000 0.000 0.000 0.000 0.000 0.000 0.000 0.000 0.000 0.000 0.000 0.000 0.000 0.000 0.000
0.020 0.071 0.160 0.292 0.613 1.049 2.223 3.588 2.651 1.225 0.326 0.053 0.026 0.002 0.000 0.000 0.000 0.000 0.000 0.000 0.000 0.000 0.000 0.000 0.000 0.000 0.000 0.000 0.000 0.000 0.000 0.000 0.000 0.000 0.000 0.000 0.000 0.000 0.000 0.000 0.000 0.000
0.021 0.073 0.146 0.246 0.433 0.711 1.416 2.730 2.785 1.485 0.441 0.082 0.029 0.024 0.000 0.000 0.000 0.000 0.000 0.000 0.000 0.000 0.000 0.000 0.000 0.000 0.000 0.000 0.000 0.000 0.000 0.000 0.000 0.000 0.000 0.000 0.000 0.000 0.000 0.000 0.000 0.000
0.021 0.070 0.139 0.223 0.389 0.543 1.012 2.304 3.070 1.818 0.610 0.123 0.038 0.032 0.006 0.000 0.000 0.000 0.000 0.000 0.000 0.000 0.000 0.000 0.000 0.000 0.000 0.000 0.000 0.000 0.000 0.000 0.000 0.000 0.000 0.000 0.000 0.000 0.000 0.000 0.000 0.000
0.021 0.067 0.122 0.179 0.307 0.427 0.650 1.871 3.157 1.954 0.858 0.179 0.051 0.031 0.030 0.006 0.000 0.000 0.000 0.000 0.000 0.000 0.000 0.000 0.000 0.000 0.000 0.000 0.000 0.000 0.000 0.000 0.000 0.000 0.000 0.000 0.000 0.000 0.000 0.000 0.000 0.000
0.023 0.059 0.101 0.150 0.265 0.373 0.519 1.475 2.627 2.262 1.088 0.258 0.069 0.038 0.037 0.034 0.015 0.002 0.000 0.000 0.000 0.000 0.000 0.000 0.000 0.000 0.000 0.000 0.000 0.000 0.000 0.000 0.000 0.000 0.000 0.000 0.000 0.000 0.000 0.000 0.000 0.000
0.024 0.054 0.087 0.134 0.226 0.318 0.449 1.176 2.403 2.378 1.296 0.355 0.096 0.047 0.040 0.045 0.037 0.023 0.001 0.000 0.000 0.000 0.000 0.000 0.000 0.000 0.000 0.000 0.000 0.000 0.000 0.000 0.000 0.000 0.000 0.000 0.000 0.000 0.000 0.000 0.000 0.000
0.021 0.046 0.073 0.104 0.205 0.297 0.405 0.894 1.923 2.294 1.474 0.462 0.133 0.059 0.043 0.047 0.043 0.035 0.016 0.000 0.000 0.000 0.000 0.000 0.000 0.000 0.000 0.000 0.000 0.000 0.000 0.000 0.000 0.000 0.000 0.000 0.000 0.000 0.000 0.000 0.000 0.000
0.018 0.037 0.061 0.091 0.167 0.259 0.381 0.761 1.565 2.180 1.520 0.584 0.182 0.074 0.049 0.044 0.043 0.047 0.031 0.005 0.000 0.000 0.000 0.000 0.000 0.000 0.000 0.000 0.000 0.000 0.000 0.000 0.000 0.000 0.000 0.000 0.000 0.000 0.000 0.000 0.000 0.000
0.015 0.034 0.051 0.072 0.136 0.225 0.328 0.624 1.254 1.917 1.632 0.675 0.231 0.094 0.057 0.045 0.052 0.054 0.037 0.025 0.001 0.000 0.000 0.000 0.000 0.000 0.000 0.000 0.000 0.000 0.000 0.000 0.000 0.000 0.000 0.000 0.000 0.000 0.000 0.000 0.000 0.000
0.012 0.028 0.046 0.062 0.105 0.181 0.284 0.519 1.104 1.703 1.654 0.759 0.267 0.114 0.064 0.049 0.058 0.065 0.054 0.029 0.019 0.000 0.000 0.000 0.000 0.000 0.000 0.000 0.000 0.000 0.000 0.000 0.000 0.000 0.000 0.000 0.000 0.000 0.000 0.000 0.000 0.000
0.008 0.024 0.044 0.057 0.086 0.146 0.260 0.441 0.940 1.517 1.470 0.754 0.290 0.130 0.076 0.053 0.053 0.070 0.063 0.036 0.028 0.006 0.000 0.000 0.000 0.000 0.000 0.000 0.000 0.000 0.000 0.000 0.000 0.000 0.000 0.000 0.000 0.000 0.000 0.000 0.000 0.000
0.005 0.020 0.036 0.049 0.068 0.118 0.219 0.384 0.773 1.399 1.456 0.771 0.323 0.150 0.082 0.059 0.055 0.079 0.068 0.043 0.029 0.023 0.000 0.000 0.000 0.000 0.000 0.000 0.000 0.000 0.000 0.000 0.000 0.000 0.000 0.000 0.000 0.000 0.000 0.000 0.000 0.000
0.005 0.017 0.028 0.041 0.059 0.102 0.179 0.329 0.634 1.164 1.406 0.794 0.324 0.163 0.094 0.069 0.057 0.069 0.071 0.049 0.033 0.023 0.004 0.000 0.000 0.000 0.000 0.000 0.000 0.000 0.000 0.000 0.000 0.000 0.000 0.000 0.000 0.000 0.000 0.000 0.000 0.000
0.004 0.016 0.023 0.036 0.048 0.080 0.143 0.271 0.552 0.961 1.293 0.863 0.409 0.196 0.105 0.070 0.061 0.065 0.067 0.057 0.038 0.024 0.016 0.000 0.000 0.000 0.000 0.000 0.000 0.000 0.000 0.000 0.000 0.000 0.000 0.000 0.000 0.000 0.000 0.000 0.000 0.000
0.003 0.013 0.020 0.033 0.045 0.064 0.118 0.222 0.447 0.801 1.227 0.890 0.427 0.201 0.109 0.069 0.059 0.060 0.064 0.056 0.047 0.026 0.014 0.002 0.000 0.000 0.000 0.000 0.000 0.000 0.000 0.000 0.000 0.000 0.000 0.000 0.000 0.000 0.000 0.000 0.000 0.000
0.002 0.012 0.018 0.027 0.038 0.053 0.089 0.180 0.384 0.709 1.192 0.889 0.501 0.243 0.111 0.073 0.055 0.054 0.059 0.060 0.051 0.031 0.015 0.013 0.000 0.000 0.000 0.000 0.000 0.000 0.000 0.000 0.000 0.000 0.000 0.000 0.000 0.000 0.000 0.000 0.000 0.000
0.001 0.008 0.016 0.022 0.030 0.041 0.070 0.151 0.324 0.593 0.978 0.903 0.576 0.276 0.142 0.077 0.049 0.049 0.058 0.061 0.053 0.040 0.024 0.014 0.001 0.000 0.000 0.000 0.000 0.000 0.000 0.000 0.000 0.000 0.000 0.000 0.000 0.000 0.000 0.000 0.000 0.000
0.000 0.006 0.015 0.018 0.025 0.037 0.055 0.121 0.247 0.414 0.849 0.917 0.579 0.340 0.158 0.082 0.063 0.054 0.058 0.057 0.052 0.053 0.033 0.012 0.012 0.000 0.000 0.000 0.000 0.000 0.000 0.000 0.000 0.000 0.000 0.000 0.000 0.000 0.000 0.000 0.000 0.000
0.000 0.004 0.014 0.015 0.016 0.027 0.049 0.089 0.174 0.384 0.782 0.814 0.665 0.388 0.172 0.104 0.074 0.055 0.050 0.049 0.061 0.060 0.036 0.016 0.015 0.000 0.000 0.000 0.000 0.000 0.000 0.000 0.000 0.000 0.000 0.000 0.000 0.000 0.000 0.000 0.000 0.000
0.000 0.004 0.011 0.012 0.010 0.020 0.027 0.059 0.155 0.338 0.629 0.782 0.689 0.392 0.192 0.108 0.072 0.052 0.044 0.050 0.059 0.054 0.045 0.026 0.014 0.007 0.000 0.000 0.000 0.000 0.000 0.000 0.000 0.000 0.000 0.000 0.000 0.000 0.000 0.000 0.000 0.000
0.000 0.001 0.010 0.011 0.008 0.008 0.019 0.075 0.138 0.284 0.558 0.734 0.652 0.435 0.223 0.123 0.075 0.050 0.047 0.048 0.050 0.055 0.052 0.035 0.019 0.016 0.000 0.000 0.000 0.000 0.000 0.000 0.000 0.000 0.000 0.000 0.000 0.000 0.000 0.000 0.000 0.000
0.000 0.000 0.008 0.011 0.005 0.003 0.028 0.063 0.118 0.241 0.453 0.625 0.631 0.455 0.244 0.139 0.075 0.055 0.046 0.043 0.048 0.054 0.057 0.042 0.023 0.012 0.000 0.000 0.000 0.000 0.000 0.000 0.000 0.000 0.000 0.000 0.000 0.000 0.000 0.000 0.000 0.000
0.000 0.000 0.004 0.009 0.005 0.003 0.024 0.054 0.087 0.204 0.375 0.558 0.610 0.498 0.300 0.155 0.089 0.069 0.046 0.048 0.055 0.051 0.056 0.044 0.026 0.014 0.010 0.000 0.000 0.000 0.000 0.000 0.000 0.000 0.000 0.000 0.000 0.000 0.000 0.000 0.000 0.000
0.000 0.000 0.000 0.008 0.006 0.005 0.023 0.035 0.061 0.150 0.297 0.458 0.573 0.546 0.336 0.173 0.106 0.069 0.049 0.051 0.050 0.048 0.051 0.047 0.034 0.020 0.017 0.000 0.000 0.000 0.000 0.000 0.000 0.000 0.000 0.000 0.000 0.000 0.000 0.000 0.000 0.000
0.000 0.000 0.000 0.006 0.006 0.008 0.017 0.023 0.043 0.108 0.248 0.432 0.549 0.555 0.332 0.184 0.130 0.083 0.062 0.058 0.044 0.038 0.045 0.051 0.043 0.028 0.015 0.000 0.000 0.000 0.000 0.000 0.000 0.000 0.000 0.000 0.000 0.000 0.000 0.000 0.000 0.000
0.000 0.000 0.000 0.004 0.008 0.007 0.011 0.017 0.032 0.076 0.200 0.383 0.504 0.534 0.341 0.221 0.153 0.095 0.066 0.053 0.039 0.033 0.041 0.049 0.048 0.033 0.018 0.000 0.000 0.000 0.000 0.000 0.000 0.000 0.000 0.000 0.000 0.000 0.000 0.000 0.000 0.000
0.000 0.000 0.000 0.001 0.006 0.006 0.008 0.011 0.021 0.059 0.162 0.300 0.467 0.490 0.377 0.239 0.174 0.107 0.076 0.060 0.040 0.033 0.039 0.045 0.054 0.049 0.030 0.011 0.000 0.000 0.000 0.000 0.000 0.000 0.000 0.000 0.000 0.000 0.000 0.000 0.000 0.000
0.000 0.000 0.000 0.000 0.003 0.005 0.007 0.008 0.018 0.042 0.116 0.230 0.370 0.473 0.381 0.281 0.196 0.134 0.097 0.067 0.043 0.032 0.034 0.040 0.059 0.073 0.036 0.034 0.000 0.000 0.000 0.000 0.000 0.000 0.000 0.000 0.000 0.000 0.000 0.000 0.000 0.000
0.000 0.000 0.000 0.000 0.001 0.004 0.006 0.009 0.014 0.030 0.077 0.179 0.320 0.423 0.417 0.316 0.228 0.188 0.128 0.080 0.044 0.031 0.029 0.038 0.057 0.083 0.042 0.035 0.000 0.000 0.000 0.000 0.000 0.000 0.000 0.000 0.000 0.000 0.000 0.000 0.000 0.000
0.000 0.000 0.000 0.000 0.000 0.004 0.006 0.007 0.010 0.020 0.059 0.146 0.269 0.389 0.431 0.368 0.273 0.236 0.150 0.079 0.048 0.029 0.027 0.036 0.050 0.090 0.058 0.030 0.000 0.000 0.000 0.000 0.000 0.000 0.000 0.000 0.000 0.000 0.000 0.000 0.000 0.000
0.000 0.000 0.000 0.000 0.000 0.002 0.006 0.007 0.009 0.015 0.040 0.099 0.198 0.350 0.431 0.372 0.299 0.256 0.164 0.095 0.054 0.030 0.027 0.028 0.038 0.102 0.066 0.028 0.000 0.000 0.000 0.000 0.000 0.000 0.000 0.000 0.000 0.000 0.000 0.000 0.000 0.000
0.000 0.000 0.000 0.000 0.000 0.001 0.005 0.006 0.007 0.013 0.033 0.070 0.157 0.316 0.421 0.416 0.335 0.271 0.181 0.113 0.058 0.035 0.025 0.023 0.034 0.098 0.071 0.029 0.012 0.000 0.000 0.000 0.000 0.000 0.000 0.000 0.000 0.000 0.000 0.000 0.000 0.000
0.000 0.000 0.000 0.000 0.000 0.000 0.004 0.004 0.006 0.013 0.023 0.053 0.118 0.237 0.364 0.427 0.354 0.275 0.231 0.130 0.067 0.038 0.028 0.028 0.037 0.094 0.075 0.032 0.027 0.000 0.000 0.000 0.000 0.000 0.000 0.000 0.000 0.000 0.000 0.000 0.000 0.000
0.000 0.000 0.000 0.000 0.000 0.000 0.003 0.003 0.004 0.012 0.022 0.040 0.082 0.190 0.324 0.406 0.353 0.283 0.271 0.164 0.084 0.041 0.037 0.033 0.042 0.094 0.075 0.033 0.026 0.001 0.000 0.000 0.000 0.000 0.000 0.000 0.000 0.000 0.000 0.000 0.000 0.000
0.000 0.000 0.000 0.000 0.000 0.000 0.002 0.003 0.004 0.011 0.022 0.029 0.055 0.147 0.256 0.350 0.353 0.305 0.275 0.187 0.101 0.053 0.045 0.038 0.036 0.086 0.077 0.033 0.020 0.013 0.000 0.000 0.000 0.000 0.000 0.000 0.000 0.000 0.000 0.000 0.000 0.000
0.000 0.000 0.000 0.000 0.000 0.000 0.001 0.002 0.003 0.009 0.015 0.021 0.043 0.105 0.189 0.280 0.337 0.325 0.270 0.239 0.141 0.069 0.048 0.036 0.030 0.080 0.080 0.033 0.017 0.021 0.001 0.000 0.000 0.000 0.000 0.000 0.000 0.000 0.000 0.000 0.000 0.000
0.000 0.000 0.000 0.000 0.000 0.000 0.000 0.002 0.002 0.008 0.010 0.013 0.027 0.077 0.140 0.229 0.325 0.295 0.285 0.269 0.184 0.089 0.053 0.036 0.031 0.075 0.082 0.037 0.015 0.015 0.009 0.000 0.000 0.000 0.000 0.000 0.000 0.000 0.000 0.000 0.000 0.000
0.000 0.000 0.000 0.000 0.000 0.000 0.000 0.001 0.002 0.006 0.008 0.009 0.018 0.047 0.104 0.223 0.309 0.304 0.318 0.319 0.240 0.110 0.060 0.041 0.037 0.069 0.085 0.040 0.013 0.012 0.014 0.001 0.000 0.000 0.000 0.000 0.000 0.000 0.000 0.000 0.000 0.000
0.000 0.000 0.000 0.000 0.000 0.000 0.000 0.000 0.002 0.005 0.005 0.005 0.011 0.037 0.077 0.191 0.280 0.306 0.346 0.371 0.262 0.131 0.067 0.045 0.036 0.073 0.092 0.042 0.011 0.010 0.010 0.008 0.000 0.000 0.000 0.000 0.000 0.000 0.000 0.000 0.000 0.000
0.000 0.000 0.000 0.000 0.000 0.000 0.000 0.000 0.002 0.003 0.002 0.002 0.007 0.023 0.055 0.212 0.257 0.320 0.357 0.394 0.274 0.151 0.086 0.054 0.041 0.072 0.089 0.045 0.012 0.009 0.009 0.011 0.003 0.000 0.000 0.000 0.000 0.000 0.000 0.000 0.000 0.000
0.000 0.000 0.000 0.000 0.000 0.000 0.000 0.000 0.003 0.002 0.001 0.001 0.003 0.016 0.045 0.164 0.219 0.269 0.328 0.355 0.299 0.194 0.131 0.063 0.053 0.066 0.087 0.052 0.013 0.007 0.007 0.008 0.008 0.000 0.000 0.000 0.000 0.000 0.000 0.000 0.000 0.000
0.000 0.000 0.000 0.000 0.000 0.000 0.000 0.000 0.001 0.002 0.001 0.001 0.002 0.011 0.041 0.196 0.191 0.207 0.266 0.325 0.345 0.243 0.147 0.095 0.099 0.075 0.081 0.056 0.012 0.005 0.006 0.006 0.006 0.006 0.000 0.000 0.000 0.000 0.000 0.000 0.000 0.000
0.000 0.000 0.000 0.000 0.000 0.000 0.000 0.000 0.000 0.001 0.001 0.001 0.001 0.009 0.039 0.126 0.138 0.156 0.218 0.318 0.382 0.268 0.170 0.137 0.136 0.099 0.078 0.057 0.012 0.005 0.004 0.004 0.006 0.015 0.000 0.000 0.000 0.000 0.000 0.000 0.000 0.000
0.000 0.000 0.000 0.000 0.000 0.000 0.000 0.000 0.000 0.000 0.001 0.001 0.001 0.006 0.049 0.095 0.128 0.133 0.173 0.298 0.397 0.300 0.184 0.149 0.146 0.107 0.089 0.060 0.015 0.005 0.003 0.003 0.004 0.009 0.005 0.000 0.000 0.000 0.000 0.000 0.000 0.000
0.000 0.000 0.000 0.000 0.000 0.000 0.000 0.000 0.000 0.000 0.000 0.001 0.001 0.002 0.020 0.087 0.127 0.125 0.167 0.260 0.340 0.263 0.178 0.135 0.138 0.125 0.101 0.072 0.020 0.006 0.003 0.002 0.003 0.006 0.018 0.001 0.000 0.000 0.000 0.000 0.000 0.000
0.000 0.000 0.000 0.000 0.000 0.000 0.000 0.000 0.000 0.000 0.000 0.001 0.001 0.001 0.005 0.066 0.120 0.121 0.142 0.219 0.266 0.246 0.180 0.156 0.171 0.151 0.125 0.083 0.026 0.007 0.003 0.002 0.002 0.005 0.014 0.002 0.000 0.000 0.000 0.000 0.000 0.000
0.000 0.000 0.000 0.000 0.000 0.000 0.000 0.000 0.000 0.000 0.000 0.000 0.001 0.001 0.001 0.074 0.102 0.112 0.136 0.193 0.256 0.235 0.196 0.222 0.223 0.157 0.150 0.117 0.041 0.010 0.003 0.002 0.002 0.003 0.006 0.004 0.000 0.000 0.000 0.000 0.000 0.000
0.000 0.000 0.000 0.000 0.000 0.000 0.000 0.000 0.000 0.000 0.000 0.000 0.000 0.002 0.000 0.022 0.063 0.083 0.124 0.187 0.227 0.221 0.237 0.324 0.285 0.159 0.535 0.211 0.062 0.018 0.005 0.002 0.002 0.003 0.005 0.006 0.000 0.000 0.000 0.000 0.000 0.000
0.000 0.000 0.000 0.000 0.000 0.000 0.000 0.000 0.000 0.000 0.000 0.000 0.000 0.001 0.000 0.006 0.028 0.048 0.104 0.183 0.210 0.189 0.171 0.294 0.204 1.020 0.489 0.234 0.089 0.036 0.010 0.003 0.014 0.003 0.008 0.005 0.000 0.000 0.000 0.000 0.000 0.000
0.000 0.000 0.000 0.000 0.000 0.000 0.000 0.000 0.000 0.000 0.000 0.000 0.000 0.000 0.000 0.002 0.007 0.024 0.081 0.154 0.199 0.200 0.193 0.327 1.520 1.267 0.343 0.283 0.121 0.049 0.016 0.040 0.019 0.015 0.006 0.003 0.003 0.000 0.000 0.000 0.000 0.000
0.000 0.000 0.000 0.000 0.000 0.000 0.000 0.000 0.000 0.000 0.000 0.000 0.000 0.000 0.000 0.001 0.001 0.010 0.055 0.075 0.111 0.184 0.403 0.930 1.963 0.974 0.665 0.364 0.157 0.078 0.046 0.032 0.025 0.030 0.005 0.003 0.006 0.000 0.000 0.000 0.000 0.000
0.000 0.000 0.000 0.000 0.000 0.000 0.000 0.000 0.000 0.000 0.000 0.000 0.000 0.000 0.000 0.002 0.001 0.005 0.012 0.023 0.051 0.146 0.359 0.928 1.262 1.125 0.901 0.338 0.188 0.122 0.060 0.019 0.041 0.037 0.007 0.003 0.004 0.002 0.000 0.000 0.000 0.000
0.000 0.000 0.000 0.000 0.000 0.000 0.000 0.000 0.000 0.000 0.000 0.000 0.000 0.000 0.000 0.001 0.001 0.002 0.003 0.007 0.028 0.103 0.284 0.625 0.606 1.158 0.554 0.365 0.199 0.144 0.068 0.031 0.098 0.062 0.010 0.004 0.002 0.004 0.000 0.000 0.000 0.000
0.000 0.000 0.000 0.000 0.000 0.000 0.000 0.000 0.000 0.000 0.000 0.000 0.000 0.000 0.000 0.000 0.002 0.002 0.001 0.001 0.008 0.041 0.152 0.386 0.700 0.865 0.472 0.390 0.224 0.186 0.095 0.090 0.115 0.032 0.013 0.008 0.003 0.002 0.002 0.000 0.000 0.000
0.000 0.000 0.000 0.000 0.000 0.000 0.000 0.000 0.000 0.000 0.000 0.000 0.000 0.000 0.000 0.000 0.002 0.001 0.000 0.000 0.003 0.013 0.093 0.234 1.028 0.431 0.448 0.427 0.261 0.181 0.103 0.097 0.074 0.027 0.018 0.013 0.005 0.002 0.005 0.002 0.000 0.000
0.000 0.000 0.000 0.000 0.000 0.000 0.000 0.000 0.000 0.000 0.000 0.000 0.000 0.000 0.000 0.000 0.000 0.001 0.000 0.000 0.001 0.006 0.034 0.125 0.362 0.355 0.435 0.522 0.268 0.172 0.120 0.124 0.063 0.022 0.016 0.013 0.008 0.003 0.002 0.002 0.001 0.000
0.000 0.000 0.000 0.000 0.000 0.000 0.000 0.000 0.000 0.000 0.000 0.000 0.000 0.000 0.000 0.000 0.000 0.000 0.001 0.000 0.000 0.001 0.010 0.068 0.188 0.270 0.564 0.441 0.242 0.241 0.230 0.165 0.058 0.019 0.013 0.012 0.010 0.003 0.001 0.001 0.001 0.000
0.000 0.000 0.000 0.000 0.000 0.000 0.000 0.000 0.000 0.000 0.000 0.000 0.000 0.000 0.000 0.000 0.000 0.000 0.000 0.001 0.000 0.000 0.001 0.015 0.056 0.947 1.065 0.455 0.305 0.259 0.327 0.201 0.073 0.020 0.011 0.015 0.011 0.004 0.001 0.001 0.001 0.002
0.000 0.000 0.000 0.000 0.000 0.000 0.000 0.000 0.000 0.000 0.000 0.000 0.000 0.000 0.000 0.000 0.000 0.000 0.000 0.000 0.000 0.000 0.000 0.003 0.024 0.703 1.275 0.500 0.352 0.338 0.493 0.251 0.110 0.034 0.016 0.034 0.017 0.006 0.002 0.001 0.001 0.001
0.000 0.000 0.000 0.000 0.000 0.000 0.000 0.000 0.000 0.000 0.000 0.000 0.000 0.000 0.000 0.000 0.000 0.000 0.000 0.000 0.001 0.000 0.000 0.002 0.057 0.464 0.837 0.365 0.922 0.706 0.424 0.231 0.152 0.063 0.042 0.023 0.020 0.008 0.002 0.001 0.001 0.001
0.000 0.000 0.000 0.000 0.000 0.000 0.000 0.000 0.000 0.000 0.000 0.000 0.000 0.000 0.000 0.000 0.000 0.000 0.000 0.000 0.000 0.000 0.000 0.001 0.010 0.294 0.616 0.756 0.558 0.526 0.354 0.225 0.180 0.069 0.034 0.020 0.018 0.010 0.004 0.001 0.001 0.000
0.000 0.000 0.000 0.000 0.000 0.000 0.000 0.000 0.000 0.000 0.000 0.000 0.000 0.000 0.000 0.000 0.000 0.000 0.000 0.000 0.000 0.002 0.000 0.001 0.003 0.066 0.237 0.362 0.477 0.440 0.365 0.397 0.203 0.080 0.037 0.021 0.022 0.015 0.008 0.002 0.001 0.000
0.000 0.000 0.000 0.000 0.000 0.000 0.000 0.000 0.000 0.000 0.000 0.000 0.000 0.000 0.000 0.000 0.000 0.000 0.000 0.000 0.000 0.000 0.000 0.001 0.002 0.045 0.091 0.175 0.401 0.453 0.641 0.419 0.209 0.089 0.047 0.025 0.020 0.025 0.010 0.003 0.001 0.000
0.000 0.000 0.000 0.000 0.000 0.000 0.000 0.000 0.000 0.000 0.000 0.000 0.000 0.000 0.000 0.000 0.000 0.000 0.000 0.000 0.000 0.000 0.001 0.001 0.001 0.011 0.042 0.070 0.285 0.444 0.502 0.342 0.220 0.126 0.069 0.031 0.042 0.095 0.015 0.005 0.002 0.001
0.000 0.000 0.000 0.000 0.000 0.000 0.000 0.000 0.000 0.000 0.000 0.000 0.000 0.000 0.000 0.000 0.000 0.000 0.000 0.000 0.000 0.000 0.001 0.000 0.000 0.004 0.011 0.025 0.133 0.354 0.694 0.374 0.252 0.171 0.096 0.071 0.152 0.100 0.048 0.009 0.003 0.001
0.000 0.000 0.000 0.000 0.000 0.000 0.000 0.000 0.000 0.000 0.000 0.000 0.000 0.000 0.000 0.000 0.000 0.000 0.000 0.000 0.000 0.000 0.001 0.001 0.000 0.003 0.004 0.008 0.057 1.014 0.718 0.371 0.239 0.176 0.127 0.096 0.154 0.096 0.076 0.040 0.005 0.002
0.000 0.000 0.000 0.000 0.000 0.000 0.000 0.000 0.000 0.000 0.000 0.000 0.000 0.000 0.000 0.000 0.000 0.000 0.000 0.000 0.000 0.000 0.000 0.001 0.014 0.001 0.002 0.029 0.146 0.819 0.508 0.305 0.233 0.181 0.137 0.072 0.158 0.168 0.132 0.046 0.038 0.003
0.000 0.000 0.000 0.000 0.000 0.000 0.000 0.000 0.000 0.000 0.000 0.000 0.000 0.000 0.000 0.000 0.000 0.000 0.000 0.000 0.000 0.000 0.000 0.001 0.002 0.001 0.001 0.042 0.077 0.597 0.336 0.294 0.251 0.199 0.140 0.069 0.308 0.215 0.120 0.127 0.088 0.003
0.000 0.000 0.000 0.000 0.000 0.000 0.000 0.000 0.000 0.000 0.000 0.000 0.000 0.000 0.000 0.000 0.000 0.000 0.000 0.000 0.000 0.000 0.000 0.000 0.001 0.001 0.001 0.049 0.199 0.132 0.205 0.250 0.251 0.203 0.171 0.219 0.448 0.171 0.217 0.171 0.061 0.004
0.000 0.000 0.000 0.000 0.000 0.000 0.000 0.000 0.000 0.000 0.000 0.000 0.000 0.000 0.000 0.000 0.000 0.000 0.000 0.000 0.000 0.000 0.000 0.000 0.001 0.001 0.001 0.013 0.099 0.032 0.108 0.161 0.181 0.194 0.226 0.333 0.164 0.257 0.265 0.198 0.115 0.035
0.000 0.000 0.000 0.000 0.000 0.000 0.000 0.000 0.000 0.000 0.000 0.000 0.000 0.000 0.000 0.000 0.000 0.000 0.000 0.000 0.000 0.000 0.000 0.000 0.000 0.001 0.001 0.017 0.006 0.010 0.052 0.110 0.134 0.188 0.219 0.214 0.176 0.221 0.240 0.226 0.174 0.053
0.000 0.000 0.000 0.000 0.000 0.000 0.000 0.000 0.000 0.000 0.000 0.000 0.000 0.000 0.000 0.000 0.000 0.000 0.000 0.000 0.000 0.000 0.000 0.000 0.000 0.000 0.002 0.005 0.002 0.005 0.031 0.089 0.119 0.158 0.220 0.230 0.170 0.127 0.176 0.185 0.258 0.080
0.000 0.000 0.000 0.000 0.000 0.000 0.000 0.000 0.000 0.000 0.000 0.000 0.000 0.000 0.000 0.000 0.000 0.000 0.000 0.000 0.000 0.000 0.000 0.000 0.000 0.000 0.011 0.001 0.000 0.001 0.017 0.088 0.093 0.109 0.158 0.192 0.174 0.100 0.075 0.128 0.130 0.082
0.000 0.000 0.000 0.000 0.000 0.000 0.000 0.000 0.000 0.000 0.000 0.000 0.000 0.000 0.000 0.000 0.000 0.000 0.000 0.000 0.000 0.000 0.000 0.000 0.000 0.000 0.001 0.000 0.000 0.001 0.008 0.086 0.088 0.079 0.116 0.152 0.169 0.104 0.049 0.044 0.042 0.104
0.000 0.000 0.000 0.000 0.000 0.000 0.000 0.000 0.000 0.000 0.000 0.000 0.000 0.000 0.000 0.000 0.000 0.000 0.000 0.000 0.000 0.000 0.000 0.000 0.000 0.000 0.000 0.000 0.000 0.001 0.003 0.082 0.104 0.078 0.109 0.138 0.157 0.089 0.046 0.038 0.051 0.090
0.000 0.000 0.000 0.000 0.000 0.000 0.000 0.000 0.000 0.000 0.000 0.000 0.000 0.000 0.000 0.000 0.000 0.000 0.000 0.000 0.000 0.000 0.000 0.000 0.000 0.000 0.000 0.001 0.000 0.000 0.001 0.046 0.104 0.074 0.107 0.138 0.155 0.085 0.045 0.037 0.050 0.073
0.000 0.000 0.000 0.000 0.000 0.000 0.000 0.000 0.000 0.000 0.000 0.000 0.000 0.000 0.000 0.000 0.000 0.000 0.000 0.000 0.000 0.000 0.000 0.000 0.000 0.000 0.000 0.000 0.000 0.000 0.001 0.028 0.049 0.060 0.091 0.142 0.163 0.083 0.045 0.036 0.038 0.036
0.000 0.000 0.000 0.000 0.000 0.000 0.000 0.000 0.000 0.000 0.000 0.000 0.000 0.000 0.000 0.000 0.000 0.000 0.000 0.000 0.000 0.000 0.000 0.000 0.000 0.000 0.000 0.000 0.001 0.000 0.004 0.011 0.020 0.039 0.077 0.139 0.171 0.086 0.048 0.038 0.030 0.019
0.000 0.000 0.000 0.000 0.000 0.000 0.000 0.000 0.000 0.000 0.000 0.000 0.000 0.000 0.000 0.000 0.000 0.000 0.000 0.000 0.000 0.000 0.000 0.000 0.000 0.000 0.000 0.000 0.000 0.000 0.001 0.004 0.007 0.022 0.053 0.120 0.178 0.100 0.047 0.041 0.028 0.016
0.000 0.000 0.000 0.000 0.000 0.000 0.000 0.000 0.000 0.000 0.000 0.000 0.000 0.000 0.000 0.000 0.000 0.000 0.000 0.000 0.000 0.000 0.000 0.000 0.000 0.000 0.000 0.000 0.000 0.000 0.001 0.001 0.002 0.009 0.027 0.087 0.162 0.112 0.048 0.041 0.033 0.038
0.000 0.000 0.000 0.000 0.000 0.000 0.000 0.000 0.000 0.000 0.000 0.000 0.000 0.000 0.000 0.000 0.000 0.000 0.000 0.000 0.000 0.000 0.000 0.000 0.000 0.000 0.000 0.000 0.000 0.001 0.001 0.001 0.001 0.004 0.010 0.053 0.133 0.114 0.046 0.036 0.041 0.037
0.000 0.000 0.000 0.000 0.000 0.000 0.000 0.000 0.000 0.000 0.000 0.000 0.000 0.000 0.000 0.000 0.000 0.000 0.000 0.000 0.000 0.000 0.000 0.000 0.000 0.000 0.000 0.000 0.000 0.000 0.001 0.000 0.000 0.002 0.004 0.036 0.106 0.113 0.044 0.028 0.035 0.014
0.000 0.000 0.000 0.000 0.000 0.000 0.000 0.000 0.000 0.000 0.000 0.000 0.000 0.000 0.000 0.000 0.000 0.000 0.000 0.000 0.000 0.000 0.000 0.000 0.000 0.000 0.000 0.000 0.000 0.000 0.001 0.000 0.000 0.002 0.004 0.019 0.078 0.106 0.046 0.026 0.031 0.010
0.000 0.000 0.000 0.000 0.000 0.000 0.000 0.000 0.000 0.000 0.000 0.000 0.000 0.000 0.000 0.000 0.000 0.000 0.000 0.000 0.000 0.000 0.000 0.000 0.000 0.000 0.000 0.000 0.000 0.000 0.000 0.000 0.000 0.002 0.004 0.010 0.059 0.103 0.053 0.032 0.033 0.009
0.000 0.000 0.000 0.000 0.000 0.000 0.000 0.000 0.000 0.000 0.000 0.000 0.000 0.000 0.000 0.000 0.000 0.000 0.000 0.000 0.000 0.000 0.000 0.000 0.000 0.000 0.000 0.000 0.000 0.000 0.000 0.000 0.000 0.002 0.003 0.008 0.043 0.090 0.058 0.039 0.036 0.009
0.000 0.000 0.000 0.000 0.000 0.000 0.000 0.000 0.000 0.000 0.000 0.000 0.000 0.000 0.000 0.000 0.000 0.000 0.000 0.000 0.000 0.000 0.000 0.000 0.000 0.000 0.000 0.000 0.000 0.000 0.000 0.000 0.000 0.002 0.003 0.008 0.036 0.068 0.059 0.040 0.031 0.009
0.000 0.000 0.000 0.000 0.000 0.000 0.000 0.000 0.000 0.000 0.000 0.000 0.000 0.000 0.000 0.000 0.000 0.000 0.000 0.000 0.000 0.000 0.000 0.000 0.000 0.000 0.000 0.000 0.000 0.000 0.000 0.000 0.000 0.001 0.003 0.008 0.029 0.054 0.053 0.036 0.029 0.008
0.000 0.000 0.000 0.000 0.000 0.000 0.000 0.000 0.000 0.000 0.000 0.000 0.000 0.000 0.000 0.000 0.000 0.000 0.000 0.000 0.000 0.000 0.000 0.000 0.000 0.000 0.000 0.000 0.000 0.000 0.000 0.000 0.000 0.001 0.002 0.006 0.022 0.039 0.040 0.034 0.030 0.006
