ncols        36
nrows        67
xllcorner    409677.8
yllcorner    6870774.1
cellsize     5.00
NODATA_value -9999
0.000 0.000 0.000 0.000 0.000 0.000 0.000 0.000 0.000 0.000 0.000 0.000 0.000 0.000 0.000 0.000 0.000 0.000 0.000 0.000 0.000 0.000 0.000 0.000 0.000 0.000 0.000 0.000 0.000 0.000 0.000 0.000 0.000 0.000 0.000 0.000
0.000 0.000 0.000 0.002 0.018 0.044 0.065 0.068 0.054 0.037 0.027 0.012 0.003 0.000 0.000 0.000 0.000 0.000 0.000 0.000 0.000 0.000 0.000 0.000 0.000 0.000 0.000 0.000 0.000 0.000 0.000 0.000 0.000 0.000 0.000 0.000
0.000 0.000 0.002 0.029 0.085 0.147 0.175 0.175 0.144 0.104 0.075 0.054 0.037 0.014 0.000 0.000 0.000 0.000 0.000 0.000 0.000 0.000 0.000 0.000 0.000 0.000 0.000 0.000 0.000 0.000 0.000 0.000 0.000 0.000 0.000 0.000
0.000 0.000 0.022 0.088 0.195 0.337 0.378 0.388 0.322 0.230 0.158 0.106 0.068 0.048 0.012 0.000 0.000 0.000 0.000 0.000 0.000 0.000 0.000 0.000 0.000 0.000 0.000 0.000 0.000 0.000 0.000 0.000 0.000 0.000 0.000 0.000
0.000 0.007 0.068 0.176 0.386 0.588 0.715 0.704 0.613 0.427 0.281 0.179 0.125 0.083 0.041 0.001 0.000 0.000 0.000 0.000 0.000 0.000 0.000 0.000 0.000 0.000 0.000 0.000 0.000 0.000 0.000 0.000 0.000 0.000 0.000 0.000
0.000 0.023 0.114 0.300 0.630 0.942 1.169 1.197 1.045 0.699 0.447 0.280 0.202 0.134 0.057 0.023 0.000 0.000 0.000 0.000 0.000 0.000 0.000 0.000 0.000 0.000 0.000 0.000 0.000 0.000 0.000 0.000 0.000 0.000 0.000 0.000
0.003 0.047 0.155 0.439 0.883 1.369 1.701 1.827 1.505 1.032 0.640 0.405 0.264 0.195 0.097 0.037 0.002 0.000 0.000 0.000 0.000 0.000 0.000 0.000 0.000 0.000 0.000 0.000 0.000 0.000 0.000 0.000 0.000 0.000 0.000 0.000
0.007 0.066 0.208 0.581 1.109 1.797 2.261 2.461 1.950 1.331 0.950 0.589 0.354 0.255 0.131 0.045 0.021 0.000 0.000 0.000 0.000 0.000 0.000 0.000 0.000 0.000 0.000 0.000 0.000 0.000 0.000 0.000 0.000 0.000 0.000 0.000
0.011 0.075 0.249 0.632 1.257 2.012 2.679 2.799 2.403 1.821 1.380 0.714 0.481 0.304 0.170 0.068 0.028 0.007 0.000 0.000 0.000 0.000 0.000 0.000 0.000 0.000 0.000 0.000 0.000 0.000 0.000 0.000 0.000 0.000 0.000 0.000
0.014 0.081 0.267 0.731 1.362 2.029 2.748 3.033 3.000 2.421 1.630 0.989 0.713 0.392 0.208 0.091 0.030 0.022 0.002 0.000 0.000 0.000 0.000 0.000 0.000 0.000 0.000 0.000 0.000 0.000 0.000 0.000 0.000 0.000 0.000 0.000
0.014 0.074 0.253 0.651 1.210 1.932 2.731 3.320 3.538 2.931 2.020 1.350 0.940 0.544 0.248 0.117 0.039 0.020 0.017 0.001 0.000 0.000 0.000 0.000 0.000 0.000 0.000 0.000 0.000 0.000 0.000 0.000 0.000 0.000 0.000 0.000
0.011 0.060 0.230 0.550 1.104 1.809 2.594 3.529 4.033 3.571 2.515 1.719 1.146 0.648 0.321 0.146 0.051 0.023 0.019 0.012 0.000 0.000 0.000 0.000 0.000 0.000 0.000 0.000 0.000 0.000 0.000 0.000 0.000 0.000 0.000 0.000
0.006 0.041 0.160 0.451 0.959 1.647 2.577 3.547 4.145 3.663 2.744 1.820 1.227 0.790 0.408 0.196 0.071 0.031 0.018 0.017 0.007 0.000 0.000 0.000 0.000 0.000 0.000 0.000 0.000 0.000 0.000 0.000 0.000 0.000 0.000 0.000
0.002 0.025 0.093 0.305 0.744 1.397 2.201 3.230 3.692 3.740 2.900 2.120 1.560 1.005 0.541 0.258 0.096 0.042 0.021 0.015 0.020 0.002 0.000 0.000 0.000 0.000 0.000 0.000 0.000 0.000 0.000 0.000 0.000 0.000 0.000 0.000
0.000 0.012 0.051 0.210 0.525 1.079 1.835 2.775 3.565 3.631 2.997 2.601 1.933 1.209 0.683 0.342 0.141 0.057 0.028 0.017 0.017 0.015 0.000 0.000 0.000 0.000 0.000 0.000 0.000 0.000 0.000 0.000 0.000 0.000 0.000 0.000
0.000 0.003 0.027 0.103 0.302 0.704 1.360 2.321 3.198 3.540 3.383 3.105 2.353 1.446 0.913 0.465 0.200 0.084 0.040 0.024 0.016 0.018 0.004 0.000 0.000 0.000 0.000 0.000 0.000 0.000 0.000 0.000 0.000 0.000 0.000 0.000
0.000 0.000 0.013 0.042 0.151 0.391 0.906 1.786 2.662 3.226 3.178 3.224 2.552 1.834 1.065 0.571 0.265 0.124 0.058 0.033 0.024 0.014 0.017 0.000 0.000 0.000 0.000 0.000 0.000 0.000 0.000 0.000 0.000 0.000 0.000 0.000
0.000 0.000 0.004 0.020 0.059 0.184 0.523 1.197 2.079 2.765 3.093 3.285 2.942 2.078 1.173 0.692 0.347 0.168 0.078 0.047 0.031 0.018 0.013 0.008 0.000 0.000 0.000 0.000 0.000 0.000 0.000 0.000 0.000 0.000 0.000 0.000
0.000 0.000 0.000 0.010 0.026 0.089 0.298 0.721 1.387 2.161 3.094 3.306 3.042 2.149 1.332 0.836 0.440 0.224 0.111 0.060 0.039 0.025 0.011 0.012 0.001 0.000 0.000 0.000 0.000 0.000 0.000 0.000 0.000 0.000 0.000 0.000
0.000 0.000 0.000 0.003 0.015 0.040 0.120 0.318 0.760 1.598 2.459 2.936 2.792 2.206 1.583 0.957 0.550 0.300 0.153 0.073 0.047 0.032 0.016 0.008 0.010 0.000 0.000 0.000 0.000 0.000 0.000 0.000 0.000 0.000 0.000 0.000
0.000 0.000 0.000 0.000 0.009 0.018 0.046 0.146 0.468 1.120 1.995 2.499 2.489 2.164 1.592 1.087 0.658 0.380 0.198 0.096 0.059 0.039 0.021 0.011 0.009 0.001 0.000 0.000 0.000 0.000 0.000 0.000 0.000 0.000 0.000 0.000
0.000 0.000 0.000 0.000 0.002 0.014 0.022 0.056 0.212 0.644 1.298 2.005 2.123 2.131 1.610 1.218 0.782 0.487 0.262 0.134 0.073 0.044 0.027 0.016 0.007 0.009 0.000 0.000 0.000 0.000 0.000 0.000 0.000 0.000 0.000 0.000
0.000 0.000 0.000 0.000 0.000 0.006 0.008 0.025 0.103 0.326 0.878 1.517 2.004 1.816 1.594 1.315 0.919 0.608 0.335 0.180 0.089 0.050 0.034 0.024 0.012 0.007 0.004 0.000 0.000 0.000 0.000 0.000 0.000 0.000 0.000 0.000
0.000 0.000 0.000 0.000 0.000 0.001 0.006 0.010 0.044 0.159 0.478 1.015 1.524 1.641 1.569 1.400 1.048 0.719 0.433 0.243 0.118 0.059 0.039 0.028 0.017 0.008 0.008 0.002 0.000 0.000 0.000 0.000 0.000 0.000 0.000 0.000
0.000 0.000 0.000 0.000 0.000 0.000 0.002 0.005 0.017 0.062 0.232 0.659 1.151 1.416 1.512 1.425 1.108 0.854 0.578 0.334 0.162 0.075 0.044 0.032 0.022 0.010 0.005 0.006 0.000 0.000 0.000 0.000 0.000 0.000 0.000 0.000
0.000 0.000 0.000 0.000 0.000 0.000 0.000 0.004 0.007 0.025 0.091 0.351 0.798 1.234 1.399 1.344 1.197 0.993 0.724 0.440 0.229 0.104 0.053 0.039 0.027 0.013 0.006 0.003 0.004 0.000 0.000 0.000 0.000 0.000 0.000 0.000
0.000 0.000 0.000 0.000 0.000 0.000 0.000 0.000 0.004 0.007 0.035 0.169 0.505 0.942 1.225 1.313 1.254 1.048 0.862 0.556 0.317 0.152 0.074 0.051 0.034 0.019 0.008 0.004 0.004 0.003 0.000 0.000 0.000 0.000 0.000 0.000
0.000 0.000 0.000 0.000 0.000 0.000 0.000 0.000 0.002 0.002 0.009 0.079 0.308 0.613 0.912 1.098 1.302 1.203 0.950 0.660 0.415 0.222 0.124 0.066 0.043 0.026 0.010 0.005 0.003 0.005 0.002 0.000 0.000 0.000 0.000 0.000
0.000 0.000 0.000 0.000 0.000 0.000 0.000 0.000 0.000 0.003 0.004 0.031 0.160 0.385 0.662 0.959 1.169 1.162 1.028 0.739 0.523 0.294 0.161 0.087 0.053 0.033 0.016 0.008 0.004 0.003 0.005 0.000 0.000 0.000 0.000 0.000
0.000 0.000 0.000 0.000 0.000 0.000 0.000 0.000 0.000 0.002 0.003 0.014 0.069 0.208 0.411 0.732 1.000 1.117 1.023 0.857 0.623 0.382 0.214 0.119 0.073 0.045 0.026 0.012 0.005 0.003 0.003 0.008 0.001 0.000 0.000 0.000
0.000 0.000 0.000 0.000 0.000 0.000 0.000 0.000 0.000 0.000 0.002 0.007 0.038 0.111 0.228 0.486 0.828 0.988 1.058 0.925 0.711 0.455 0.288 0.169 0.103 0.061 0.034 0.016 0.009 0.005 0.004 0.003 0.004 0.000 0.000 0.000
0.000 0.000 0.000 0.000 0.000 0.000 0.000 0.000 0.000 0.000 0.003 0.004 0.017 0.062 0.129 0.309 0.631 0.891 0.955 0.888 0.747 0.538 0.372 0.228 0.146 0.090 0.047 0.026 0.013 0.009 0.006 0.003 0.003 0.003 0.000 0.000
0.000 0.000 0.000 0.000 0.000 0.000 0.000 0.000 0.000 0.000 0.002 0.003 0.007 0.031 0.067 0.178 0.446 0.695 0.859 0.833 0.764 0.618 0.434 0.309 0.210 0.126 0.066 0.039 0.020 0.013 0.008 0.004 0.003 0.003 0.002 0.000
0.000 0.000 0.000 0.000 0.000 0.000 0.000 0.000 0.000 0.000 0.001 0.003 0.004 0.019 0.037 0.110 0.292 0.576 0.722 0.779 0.737 0.640 0.488 0.365 0.259 0.167 0.094 0.052 0.029 0.017 0.008 0.005 0.003 0.003 0.003 0.001
0.000 0.000 0.000 0.000 0.000 0.000 0.000 0.000 0.000 0.000 0.000 0.003 0.010 0.007 0.022 0.075 0.194 0.388 0.553 0.641 0.682 0.640 0.532 0.392 0.300 0.211 0.133 0.073 0.043 0.024 0.012 0.007 0.005 0.003 0.002 0.007
0.000 0.000 0.000 0.000 0.000 0.000 0.000 0.000 0.000 0.000 0.000 0.001 0.005 0.002 0.010 0.051 0.117 0.238 0.388 0.514 0.606 0.635 0.563 0.407 0.338 0.248 0.170 0.102 0.057 0.028 0.014 0.008 0.006 0.004 0.003 0.002
0.000 0.000 0.000 0.000 0.000 0.000 0.000 0.000 0.000 0.000 0.000 0.000 0.004 0.002 0.006 0.039 0.078 0.131 0.253 0.389 0.523 0.585 0.569 0.451 0.362 0.267 0.210 0.139 0.072 0.038 0.020 0.011 0.007 0.005 0.003 0.003
0.000 0.000 0.000 0.000 0.000 0.000 0.000 0.000 0.000 0.000 0.000 0.000 0.002 0.003 0.005 0.028 0.049 0.061 0.163 0.264 0.391 0.508 0.585 0.537 0.350 0.275 0.240 0.176 0.103 0.054 0.033 0.018 0.011 0.006 0.004 0.002
0.000 0.000 0.000 0.000 0.000 0.000 0.000 0.000 0.000 0.000 0.000 0.000 0.000 0.003 0.005 0.021 0.020 0.034 0.093 0.177 0.265 0.429 0.549 0.518 0.361 0.268 0.242 0.204 0.141 0.072 0.041 0.025 0.014 0.009 0.005 0.003
0.000 0.000 0.000 0.000 0.000 0.000 0.000 0.000 0.000 0.000 0.000 0.000 0.000 0.001 0.006 0.013 0.009 0.020 0.061 0.123 0.203 0.339 0.507 0.551 0.382 0.248 0.238 0.213 0.171 0.099 0.051 0.034 0.021 0.014 0.008 0.005
0.000 0.000 0.000 0.000 0.000 0.000 0.000 0.000 0.000 0.000 0.000 0.000 0.000 0.000 0.009 0.003 0.003 0.010 0.044 0.099 0.146 0.257 0.425 0.530 0.422 0.231 0.213 0.212 0.183 0.121 0.068 0.044 0.029 0.020 0.014 0.006
0.000 0.000 0.000 0.000 0.000 0.000 0.000 0.000 0.000 0.000 0.000 0.000 0.000 0.000 0.004 0.001 0.001 0.005 0.028 0.075 0.109 0.182 0.335 0.480 0.450 0.241 0.194 0.190 0.178 0.139 0.081 0.053 0.037 0.026 0.018 0.009
0.000 0.000 0.000 0.000 0.000 0.000 0.000 0.000 0.000 0.000 0.000 0.000 0.000 0.000 0.002 0.001 0.002 0.003 0.015 0.062 0.083 0.141 0.276 0.443 0.464 0.245 0.185 0.181 0.173 0.146 0.090 0.052 0.039 0.029 0.020 0.013
0.000 0.000 0.000 0.000 0.000 0.000 0.000 0.000 0.000 0.000 0.000 0.000 0.000 0.000 0.000 0.002 0.002 0.002 0.005 0.043 0.066 0.104 0.227 0.408 0.477 0.254 0.179 0.175 0.170 0.141 0.091 0.055 0.040 0.030 0.023 0.017
0.000 0.000 0.000 0.000 0.000 0.000 0.000 0.000 0.000 0.000 0.000 0.000 0.000 0.000 0.000 0.001 0.001 0.002 0.006 0.030 0.041 0.072 0.165 0.361 0.492 0.267 0.171 0.167 0.163 0.141 0.091 0.059 0.046 0.033 0.027 0.023
0.000 0.000 0.000 0.000 0.000 0.000 0.000 0.000 0.000 0.000 0.000 0.000 0.000 0.000 0.000 0.000 0.001 0.002 0.008 0.017 0.021 0.044 0.114 0.302 0.493 0.285 0.168 0.161 0.154 0.135 0.099 0.067 0.052 0.042 0.038 0.028
0.000 0.000 0.000 0.000 0.000 0.000 0.000 0.000 0.000 0.000 0.000 0.000 0.000 0.000 0.000 0.000 0.000 0.002 0.004 0.007 0.010 0.027 0.070 0.227 0.477 0.317 0.160 0.155 0.148 0.132 0.107 0.074 0.060 0.052 0.047 0.027
0.000 0.000 0.000 0.000 0.000 0.000 0.000 0.000 0.000 0.000 0.000 0.000 0.000 0.000 0.000 0.000 0.000 0.002 0.003 0.003 0.005 0.017 0.039 0.157 0.428 0.352 0.154 0.147 0.142 0.131 0.105 0.076 0.063 0.060 0.052 0.030
0.000 0.000 0.000 0.000 0.000 0.000 0.000 0.000 0.000 0.000 0.000 0.000 0.000 0.000 0.000 0.000 0.000 0.001 0.002 0.002 0.002 0.012 0.020 0.093 0.346 0.365 0.152 0.133 0.139 0.126 0.101 0.081 0.072 0.067 0.054 0.034
0.000 0.000 0.000 0.000 0.000 0.000 0.000 0.000 0.000 0.000 0.000 0.000 0.000 0.000 0.000 0.000 0.000 0.000 0.002 0.002 0.002 0.009 0.014 0.059 0.270 0.371 0.153 0.117 0.127 0.113 0.092 0.083 0.078 0.070 0.055 0.037
0.000 0.000 0.000 0.000 0.000 0.000 0.000 0.000 0.000 0.000 0.000 0.000 0.000 0.000 0.000 0.000 0.000 0.000 0.002 0.002 0.001 0.008 0.014 0.037 0.189 0.346 0.163 0.105 0.114 0.103 0.088 0.086 0.079 0.072 0.061 0.041
0.000 0.000 0.000 0.000 0.000 0.000 0.000 0.000 0.000 0.000 0.000 0.000 0.000 0.000 0.000 0.000 0.000 0.000 0.000 0.002 0.001 0.007 0.013 0.026 0.132 0.320 0.187 0.106 0.106 0.096 0.083 0.082 0.083 0.083 0.066 0.044
0.000 0.000 0.000 0.000 0.000 0.000 0.000 0.000 0.000 0.000 0.000 0.000 0.000 0.000 0.000 0.000 0.000 0.000 0.000 0.001 0.001 0.007 0.013 0.023 0.085 0.274 0.207 0.111 0.100 0.088 0.080 0.084 0.097 0.096 0.068 0.049
0.000 0.000 0.000 0.000 0.000 0.000 0.000 0.000 0.000 0.000 0.000 0.000 0.000 0.000 0.000 0.000 0.000 0.000 0.000 0.000 0.001 0.007 0.012 0.022 0.061 0.213 0.221 0.119 0.089 0.078 0.075 0.082 0.098 0.095 0.074 0.045
0.000 0.000 0.000 0.000 0.000 0.000 0.000 0.000 0.000 0.000 0.000 0.000 0.000 0.000 0.000 0.000 0.000 0.000 0.000 0.000 0.001 0.006 0.010 0.022 0.048 0.165 0.220 0.129 0.084 0.069 0.061 0.070 0.090 0.090 0.066 0.040
0.000 0.000 0.000 0.000 0.000 0.000 0.000 0.000 0.000 0.000 0.000 0.000 0.000 0.000 0.000 0.000 0.000 0.000 0.000 0.000 0.001 0.006 0.008 0.020 0.045 0.123 0.200 0.149 0.090 0.062 0.051 0.066 0.083 0.077 0.053 0.036
0.000 0.000 0.000 0.000 0.000 0.000 0.000 0.000 0.000 0.000 0.000 0.000 0.000 0.000 0.000 0.000 0.000 0.000 0.000 0.000 0.000 0.006 0.008 0.021 0.041 0.088 0.173 0.171 0.100 0.064 0.057 0.062 0.064 0.060 0.046 0.034
0.000 0.000 0.000 0.000 0.000 0.000 0.000 0.000 0.000 0.000 0.000 0.000 0.000 0.000 0.000 0.000 0.000 0.000 0.000 0.000 0.001 0.006 0.009 0.022 0.039 0.067 0.146 0.178 0.118 0.070 0.051 0.050 0.049 0.049 0.043 0.034
0.000 0.000 0.000 0.000 0.000 0.000 0.000 0.000 0.000 0.000 0.000 0.000 0.000 0.000 0.000 0.000 0.000 0.000 0.000 0.000 0.001 0.005 0.010 0.022 0.037 0.052 0.113 0.196 0.145 0.068 0.048 0.044 0.046 0.044 0.037 0.034
0.000 0.000 0.000 0.000 0.000 0.000 0.000 0.000 0.000 0.000 0.000 0.000 0.000 0.000 0.000 0.000 0.000 0.000 0.000 0.000 0.001 0.004 0.010 0.023 0.037 0.047 0.089 0.188 0.173 0.065 0.049 0.040 0.039 0.037 0.039 0.036
0.000 0.000 0.000 0.000 0.000 0.000 0.000 0.000 0.000 0.000 0.000 0.000 0.000 0.000 0.000 0.000 0.000 0.000 0.000 0.000 0.001 0.003 0.010 0.024 0.034 0.040 0.074 0.167 0.192 0.059 0.045 0.034 0.031 0.037 0.041 0.032
0.000 0.000 0.000 0.000 0.000 0.000 0.000 0.000 0.000 0.000 0.000 0.000 0.000 0.000 0.000 0.000 0.000 0.000 0.000 0.000 0.001 0.003 0.010 0.024 0.032 0.037 0.063 0.166 0.173 0.044 0.034 0.031 0.031 0.035 0.037 0.028
0.000 0.000 0.000 0.000 0.000 0.000 0.000 0.000 0.000 0.000 0.000 0.000 0.000 0.000 0.000 0.000 0.000 0.000 0.000 0.000 0.000 0.002 0.010 0.023 0.027 0.035 0.058 0.152 0.132 0.038 0.031 0.030 0.029 0.030 0.033 0.026
0.000 0.000 0.000 0.000 0.000 0.000 0.000 0.000 0.000 0.000 0.000 0.000 0.000 0.000 0.000 0.000 0.000 0.000 0.000 0.000 0.000 0.002 0.009 0.022 0.023 0.033 0.053 0.132 0.091 0.030 0.029 0.030 0.026 0.028 0.031 0.024
0.000 0.000 0.000 0.000 0.000 0.000 0.000 0.000 0.000 0.000 0.000 0.000 0.000 0.000 0.000 0.000 0.000 0.000 0.000 0.000 0.000 0.002 0.009 0.020 0.020 0.029 0.045 0.101 0.056 0.024 0.024 0.023 0.022 0.024 0.028 0.022
0.000 0.000 0.000 0.000 0.000 0.000 0.000 0.000 0.000 0.000 0.000 0.000 0.000 0.000 0.000 0.000 0.000 0.000 0.000 0.000 0.000 0.002 0.008 0.016 0.018 0.027 0.041 0.075 0.038 0.021 0.017 0.017 0.016 0.017 0.020 0.016
0.000 0.000 0.000 0.000 0.000 0.000 0.000 0.000 0.000 0.000 0.000 0.000 0.000 0.000 0.000 0.000 0.000 0.000 0.000 0.000 0.000 0.001 0.005 0.013 0.015 0.023 0.029 0.049 0.026 0.017 0.013 0.010 0.009 0.010 0.012 0.011
