ncols        42
nrows        105
xllcorner    409617.8
yllcorner    6870809.1
cellsize     5.00
NODATA_value -9999
0.000 0.000 0.000 0.002 0.022 0.045 0.028 0.007 0.000 0.000 0.000 0.000 0.000 0.000 0.000 0.000 0.000 0.000 0.000 0.000 0.000 0.000 0.000 0.000 0.000 0.000 0.000 0.000 0.000 0.000 0.000 0.000 0.000 0.000 0.000 0.000 0.000 0.000 0.000 0.000 0.000 0.000
0.000 0.000 0.001 0.027 0.097 0.139 0.103 0.049 0.008 0.000 0.000 0.000 0.000 0.000 0.000 0.000 0.000 0.000 0.000 0.000 0.000 0.000 0.000 0.000 0.000 0.000 0.000 0.000 0.000 0.000 0.000 0.000 0.000 0.000 0.000 0.000 0.000 0.000 0.000 0.000 0.000 0.000
0.000 0.000 0.007 0.086 0.247 0.358 0.273 0.115 0.044 0.002 0.000 0.000 0.000 0.000 0.000 0.000 0.000 0.000 0.000 0.000 0.000 0.000 0.000 0.000 0.000 0.000 0.000 0.000 0.000 0.000 0.000 0.000 0.000 0.000 0.000 0.000 0.000 0.000 0.000 0.000 0.000 0.000
0.000 0.000 0.019 0.160 0.510 0.769 0.569 0.244 0.078 0.029 0.000 0.000 0.000 0.000 0.000 0.000 0.000 0.000 0.000 0.000 0.000 0.000 0.000 0.000 0.000 0.000 0.000 0.000 0.000 0.000 0.000 0.000 0.000 0.000 0.000 0.000 0.000 0.000 0.000 0.000 0.000 0.000
0.000 0.000 0.028 0.249 0.884 1.410 1.028 0.421 0.158 0.050 0.000 0.000 0.000 0.000 0.000 0.000 0.000 0.000 0.000 0.000 0.000 0.000 0.000 0.000 0.000 0.000 0.000 0.000 0.000 0.000 0.000 0.000 0.000 0.000 0.000 0.000 0.000 0.000 0.000 0.000 0.000 0.000
0.000 0.001 0.036 0.336 1.288 2.166 1.589 0.654 0.268 0.081 0.010 0.000 0.000 0.000 0.000 0.000 0.000 0.000 0.000 0.000 0.000 0.000 0.000 0.000 0.000 0.000 0.000 0.000 0.000 0.000 0.000 0.000 0.000 0.000 0.000 0.000 0.000 0.000 0.000 0.000 0.000 0.000
0.000 0.001 0.049 0.378 1.600 2.816 2.022 0.996 0.423 0.134 0.039 0.000 0.000 0.000 0.000 0.000 0.000 0.000 0.000 0.000 0.000 0.000 0.000 0.000 0.000 0.000 0.000 0.000 0.000 0.000 0.000 0.000 0.000 0.000 0.000 0.000 0.000 0.000 0.000 0.000 0.000 0.000
0.000 0.003 0.054 0.393 1.602 2.983 2.630 1.431 0.664 0.206 0.044 0.000 0.000 0.000 0.000 0.000 0.000 0.000 0.000 0.000 0.000 0.000 0.000 0.000 0.000 0.000 0.000 0.000 0.000 0.000 0.000 0.000 0.000 0.000 0.000 0.000 0.000 0.000 0.000 0.000 0.000 0.000
0.000 0.005 0.066 0.407 1.528 3.157 3.328 2.022 1.004 0.298 0.058 0.000 0.000 0.000 0.000 0.000 0.000 0.000 0.000 0.000 0.000 0.000 0.000 0.000 0.000 0.000 0.000 0.000 0.000 0.000 0.000 0.000 0.000 0.000 0.000 0.000 0.000 0.000 0.000 0.000 0.000 0.000
0.000 0.008 0.092 0.439 1.373 3.076 3.773 2.657 1.371 0.421 0.086 0.015 0.000 0.000 0.000 0.000 0.000 0.000 0.000 0.000 0.000 0.000 0.000 0.000 0.000 0.000 0.000 0.000 0.000 0.000 0.000 0.000 0.000 0.000 0.000 0.000 0.000 0.000 0.000 0.000 0.000 0.000
0.000 0.024 0.123 0.454 1.190 2.788 3.807 3.358 1.794 0.586 0.124 0.032 0.000 0.000 0.000 0.000 0.000 0.000 0.000 0.000 0.000 0.000 0.000 0.000 0.000 0.000 0.000 0.000 0.000 0.000 0.000 0.000 0.000 0.000 0.000 0.000 0.000 0.000 0.000 0.000 0.000 0.000
0.002 0.047 0.150 0.466 1.065 2.333 3.779 3.792 2.223 0.794 0.178 0.030 0.000 0.000 0.000 0.000 0.000 0.000 0.000 0.000 0.000 0.000 0.000 0.000 0.000 0.000 0.000 0.000 0.000 0.000 0.000 0.000 0.000 0.000 0.000 0.000 0.000 0.000 0.000 0.000 0.000 0.000
0.005 0.054 0.169 0.442 0.956 1.826 3.383 3.938 2.635 1.034 0.259 0.035 0.011 0.000 0.000 0.000 0.000 0.000 0.000 0.000 0.000 0.000 0.000 0.000 0.000 0.000 0.000 0.000 0.000 0.000 0.000 0.000 0.000 0.000 0.000 0.000 0.000 0.000 0.000 0.000 0.000 0.000
0.008 0.062 0.180 0.395 0.819 1.373 2.688 4.129 2.928 1.306 0.339 0.052 0.029 0.000 0.000 0.000 0.000 0.000 0.000 0.000 0.000 0.000 0.000 0.000 0.000 0.000 0.000 0.000 0.000 0.000 0.000 0.000 0.000 0.000 0.000 0.000 0.000 0.000 0.000 0.000 0.000 0.000
0.012 0.069 0.178 0.345 0.615 0.994 1.832 3.293 3.190 1.630 0.472 0.085 0.028 0.004 0.000 0.000 0.000 0.000 0.000 0.000 0.000 0.000 0.000 0.000 0.000 0.000 0.000 0.000 0.000 0.000 0.000 0.000 0.000 0.000 0.000 0.000 0.000 0.000 0.000 0.000 0.000 0.000
0.013 0.070 0.174 0.319 0.563 0.793 1.388 2.880 3.612 2.045 0.666 0.131 0.033 0.026 0.000 0.000 0.000 0.000 0.000 0.000 0.000 0.000 0.000 0.000 0.000 0.000 0.000 0.000 0.000 0.000 0.000 0.000 0.000 0.000 0.000 0.000 0.000 0.000 0.000 0.000 0.000 0.000
0.015 0.069 0.157 0.262 0.453 0.640 0.948 2.441 3.807 2.252 0.953 0.195 0.048 0.029 0.006 0.000 0.000 0.000 0.000 0.000 0.000 0.000 0.000 0.000 0.000 0.000 0.000 0.000 0.000 0.000 0.000 0.000 0.000 0.000 0.000 0.000 0.000 0.000 0.000 0.000 0.000 0.000
0.017 0.063 0.132 0.221 0.395 0.565 0.784 2.003 3.263 2.655 1.229 0.287 0.071 0.031 0.029 0.003 0.000 0.000 0.000 0.000 0.000 0.000 0.000 0.000 0.000 0.000 0.000 0.000 0.000 0.000 0.000 0.000 0.000 0.000 0.000 0.000 0.000 0.000 0.000 0.000 0.000 0.000
0.018 0.058 0.114 0.195 0.338 0.485 0.689 1.647 3.057 2.840 1.487 0.401 0.105 0.044 0.033 0.026 0.007 0.001 0.000 0.000 0.000 0.000 0.000 0.000 0.000 0.000 0.000 0.000 0.000 0.000 0.000 0.000 0.000 0.000 0.000 0.000 0.000 0.000 0.000 0.000 0.000 0.000
0.018 0.049 0.096 0.152 0.304 0.451 0.623 1.288 2.512 2.794 1.715 0.528 0.149 0.062 0.039 0.039 0.032 0.022 0.001 0.000 0.000 0.000 0.000 0.000 0.000 0.000 0.000 0.000 0.000 0.000 0.000 0.000 0.000 0.000 0.000 0.000 0.000 0.000 0.000 0.000 0.000 0.000
0.016 0.040 0.080 0.131 0.247 0.393 0.584 1.111 2.094 2.704 1.793 0.672 0.206 0.081 0.048 0.041 0.041 0.039 0.019 0.000 0.000 0.000 0.000 0.000 0.000 0.000 0.000 0.000 0.000 0.000 0.000 0.000 0.000 0.000 0.000 0.000 0.000 0.000 0.000 0.000 0.000 0.000
0.013 0.037 0.067 0.104 0.201 0.341 0.503 0.920 1.711 2.423 1.946 0.782 0.264 0.105 0.060 0.043 0.046 0.045 0.035 0.008 0.000 0.000 0.000 0.000 0.000 0.000 0.000 0.000 0.000 0.000 0.000 0.000 0.000 0.000 0.000 0.000 0.000 0.000 0.000 0.000 0.000 0.000
0.011 0.030 0.055 0.088 0.155 0.274 0.435 0.770 1.522 2.189 2.002 0.885 0.305 0.128 0.070 0.049 0.051 0.056 0.045 0.029 0.003 0.000 0.000 0.000 0.000 0.000 0.000 0.000 0.000 0.000 0.000 0.000 0.000 0.000 0.000 0.000 0.000 0.000 0.000 0.000 0.000 0.000
0.007 0.026 0.050 0.078 0.126 0.220 0.394 0.656 1.309 1.975 1.804 0.889 0.333 0.146 0.084 0.056 0.051 0.066 0.059 0.034 0.025 0.000 0.000 0.000 0.000 0.000 0.000 0.000 0.000 0.000 0.000 0.000 0.000 0.000 0.000 0.000 0.000 0.000 0.000 0.000 0.000 0.000
0.004 0.022 0.042 0.063 0.098 0.177 0.331 0.572 1.085 1.837 1.806 0.919 0.373 0.169 0.091 0.064 0.057 0.078 0.068 0.042 0.031 0.012 0.000 0.000 0.000 0.000 0.000 0.000 0.000 0.000 0.000 0.000 0.000 0.000 0.000 0.000 0.000 0.000 0.000 0.000 0.000 0.000
0.004 0.018 0.032 0.049 0.084 0.150 0.270 0.489 0.898 1.544 1.758 0.954 0.378 0.185 0.105 0.076 0.061 0.072 0.073 0.050 0.033 0.026 0.000 0.000 0.000 0.000 0.000 0.000 0.000 0.000 0.000 0.000 0.000 0.000 0.000 0.000 0.000 0.000 0.000 0.000 0.000 0.000
0.003 0.016 0.026 0.043 0.065 0.117 0.214 0.403 0.785 1.288 1.631 1.044 0.481 0.224 0.117 0.078 0.067 0.070 0.071 0.060 0.039 0.025 0.010 0.000 0.000 0.000 0.000 0.000 0.000 0.000 0.000 0.000 0.000 0.000 0.000 0.000 0.000 0.000 0.000 0.000 0.000 0.000
0.002 0.013 0.022 0.039 0.055 0.092 0.175 0.330 0.639 1.083 1.559 1.083 0.505 0.233 0.124 0.077 0.065 0.066 0.069 0.059 0.049 0.027 0.017 0.000 0.000 0.000 0.000 0.000 0.000 0.000 0.000 0.000 0.000 0.000 0.000 0.000 0.000 0.000 0.000 0.000 0.000 0.000
0.001 0.011 0.020 0.031 0.046 0.072 0.131 0.267 0.549 0.964 1.524 1.087 0.595 0.282 0.127 0.083 0.062 0.059 0.063 0.064 0.053 0.032 0.017 0.008 0.000 0.000 0.000 0.000 0.000 0.000 0.000 0.000 0.000 0.000 0.000 0.000 0.000 0.000 0.000 0.000 0.000 0.000
0.000 0.007 0.017 0.025 0.036 0.051 0.100 0.222 0.465 0.813 1.258 1.112 0.686 0.321 0.162 0.088 0.056 0.054 0.062 0.065 0.055 0.041 0.025 0.016 0.000 0.000 0.000 0.000 0.000 0.000 0.000 0.000 0.000 0.000 0.000 0.000 0.000 0.000 0.000 0.000 0.000 0.000
0.000 0.004 0.015 0.020 0.030 0.046 0.078 0.177 0.352 0.569 1.101 1.133 0.692 0.397 0.181 0.094 0.071 0.059 0.062 0.060 0.054 0.054 0.034 0.013 0.008 0.000 0.000 0.000 0.000 0.000 0.000 0.000 0.000 0.000 0.000 0.000 0.000 0.000 0.000 0.000 0.000 0.000
0.000 0.003 0.014 0.017 0.020 0.034 0.068 0.128 0.246 0.527 1.017 1.013 0.797 0.455 0.199 0.118 0.083 0.061 0.054 0.051 0.062 0.061 0.037 0.016 0.017 0.000 0.000 0.000 0.000 0.000 0.000 0.000 0.000 0.000 0.000 0.000 0.000 0.000 0.000 0.000 0.000 0.000
0.000 0.002 0.011 0.013 0.013 0.025 0.037 0.080 0.218 0.462 0.823 0.977 0.831 0.462 0.222 0.123 0.081 0.057 0.046 0.052 0.061 0.055 0.046 0.027 0.014 0.003 0.000 0.000 0.000 0.000 0.000 0.000 0.000 0.000 0.000 0.000 0.000 0.000 0.000 0.000 0.000 0.000
0.000 0.001 0.009 0.012 0.010 0.010 0.026 0.095 0.192 0.388 0.733 0.923 0.789 0.514 0.260 0.141 0.085 0.055 0.049 0.049 0.051 0.056 0.053 0.035 0.018 0.016 0.000 0.000 0.000 0.000 0.000 0.000 0.000 0.000 0.000 0.000 0.000 0.000 0.000 0.000 0.000 0.000
0.000 0.000 0.007 0.012 0.007 0.004 0.036 0.076 0.162 0.330 0.598 0.790 0.767 0.540 0.286 0.160 0.085 0.062 0.049 0.045 0.049 0.055 0.058 0.043 0.024 0.013 0.000 0.000 0.000 0.000 0.000 0.000 0.000 0.000 0.000 0.000 0.000 0.000 0.000 0.000 0.000 0.000
0.000 0.000 0.003 0.010 0.006 0.004 0.031 0.063 0.118 0.277 0.497 0.710 0.744 0.591 0.352 0.180 0.102 0.077 0.049 0.050 0.056 0.053 0.058 0.045 0.026 0.013 0.003 0.000 0.000 0.000 0.000 0.000 0.000 0.000 0.000 0.000 0.000 0.000 0.000 0.000 0.000 0.000
0.000 0.000 0.000 0.008 0.007 0.006 0.027 0.042 0.080 0.202 0.393 0.587 0.703 0.649 0.394 0.201 0.122 0.078 0.053 0.055 0.052 0.049 0.052 0.048 0.034 0.019 0.016 0.000 0.000 0.000 0.000 0.000 0.000 0.000 0.000 0.000 0.000 0.000 0.000 0.000 0.000 0.000
0.000 0.000 0.000 0.005 0.007 0.009 0.020 0.028 0.054 0.145 0.328 0.554 0.678 0.663 0.390 0.213 0.149 0.094 0.068 0.062 0.046 0.040 0.047 0.052 0.043 0.027 0.017 0.000 0.000 0.000 0.000 0.000 0.000 0.000 0.000 0.000 0.000 0.000 0.000 0.000 0.000 0.000
0.000 0.000 0.000 0.003 0.009 0.008 0.013 0.021 0.040 0.101 0.264 0.491 0.625 0.640 0.401 0.256 0.176 0.107 0.073 0.057 0.041 0.035 0.042 0.051 0.048 0.032 0.019 0.000 0.000 0.000 0.000 0.000 0.000 0.000 0.000 0.000 0.000 0.000 0.000 0.000 0.000 0.000
0.000 0.000 0.000 0.000 0.006 0.007 0.010 0.014 0.028 0.076 0.213 0.384 0.580 0.589 0.443 0.276 0.199 0.121 0.084 0.065 0.043 0.035 0.041 0.047 0.054 0.048 0.030 0.002 0.000 0.000 0.000 0.000 0.000 0.000 0.000 0.000 0.000 0.000 0.000 0.000 0.000 0.000
0.000 0.000 0.000 0.000 0.003 0.005 0.008 0.010 0.023 0.051 0.153 0.296 0.461 0.571 0.448 0.326 0.224 0.152 0.108 0.072 0.046 0.035 0.036 0.042 0.060 0.071 0.034 0.021 0.000 0.000 0.000 0.000 0.000 0.000 0.000 0.000 0.000 0.000 0.000 0.000 0.000 0.000
0.000 0.000 0.000 0.000 0.001 0.005 0.007 0.010 0.017 0.038 0.100 0.230 0.401 0.512 0.489 0.366 0.260 0.212 0.143 0.087 0.048 0.034 0.032 0.041 0.059 0.081 0.039 0.035 0.000 0.000 0.000 0.000 0.000 0.000 0.000 0.000 0.000 0.000 0.000 0.000 0.000 0.000
0.000 0.000 0.000 0.000 0.000 0.004 0.007 0.009 0.012 0.026 0.074 0.185 0.339 0.474 0.507 0.425 0.311 0.266 0.167 0.087 0.053 0.033 0.030 0.039 0.052 0.089 0.054 0.031 0.000 0.000 0.000 0.000 0.000 0.000 0.000 0.000 0.000 0.000 0.000 0.000 0.000 0.000
0.000 0.000 0.000 0.000 0.000 0.002 0.006 0.008 0.011 0.020 0.047 0.125 0.251 0.429 0.507 0.430 0.341 0.289 0.184 0.105 0.060 0.033 0.031 0.032 0.041 0.102 0.063 0.028 0.000 0.000 0.000 0.000 0.000 0.000 0.000 0.000 0.000 0.000 0.000 0.000 0.000 0.000
0.000 0.000 0.000 0.000 0.000 0.001 0.005 0.006 0.009 0.016 0.041 0.086 0.198 0.388 0.496 0.480 0.383 0.307 0.203 0.125 0.064 0.039 0.029 0.026 0.037 0.099 0.068 0.029 0.004 0.000 0.000 0.000 0.000 0.000 0.000 0.000 0.000 0.000 0.000 0.000 0.000 0.000
0.000 0.000 0.000 0.000 0.000 0.000 0.004 0.005 0.007 0.015 0.029 0.063 0.150 0.293 0.429 0.492 0.405 0.311 0.258 0.145 0.074 0.042 0.032 0.031 0.040 0.096 0.072 0.030 0.023 0.000 0.000 0.000 0.000 0.000 0.000 0.000 0.000 0.000 0.000 0.000 0.000 0.000
0.000 0.000 0.000 0.000 0.000 0.000 0.003 0.004 0.005 0.014 0.027 0.047 0.104 0.236 0.385 0.468 0.403 0.322 0.302 0.183 0.094 0.046 0.041 0.036 0.045 0.096 0.073 0.032 0.029 0.000 0.000 0.000 0.000 0.000 0.000 0.000 0.000 0.000 0.000 0.000 0.000 0.000
0.000 0.000 0.000 0.000 0.000 0.000 0.002 0.004 0.004 0.013 0.026 0.035 0.070 0.185 0.309 0.405 0.402 0.348 0.308 0.208 0.113 0.060 0.049 0.042 0.040 0.089 0.075 0.033 0.022 0.006 0.000 0.000 0.000 0.000 0.000 0.000 0.000 0.000 0.000 0.000 0.000 0.000
0.000 0.000 0.000 0.000 0.000 0.000 0.001 0.003 0.004 0.011 0.018 0.026 0.052 0.133 0.233 0.325 0.383 0.371 0.304 0.264 0.157 0.078 0.054 0.040 0.035 0.084 0.078 0.033 0.018 0.020 0.000 0.000 0.000 0.000 0.000 0.000 0.000 0.000 0.000 0.000 0.000 0.000
0.000 0.000 0.000 0.000 0.000 0.000 0.000 0.002 0.003 0.009 0.013 0.017 0.035 0.098 0.176 0.265 0.369 0.336 0.322 0.298 0.204 0.101 0.060 0.041 0.035 0.080 0.081 0.036 0.016 0.018 0.005 0.000 0.000 0.000 0.000 0.000 0.000 0.000 0.000 0.000 0.000 0.000
0.000 0.000 0.000 0.000 0.000 0.000 0.000 0.001 0.002 0.007 0.010 0.011 0.024 0.059 0.133 0.257 0.348 0.346 0.359 0.355 0.267 0.125 0.069 0.046 0.042 0.075 0.085 0.039 0.014 0.013 0.014 0.000 0.000 0.000 0.000 0.000 0.000 0.000 0.000 0.000 0.000 0.000
0.000 0.000 0.000 0.000 0.000 0.000 0.000 0.000 0.002 0.005 0.006 0.006 0.014 0.046 0.103 0.218 0.314 0.347 0.390 0.414 0.293 0.150 0.077 0.051 0.040 0.080 0.094 0.042 0.012 0.011 0.012 0.005 0.000 0.000 0.000 0.000 0.000 0.000 0.000 0.000 0.000 0.000
0.000 0.000 0.000 0.000 0.000 0.000 0.000 0.000 0.002 0.004 0.002 0.003 0.009 0.030 0.079 0.238 0.287 0.362 0.403 0.441 0.308 0.173 0.100 0.062 0.046 0.080 0.093 0.045 0.013 0.010 0.009 0.012 0.002 0.000 0.000 0.000 0.000 0.000 0.000 0.000 0.000 0.000
0.000 0.000 0.000 0.000 0.000 0.000 0.000 0.000 0.003 0.002 0.001 0.002 0.004 0.021 0.066 0.182 0.243 0.305 0.372 0.400 0.336 0.221 0.151 0.074 0.060 0.074 0.093 0.051 0.014 0.008 0.008 0.009 0.008 0.000 0.000 0.000 0.000 0.000 0.000 0.000 0.000 0.000
0.000 0.000 0.000 0.000 0.000 0.000 0.000 0.000 0.001 0.002 0.001 0.001 0.003 0.015 0.055 0.211 0.213 0.236 0.304 0.367 0.387 0.278 0.171 0.111 0.113 0.083 0.088 0.056 0.013 0.006 0.007 0.007 0.007 0.003 0.000 0.000 0.000 0.000 0.000 0.000 0.000 0.000
0.000 0.000 0.000 0.000 0.000 0.000 0.000 0.000 0.000 0.001 0.001 0.001 0.002 0.013 0.047 0.138 0.153 0.179 0.250 0.359 0.427 0.308 0.199 0.160 0.155 0.112 0.085 0.060 0.013 0.005 0.005 0.005 0.006 0.015 0.000 0.000 0.000 0.000 0.000 0.000 0.000 0.000
0.000 0.000 0.000 0.000 0.000 0.000 0.000 0.000 0.000 0.000 0.001 0.001 0.002 0.009 0.058 0.106 0.139 0.152 0.200 0.337 0.445 0.348 0.220 0.178 0.172 0.124 0.099 0.064 0.016 0.005 0.004 0.004 0.004 0.011 0.003 0.000 0.000 0.000 0.000 0.000 0.000 0.000
0.000 0.000 0.000 0.000 0.000 0.000 0.000 0.000 0.000 0.000 0.000 0.002 0.001 0.002 0.027 0.096 0.135 0.141 0.192 0.296 0.387 0.310 0.217 0.166 0.167 0.148 0.116 0.077 0.022 0.006 0.003 0.003 0.003 0.008 0.016 0.000 0.000 0.000 0.000 0.000 0.000 0.000
0.000 0.000 0.000 0.000 0.000 0.000 0.000 0.000 0.000 0.000 0.000 0.001 0.001 0.001 0.008 0.073 0.125 0.134 0.163 0.250 0.305 0.292 0.222 0.196 0.212 0.186 0.150 0.090 0.028 0.008 0.003 0.002 0.003 0.006 0.016 0.001 0.000 0.000 0.000 0.000 0.000 0.000
0.000 0.000 0.000 0.000 0.000 0.000 0.000 0.000 0.000 0.000 0.000 0.000 0.001 0.001 0.002 0.077 0.104 0.122 0.152 0.219 0.293 0.280 0.242 0.279 0.282 0.215 0.207 0.126 0.044 0.012 0.004 0.003 0.003 0.004 0.007 0.003 0.000 0.000 0.000 0.000 0.000 0.000
0.000 0.000 0.000 0.000 0.000 0.000 0.000 0.000 0.000 0.000 0.000 0.000 0.000 0.002 0.001 0.025 0.065 0.090 0.136 0.207 0.261 0.266 0.295 0.409 0.392 0.253 0.479 0.207 0.066 0.020 0.006 0.003 0.002 0.003 0.006 0.006 0.000 0.000 0.000 0.000 0.000 0.000
0.000 0.000 0.000 0.000 0.000 0.000 0.000 0.000 0.000 0.000 0.000 0.000 0.000 0.001 0.000 0.007 0.030 0.053 0.111 0.197 0.238 0.232 0.227 0.407 0.373 0.996 0.461 0.235 0.094 0.040 0.012 0.004 0.014 0.003 0.008 0.006 0.000 0.000 0.000 0.000 0.000 0.000
0.000 0.000 0.000 0.000 0.000 0.000 0.000 0.000 0.000 0.000 0.000 0.000 0.000 0.000 0.000 0.002 0.008 0.027 0.083 0.160 0.220 0.243 0.260 0.485 1.503 1.176 0.394 0.282 0.125 0.053 0.019 0.039 0.019 0.015 0.006 0.003 0.003 0.000 0.000 0.000 0.000 0.000
0.000 0.000 0.000 0.000 0.000 0.000 0.000 0.000 0.000 0.000 0.000 0.000 0.000 0.000 0.000 0.001 0.002 0.012 0.055 0.080 0.126 0.221 0.475 0.912 1.829 0.956 0.613 0.346 0.161 0.084 0.047 0.031 0.025 0.029 0.005 0.003 0.006 0.000 0.000 0.000 0.000 0.000
0.000 0.000 0.000 0.000 0.000 0.000 0.000 0.000 0.000 0.000 0.000 0.000 0.000 0.000 0.000 0.002 0.002 0.005 0.014 0.026 0.058 0.166 0.397 0.847 1.146 1.064 0.778 0.339 0.193 0.125 0.061 0.021 0.041 0.035 0.007 0.003 0.004 0.002 0.000 0.000 0.000 0.000
0.000 0.000 0.000 0.000 0.000 0.000 0.000 0.000 0.000 0.000 0.000 0.000 0.000 0.000 0.000 0.001 0.001 0.003 0.003 0.008 0.032 0.111 0.306 0.597 0.699 1.039 0.562 0.371 0.208 0.148 0.074 0.036 0.096 0.059 0.010 0.004 0.002 0.005 0.000 0.000 0.000 0.000
0.000 0.000 0.000 0.000 0.000 0.000 0.000 0.000 0.000 0.000 0.000 0.000 0.000 0.000 0.000 0.000 0.002 0.002 0.001 0.001 0.009 0.045 0.166 0.409 0.722 0.837 0.507 0.404 0.236 0.188 0.104 0.083 0.108 0.031 0.013 0.008 0.003 0.003 0.002 0.000 0.000 0.000
0.000 0.000 0.000 0.000 0.000 0.000 0.000 0.000 0.000 0.000 0.000 0.000 0.000 0.000 0.000 0.000 0.002 0.001 0.000 0.000 0.003 0.016 0.097 0.273 0.890 0.485 0.496 0.444 0.272 0.191 0.114 0.097 0.066 0.028 0.019 0.014 0.005 0.002 0.005 0.001 0.000 0.000
0.000 0.000 0.000 0.000 0.000 0.000 0.000 0.000 0.000 0.000 0.000 0.000 0.000 0.000 0.000 0.000 0.000 0.001 0.000 0.000 0.001 0.007 0.038 0.138 0.394 0.427 0.506 0.518 0.288 0.194 0.139 0.121 0.060 0.024 0.017 0.013 0.009 0.003 0.002 0.002 0.001 0.000
0.000 0.000 0.000 0.000 0.000 0.000 0.000 0.000 0.000 0.000 0.000 0.000 0.000 0.000 0.000 0.000 0.000 0.000 0.001 0.000 0.000 0.001 0.012 0.076 0.228 0.366 0.575 0.466 0.277 0.265 0.237 0.158 0.058 0.020 0.014 0.013 0.010 0.003 0.001 0.001 0.002 0.000
0.000 0.000 0.000 0.000 0.000 0.000 0.000 0.000 0.000 0.000 0.000 0.000 0.000 0.000 0.000 0.000 0.000 0.000 0.000 0.001 0.000 0.001 0.001 0.018 0.084 0.934 1.024 0.473 0.336 0.304 0.328 0.194 0.075 0.023 0.012 0.016 0.012 0.004 0.001 0.001 0.001 0.002
0.000 0.000 0.000 0.000 0.000 0.000 0.000 0.000 0.000 0.000 0.000 0.000 0.000 0.000 0.000 0.000 0.000 0.000 0.000 0.000 0.000 0.000 0.000 0.004 0.027 0.711 1.222 0.531 0.423 0.373 0.436 0.239 0.111 0.037 0.018 0.032 0.017 0.007 0.002 0.001 0.001 0.001
0.000 0.000 0.000 0.000 0.000 0.000 0.000 0.000 0.000 0.000 0.000 0.000 0.000 0.000 0.000 0.000 0.000 0.000 0.000 0.000 0.001 0.000 0.000 0.002 0.056 0.461 0.785 0.441 0.824 0.617 0.392 0.233 0.151 0.066 0.043 0.024 0.021 0.009 0.002 0.001 0.001 0.001
0.000 0.000 0.000 0.000 0.000 0.000 0.000 0.000 0.000 0.000 0.000 0.000 0.000 0.000 0.000 0.000 0.000 0.000 0.000 0.000 0.000 0.000 0.000 0.001 0.011 0.279 0.559 0.645 0.546 0.505 0.362 0.238 0.179 0.073 0.037 0.022 0.020 0.011 0.004 0.002 0.001 0.001
0.000 0.000 0.000 0.000 0.000 0.000 0.000 0.000 0.000 0.000 0.000 0.000 0.000 0.000 0.000 0.000 0.000 0.000 0.000 0.000 0.000 0.002 0.000 0.001 0.004 0.070 0.237 0.361 0.477 0.458 0.395 0.367 0.202 0.087 0.041 0.025 0.024 0.016 0.009 0.002 0.001 0.000
0.000 0.000 0.000 0.000 0.000 0.000 0.000 0.000 0.000 0.000 0.000 0.000 0.000 0.000 0.000 0.000 0.000 0.000 0.000 0.000 0.000 0.000 0.000 0.001 0.002 0.044 0.094 0.187 0.412 0.468 0.583 0.394 0.214 0.099 0.054 0.030 0.024 0.026 0.011 0.003 0.001 0.001
0.000 0.000 0.000 0.000 0.000 0.000 0.000 0.000 0.000 0.000 0.000 0.000 0.000 0.000 0.000 0.000 0.000 0.000 0.000 0.000 0.000 0.000 0.001 0.001 0.001 0.013 0.044 0.079 0.306 0.465 0.501 0.341 0.230 0.137 0.079 0.037 0.040 0.094 0.017 0.006 0.002 0.001
0.000 0.000 0.000 0.000 0.000 0.000 0.000 0.000 0.000 0.000 0.000 0.000 0.000 0.000 0.000 0.000 0.000 0.000 0.000 0.000 0.000 0.000 0.001 0.000 0.000 0.004 0.013 0.029 0.164 0.372 0.625 0.363 0.259 0.183 0.108 0.079 0.153 0.101 0.046 0.011 0.004 0.001
0.000 0.000 0.000 0.000 0.000 0.000 0.000 0.000 0.000 0.000 0.000 0.000 0.000 0.000 0.000 0.000 0.000 0.000 0.000 0.000 0.000 0.000 0.001 0.001 0.000 0.003 0.004 0.009 0.070 0.981 0.620 0.363 0.248 0.190 0.141 0.110 0.154 0.096 0.076 0.040 0.006 0.002
0.000 0.000 0.000 0.000 0.000 0.000 0.000 0.000 0.000 0.000 0.000 0.000 0.000 0.000 0.000 0.000 0.000 0.000 0.000 0.000 0.000 0.000 0.000 0.001 0.014 0.001 0.002 0.029 0.144 0.759 0.464 0.307 0.244 0.196 0.154 0.092 0.155 0.168 0.132 0.046 0.038 0.004
0.000 0.000 0.000 0.000 0.000 0.000 0.000 0.000 0.000 0.000 0.000 0.000 0.000 0.000 0.000 0.000 0.000 0.000 0.000 0.000 0.000 0.000 0.000 0.001 0.002 0.001 0.001 0.041 0.075 0.486 0.321 0.295 0.259 0.214 0.159 0.088 0.308 0.216 0.121 0.125 0.088 0.004
0.000 0.000 0.000 0.000 0.000 0.000 0.000 0.000 0.000 0.000 0.000 0.000 0.000 0.000 0.000 0.000 0.000 0.000 0.000 0.000 0.000 0.000 0.000 0.000 0.001 0.001 0.001 0.050 0.193 0.128 0.203 0.252 0.258 0.217 0.194 0.216 0.424 0.167 0.214 0.173 0.060 0.005
0.000 0.000 0.000 0.000 0.000 0.000 0.000 0.000 0.000 0.000 0.000 0.000 0.000 0.000 0.000 0.000 0.000 0.000 0.000 0.000 0.000 0.000 0.000 0.000 0.001 0.001 0.001 0.013 0.098 0.033 0.110 0.165 0.189 0.205 0.242 0.315 0.174 0.252 0.267 0.196 0.116 0.035
0.000 0.000 0.000 0.000 0.000 0.000 0.000 0.000 0.000 0.000 0.000 0.000 0.000 0.000 0.000 0.000 0.000 0.000 0.000 0.000 0.000 0.000 0.000 0.000 0.000 0.001 0.001 0.016 0.007 0.011 0.055 0.114 0.140 0.196 0.228 0.224 0.189 0.203 0.239 0.227 0.177 0.053
0.000 0.000 0.000 0.000 0.000 0.000 0.000 0.000 0.000 0.000 0.000 0.000 0.000 0.000 0.000 0.000 0.000 0.000 0.000 0.000 0.000 0.000 0.000 0.000 0.000 0.001 0.002 0.005 0.002 0.005 0.033 0.092 0.122 0.163 0.226 0.238 0.178 0.137 0.162 0.185 0.256 0.081
0.000 0.000 0.000 0.000 0.000 0.000 0.000 0.000 0.000 0.000 0.000 0.000 0.000 0.000 0.000 0.000 0.000 0.000 0.000 0.000 0.000 0.000 0.000 0.000 0.000 0.000 0.011 0.001 0.000 0.001 0.019 0.090 0.096 0.115 0.166 0.202 0.184 0.106 0.082 0.120 0.129 0.083
0.000 0.000 0.000 0.000 0.000 0.000 0.000 0.000 0.000 0.000 0.000 0.000 0.000 0.000 0.000 0.000 0.000 0.000 0.000 0.000 0.000 0.000 0.000 0.000 0.000 0.000 0.001 0.000 0.000 0.001 0.009 0.086 0.090 0.083 0.123 0.162 0.179 0.110 0.054 0.046 0.046 0.104
0.000 0.000 0.000 0.000 0.000 0.000 0.000 0.000 0.000 0.000 0.000 0.000 0.000 0.000 0.000 0.000 0.000 0.000 0.000 0.000 0.000 0.000 0.000 0.000 0.000 0.000 0.000 0.000 0.000 0.001 0.003 0.081 0.101 0.081 0.114 0.147 0.166 0.096 0.048 0.040 0.048 0.089
0.000 0.000 0.000 0.000 0.000 0.000 0.000 0.000 0.000 0.000 0.000 0.000 0.000 0.000 0.000 0.000 0.000 0.000 0.000 0.000 0.000 0.000 0.000 0.000 0.000 0.000 0.000 0.001 0.000 0.001 0.001 0.046 0.099 0.076 0.111 0.146 0.163 0.090 0.047 0.038 0.047 0.066
0.000 0.000 0.000 0.000 0.000 0.000 0.000 0.000 0.000 0.000 0.000 0.000 0.000 0.000 0.000 0.000 0.000 0.000 0.000 0.000 0.000 0.000 0.000 0.000 0.000 0.000 0.000 0.000 0.000 0.000 0.001 0.028 0.049 0.062 0.095 0.148 0.170 0.088 0.047 0.037 0.038 0.037
0.000 0.000 0.000 0.000 0.000 0.000 0.000 0.000 0.000 0.000 0.000 0.000 0.000 0.000 0.000 0.000 0.000 0.000 0.000 0.000 0.000 0.000 0.000 0.000 0.000 0.000 0.000 0.000 0.001 0.001 0.004 0.012 0.020 0.040 0.080 0.144 0.178 0.091 0.049 0.039 0.032 0.022
0.000 0.000 0.000 0.000 0.000 0.000 0.000 0.000 0.000 0.000 0.000 0.000 0.000 0.000 0.000 0.000 0.000 0.000 0.000 0.000 0.000 0.000 0.000 0.000 0.000 0.000 0.000 0.000 0.000 0.000 0.001 0.004 0.008 0.023 0.055 0.124 0.185 0.105 0.050 0.042 0.030 0.020
0.000 0.000 0.000 0.000 0.000 0.000 0.000 0.000 0.000 0.000 0.000 0.000 0.000 0.000 0.000 0.000 0.000 0.000 0.000 0.000 0.000 0.000 0.000 0.000 0.000 0.000 0.000 0.000 0.000 0.000 0.001 0.001 0.003 0.010 0.028 0.091 0.171 0.118 0.050 0.043 0.035 0.037
0.000 0.000 0.000 0.000 0.000 0.000 0.000 0.000 0.000 0.000 0.000 0.000 0.000 0.000 0.000 0.000 0.000 0.000 0.000 0.000 0.000 0.000 0.000 0.000 0.000 0.000 0.000 0.000 0.000 0.001 0.001 0.001 0.001 0.005 0.011 0.057 0.142 0.122 0.049 0.038 0.043 0.036
0.000 0.000 0.000 0.000 0.000 0.000 0.000 0.000 0.000 0.000 0.000 0.000 0.000 0.000 0.000 0.000 0.000 0.000 0.000 0.000 0.000 0.000 0.000 0.000 0.000 0.000 0.000 0.000 0.000 0.000 0.001 0.001 0.001 0.003 0.004 0.038 0.114 0.121 0.047 0.031 0.037 0.016
0.000 0.000 0.000 0.000 0.000 0.000 0.000 0.000 0.000 0.000 0.000 0.000 0.000 0.000 0.000 0.000 0.000 0.000 0.000 0.000 0.000 0.000 0.000 0.000 0.000 0.000 0.000 0.000 0.000 0.000 0.001 0.000 0.000 0.002 0.004 0.020 0.084 0.115 0.051 0.029 0.033 0.012
0.000 0.000 0.000 0.000 0.000 0.000 0.000 0.000 0.000 0.000 0.000 0.000 0.000 0.000 0.000 0.000 0.000 0.000 0.000 0.000 0.000 0.000 0.000 0.000 0.000 0.000 0.000 0.000 0.000 0.000 0.000 0.000 0.000 0.002 0.004 0.011 0.064 0.112 0.061 0.036 0.036 0.011
0.000 0.000 0.000 0.000 0.000 0.000 0.000 0.000 0.000 0.000 0.000 0.000 0.000 0.000 0.000 0.000 0.000 0.000 0.000 0.000 0.000 0.000 0.000 0.000 0.000 0.000 0.000 0.000 0.000 0.000 0.000 0.000 0.000 0.002 0.004 0.009 0.046 0.098 0.067 0.043 0.039 0.011
0.000 0.000 0.000 0.000 0.000 0.000 0.000 0.000 0.000 0.000 0.000 0.000 0.000 0.000 0.000 0.000 0.000 0.000 0.000 0.000 0.000 0.000 0.000 0.000 0.000 0.000 0.000 0.000 0.000 0.000 0.000 0.000 0.000 0.002 0.003 0.009 0.039 0.076 0.069 0.044 0.034 0.011
0.000 0.000 0.000 0.000 0.000 0.000 0.000 0.000 0.000 0.000 0.000 0.000 0.000 0.000 0.000 0.000 0.000 0.000 0.000 0.000 0.000 0.000 0.000 0.000 0.000 0.000 0.000 0.000 0.000 0.000 0.000 0.000 0.000 0.001 0.003 0.009 0.032 0.061 0.063 0.041 0.033 0.010
0.000 0.000 0.000 0.000 0.000 0.000 0.000 0.000 0.000 0.000 0.000 0.000 0.000 0.000 0.000 0.000 0.000 0.000 0.000 0.000 0.000 0.000 0.000 0.000 0.000 0.000 0.000 0.000 0.000 0.000 0.000 0.000 0.000 0.001 0.002 0.007 0.027 0.047 0.050 0.042 0.038 0.009
0.000 0.000 0.000 0.000 0.000 0.000 0.000 0.000 0.000 0.000 0.000 0.000 0.000 0.000 0.000 0.000 0.000 0.000 0.000 0.000 0.000 0.000 0.000 0.000 0.000 0.000 0.000 0.000 0.000 0.000 0.000 0.000 0.001 0.001 0.002 0.008 0.021 0.036 0.042 0.041 0.040 0.012
0.000 0.000 0.000 0.000 0.000 0.000 0.000 0.000 0.000 0.000 0.000 0.000 0.000 0.000 0.000 0.000 0.000 0.000 0.000 0.000 0.000 0.000 0.000 0.000 0.000 0.000 0.000 0.000 0.000 0.000 0.000 0.000 0.000 0.001 0.002 0.007 0.017 0.029 0.035 0.033 0.046 0.033
0.000 0.000 0.000 0.000 0.000 0.000 0.000 0.000 0.000 0.000 0.000 0.000 0.000 0.000 0.000 0.000 0.000 0.000 0.000 0.000 0.000 0.000 0.000 0.000 0.000 0.000 0.000 0.000 0.000 0.000 0.000 0.000 0.000 0.001 0.003 0.006 0.013 0.023 0.023 0.031 0.098 0.030
0.000 0.000 0.000 0.000 0.000 0.000 0.000 0.000 0.000 0.000 0.000 0.000 0.000 0.000 0.000 0.000 0.000 0.000 0.000 0.000 0.000 0.000 0.000 0.000 0.000 0.000 0.000 0.000 0.000 0.000 0.000 0.000 0.001 0.001 0.002 0.003 0.007 0.014 0.011 0.017 0.166 0.037
