ncols        30
nrows        46
xllcorner    409787.8
yllcorner    6870674.1
cellsize     5.00
NODATA_value -9999
0.000 0.000 0.000 0.000 0.000 0.005 0.021 0.037 0.046 0.044 0.031 0.015 0.003 0.000 0.000 0.000 0.000 0.000 0.000 0.000 0.000 0.000 0.000 0.000 0.000 0.000 0.000 0.000 0.000 0.000
0.000 0.000 0.000 0.001 0.018 0.060 0.098 0.130 0.143 0.131 0.099 0.063 0.034 0.010 0.000 0.000 0.000 0.000 0.000 0.000 0.000 0.000 0.000 0.000 0.000 0.000 0.000 0.000 0.000 0.000
0.000 0.000 0.002 0.026 0.085 0.159 0.250 0.323 0.349 0.306 0.236 0.159 0.086 0.047 0.019 0.001 0.000 0.000 0.000 0.000 0.000 0.000 0.000 0.000 0.000 0.000 0.000 0.000 0.000 0.000
0.000 0.000 0.018 0.084 0.188 0.345 0.514 0.640 0.667 0.587 0.472 0.316 0.197 0.113 0.053 0.023 0.001 0.000 0.000 0.000 0.000 0.000 0.000 0.000 0.000 0.000 0.000 0.000 0.000 0.000
0.000 0.008 0.065 0.164 0.350 0.605 0.866 1.025 1.083 0.968 0.781 0.574 0.418 0.256 0.129 0.055 0.027 0.002 0.000 0.000 0.000 0.000 0.000 0.000 0.000 0.000 0.000 0.000 0.000 0.000
0.001 0.028 0.113 0.276 0.543 0.893 1.235 1.455 1.562 1.431 1.191 0.945 0.736 0.464 0.253 0.136 0.064 0.030 0.003 0.000 0.000 0.000 0.000 0.000 0.000 0.000 0.000 0.000 0.000 0.000
0.005 0.057 0.170 0.394 0.724 1.141 1.534 1.863 1.959 1.789 1.598 1.421 1.138 0.755 0.476 0.307 0.162 0.069 0.033 0.003 0.000 0.000 0.000 0.000 0.000 0.000 0.000 0.000 0.000 0.000
0.013 0.080 0.222 0.487 0.860 1.294 1.759 2.158 2.238 2.110 2.056 1.917 1.602 1.139 0.844 0.591 0.325 0.169 0.064 0.030 0.002 0.000 0.000 0.000 0.000 0.000 0.000 0.000 0.000 0.000
0.020 0.096 0.259 0.541 0.912 1.328 1.794 2.205 2.280 2.336 2.452 2.330 2.058 1.674 1.348 0.938 0.575 0.320 0.151 0.060 0.026 0.001 0.000 0.000 0.000 0.000 0.000 0.000 0.000 0.000
0.025 0.101 0.264 0.530 0.858 1.229 1.662 2.069 2.247 2.496 2.577 2.613 2.546 2.284 1.879 1.424 0.896 0.547 0.309 0.135 0.043 0.016 0.000 0.000 0.000 0.000 0.000 0.000 0.000 0.000
0.025 0.093 0.246 0.486 0.770 1.092 1.457 1.794 2.022 2.263 2.539 2.970 2.950 2.726 2.454 1.948 1.304 0.862 0.501 0.221 0.084 0.033 0.007 0.000 0.000 0.000 0.000 0.000 0.000 0.000
0.021 0.078 0.209 0.415 0.649 0.925 1.236 1.475 1.697 2.036 2.552 3.014 3.110 3.219 2.993 2.414 1.767 1.207 0.716 0.354 0.155 0.056 0.025 0.001 0.000 0.000 0.000 0.000 0.000 0.000
0.015 0.059 0.164 0.323 0.523 0.747 0.968 1.186 1.428 1.754 2.279 2.729 3.183 3.368 3.218 2.712 2.236 1.611 0.978 0.514 0.244 0.095 0.032 0.016 0.000 0.000 0.000 0.000 0.000 0.000
0.009 0.043 0.117 0.241 0.399 0.551 0.715 0.932 1.089 1.348 1.872 2.449 2.976 3.212 3.191 2.923 2.616 1.916 1.254 0.710 0.343 0.137 0.051 0.021 0.002 0.000 0.000 0.000 0.000 0.000
0.004 0.031 0.082 0.174 0.287 0.399 0.527 0.643 0.759 1.095 1.533 1.995 2.421 2.756 2.949 3.113 2.839 2.221 1.550 0.901 0.424 0.187 0.071 0.026 0.017 0.000 0.000 0.000 0.000 0.000
0.001 0.020 0.052 0.120 0.209 0.305 0.383 0.459 0.597 0.842 1.145 1.500 1.935 2.288 2.826 3.073 2.847 2.436 1.668 1.009 0.491 0.224 0.093 0.039 0.018 0.001 0.000 0.000 0.000 0.000
0.000 0.011 0.038 0.088 0.161 0.229 0.302 0.373 0.456 0.599 0.806 1.150 1.538 1.920 2.479 2.731 2.712 2.381 1.660 1.056 0.564 0.282 0.123 0.048 0.021 0.014 0.000 0.000 0.000 0.000
0.000 0.004 0.030 0.074 0.139 0.208 0.264 0.309 0.353 0.442 0.611 0.829 1.031 1.522 2.018 2.385 2.403 2.114 1.605 1.134 0.661 0.342 0.150 0.065 0.031 0.015 0.000 0.000 0.000 0.000
0.000 0.002 0.030 0.082 0.156 0.224 0.262 0.273 0.296 0.351 0.442 0.552 0.795 1.193 1.501 1.844 2.133 1.906 1.549 1.215 0.761 0.401 0.184 0.078 0.037 0.015 0.008 0.000 0.000 0.000
0.000 0.004 0.054 0.123 0.216 0.281 0.302 0.295 0.291 0.284 0.318 0.424 0.610 0.840 1.145 1.586 1.789 1.599 1.605 1.257 0.779 0.437 0.208 0.091 0.044 0.021 0.013 0.000 0.000 0.000
0.000 0.017 0.089 0.196 0.310 0.379 0.359 0.308 0.268 0.262 0.290 0.361 0.460 0.596 0.861 1.172 1.302 1.550 1.547 1.160 0.830 0.451 0.226 0.102 0.048 0.023 0.009 0.000 0.000 0.000
0.003 0.050 0.140 0.284 0.413 0.467 0.408 0.332 0.276 0.265 0.277 0.299 0.353 0.440 0.601 0.814 1.102 1.369 1.368 1.174 0.810 0.449 0.229 0.119 0.061 0.030 0.010 0.005 0.000 0.000
0.010 0.074 0.196 0.369 0.493 0.524 0.442 0.342 0.290 0.280 0.260 0.276 0.299 0.334 0.430 0.640 0.913 1.171 1.277 1.108 0.778 0.458 0.260 0.147 0.076 0.037 0.017 0.016 0.000 0.000
0.020 0.098 0.241 0.415 0.520 0.526 0.436 0.339 0.300 0.265 0.250 0.255 0.278 0.283 0.316 0.471 0.714 0.978 1.096 0.996 0.774 0.510 0.297 0.158 0.090 0.045 0.024 0.010 0.000 0.000
0.030 0.117 0.272 0.427 0.510 0.485 0.410 0.336 0.285 0.255 0.240 0.237 0.246 0.224 0.250 0.351 0.542 0.764 0.917 0.932 0.801 0.550 0.302 0.164 0.102 0.051 0.028 0.010 0.010 0.000
0.039 0.129 0.279 0.407 0.457 0.451 0.369 0.312 0.285 0.237 0.210 0.201 0.213 0.203 0.200 0.258 0.395 0.589 0.799 0.881 0.782 0.549 0.301 0.174 0.113 0.068 0.037 0.020 0.012 0.000
0.043 0.134 0.275 0.368 0.378 0.357 0.331 0.301 0.253 0.208 0.191 0.192 0.193 0.188 0.167 0.200 0.304 0.473 0.691 0.778 0.708 0.525 0.304 0.201 0.125 0.084 0.046 0.026 0.008 0.009
0.043 0.131 0.251 0.317 0.327 0.316 0.294 0.240 0.218 0.193 0.191 0.164 0.168 0.171 0.152 0.163 0.219 0.357 0.505 0.640 0.691 0.508 0.338 0.227 0.141 0.097 0.059 0.027 0.011 0.011
0.040 0.123 0.223 0.267 0.271 0.256 0.239 0.221 0.194 0.186 0.173 0.135 0.153 0.168 0.146 0.129 0.157 0.255 0.412 0.559 0.598 0.469 0.351 0.240 0.150 0.112 0.079 0.037 0.015 0.009
0.036 0.108 0.201 0.233 0.228 0.216 0.196 0.185 0.175 0.172 0.137 0.116 0.148 0.157 0.124 0.105 0.128 0.205 0.334 0.455 0.496 0.465 0.379 0.247 0.169 0.140 0.104 0.054 0.022 0.012
0.031 0.095 0.174 0.199 0.192 0.180 0.160 0.160 0.166 0.143 0.108 0.120 0.141 0.139 0.109 0.099 0.109 0.157 0.244 0.352 0.437 0.464 0.366 0.242 0.201 0.155 0.121 0.057 0.027 0.014
0.027 0.078 0.146 0.174 0.164 0.143 0.133 0.141 0.128 0.104 0.113 0.122 0.119 0.125 0.109 0.092 0.091 0.118 0.189 0.277 0.368 0.395 0.326 0.268 0.214 0.168 0.121 0.065 0.033 0.016
0.023 0.065 0.124 0.148 0.137 0.119 0.116 0.116 0.102 0.109 0.118 0.114 0.110 0.115 0.100 0.085 0.080 0.094 0.140 0.218 0.307 0.349 0.322 0.267 0.214 0.168 0.123 0.072 0.041 0.022
0.020 0.053 0.102 0.127 0.114 0.098 0.090 0.097 0.105 0.109 0.109 0.100 0.102 0.115 0.103 0.078 0.066 0.073 0.115 0.180 0.253 0.321 0.320 0.263 0.213 0.180 0.127 0.082 0.046 0.030
0.016 0.042 0.084 0.106 0.102 0.083 0.083 0.094 0.097 0.100 0.087 0.084 0.101 0.109 0.093 0.071 0.057 0.067 0.086 0.139 0.212 0.271 0.288 0.252 0.204 0.163 0.130 0.087 0.052 0.038
0.013 0.034 0.069 0.089 0.086 0.079 0.076 0.082 0.087 0.089 0.081 0.088 0.103 0.097 0.083 0.068 0.055 0.053 0.071 0.114 0.176 0.239 0.261 0.234 0.181 0.155 0.132 0.094 0.058 0.036
0.010 0.027 0.056 0.077 0.073 0.069 0.070 0.069 0.074 0.081 0.077 0.085 0.091 0.078 0.074 0.062 0.046 0.046 0.061 0.089 0.137 0.194 0.239 0.213 0.169 0.144 0.127 0.099 0.061 0.037
0.006 0.023 0.051 0.063 0.063 0.066 0.065 0.060 0.065 0.074 0.078 0.074 0.078 0.068 0.061 0.054 0.043 0.041 0.049 0.070 0.114 0.177 0.212 0.196 0.166 0.131 0.121 0.107 0.067 0.040
0.003 0.018 0.039 0.052 0.056 0.062 0.056 0.049 0.051 0.060 0.067 0.065 0.065 0.060 0.052 0.043 0.040 0.037 0.043 0.056 0.088 0.141 0.191 0.182 0.148 0.123 0.120 0.109 0.073 0.041
0.001 0.015 0.030 0.044 0.052 0.053 0.048 0.044 0.044 0.049 0.057 0.053 0.054 0.051 0.045 0.042 0.038 0.036 0.038 0.045 0.067 0.128 0.167 0.163 0.135 0.117 0.120 0.108 0.072 0.042
0.000 0.011 0.023 0.037 0.045 0.046 0.045 0.040 0.037 0.041 0.046 0.045 0.045 0.043 0.045 0.041 0.036 0.033 0.033 0.039 0.051 0.102 0.139 0.147 0.126 0.118 0.114 0.096 0.071 0.041
0.000 0.007 0.020 0.032 0.039 0.041 0.041 0.037 0.035 0.038 0.043 0.042 0.043 0.044 0.043 0.040 0.037 0.033 0.032 0.032 0.041 0.075 0.116 0.124 0.116 0.106 0.097 0.091 0.068 0.039
0.000 0.003 0.016 0.026 0.033 0.034 0.040 0.039 0.030 0.036 0.041 0.036 0.042 0.042 0.040 0.039 0.036 0.032 0.029 0.026 0.039 0.060 0.092 0.116 0.111 0.093 0.086 0.075 0.056 0.037
0.000 0.001 0.013 0.022 0.028 0.031 0.040 0.036 0.032 0.037 0.036 0.036 0.041 0.039 0.037 0.037 0.035 0.032 0.026 0.025 0.036 0.047 0.068 0.100 0.092 0.077 0.067 0.058 0.047 0.036
0.000 0.000 0.008 0.018 0.024 0.028 0.033 0.033 0.032 0.033 0.034 0.036 0.037 0.035 0.033 0.034 0.033 0.030 0.025 0.025 0.032 0.038 0.046 0.071 0.071 0.057 0.048 0.044 0.041 0.034
0.000 0.000 0.004 0.015 0.019 0.023 0.025 0.027 0.028 0.030 0.032 0.032 0.031 0.030 0.030 0.031 0.029 0.024 0.021 0.019 0.024 0.028 0.032 0.042 0.046 0.039 0.035 0.035 0.036 0.029
