ncols        38
nrows        84
xllcorner    409642.8
yllcorner    6870789.1
cellsize     5.00
NODATA_value -9999
0.000 0.000 0.000 0.000 0.000 0.000 0.000 0.000 0.000 0.000 0.000 0.000 0.000 0.000 0.000 0.000 0.000 0.000 0.000 0.000 0.000 0.000 0.000 0.000 0.000 0.000 0.000 0.000 0.000 0.000 0.000 0.000 0.000 0.000 0.000 0.000 0.000 0.000
0.000 0.000 0.001 0.017 0.053 0.082 0.082 0.057 0.024 0.002 0.000 0.000 0.000 0.000 0.000 0.000 0.000 0.000 0.000 0.000 0.000 0.000 0.000 0.000 0.000 0.000 0.000 0.000 0.000 0.000 0.000 0.000 0.000 0.000 0.000 0.000 0.000 0.000
0.000 0.001 0.018 0.080 0.153 0.230 0.223 0.144 0.071 0.033 0.006 0.000 0.000 0.000 0.000 0.000 0.000 0.000 0.000 0.000 0.000 0.000 0.000 0.000 0.000 0.000 0.000 0.000 0.000 0.000 0.000 0.000 0.000 0.000 0.000 0.000 0.000 0.000
0.000 0.007 0.068 0.179 0.341 0.503 0.469 0.321 0.172 0.074 0.038 0.008 0.000 0.000 0.000 0.000 0.000 0.000 0.000 0.000 0.000 0.000 0.000 0.000 0.000 0.000 0.000 0.000 0.000 0.000 0.000 0.000 0.000 0.000 0.000 0.000 0.000 0.000
0.001 0.026 0.123 0.329 0.597 0.811 0.868 0.584 0.315 0.164 0.070 0.038 0.015 0.000 0.000 0.000 0.000 0.000 0.000 0.000 0.000 0.000 0.000 0.000 0.000 0.000 0.000 0.000 0.000 0.000 0.000 0.000 0.000 0.000 0.000 0.000 0.000 0.000
0.006 0.064 0.189 0.465 0.800 1.275 1.342 0.878 0.534 0.261 0.125 0.073 0.043 0.020 0.001 0.000 0.000 0.000 0.000 0.000 0.000 0.000 0.000 0.000 0.000 0.000 0.000 0.000 0.000 0.000 0.000 0.000 0.000 0.000 0.000 0.000 0.000 0.000
0.012 0.100 0.225 0.552 1.142 1.745 1.686 1.308 0.765 0.367 0.207 0.122 0.069 0.043 0.022 0.001 0.000 0.000 0.000 0.000 0.000 0.000 0.000 0.000 0.000 0.000 0.000 0.000 0.000 0.000 0.000 0.000 0.000 0.000 0.000 0.000 0.000 0.000
0.022 0.080 0.260 0.740 1.383 1.970 2.079 1.669 0.943 0.487 0.268 0.162 0.096 0.058 0.043 0.022 0.003 0.000 0.000 0.000 0.000 0.000 0.000 0.000 0.000 0.000 0.000 0.000 0.000 0.000 0.000 0.000 0.000 0.000 0.000 0.000 0.000 0.000
0.019 0.077 0.395 0.879 1.496 2.208 2.398 1.905 1.214 0.643 0.349 0.200 0.118 0.086 0.059 0.043 0.030 0.012 0.001 0.000 0.000 0.000 0.000 0.000 0.000 0.000 0.000 0.000 0.000 0.000 0.000 0.000 0.000 0.000 0.000 0.000 0.000 0.000
0.016 0.108 0.387 0.899 1.569 2.227 2.466 2.145 1.436 0.795 0.442 0.222 0.152 0.106 0.076 0.060 0.048 0.041 0.022 0.001 0.000 0.000 0.000 0.000 0.000 0.000 0.000 0.000 0.000 0.000 0.000 0.000 0.000 0.000 0.000 0.000 0.000 0.000
0.017 0.096 0.342 0.787 1.550 2.221 2.577 2.345 1.734 1.047 0.534 0.285 0.201 0.120 0.100 0.083 0.060 0.052 0.040 0.017 0.000 0.000 0.000 0.000 0.000 0.000 0.000 0.000 0.000 0.000 0.000 0.000 0.000 0.000 0.000 0.000 0.000 0.000
0.016 0.077 0.252 0.625 1.320 2.049 2.524 2.502 2.079 1.255 0.629 0.356 0.212 0.138 0.122 0.091 0.071 0.063 0.050 0.034 0.003 0.000 0.000 0.000 0.000 0.000 0.000 0.000 0.000 0.000 0.000 0.000 0.000 0.000 0.000 0.000 0.000 0.000
0.014 0.053 0.169 0.464 1.087 1.905 2.689 2.690 2.326 1.326 0.703 0.457 0.265 0.175 0.140 0.093 0.071 0.069 0.065 0.042 0.024 0.000 0.000 0.000 0.000 0.000 0.000 0.000 0.000 0.000 0.000 0.000 0.000 0.000 0.000 0.000 0.000 0.000
0.009 0.037 0.118 0.340 0.849 1.734 2.609 2.769 2.444 1.452 0.875 0.562 0.314 0.191 0.133 0.089 0.069 0.072 0.072 0.054 0.029 0.000 0.000 0.000 0.000 0.000 0.000 0.000 0.000 0.000 0.000 0.000 0.000 0.000 0.000 0.000 0.000 0.000
0.005 0.025 0.072 0.228 0.686 1.531 2.251 2.776 2.434 1.697 0.991 0.655 0.365 0.225 0.153 0.095 0.072 0.077 0.074 0.066 0.035 0.002 0.000 0.000 0.000 0.000 0.000 0.000 0.000 0.000 0.000 0.000 0.000 0.000 0.000 0.000 0.000 0.000
0.002 0.017 0.044 0.165 0.492 1.208 1.906 2.421 2.510 1.794 1.225 0.761 0.469 0.294 0.177 0.106 0.075 0.072 0.073 0.079 0.056 0.023 0.000 0.000 0.000 0.000 0.000 0.000 0.000 0.000 0.000 0.000 0.000 0.000 0.000 0.000 0.000 0.000
0.000 0.011 0.036 0.115 0.344 0.868 1.608 2.287 2.401 2.021 1.418 0.905 0.652 0.384 0.210 0.113 0.076 0.066 0.074 0.086 0.072 0.035 0.000 0.000 0.000 0.000 0.000 0.000 0.000 0.000 0.000 0.000 0.000 0.000 0.000 0.000 0.000 0.000
0.000 0.008 0.027 0.073 0.232 0.668 1.364 2.054 2.353 2.176 1.674 1.100 0.820 0.465 0.215 0.127 0.077 0.065 0.076 0.086 0.079 0.037 0.000 0.000 0.000 0.000 0.000 0.000 0.000 0.000 0.000 0.000 0.000 0.000 0.000 0.000 0.000 0.000
0.000 0.005 0.022 0.055 0.159 0.448 0.995 1.622 2.241 2.258 1.742 1.244 0.920 0.525 0.262 0.146 0.079 0.069 0.070 0.075 0.090 0.039 0.001 0.000 0.000 0.000 0.000 0.000 0.000 0.000 0.000 0.000 0.000 0.000 0.000 0.000 0.000 0.000
0.000 0.002 0.017 0.041 0.112 0.332 0.729 1.372 2.096 2.263 1.943 1.419 0.997 0.590 0.323 0.158 0.091 0.068 0.060 0.073 0.092 0.043 0.019 0.000 0.000 0.000 0.000 0.000 0.000 0.000 0.000 0.000 0.000 0.000 0.000 0.000 0.000 0.000
0.000 0.001 0.014 0.032 0.083 0.214 0.543 1.117 1.679 2.038 2.011 1.528 1.031 0.738 0.378 0.187 0.099 0.072 0.068 0.076 0.093 0.051 0.035 0.000 0.000 0.000 0.000 0.000 0.000 0.000 0.000 0.000 0.000 0.000 0.000 0.000 0.000 0.000
0.000 0.000 0.009 0.024 0.063 0.163 0.390 0.841 1.419 1.881 1.938 1.522 1.103 0.877 0.477 0.239 0.109 0.090 0.076 0.086 0.096 0.056 0.033 0.000 0.000 0.000 0.000 0.000 0.000 0.000 0.000 0.000 0.000 0.000 0.000 0.000 0.000 0.000
0.000 0.000 0.005 0.019 0.050 0.126 0.273 0.604 1.179 1.603 1.724 1.501 1.224 0.912 0.537 0.286 0.149 0.113 0.088 0.081 0.094 0.058 0.030 0.001 0.000 0.000 0.000 0.000 0.000 0.000 0.000 0.000 0.000 0.000 0.000 0.000 0.000 0.000
0.000 0.000 0.004 0.015 0.037 0.084 0.198 0.457 0.894 1.271 1.429 1.423 1.298 0.917 0.680 0.388 0.196 0.126 0.089 0.075 0.093 0.061 0.029 0.017 0.000 0.000 0.000 0.000 0.000 0.000 0.000 0.000 0.000 0.000 0.000 0.000 0.000 0.000
0.000 0.000 0.001 0.012 0.027 0.054 0.123 0.298 0.704 0.985 1.190 1.372 1.184 0.987 0.773 0.500 0.253 0.145 0.092 0.077 0.095 0.065 0.032 0.026 0.000 0.000 0.000 0.000 0.000 0.000 0.000 0.000 0.000 0.000 0.000 0.000 0.000 0.000
0.000 0.000 0.000 0.008 0.020 0.041 0.080 0.211 0.464 0.763 1.121 1.285 1.216 1.101 0.928 0.651 0.317 0.175 0.106 0.092 0.095 0.070 0.036 0.020 0.008 0.000 0.000 0.000 0.000 0.000 0.000 0.000 0.000 0.000 0.000 0.000 0.000 0.000
0.000 0.000 0.000 0.004 0.016 0.026 0.048 0.132 0.367 0.594 0.923 1.139 1.215 1.184 1.079 0.728 0.381 0.203 0.125 0.093 0.105 0.081 0.039 0.017 0.020 0.001 0.000 0.000 0.000 0.000 0.000 0.000 0.000 0.000 0.000 0.000 0.000 0.000
0.000 0.000 0.000 0.001 0.012 0.014 0.029 0.091 0.249 0.470 0.888 1.005 1.212 1.224 1.173 0.765 0.428 0.261 0.157 0.108 0.113 0.085 0.042 0.018 0.018 0.013 0.000 0.000 0.000 0.000 0.000 0.000 0.000 0.000 0.000 0.000 0.000 0.000
0.000 0.000 0.000 0.001 0.007 0.007 0.016 0.051 0.179 0.389 0.629 0.834 1.034 1.151 1.080 0.822 0.530 0.368 0.178 0.133 0.114 0.092 0.048 0.019 0.014 0.016 0.005 0.000 0.000 0.000 0.000 0.000 0.000 0.000 0.000 0.000 0.000 0.000
0.000 0.000 0.000 0.000 0.003 0.006 0.008 0.039 0.130 0.325 0.590 0.719 0.818 0.959 0.991 0.928 0.663 0.412 0.249 0.209 0.133 0.097 0.054 0.018 0.011 0.013 0.014 0.002 0.000 0.000 0.000 0.000 0.000 0.000 0.000 0.000 0.000 0.000
0.000 0.000 0.000 0.000 0.001 0.003 0.003 0.024 0.088 0.216 0.390 0.494 0.622 0.806 0.962 1.004 0.744 0.490 0.351 0.279 0.179 0.104 0.062 0.020 0.010 0.010 0.011 0.012 0.000 0.000 0.000 0.000 0.000 0.000 0.000 0.000 0.000 0.000
0.000 0.000 0.000 0.000 0.000 0.001 0.004 0.015 0.070 0.183 0.278 0.396 0.508 0.649 0.911 1.049 0.866 0.582 0.433 0.337 0.211 0.129 0.070 0.024 0.010 0.008 0.008 0.012 0.003 0.000 0.000 0.000 0.000 0.000 0.000 0.000 0.000 0.000
0.000 0.000 0.000 0.000 0.000 0.000 0.003 0.007 0.032 0.105 0.221 0.328 0.425 0.600 0.815 0.968 0.817 0.610 0.452 0.361 0.262 0.160 0.089 0.032 0.012 0.007 0.007 0.008 0.015 0.000 0.000 0.000 0.000 0.000 0.000 0.000 0.000 0.000
0.000 0.000 0.000 0.000 0.000 0.000 0.001 0.004 0.010 0.052 0.140 0.250 0.349 0.471 0.680 0.783 0.787 0.635 0.544 0.477 0.344 0.214 0.112 0.042 0.016 0.007 0.006 0.007 0.016 0.006 0.000 0.000 0.000 0.000 0.000 0.000 0.000 0.000
0.000 0.000 0.000 0.000 0.000 0.000 0.000 0.002 0.002 0.032 0.114 0.178 0.272 0.387 0.559 0.730 0.749 0.662 0.712 0.627 0.435 0.281 0.151 0.062 0.023 0.009 0.007 0.007 0.010 0.011 0.000 0.000 0.000 0.000 0.000 0.000 0.000 0.000
0.000 0.000 0.000 0.000 0.000 0.000 0.000 0.000 0.004 0.009 0.053 0.102 0.178 0.293 0.467 0.636 0.722 0.785 0.927 0.839 0.568 0.398 0.212 0.091 0.037 0.015 0.009 0.008 0.007 0.011 0.001 0.000 0.000 0.000 0.000 0.000 0.000 0.000
0.000 0.000 0.000 0.000 0.000 0.000 0.000 0.000 0.001 0.003 0.020 0.051 0.099 0.201 0.369 0.531 0.649 0.716 0.993 0.992 0.786 0.460 0.260 0.124 0.060 0.027 0.015 0.016 0.008 0.013 0.007 0.000 0.000 0.000 0.000 0.000 0.000 0.000
0.000 0.000 0.000 0.000 0.000 0.000 0.000 0.000 0.000 0.002 0.007 0.019 0.049 0.120 0.249 0.419 0.586 0.736 1.067 1.254 0.911 0.511 0.318 0.165 0.083 0.041 0.033 0.022 0.014 0.008 0.007 0.001 0.000 0.000 0.000 0.000 0.000 0.000
0.000 0.000 0.000 0.000 0.000 0.000 0.000 0.000 0.000 0.000 0.003 0.007 0.028 0.072 0.136 0.257 0.467 0.838 1.128 1.314 0.974 0.613 0.388 0.212 0.116 0.061 0.038 0.029 0.021 0.007 0.004 0.006 0.000 0.000 0.000 0.000 0.000 0.000
0.000 0.000 0.000 0.000 0.000 0.000 0.000 0.000 0.000 0.000 0.004 0.005 0.013 0.027 0.051 0.125 0.331 0.659 1.001 1.180 1.038 0.751 0.444 0.263 0.158 0.083 0.043 0.039 0.026 0.009 0.005 0.008 0.000 0.000 0.000 0.000 0.000 0.000
0.000 0.000 0.000 0.000 0.000 0.000 0.000 0.000 0.000 0.000 0.001 0.004 0.006 0.010 0.023 0.072 0.217 0.525 0.842 1.046 1.037 0.749 0.511 0.310 0.197 0.107 0.057 0.055 0.033 0.013 0.006 0.003 0.005 0.000 0.000 0.000 0.000 0.000
0.000 0.000 0.000 0.000 0.000 0.000 0.000 0.000 0.000 0.000 0.000 0.003 0.005 0.004 0.006 0.032 0.109 0.320 0.680 0.932 1.020 0.772 0.580 0.366 0.247 0.141 0.082 0.055 0.032 0.018 0.011 0.004 0.005 0.001 0.000 0.000 0.000 0.000
0.000 0.000 0.000 0.000 0.000 0.000 0.000 0.000 0.000 0.000 0.000 0.001 0.003 0.001 0.002 0.016 0.050 0.198 0.507 0.952 0.868 0.793 0.638 0.427 0.293 0.171 0.101 0.055 0.033 0.024 0.017 0.007 0.003 0.006 0.000 0.000 0.000 0.000
0.000 0.000 0.000 0.000 0.000 0.000 0.000 0.000 0.000 0.000 0.000 0.000 0.002 0.001 0.001 0.005 0.028 0.092 0.306 0.708 0.847 0.824 0.697 0.485 0.338 0.216 0.129 0.062 0.033 0.024 0.019 0.012 0.005 0.003 0.004 0.000 0.000 0.000
0.000 0.000 0.000 0.000 0.000 0.000 0.000 0.000 0.000 0.000 0.000 0.000 0.000 0.002 0.001 0.001 0.008 0.041 0.175 0.543 0.828 0.851 0.711 0.515 0.411 0.291 0.169 0.075 0.034 0.023 0.020 0.014 0.005 0.002 0.002 0.002 0.000 0.000
0.000 0.000 0.000 0.000 0.000 0.000 0.000 0.000 0.000 0.000 0.000 0.000 0.000 0.000 0.002 0.001 0.002 0.012 0.061 0.369 0.859 0.866 0.698 0.574 0.476 0.362 0.216 0.104 0.043 0.024 0.025 0.017 0.007 0.003 0.002 0.003 0.001 0.000
0.000 0.000 0.000 0.000 0.000 0.000 0.000 0.000 0.000 0.000 0.000 0.000 0.000 0.000 0.000 0.001 0.001 0.002 0.018 0.207 0.704 0.803 0.729 0.649 0.505 0.421 0.267 0.147 0.064 0.035 0.034 0.023 0.011 0.003 0.002 0.002 0.003 0.000
0.000 0.000 0.000 0.000 0.000 0.000 0.000 0.000 0.000 0.000 0.000 0.000 0.000 0.000 0.000 0.001 0.000 0.001 0.008 0.110 0.471 0.596 0.627 0.726 0.605 0.441 0.300 0.191 0.099 0.058 0.036 0.029 0.015 0.005 0.002 0.002 0.002 0.002
0.000 0.000 0.000 0.000 0.000 0.000 0.000 0.000 0.000 0.000 0.000 0.000 0.000 0.000 0.000 0.000 0.001 0.001 0.003 0.036 0.296 0.444 0.582 0.643 0.583 0.471 0.325 0.233 0.123 0.067 0.042 0.033 0.019 0.008 0.003 0.002 0.001 0.002
0.000 0.000 0.000 0.000 0.000 0.000 0.000 0.000 0.000 0.000 0.000 0.000 0.000 0.000 0.000 0.000 0.002 0.001 0.003 0.013 0.136 0.260 0.437 0.573 0.578 0.490 0.393 0.272 0.157 0.086 0.052 0.042 0.029 0.015 0.005 0.002 0.001 0.001
0.000 0.000 0.000 0.000 0.000 0.000 0.000 0.000 0.000 0.000 0.000 0.000 0.000 0.000 0.000 0.000 0.000 0.001 0.002 0.007 0.067 0.131 0.277 0.503 0.545 0.541 0.432 0.311 0.190 0.121 0.073 0.055 0.043 0.020 0.007 0.003 0.002 0.001
0.000 0.000 0.000 0.000 0.000 0.000 0.000 0.000 0.000 0.000 0.000 0.000 0.000 0.000 0.000 0.000 0.000 0.002 0.001 0.003 0.031 0.069 0.157 0.405 0.534 0.501 0.417 0.337 0.240 0.170 0.108 0.084 0.070 0.031 0.013 0.006 0.003 0.001
0.000 0.000 0.000 0.000 0.000 0.000 0.000 0.000 0.000 0.000 0.000 0.000 0.000 0.000 0.000 0.000 0.000 0.001 0.001 0.001 0.012 0.032 0.076 0.301 0.473 0.495 0.410 0.358 0.291 0.213 0.174 0.142 0.090 0.049 0.024 0.010 0.005 0.002
0.000 0.000 0.000 0.000 0.000 0.000 0.000 0.000 0.000 0.000 0.000 0.000 0.000 0.000 0.000 0.000 0.000 0.001 0.001 0.000 0.007 0.013 0.040 0.215 0.474 0.449 0.405 0.351 0.304 0.248 0.214 0.177 0.117 0.075 0.042 0.017 0.006 0.002
0.000 0.000 0.000 0.000 0.000 0.000 0.000 0.000 0.000 0.000 0.000 0.000 0.000 0.000 0.000 0.000 0.000 0.000 0.002 0.013 0.002 0.006 0.031 0.160 0.342 0.367 0.355 0.341 0.311 0.272 0.228 0.217 0.163 0.114 0.060 0.036 0.011 0.002
0.000 0.000 0.000 0.000 0.000 0.000 0.000 0.000 0.000 0.000 0.000 0.000 0.000 0.000 0.000 0.000 0.000 0.000 0.001 0.003 0.001 0.003 0.038 0.082 0.221 0.277 0.318 0.332 0.325 0.290 0.235 0.267 0.194 0.139 0.107 0.064 0.013 0.003
0.000 0.000 0.000 0.000 0.000 0.000 0.000 0.000 0.000 0.000 0.000 0.000 0.000 0.000 0.000 0.000 0.000 0.000 0.000 0.002 0.001 0.002 0.048 0.129 0.109 0.189 0.262 0.311 0.315 0.311 0.286 0.285 0.210 0.190 0.144 0.063 0.020 0.005
0.000 0.000 0.000 0.000 0.000 0.000 0.000 0.000 0.000 0.000 0.000 0.000 0.000 0.000 0.000 0.000 0.000 0.000 0.000 0.001 0.002 0.001 0.015 0.063 0.040 0.120 0.184 0.239 0.285 0.331 0.342 0.252 0.228 0.221 0.177 0.108 0.041 0.010
0.000 0.000 0.000 0.000 0.000 0.000 0.000 0.000 0.000 0.000 0.000 0.000 0.000 0.000 0.000 0.000 0.000 0.000 0.000 0.000 0.001 0.002 0.015 0.011 0.017 0.068 0.130 0.173 0.254 0.310 0.307 0.254 0.222 0.210 0.204 0.162 0.057 0.014
0.000 0.000 0.000 0.000 0.000 0.000 0.000 0.000 0.000 0.000 0.000 0.000 0.000 0.000 0.000 0.000 0.000 0.000 0.000 0.000 0.001 0.003 0.007 0.004 0.009 0.045 0.102 0.144 0.209 0.294 0.323 0.254 0.194 0.194 0.193 0.187 0.082 0.018
0.000 0.000 0.000 0.000 0.000 0.000 0.000 0.000 0.000 0.000 0.000 0.000 0.000 0.000 0.000 0.000 0.000 0.000 0.000 0.000 0.000 0.011 0.001 0.001 0.003 0.030 0.093 0.112 0.158 0.238 0.296 0.271 0.173 0.152 0.163 0.157 0.094 0.025
0.000 0.000 0.000 0.000 0.000 0.000 0.000 0.000 0.000 0.000 0.000 0.000 0.000 0.000 0.000 0.000 0.000 0.000 0.000 0.000 0.000 0.002 0.001 0.001 0.001 0.017 0.082 0.096 0.118 0.187 0.254 0.272 0.182 0.127 0.119 0.122 0.103 0.032
0.000 0.000 0.000 0.000 0.000 0.000 0.000 0.000 0.000 0.000 0.000 0.000 0.000 0.000 0.000 0.000 0.000 0.000 0.000 0.000 0.000 0.001 0.000 0.001 0.001 0.008 0.072 0.089 0.105 0.166 0.232 0.260 0.177 0.119 0.104 0.099 0.090 0.034
0.000 0.000 0.000 0.000 0.000 0.000 0.000 0.000 0.000 0.000 0.000 0.000 0.000 0.000 0.000 0.000 0.000 0.000 0.000 0.000 0.000 0.000 0.001 0.001 0.001 0.002 0.045 0.079 0.091 0.152 0.221 0.252 0.171 0.114 0.095 0.084 0.067 0.025
0.000 0.000 0.000 0.000 0.000 0.000 0.000 0.000 0.000 0.000 0.000 0.000 0.000 0.000 0.000 0.000 0.000 0.000 0.000 0.000 0.000 0.000 0.000 0.001 0.001 0.003 0.028 0.046 0.071 0.125 0.212 0.253 0.166 0.108 0.086 0.070 0.054 0.019
0.000 0.000 0.000 0.000 0.000 0.000 0.000 0.000 0.000 0.000 0.000 0.000 0.000 0.000 0.000 0.000 0.000 0.000 0.000 0.000 0.000 0.000 0.000 0.001 0.001 0.005 0.014 0.022 0.046 0.099 0.196 0.255 0.164 0.106 0.082 0.059 0.043 0.019
0.000 0.000 0.000 0.000 0.000 0.000 0.000 0.000 0.000 0.000 0.000 0.000 0.000 0.000 0.000 0.000 0.000 0.000 0.000 0.000 0.000 0.000 0.000 0.000 0.001 0.002 0.005 0.009 0.027 0.068 0.166 0.256 0.174 0.099 0.078 0.055 0.041 0.020
0.000 0.000 0.000 0.000 0.000 0.000 0.000 0.000 0.000 0.000 0.000 0.000 0.000 0.000 0.000 0.000 0.000 0.000 0.000 0.000 0.000 0.000 0.000 0.000 0.001 0.001 0.002 0.003 0.014 0.038 0.125 0.239 0.187 0.094 0.072 0.055 0.042 0.018
0.000 0.000 0.000 0.000 0.000 0.000 0.000 0.000 0.000 0.000 0.000 0.000 0.000 0.000 0.000 0.000 0.000 0.000 0.000 0.000 0.000 0.000 0.000 0.000 0.001 0.001 0.001 0.001 0.008 0.017 0.081 0.202 0.190 0.090 0.063 0.058 0.041 0.015
0.000 0.000 0.000 0.000 0.000 0.000 0.000 0.000 0.000 0.000 0.000 0.000 0.000 0.000 0.000 0.000 0.000 0.000 0.000 0.000 0.000 0.000 0.000 0.000 0.000 0.001 0.001 0.001 0.005 0.009 0.054 0.167 0.190 0.089 0.054 0.054 0.035 0.011
0.000 0.000 0.000 0.000 0.000 0.000 0.000 0.000 0.000 0.000 0.000 0.000 0.000 0.000 0.000 0.000 0.000 0.000 0.000 0.000 0.000 0.000 0.000 0.000 0.000 0.001 0.001 0.001 0.004 0.007 0.032 0.127 0.181 0.097 0.053 0.051 0.032 0.010
0.000 0.000 0.000 0.000 0.000 0.000 0.000 0.000 0.000 0.000 0.000 0.000 0.000 0.000 0.000 0.000 0.000 0.000 0.000 0.000 0.000 0.000 0.000 0.000 0.000 0.000 0.001 0.001 0.004 0.007 0.018 0.098 0.174 0.114 0.064 0.053 0.031 0.010
0.000 0.000 0.000 0.000 0.000 0.000 0.000 0.000 0.000 0.000 0.000 0.000 0.000 0.000 0.000 0.000 0.000 0.000 0.000 0.000 0.000 0.000 0.000 0.000 0.000 0.000 0.001 0.000 0.004 0.007 0.014 0.069 0.154 0.128 0.078 0.058 0.031 0.010
0.000 0.000 0.000 0.000 0.000 0.000 0.000 0.000 0.000 0.000 0.000 0.000 0.000 0.000 0.000 0.000 0.000 0.000 0.000 0.000 0.000 0.000 0.000 0.000 0.000 0.000 0.000 0.000 0.004 0.006 0.014 0.055 0.122 0.135 0.088 0.056 0.031 0.011
0.000 0.000 0.000 0.000 0.000 0.000 0.000 0.000 0.000 0.000 0.000 0.000 0.000 0.000 0.000 0.000 0.000 0.000 0.000 0.000 0.000 0.000 0.000 0.000 0.000 0.000 0.000 0.001 0.003 0.005 0.014 0.045 0.097 0.129 0.095 0.060 0.028 0.009
0.000 0.000 0.000 0.000 0.000 0.000 0.000 0.000 0.000 0.000 0.000 0.000 0.000 0.000 0.000 0.000 0.000 0.000 0.000 0.000 0.000 0.000 0.000 0.000 0.000 0.000 0.000 0.001 0.003 0.004 0.012 0.039 0.074 0.110 0.107 0.075 0.027 0.009
0.000 0.000 0.000 0.000 0.000 0.000 0.000 0.000 0.000 0.000 0.000 0.000 0.000 0.000 0.000 0.000 0.000 0.000 0.000 0.000 0.000 0.000 0.000 0.000 0.000 0.000 0.000 0.000 0.003 0.004 0.013 0.033 0.054 0.088 0.115 0.093 0.036 0.017
0.000 0.000 0.000 0.000 0.000 0.000 0.000 0.000 0.000 0.000 0.000 0.000 0.000 0.000 0.000 0.000 0.000 0.000 0.000 0.000 0.000 0.000 0.000 0.000 0.000 0.000 0.000 0.001 0.003 0.005 0.013 0.029 0.046 0.067 0.105 0.126 0.049 0.020
0.000 0.000 0.000 0.000 0.000 0.000 0.000 0.000 0.000 0.000 0.000 0.000 0.000 0.000 0.000 0.000 0.000 0.000 0.000 0.000 0.000 0.000 0.000 0.000 0.000 0.000 0.000 0.001 0.002 0.006 0.014 0.027 0.040 0.049 0.105 0.172 0.049 0.019
0.000 0.000 0.000 0.000 0.000 0.000 0.000 0.000 0.000 0.000 0.000 0.000 0.000 0.000 0.000 0.000 0.000 0.000 0.000 0.000 0.000 0.000 0.000 0.000 0.000 0.000 0.000 0.001 0.002 0.005 0.014 0.025 0.036 0.036 0.082 0.205 0.048 0.022
0.000 0.000 0.000 0.000 0.000 0.000 0.000 0.000 0.000 0.000 0.000 0.000 0.000 0.000 0.000 0.000 0.000 0.000 0.000 0.000 0.000 0.000 0.000 0.000 0.000 0.000 0.000 0.001 0.001 0.005 0.014 0.021 0.024 0.027 0.051 0.204 0.041 0.012
0.000 0.000 0.000 0.000 0.000 0.000 0.000 0.000 0.000 0.000 0.000 0.000 0.000 0.000 0.000 0.000 0.000 0.000 0.000 0.000 0.000 0.000 0.000 0.000 0.000 0.000 0.000 0.000 0.001 0.005 0.012 0.018 0.018 0.020 0.045 0.118 0.017 0.006
0.000 0.000 0.000 0.000 0.000 0.000 0.000 0.000 0.000 0.000 0.000 0.000 0.000 0.000 0.000 0.000 0.000 0.000 0.000 0.000 0.000 0.000 0.000 0.000 0.000 0.000 0.000 0.000 0.001 0.004 0.009 0.010 0.014 0.015 0.034 0.054 0.010 0.004
0.000 0.000 0.000 0.000 0.000 0.000 0.000 0.000 0.000 0.000 0.000 0.000 0.000 0.000 0.000 0.000 0.000 0.000 0.000 0.000 0.000 0.000 0.000 0.000 0.000 0.000 0.000 0.000 0.000 0.002 0.004 0.004 0.008 0.009 0.018 0.024 0.004 0.002
