ncols        36
nrows        63
xllcorner    409692.8
yllcorner    6870764.1
cellsize     5.00
NODATA_value -9999
0.000 0.000 0.000 0.000 0.000 0.000 0.000 0.000 0.000 0.000 0.000 0.000 0.000 0.000 0.000 0.000 0.000 0.000 0.000 0.000 0.000 0.000 0.000 0.000 0.000 0.000 0.000 0.000 0.000 0.000 0.000 0.000 0.000 0.000 0.000 0.000
0.000 0.000 0.000 0.005 0.031 0.061 0.078 0.085 0.072 0.052 0.037 0.015 0.001 0.000 0.000 0.000 0.000 0.000 0.000 0.000 0.000 0.000 0.000 0.000 0.000 0.000 0.000 0.000 0.000 0.000 0.000 0.000 0.000 0.000 0.000 0.000
0.000 0.000 0.006 0.050 0.106 0.169 0.212 0.235 0.178 0.138 0.090 0.054 0.023 0.001 0.000 0.000 0.000 0.000 0.000 0.000 0.000 0.000 0.000 0.000 0.000 0.000 0.000 0.000 0.000 0.000 0.000 0.000 0.000 0.000 0.000 0.000
0.000 0.004 0.041 0.119 0.237 0.385 0.483 0.468 0.393 0.332 0.206 0.113 0.050 0.019 0.000 0.000 0.000 0.000 0.000 0.000 0.000 0.000 0.000 0.000 0.000 0.000 0.000 0.000 0.000 0.000 0.000 0.000 0.000 0.000 0.000 0.000
0.000 0.019 0.090 0.222 0.444 0.708 0.877 0.853 0.744 0.614 0.412 0.212 0.102 0.037 0.014 0.000 0.000 0.000 0.000 0.000 0.000 0.000 0.000 0.000 0.000 0.000 0.000 0.000 0.000 0.000 0.000 0.000 0.000 0.000 0.000 0.000
0.003 0.049 0.153 0.362 0.715 1.136 1.414 1.389 1.221 0.963 0.650 0.367 0.177 0.067 0.029 0.011 0.000 0.000 0.000 0.000 0.000 0.000 0.000 0.000 0.000 0.000 0.000 0.000 0.000 0.000 0.000 0.000 0.000 0.000 0.000 0.000
0.010 0.077 0.227 0.528 1.015 1.566 1.900 1.909 1.623 1.300 0.965 0.569 0.293 0.116 0.043 0.025 0.009 0.000 0.000 0.000 0.000 0.000 0.000 0.000 0.000 0.000 0.000 0.000 0.000 0.000 0.000 0.000 0.000 0.000 0.000 0.000
0.017 0.093 0.284 0.646 1.243 1.855 2.422 2.416 2.191 1.886 1.400 0.854 0.444 0.181 0.073 0.031 0.023 0.006 0.000 0.000 0.000 0.000 0.000 0.000 0.000 0.000 0.000 0.000 0.000 0.000 0.000 0.000 0.000 0.000 0.000 0.000
0.020 0.095 0.299 0.707 1.367 2.184 2.788 2.902 2.980 2.602 1.865 1.183 0.646 0.286 0.118 0.048 0.025 0.022 0.002 0.000 0.000 0.000 0.000 0.000 0.000 0.000 0.000 0.000 0.000 0.000 0.000 0.000 0.000 0.000 0.000 0.000
0.015 0.079 0.262 0.664 1.397 2.335 3.144 3.604 3.836 3.358 2.405 1.668 0.924 0.423 0.178 0.075 0.038 0.023 0.017 0.000 0.000 0.000 0.000 0.000 0.000 0.000 0.000 0.000 0.000 0.000 0.000 0.000 0.000 0.000 0.000 0.000
0.009 0.054 0.193 0.550 1.280 2.256 3.251 3.791 4.309 3.887 3.159 2.059 1.184 0.577 0.269 0.120 0.055 0.032 0.020 0.010 0.000 0.000 0.000 0.000 0.000 0.000 0.000 0.000 0.000 0.000 0.000 0.000 0.000 0.000 0.000 0.000
0.003 0.033 0.119 0.397 1.022 2.026 3.062 3.968 4.677 4.648 3.722 2.352 1.468 0.768 0.373 0.166 0.086 0.045 0.023 0.018 0.002 0.000 0.000 0.000 0.000 0.000 0.000 0.000 0.000 0.000 0.000 0.000 0.000 0.000 0.000 0.000
0.001 0.018 0.070 0.267 0.732 1.555 2.666 4.139 4.924 5.000 3.939 2.695 1.786 0.976 0.496 0.239 0.115 0.059 0.033 0.015 0.014 0.000 0.000 0.000 0.000 0.000 0.000 0.000 0.000 0.000 0.000 0.000 0.000 0.000 0.000 0.000
0.000 0.009 0.038 0.135 0.395 0.999 2.173 3.563 4.602 4.779 4.096 3.164 2.033 1.208 0.659 0.332 0.148 0.078 0.043 0.021 0.013 0.006 0.000 0.000 0.000 0.000 0.000 0.000 0.000 0.000 0.000 0.000 0.000 0.000 0.000 0.000
0.000 0.003 0.021 0.060 0.213 0.679 1.664 3.045 4.092 4.360 4.028 3.162 2.263 1.419 0.822 0.426 0.197 0.106 0.055 0.029 0.014 0.013 0.000 0.000 0.000 0.000 0.000 0.000 0.000 0.000 0.000 0.000 0.000 0.000 0.000 0.000
0.000 0.000 0.011 0.030 0.092 0.357 1.058 2.141 3.363 3.800 3.931 3.124 2.458 1.633 1.027 0.555 0.277 0.138 0.069 0.037 0.022 0.010 0.008 0.000 0.000 0.000 0.000 0.000 0.000 0.000 0.000 0.000 0.000 0.000 0.000 0.000
0.000 0.000 0.003 0.015 0.041 0.188 0.593 1.528 2.601 3.470 3.305 2.985 2.541 1.843 1.240 0.688 0.368 0.177 0.086 0.046 0.030 0.015 0.011 0.002 0.000 0.000 0.000 0.000 0.000 0.000 0.000 0.000 0.000 0.000 0.000 0.000
0.000 0.000 0.000 0.007 0.020 0.081 0.313 0.900 1.797 2.647 2.892 2.805 2.573 1.994 1.395 0.851 0.487 0.239 0.111 0.057 0.036 0.022 0.010 0.010 0.000 0.000 0.000 0.000 0.000 0.000 0.000 0.000 0.000 0.000 0.000 0.000
0.000 0.000 0.000 0.001 0.011 0.032 0.133 0.482 1.202 1.976 2.396 2.576 2.478 1.971 1.556 1.073 0.643 0.325 0.148 0.073 0.044 0.028 0.014 0.007 0.006 0.000 0.000 0.000 0.000 0.000 0.000 0.000 0.000 0.000 0.000 0.000
0.000 0.000 0.000 0.000 0.004 0.014 0.050 0.219 0.682 1.363 2.002 2.253 2.178 1.983 1.690 1.258 0.801 0.439 0.209 0.099 0.056 0.035 0.018 0.008 0.006 0.003 0.000 0.000 0.000 0.000 0.000 0.000 0.000 0.000 0.000 0.000
0.000 0.000 0.000 0.000 0.000 0.008 0.018 0.088 0.357 0.864 1.496 1.892 1.983 1.893 1.650 1.400 0.952 0.573 0.290 0.143 0.081 0.045 0.026 0.011 0.005 0.007 0.002 0.000 0.000 0.000 0.000 0.000 0.000 0.000 0.000 0.000
0.000 0.000 0.000 0.000 0.000 0.002 0.004 0.034 0.186 0.524 0.964 1.365 1.563 1.816 1.720 1.441 1.063 0.708 0.401 0.225 0.110 0.060 0.035 0.016 0.007 0.005 0.007 0.001 0.000 0.000 0.000 0.000 0.000 0.000 0.000 0.000
0.000 0.000 0.000 0.000 0.000 0.000 0.004 0.011 0.081 0.278 0.604 0.968 1.304 1.537 1.556 1.456 1.119 0.847 0.511 0.290 0.151 0.081 0.045 0.023 0.013 0.006 0.004 0.006 0.000 0.000 0.000 0.000 0.000 0.000 0.000 0.000
0.000 0.000 0.000 0.000 0.000 0.000 0.002 0.007 0.037 0.130 0.330 0.607 0.971 1.257 1.415 1.364 1.221 0.957 0.633 0.373 0.207 0.116 0.061 0.035 0.018 0.008 0.005 0.005 0.008 0.001 0.000 0.000 0.000 0.000 0.000 0.000
0.000 0.000 0.000 0.000 0.000 0.000 0.000 0.005 0.017 0.069 0.174 0.346 0.645 1.010 1.210 1.356 1.265 1.041 0.715 0.477 0.287 0.166 0.089 0.046 0.024 0.013 0.008 0.006 0.005 0.005 0.000 0.000 0.000 0.000 0.000 0.000
0.000 0.000 0.000 0.000 0.000 0.000 0.000 0.004 0.008 0.036 0.095 0.201 0.420 0.766 1.074 1.209 1.194 1.055 0.803 0.584 0.369 0.230 0.134 0.064 0.035 0.019 0.013 0.008 0.005 0.004 0.003 0.000 0.000 0.000 0.000 0.000
0.000 0.000 0.000 0.000 0.000 0.000 0.000 0.002 0.005 0.015 0.045 0.106 0.252 0.547 0.844 1.090 1.119 1.065 0.889 0.649 0.472 0.320 0.187 0.092 0.048 0.028 0.019 0.011 0.006 0.005 0.005 0.002 0.000 0.000 0.000 0.000
0.000 0.000 0.000 0.000 0.000 0.000 0.000 0.001 0.004 0.007 0.031 0.055 0.162 0.363 0.712 0.941 1.064 1.036 0.910 0.704 0.535 0.383 0.244 0.132 0.069 0.038 0.024 0.013 0.008 0.005 0.004 0.005 0.000 0.000 0.000 0.000
0.000 0.000 0.000 0.000 0.000 0.000 0.000 0.000 0.003 0.011 0.012 0.036 0.113 0.244 0.502 0.751 0.905 0.978 0.911 0.751 0.556 0.426 0.303 0.185 0.097 0.051 0.032 0.018 0.011 0.007 0.004 0.003 0.007 0.000 0.000 0.000
0.000 0.000 0.000 0.000 0.000 0.000 0.000 0.000 0.001 0.006 0.004 0.021 0.077 0.147 0.325 0.553 0.748 0.889 0.916 0.785 0.556 0.458 0.349 0.233 0.135 0.072 0.039 0.022 0.013 0.009 0.006 0.004 0.003 0.003 0.000 0.000
0.000 0.000 0.000 0.000 0.000 0.000 0.000 0.000 0.000 0.005 0.003 0.011 0.051 0.092 0.191 0.378 0.586 0.787 0.861 0.787 0.588 0.470 0.366 0.280 0.181 0.094 0.049 0.029 0.018 0.012 0.008 0.005 0.004 0.003 0.001 0.000
0.000 0.000 0.000 0.000 0.000 0.000 0.000 0.000 0.000 0.002 0.004 0.008 0.038 0.059 0.095 0.254 0.414 0.609 0.766 0.818 0.675 0.435 0.367 0.315 0.224 0.129 0.069 0.042 0.027 0.017 0.010 0.006 0.004 0.003 0.004 0.000
0.000 0.000 0.000 0.000 0.000 0.000 0.000 0.000 0.000 0.000 0.004 0.007 0.027 0.027 0.051 0.147 0.281 0.422 0.659 0.787 0.660 0.426 0.348 0.313 0.255 0.172 0.091 0.051 0.035 0.021 0.015 0.008 0.005 0.003 0.002 0.003
0.000 0.000 0.000 0.000 0.000 0.000 0.000 0.000 0.000 0.000 0.001 0.008 0.017 0.013 0.033 0.094 0.190 0.321 0.529 0.743 0.715 0.435 0.316 0.305 0.264 0.203 0.122 0.065 0.044 0.030 0.021 0.013 0.007 0.004 0.003 0.003
0.000 0.000 0.000 0.000 0.000 0.000 0.000 0.000 0.000 0.000 0.000 0.010 0.005 0.005 0.018 0.061 0.143 0.224 0.403 0.641 0.714 0.474 0.283 0.273 0.263 0.217 0.144 0.085 0.054 0.038 0.027 0.020 0.010 0.006 0.003 0.002
0.000 0.000 0.000 0.000 0.000 0.000 0.000 0.000 0.000 0.000 0.000 0.006 0.002 0.002 0.009 0.040 0.099 0.154 0.277 0.511 0.675 0.514 0.279 0.247 0.238 0.213 0.164 0.099 0.065 0.046 0.033 0.024 0.014 0.010 0.005 0.002
0.000 0.000 0.000 0.000 0.000 0.000 0.000 0.000 0.000 0.000 0.000 0.002 0.002 0.002 0.005 0.023 0.075 0.105 0.200 0.412 0.639 0.552 0.269 0.230 0.225 0.208 0.174 0.114 0.067 0.048 0.037 0.027 0.019 0.013 0.007 0.003
0.000 0.000 0.000 0.000 0.000 0.000 0.000 0.000 0.000 0.000 0.000 0.000 0.003 0.002 0.004 0.009 0.048 0.074 0.136 0.323 0.593 0.596 0.265 0.218 0.215 0.206 0.171 0.119 0.074 0.051 0.040 0.030 0.024 0.017 0.011 0.004
0.000 0.000 0.000 0.000 0.000 0.000 0.000 0.000 0.000 0.000 0.000 0.000 0.001 0.002 0.003 0.009 0.035 0.045 0.085 0.221 0.519 0.642 0.269 0.202 0.201 0.197 0.173 0.120 0.080 0.060 0.043 0.034 0.032 0.024 0.016 0.006
0.000 0.000 0.000 0.000 0.000 0.000 0.000 0.000 0.000 0.000 0.000 0.000 0.000 0.002 0.003 0.011 0.021 0.025 0.048 0.140 0.423 0.671 0.283 0.193 0.191 0.185 0.165 0.128 0.089 0.069 0.051 0.047 0.038 0.025 0.017 0.009
0.000 0.000 0.000 0.000 0.000 0.000 0.000 0.000 0.000 0.000 0.000 0.000 0.000 0.000 0.002 0.006 0.009 0.013 0.030 0.080 0.305 0.671 0.319 0.180 0.180 0.175 0.161 0.137 0.099 0.079 0.067 0.059 0.039 0.024 0.020 0.015
0.000 0.000 0.000 0.000 0.000 0.000 0.000 0.000 0.000 0.000 0.000 0.000 0.000 0.000 0.002 0.004 0.004 0.007 0.020 0.043 0.200 0.624 0.370 0.168 0.168 0.165 0.158 0.135 0.101 0.084 0.078 0.068 0.044 0.031 0.030 0.016
0.000 0.000 0.000 0.000 0.000 0.000 0.000 0.000 0.000 0.000 0.000 0.000 0.000 0.000 0.001 0.003 0.003 0.004 0.016 0.023 0.109 0.521 0.410 0.161 0.151 0.159 0.152 0.129 0.106 0.096 0.089 0.074 0.050 0.042 0.039 0.015
0.000 0.000 0.000 0.000 0.000 0.000 0.000 0.000 0.000 0.000 0.000 0.000 0.000 0.000 0.000 0.003 0.002 0.003 0.012 0.017 0.063 0.416 0.447 0.157 0.132 0.144 0.136 0.117 0.108 0.104 0.094 0.079 0.058 0.052 0.039 0.017
0.000 0.000 0.000 0.000 0.000 0.000 0.000 0.000 0.000 0.000 0.000 0.000 0.000 0.000 0.000 0.002 0.002 0.002 0.010 0.017 0.039 0.295 0.448 0.162 0.116 0.127 0.123 0.111 0.112 0.105 0.099 0.089 0.067 0.050 0.040 0.019
0.000 0.000 0.000 0.000 0.000 0.000 0.000 0.000 0.000 0.000 0.000 0.000 0.000 0.000 0.000 0.000 0.002 0.002 0.009 0.017 0.031 0.206 0.440 0.184 0.112 0.116 0.112 0.104 0.105 0.109 0.113 0.100 0.077 0.055 0.040 0.021
0.000 0.000 0.000 0.000 0.000 0.000 0.000 0.000 0.000 0.000 0.000 0.000 0.000 0.000 0.000 0.000 0.002 0.001 0.009 0.016 0.028 0.133 0.401 0.209 0.112 0.107 0.101 0.097 0.105 0.124 0.129 0.106 0.094 0.066 0.042 0.023
0.000 0.000 0.000 0.000 0.000 0.000 0.000 0.000 0.000 0.000 0.000 0.000 0.000 0.000 0.000 0.000 0.000 0.001 0.009 0.015 0.027 0.097 0.328 0.234 0.114 0.094 0.089 0.091 0.103 0.125 0.129 0.119 0.098 0.071 0.045 0.027
0.000 0.000 0.000 0.000 0.000 0.000 0.000 0.000 0.000 0.000 0.000 0.000 0.000 0.000 0.000 0.000 0.000 0.001 0.008 0.013 0.027 0.072 0.262 0.248 0.117 0.086 0.079 0.075 0.089 0.115 0.127 0.117 0.094 0.072 0.049 0.031
0.000 0.000 0.000 0.000 0.000 0.000 0.000 0.000 0.000 0.000 0.000 0.000 0.000 0.000 0.000 0.000 0.000 0.001 0.008 0.011 0.025 0.060 0.199 0.242 0.130 0.087 0.070 0.063 0.084 0.110 0.116 0.104 0.088 0.071 0.054 0.033
0.000 0.000 0.000 0.000 0.000 0.000 0.000 0.000 0.000 0.000 0.000 0.000 0.000 0.000 0.000 0.000 0.000 0.000 0.008 0.011 0.026 0.049 0.140 0.223 0.150 0.091 0.071 0.069 0.081 0.093 0.099 0.096 0.084 0.078 0.057 0.032
0.000 0.000 0.000 0.000 0.000 0.000 0.000 0.000 0.000 0.000 0.000 0.000 0.000 0.000 0.000 0.000 0.000 0.001 0.008 0.011 0.026 0.045 0.105 0.198 0.163 0.099 0.075 0.065 0.069 0.077 0.087 0.086 0.080 0.077 0.055 0.032
0.000 0.000 0.000 0.000 0.000 0.000 0.000 0.000 0.000 0.000 0.000 0.000 0.000 0.000 0.000 0.000 0.000 0.001 0.007 0.013 0.026 0.042 0.083 0.159 0.190 0.112 0.074 0.058 0.059 0.068 0.073 0.069 0.073 0.068 0.052 0.030
0.000 0.000 0.000 0.000 0.000 0.000 0.000 0.000 0.000 0.000 0.000 0.000 0.000 0.000 0.000 0.000 0.000 0.001 0.005 0.013 0.028 0.041 0.072 0.128 0.196 0.127 0.069 0.056 0.051 0.055 0.057 0.064 0.069 0.057 0.044 0.030
0.000 0.000 0.000 0.000 0.000 0.000 0.000 0.000 0.000 0.000 0.000 0.000 0.000 0.000 0.000 0.000 0.000 0.001 0.005 0.013 0.028 0.038 0.059 0.106 0.186 0.143 0.063 0.051 0.043 0.043 0.050 0.059 0.054 0.047 0.044 0.029
0.000 0.000 0.000 0.000 0.000 0.000 0.000 0.000 0.000 0.000 0.000 0.000 0.000 0.000 0.000 0.000 0.000 0.001 0.004 0.013 0.028 0.037 0.054 0.095 0.187 0.139 0.049 0.040 0.039 0.040 0.047 0.049 0.045 0.043 0.039 0.024
0.000 0.000 0.000 0.000 0.000 0.000 0.000 0.000 0.000 0.000 0.000 0.000 0.000 0.000 0.000 0.000 0.000 0.000 0.003 0.012 0.027 0.032 0.049 0.094 0.178 0.116 0.043 0.037 0.037 0.038 0.040 0.044 0.042 0.039 0.034 0.025
0.000 0.000 0.000 0.000 0.000 0.000 0.000 0.000 0.000 0.000 0.000 0.000 0.000 0.000 0.000 0.000 0.000 0.000 0.003 0.011 0.026 0.028 0.046 0.096 0.164 0.088 0.037 0.035 0.037 0.034 0.038 0.042 0.040 0.035 0.033 0.025
0.000 0.000 0.000 0.000 0.000 0.000 0.000 0.000 0.000 0.000 0.000 0.000 0.000 0.000 0.000 0.000 0.000 0.000 0.003 0.011 0.025 0.026 0.042 0.093 0.141 0.061 0.032 0.031 0.030 0.030 0.034 0.040 0.037 0.032 0.031 0.024
0.000 0.000 0.000 0.000 0.000 0.000 0.000 0.000 0.000 0.000 0.000 0.000 0.000 0.000 0.000 0.000 0.000 0.000 0.002 0.010 0.021 0.024 0.040 0.087 0.121 0.047 0.030 0.025 0.025 0.024 0.027 0.033 0.030 0.029 0.029 0.023
0.000 0.000 0.000 0.000 0.000 0.000 0.000 0.000 0.000 0.000 0.000 0.000 0.000 0.000 0.000 0.000 0.000 0.000 0.002 0.009 0.019 0.024 0.038 0.065 0.099 0.041 0.029 0.023 0.019 0.018 0.019 0.026 0.027 0.024 0.025 0.021
0.000 0.000 0.000 0.000 0.000 0.000 0.000 0.000 0.000 0.000 0.000 0.000 0.000 0.000 0.000 0.000 0.000 0.000 0.002 0.009 0.016 0.022 0.034 0.044 0.060 0.039 0.026 0.017 0.014 0.013 0.015 0.019 0.023 0.019 0.020 0.019
0.000 0.000 0.000 0.000 0.000 0.000 0.000 0.000 0.000 0.000 0.000 0.000 0.000 0.000 0.000 0.000 0.000 0.000 0.002 0.006 0.012 0.016 0.023 0.030 0.040 0.027 0.014 0.011 0.009 0.009 0.008 0.011 0.016 0.014 0.013 0.011
