ncols        41
nrows        41
xllcorner    409867.8
yllcorner    6870424.1
cellsize     5.00
NODATA_value -9999
0.000 0.000 0.000 0.000 0.000 0.000 0.000 0.000 0.000 0.000 0.000 0.000 0.000 0.000 0.000 0.000 0.000 0.000 0.000 0.000 0.000 0.000 0.000 0.000 0.000 0.000 0.000 0.000 0.000 0.000 0.000 0.000 0.000 0.000 0.000 0.000 0.000 0.000 0.000 0.000 0.000
0.000 0.000 0.000 0.000 0.000 0.000 0.000 0.000 0.000 0.000 0.000 0.000 0.000 0.000 0.000 0.000 0.000 0.000 0.000 0.000 0.000 0.000 0.000 0.000 0.000 0.000 0.000 0.002 0.012 0.034 0.054 0.068 0.067 0.050 0.040 0.032 0.024 0.012 0.003 0.001 0.000
0.000 0.000 0.000 0.000 0.000 0.000 0.000 0.000 0.000 0.000 0.000 0.000 0.000 0.000 0.000 0.000 0.000 0.000 0.000 0.000 0.000 0.000 0.000 0.000 0.000 0.000 0.005 0.035 0.091 0.151 0.195 0.200 0.211 0.152 0.131 0.095 0.071 0.039 0.025 0.016 0.009
0.000 0.000 0.000 0.000 0.000 0.000 0.000 0.000 0.000 0.000 0.000 0.000 0.000 0.000 0.000 0.000 0.000 0.000 0.000 0.000 0.000 0.000 0.000 0.000 0.000 0.004 0.049 0.134 0.263 0.394 0.474 0.457 0.429 0.350 0.293 0.208 0.186 0.094 0.059 0.041 0.019
0.000 0.000 0.000 0.000 0.000 0.000 0.000 0.000 0.000 0.000 0.000 0.000 0.000 0.000 0.000 0.000 0.000 0.000 0.000 0.000 0.000 0.000 0.000 0.000 0.001 0.034 0.134 0.325 0.568 0.724 0.823 0.764 0.652 0.618 0.520 0.405 0.328 0.163 0.115 0.065 0.027
0.000 0.000 0.000 0.000 0.000 0.000 0.000 0.000 0.000 0.000 0.000 0.000 0.000 0.000 0.000 0.000 0.000 0.000 0.000 0.000 0.000 0.000 0.000 0.000 0.011 0.085 0.264 0.544 0.825 1.015 1.058 0.956 0.876 0.831 0.719 0.632 0.333 0.255 0.163 0.077 0.029
0.000 0.000 0.000 0.000 0.000 0.000 0.000 0.000 0.000 0.000 0.000 0.000 0.000 0.000 0.000 0.000 0.000 0.000 0.000 0.000 0.000 0.000 0.000 0.000 0.033 0.145 0.390 0.668 0.954 1.108 1.055 1.035 0.978 0.896 0.832 0.691 0.327 0.321 0.170 0.084 0.027
0.000 0.000 0.000 0.000 0.000 0.000 0.000 0.000 0.000 0.000 0.000 0.000 0.000 0.000 0.000 0.000 0.000 0.000 0.000 0.000 0.004 0.008 0.008 0.010 0.071 0.228 0.484 0.825 1.079 1.054 1.033 1.045 1.018 0.957 0.875 0.571 0.358 0.299 0.157 0.091 0.029
0.000 0.000 0.000 0.000 0.000 0.000 0.000 0.000 0.000 0.000 0.000 0.000 0.000 0.000 0.000 0.000 0.000 0.000 0.009 0.036 0.057 0.068 0.061 0.063 0.139 0.381 0.739 1.076 1.124 0.937 0.887 0.874 0.857 0.947 0.802 0.489 0.395 0.244 0.166 0.083 0.030
0.000 0.000 0.000 0.000 0.000 0.000 0.000 0.000 0.000 0.000 0.000 0.000 0.000 0.000 0.000 0.000 0.001 0.017 0.075 0.146 0.178 0.183 0.157 0.135 0.238 0.560 1.050 1.325 1.224 0.869 0.600 0.623 0.708 0.835 0.737 0.459 0.361 0.253 0.147 0.059 0.030
0.000 0.000 0.000 0.000 0.000 0.000 0.000 0.000 0.000 0.000 0.000 0.000 0.000 0.000 0.000 0.000 0.011 0.090 0.220 0.382 0.418 0.371 0.298 0.235 0.326 0.695 1.245 1.595 1.355 0.890 0.457 0.428 0.507 0.584 0.377 0.301 0.297 0.208 0.090 0.034 0.023
0.000 0.000 0.000 0.000 0.000 0.000 0.000 0.000 0.000 0.000 0.000 0.000 0.000 0.000 0.000 0.003 0.066 0.235 0.485 0.714 0.745 0.572 0.428 0.316 0.387 0.759 1.371 1.620 1.321 0.715 0.317 0.266 0.295 0.259 0.181 0.216 0.175 0.085 0.034 0.029 0.020
0.000 0.000 0.000 0.000 0.000 0.000 0.000 0.000 0.000 0.000 0.000 0.000 0.000 0.000 0.000 0.019 0.158 0.534 0.793 1.005 0.947 0.664 0.493 0.368 0.429 0.764 1.236 1.503 1.068 0.421 0.306 0.214 0.176 0.131 0.129 0.116 0.069 0.033 0.031 0.021 0.015
0.000 0.000 0.000 0.000 0.000 0.000 0.000 0.000 0.000 0.000 0.000 0.000 0.005 0.019 0.010 0.067 0.311 0.977 0.995 1.100 0.995 0.689 0.498 0.410 0.451 0.712 1.074 1.196 0.610 0.398 0.314 0.182 0.139 0.089 0.073 0.040 0.027 0.025 0.022 0.015 0.010
0.000 0.000 0.000 0.000 0.000 0.000 0.000 0.000 0.000 0.000 0.000 0.008 0.061 0.081 0.056 0.131 0.446 1.475 1.060 1.003 0.858 0.613 0.505 0.435 0.470 0.689 1.096 0.723 0.567 0.433 0.274 0.159 0.102 0.070 0.041 0.029 0.024 0.017 0.012 0.007 0.003
0.000 0.000 0.000 0.000 0.000 0.000 0.000 0.000 0.000 0.000 0.003 0.060 0.151 0.170 0.092 0.216 0.516 1.872 0.996 0.796 0.718 0.530 0.476 0.455 0.480 0.597 0.607 0.799 0.917 0.412 0.211 0.105 0.076 0.063 0.034 0.030 0.017 0.010 0.005 0.003 0.000
0.000 0.000 0.000 0.000 0.000 0.000 0.000 0.000 0.000 0.017 0.041 0.128 0.280 0.256 0.119 0.295 0.492 2.064 0.920 0.677 0.606 0.486 0.463 0.479 0.451 0.388 0.666 1.524 1.113 0.403 0.154 0.066 0.047 0.036 0.028 0.031 0.015 0.000 0.000 0.000 0.000
0.000 0.000 0.000 0.000 0.000 0.000 0.000 0.000 0.004 0.070 0.083 0.158 0.315 0.378 0.150 0.327 0.381 1.894 0.834 0.591 0.551 0.446 0.469 0.551 0.263 0.390 1.292 1.930 1.239 0.420 0.131 0.047 0.031 0.016 0.016 0.017 0.003 0.000 0.000 0.000 0.000
0.000 0.000 0.000 0.000 0.000 0.000 0.000 0.000 0.027 0.131 0.146 0.260 0.497 0.453 0.160 0.316 0.327 1.699 0.759 0.516 0.488 0.400 0.444 0.347 0.326 0.864 1.760 1.891 1.250 0.445 0.101 0.051 0.025 0.018 0.009 0.005 0.000 0.000 0.000 0.000 0.000
0.000 0.000 0.000 0.000 0.000 0.000 0.000 0.003 0.079 0.256 0.268 0.363 0.469 0.425 0.187 0.270 0.315 1.434 0.633 0.559 0.566 0.410 0.245 0.315 0.576 0.867 1.654 1.684 1.261 0.440 0.112 0.043 0.020 0.014 0.005 0.000 0.000 0.000 0.000 0.000 0.000
0.000 0.000 0.000 0.000 0.000 0.000 0.004 0.036 0.153 0.350 0.364 0.394 0.380 0.411 0.243 0.276 0.348 1.140 0.595 0.588 0.599 0.279 0.142 0.291 0.441 0.839 1.638 1.378 1.099 0.356 0.093 0.034 0.016 0.010 0.003 0.000 0.000 0.000 0.000 0.000 0.000
0.000 0.000 0.000 0.000 0.000 0.003 0.042 0.072 0.188 0.350 0.340 0.332 0.350 0.399 0.285 0.304 0.474 1.054 0.523 0.429 0.407 0.295 0.149 0.176 0.375 0.746 1.391 0.968 1.003 0.276 0.050 0.024 0.013 0.003 0.000 0.000 0.000 0.000 0.000 0.000 0.000
0.000 0.000 0.000 0.000 0.005 0.037 0.076 0.117 0.224 0.366 0.382 0.359 0.354 0.364 0.422 0.507 0.762 1.074 0.408 0.323 0.491 0.400 0.220 0.137 0.278 0.463 0.911 0.630 0.686 0.156 0.035 0.018 0.004 0.000 0.000 0.000 0.000 0.000 0.000 0.000 0.000
0.000 0.000 0.000 0.011 0.048 0.086 0.155 0.223 0.305 0.370 0.368 0.374 0.411 0.388 0.502 0.754 1.009 1.109 0.530 0.551 0.667 0.598 0.401 0.171 0.270 0.400 0.766 0.548 0.354 0.071 0.020 0.004 0.000 0.000 0.000 0.000 0.000 0.000 0.000 0.000 0.000
0.000 0.000 0.004 0.065 0.151 0.205 0.331 0.359 0.403 0.443 0.437 0.414 0.529 0.518 0.754 1.329 1.438 1.508 1.264 1.150 1.173 0.900 0.431 0.224 0.406 0.403 0.769 0.656 0.059 0.018 0.004 0.000 0.000 0.000 0.000 0.000 0.000 0.000 0.000 0.000 0.000
0.000 0.000 0.039 0.193 0.350 0.410 0.571 0.532 0.548 0.493 0.539 0.501 0.740 0.922 1.348 2.484 2.371 2.126 2.289 1.933 1.785 1.245 0.492 0.288 0.669 0.478 0.578 0.546 0.020 0.007 0.000 0.000 0.000 0.000 0.000 0.000 0.000 0.000 0.000 0.000 0.000
0.000 0.013 0.125 0.391 0.593 0.665 0.772 0.607 0.679 0.578 0.742 0.707 1.095 1.409 2.078 3.530 2.988 2.297 2.790 2.174 2.149 1.382 0.460 0.296 0.743 0.315 0.276 0.110 0.005 0.000 0.000 0.000 0.000 0.000 0.000 0.000 0.000 0.000 0.000 0.000 0.000
0.003 0.056 0.276 0.714 0.841 0.882 0.979 0.698 0.842 0.696 0.934 0.930 1.416 1.712 2.184 3.639 2.852 1.814 1.942 1.197 1.344 0.710 0.186 0.053 0.256 0.073 0.037 0.004 0.000 0.000 0.000 0.000 0.000 0.000 0.000 0.000 0.000 0.000 0.000 0.000 0.000
0.009 0.095 0.473 1.109 0.999 1.184 1.145 0.776 0.823 0.790 1.148 1.127 1.555 1.786 2.026 2.867 1.986 1.077 0.842 0.268 0.243 0.147 0.038 0.023 0.056 0.014 0.005 0.000 0.000 0.000 0.000 0.000 0.000 0.000 0.000 0.000 0.000 0.000 0.000 0.000 0.000
0.017 0.156 0.660 1.384 1.214 1.286 1.281 0.953 1.019 0.905 1.323 1.377 1.608 1.629 1.555 1.804 1.092 0.487 0.263 0.065 0.040 0.025 0.016 0.011 0.015 0.000 0.000 0.000 0.000 0.000 0.000 0.000 0.000 0.000 0.000 0.000 0.000 0.000 0.000 0.000 0.000
0.025 0.177 0.673 1.489 1.162 1.282 1.261 1.061 1.164 1.222 1.662 1.578 1.354 1.113 1.042 0.937 0.505 0.221 0.081 0.034 0.028 0.011 0.003 0.000 0.000 0.000 0.000 0.000 0.000 0.000 0.000 0.000 0.000 0.000 0.000 0.000 0.000 0.000 0.000 0.000 0.000
0.024 0.165 0.582 1.159 1.003 1.231 1.154 1.108 1.455 1.626 1.827 1.684 1.136 0.787 0.594 0.442 0.217 0.084 0.048 0.030 0.021 0.004 0.000 0.000 0.000 0.000 0.000 0.000 0.000 0.000 0.000 0.000 0.000 0.000 0.000 0.000 0.000 0.000 0.000 0.000 0.000
0.019 0.119 0.328 0.850 0.754 1.260 1.086 1.097 1.567 1.884 1.748 1.454 0.849 0.645 0.431 0.204 0.091 0.044 0.039 0.025 0.014 0.000 0.000 0.000 0.000 0.000 0.000 0.000 0.000 0.000 0.000 0.000 0.000 0.000 0.000 0.000 0.000 0.000 0.000 0.000 0.000
0.018 0.077 0.212 0.544 0.491 1.155 1.094 1.022 1.523 1.694 1.604 1.223 0.556 0.414 0.264 0.105 0.047 0.035 0.032 0.018 0.010 0.004 0.000 0.000 0.000 0.000 0.000 0.000 0.000 0.000 0.000 0.000 0.000 0.000 0.000 0.000 0.000 0.000 0.000 0.000 0.000
0.020 0.048 0.087 0.320 0.321 1.040 0.889 0.728 1.062 1.352 1.271 0.877 0.352 0.222 0.124 0.049 0.033 0.021 0.020 0.014 0.006 0.006 0.000 0.000 0.000 0.000 0.000 0.000 0.000 0.000 0.000 0.000 0.000 0.000 0.000 0.000 0.000 0.000 0.000 0.000 0.000
0.014 0.033 0.038 0.172 0.226 0.808 0.563 0.408 0.575 0.891 0.988 0.533 0.166 0.082 0.037 0.027 0.015 0.013 0.019 0.010 0.006 0.001 0.000 0.000 0.000 0.000 0.000 0.000 0.000 0.000 0.000 0.000 0.000 0.000 0.000 0.000 0.000 0.000 0.000 0.000 0.000
0.011 0.022 0.029 0.079 0.128 0.428 0.287 0.160 0.261 0.511 0.600 0.248 0.056 0.033 0.025 0.019 0.011 0.008 0.008 0.002 0.000 0.000 0.000 0.000 0.000 0.000 0.000 0.000 0.000 0.000 0.000 0.000 0.000 0.000 0.000 0.000 0.000 0.000 0.000 0.000 0.000
0.007 0.011 0.019 0.032 0.054 0.171 0.086 0.079 0.125 0.261 0.344 0.080 0.030 0.024 0.021 0.014 0.007 0.000 0.000 0.000 0.000 0.000 0.000 0.000 0.000 0.000 0.000 0.000 0.000 0.000 0.000 0.000 0.000 0.000 0.000 0.000 0.000 0.000 0.000 0.000 0.000
0.001 0.006 0.014 0.022 0.032 0.059 0.036 0.030 0.043 0.111 0.137 0.040 0.023 0.018 0.012 0.003 0.000 0.000 0.000 0.000 0.000 0.000 0.000 0.000 0.000 0.000 0.000 0.000 0.000 0.000 0.000 0.000 0.000 0.000 0.000 0.000 0.000 0.000 0.000 0.000 0.000
0.000 0.000 0.004 0.009 0.023 0.029 0.024 0.021 0.029 0.035 0.055 0.028 0.020 0.010 0.002 0.000 0.000 0.000 0.000 0.000 0.000 0.000 0.000 0.000 0.000 0.000 0.000 0.000 0.000 0.000 0.000 0.000 0.000 0.000 0.000 0.000 0.000 0.000 0.000 0.000 0.000
0.000 0.000 0.000 0.000 0.012 0.014 0.012 0.011 0.013 0.018 0.020 0.017 0.007 0.002 0.000 0.000 0.000 0.000 0.000 0.000 0.000 0.000 0.000 0.000 0.000 0.000 0.000 0.000 0.000 0.000 0.000 0.000 0.000 0.000 0.000 0.000 0.000 0.000 0.000 0.000 0.000
