ncols        31
nrows        45
xllcorner    409787.8
yllcorner    6870664.1
cellsize     5.00
NODATA_value -9999
0.000 0.000 0.000 0.000 0.000 0.000 0.000 0.000 0.000 0.000 0.000 0.000 0.000 0.000 0.000 0.000 0.000 0.000 0.000 0.000 0.000 0.000 0.000 0.000 0.000 0.000 0.000 0.000 0.000 0.000 0.000
0.000 0.000 0.000 0.000 0.000 0.000 0.000 0.008 0.027 0.045 0.052 0.049 0.039 0.022 0.004 0.000 0.000 0.000 0.000 0.000 0.000 0.000 0.000 0.000 0.000 0.000 0.000 0.000 0.000 0.000 0.000
0.000 0.000 0.000 0.000 0.000 0.003 0.025 0.068 0.108 0.144 0.155 0.144 0.117 0.072 0.040 0.013 0.001 0.000 0.000 0.000 0.000 0.000 0.000 0.000 0.000 0.000 0.000 0.000 0.000 0.000 0.000
0.000 0.000 0.000 0.000 0.003 0.031 0.092 0.178 0.269 0.334 0.361 0.349 0.281 0.179 0.097 0.052 0.021 0.001 0.000 0.000 0.000 0.000 0.000 0.000 0.000 0.000 0.000 0.000 0.000 0.000 0.000
0.000 0.000 0.000 0.000 0.020 0.088 0.203 0.376 0.534 0.636 0.699 0.677 0.550 0.360 0.226 0.127 0.054 0.024 0.001 0.000 0.000 0.000 0.000 0.000 0.000 0.000 0.000 0.000 0.000 0.000 0.000
0.000 0.000 0.000 0.008 0.066 0.167 0.361 0.635 0.853 1.024 1.144 1.091 0.908 0.660 0.447 0.255 0.125 0.054 0.024 0.001 0.000 0.000 0.000 0.000 0.000 0.000 0.000 0.000 0.000 0.000 0.000
0.000 0.000 0.001 0.028 0.111 0.270 0.538 0.898 1.204 1.467 1.563 1.543 1.371 1.078 0.748 0.472 0.247 0.126 0.058 0.024 0.001 0.000 0.000 0.000 0.000 0.000 0.000 0.000 0.000 0.000 0.000
0.000 0.000 0.005 0.056 0.162 0.374 0.699 1.096 1.465 1.745 1.934 2.117 1.890 1.524 1.166 0.790 0.461 0.268 0.142 0.057 0.022 0.001 0.000 0.000 0.000 0.000 0.000 0.000 0.000 0.000 0.000
0.000 0.000 0.012 0.075 0.207 0.456 0.814 1.196 1.573 1.952 2.349 2.552 2.346 2.106 1.693 1.201 0.799 0.509 0.290 0.142 0.058 0.022 0.001 0.000 0.000 0.000 0.000 0.000 0.000 0.000 0.000
0.000 0.000 0.018 0.085 0.234 0.497 0.842 1.222 1.615 2.019 2.484 2.714 2.794 2.579 2.171 1.659 1.282 0.896 0.547 0.297 0.143 0.053 0.020 0.000 0.000 0.000 0.000 0.000 0.000 0.000 0.000
0.000 0.000 0.020 0.086 0.232 0.470 0.784 1.174 1.478 1.833 2.380 2.807 3.014 2.868 2.561 2.180 1.869 1.376 0.929 0.559 0.281 0.118 0.043 0.012 0.000 0.000 0.000 0.000 0.000 0.000 0.000
0.000 0.000 0.019 0.077 0.200 0.402 0.678 0.957 1.208 1.703 2.220 2.614 2.827 2.866 2.806 2.785 2.477 1.980 1.444 0.909 0.467 0.217 0.085 0.032 0.003 0.000 0.000 0.000 0.000 0.000 0.000
0.000 0.000 0.014 0.059 0.162 0.330 0.533 0.748 1.039 1.446 1.848 2.205 2.555 2.727 3.112 3.239 2.977 2.613 1.907 1.258 0.682 0.332 0.142 0.048 0.023 0.000 0.000 0.000 0.000 0.000 0.000
0.000 0.000 0.009 0.046 0.122 0.244 0.411 0.604 0.814 1.086 1.402 1.842 2.235 2.561 3.097 3.324 3.309 3.009 2.258 1.555 0.924 0.496 0.222 0.085 0.030 0.005 0.000 0.000 0.000 0.000 0.000
0.000 0.000 0.004 0.034 0.087 0.183 0.311 0.452 0.595 0.789 1.084 1.403 1.627 2.238 2.806 3.254 3.332 3.051 2.494 1.891 1.209 0.675 0.310 0.128 0.044 0.022 0.000 0.000 0.000 0.000 0.000
0.000 0.000 0.002 0.023 0.061 0.133 0.227 0.316 0.420 0.564 0.750 0.933 1.302 1.870 2.273 2.771 3.260 3.037 2.632 2.216 1.507 0.852 0.413 0.172 0.065 0.023 0.002 0.000 0.000 0.000 0.000
0.000 0.000 0.000 0.014 0.044 0.099 0.175 0.252 0.323 0.374 0.470 0.673 0.991 1.359 1.823 2.518 2.910 2.748 2.906 2.435 1.640 0.982 0.491 0.213 0.087 0.030 0.016 0.000 0.000 0.000 0.000
0.000 0.000 0.000 0.007 0.039 0.087 0.144 0.189 0.223 0.273 0.358 0.508 0.706 0.960 1.406 1.938 2.222 2.766 2.916 2.353 1.799 1.048 0.544 0.243 0.103 0.039 0.017 0.000 0.000 0.000 0.000
0.000 0.000 0.000 0.007 0.053 0.099 0.149 0.181 0.198 0.233 0.289 0.361 0.489 0.680 0.980 1.369 1.915 2.489 2.643 2.421 1.785 1.053 0.550 0.282 0.132 0.050 0.016 0.002 0.000 0.000 0.000
0.000 0.000 0.002 0.030 0.087 0.153 0.200 0.211 0.219 0.240 0.253 0.302 0.372 0.481 0.684 1.071 1.590 2.138 2.470 2.290 1.713 1.064 0.616 0.335 0.162 0.064 0.023 0.016 0.000 0.000 0.000
0.000 0.000 0.012 0.073 0.154 0.241 0.279 0.272 0.267 0.252 0.253 0.276 0.329 0.383 0.484 0.775 1.237 1.777 2.107 2.037 1.679 1.162 0.684 0.348 0.187 0.082 0.034 0.016 0.000 0.000 0.000
0.000 0.003 0.047 0.125 0.244 0.341 0.368 0.344 0.313 0.284 0.271 0.274 0.295 0.296 0.371 0.565 0.925 1.371 1.736 1.867 1.688 1.209 0.676 0.349 0.202 0.092 0.040 0.014 0.007 0.000 0.000
0.000 0.013 0.078 0.188 0.324 0.429 0.428 0.393 0.367 0.309 0.273 0.260 0.275 0.273 0.293 0.408 0.660 1.039 1.479 1.713 1.599 1.165 0.648 0.356 0.214 0.116 0.050 0.024 0.015 0.000 0.000
0.001 0.028 0.111 0.242 0.370 0.443 0.460 0.433 0.370 0.307 0.279 0.273 0.272 0.266 0.248 0.314 0.499 0.811 1.243 1.470 1.398 1.067 0.623 0.393 0.227 0.139 0.065 0.033 0.010 0.005 0.000
0.003 0.048 0.139 0.272 0.390 0.450 0.453 0.385 0.347 0.308 0.301 0.255 0.257 0.257 0.232 0.256 0.355 0.599 0.881 1.168 1.308 0.992 0.654 0.424 0.246 0.154 0.082 0.035 0.013 0.014 0.000
0.007 0.059 0.156 0.277 0.370 0.405 0.395 0.369 0.322 0.307 0.286 0.223 0.246 0.263 0.229 0.205 0.253 0.419 0.695 0.978 1.088 0.878 0.648 0.428 0.249 0.166 0.103 0.045 0.019 0.011 0.005
0.010 0.063 0.164 0.270 0.335 0.355 0.335 0.315 0.296 0.289 0.231 0.198 0.247 0.254 0.200 0.168 0.204 0.327 0.546 0.770 0.867 0.835 0.670 0.422 0.268 0.196 0.131 0.067 0.028 0.014 0.018
0.012 0.063 0.158 0.246 0.290 0.299 0.273 0.272 0.281 0.243 0.183 0.206 0.236 0.228 0.178 0.159 0.173 0.247 0.387 0.575 0.737 0.801 0.628 0.396 0.302 0.213 0.153 0.071 0.035 0.018 0.015
0.013 0.059 0.143 0.221 0.248 0.234 0.221 0.235 0.213 0.175 0.189 0.203 0.198 0.204 0.177 0.148 0.144 0.182 0.292 0.439 0.600 0.658 0.541 0.421 0.312 0.227 0.153 0.081 0.042 0.023 0.017
0.012 0.053 0.128 0.190 0.204 0.190 0.188 0.187 0.162 0.177 0.191 0.186 0.180 0.184 0.162 0.135 0.126 0.144 0.210 0.335 0.486 0.564 0.520 0.410 0.305 0.223 0.156 0.090 0.051 0.032 0.027
0.011 0.047 0.108 0.162 0.166 0.150 0.139 0.151 0.162 0.171 0.174 0.161 0.163 0.178 0.161 0.122 0.104 0.111 0.169 0.268 0.388 0.504 0.501 0.399 0.301 0.238 0.161 0.104 0.059 0.044 0.038
0.009 0.040 0.090 0.134 0.144 0.123 0.123 0.140 0.145 0.152 0.135 0.131 0.157 0.165 0.141 0.109 0.089 0.101 0.125 0.202 0.317 0.416 0.443 0.378 0.288 0.216 0.166 0.111 0.071 0.055 0.043
0.007 0.034 0.074 0.111 0.119 0.113 0.111 0.119 0.126 0.131 0.122 0.131 0.153 0.145 0.124 0.104 0.088 0.081 0.103 0.161 0.257 0.361 0.391 0.348 0.256 0.206 0.169 0.122 0.080 0.055 0.042
0.005 0.027 0.059 0.094 0.100 0.096 0.100 0.099 0.106 0.116 0.114 0.125 0.134 0.118 0.112 0.098 0.078 0.073 0.089 0.124 0.194 0.286 0.351 0.313 0.237 0.193 0.163 0.129 0.086 0.058 0.043
0.003 0.022 0.051 0.076 0.084 0.091 0.092 0.087 0.094 0.104 0.111 0.110 0.115 0.105 0.099 0.092 0.072 0.063 0.072 0.098 0.160 0.254 0.306 0.283 0.233 0.175 0.157 0.139 0.094 0.064 0.040
0.001 0.017 0.040 0.061 0.072 0.084 0.081 0.074 0.078 0.087 0.097 0.099 0.101 0.098 0.090 0.074 0.062 0.053 0.059 0.079 0.123 0.198 0.272 0.261 0.206 0.164 0.155 0.143 0.104 0.069 0.042
0.000 0.012 0.031 0.049 0.065 0.073 0.073 0.068 0.068 0.078 0.088 0.087 0.090 0.088 0.077 0.067 0.054 0.046 0.048 0.060 0.096 0.177 0.235 0.233 0.188 0.156 0.156 0.143 0.105 0.075 0.046
0.000 0.008 0.024 0.040 0.053 0.063 0.066 0.061 0.058 0.067 0.078 0.075 0.075 0.068 0.068 0.056 0.044 0.041 0.041 0.050 0.075 0.142 0.195 0.211 0.177 0.159 0.151 0.131 0.108 0.077 0.047
0.000 0.004 0.020 0.033 0.045 0.052 0.057 0.056 0.056 0.063 0.069 0.064 0.062 0.060 0.054 0.047 0.043 0.040 0.040 0.042 0.056 0.107 0.164 0.178 0.165 0.146 0.133 0.128 0.108 0.076 0.046
0.000 0.002 0.016 0.027 0.037 0.043 0.052 0.056 0.047 0.056 0.059 0.046 0.050 0.047 0.045 0.043 0.041 0.038 0.036 0.035 0.048 0.088 0.135 0.169 0.162 0.134 0.123 0.113 0.096 0.071 0.044
0.000 0.000 0.011 0.023 0.031 0.038 0.049 0.049 0.047 0.052 0.045 0.042 0.045 0.043 0.042 0.041 0.040 0.037 0.033 0.032 0.044 0.068 0.107 0.154 0.144 0.120 0.107 0.099 0.088 0.065 0.041
0.000 0.000 0.006 0.018 0.026 0.034 0.042 0.044 0.044 0.043 0.042 0.042 0.042 0.041 0.039 0.039 0.039 0.036 0.032 0.033 0.040 0.050 0.080 0.125 0.128 0.108 0.094 0.087 0.077 0.057 0.039
0.000 0.000 0.002 0.015 0.022 0.030 0.036 0.040 0.041 0.041 0.041 0.041 0.039 0.039 0.039 0.040 0.038 0.033 0.030 0.028 0.033 0.042 0.055 0.096 0.108 0.093 0.078 0.072 0.067 0.047 0.036
0.000 0.000 0.001 0.010 0.019 0.024 0.027 0.037 0.040 0.040 0.039 0.040 0.037 0.035 0.039 0.041 0.034 0.032 0.029 0.023 0.029 0.039 0.044 0.070 0.077 0.075 0.065 0.054 0.049 0.041 0.036
0.000 0.000 0.000 0.007 0.016 0.018 0.020 0.031 0.036 0.035 0.035 0.035 0.032 0.031 0.032 0.035 0.029 0.029 0.024 0.021 0.023 0.031 0.039 0.048 0.050 0.047 0.045 0.040 0.037 0.036 0.033
