ncols        32
nrows        49
xllcorner    409767.8
yllcorner    6870699.1
cellsize     5.00
NODATA_value -9999
0.000 0.000 0.000 0.000 0.000 0.000 0.000 0.000 0.000 0.000 0.000 0.000 0.000 0.000 0.000 0.000 0.000 0.000 0.000 0.000 0.000 0.000 0.000 0.000 0.000 0.000 0.000 0.000 0.000 0.000 0.000 0.000
0.000 0.000 0.000 0.000 0.001 0.012 0.036 0.057 0.065 0.057 0.040 0.021 0.005 0.000 0.000 0.000 0.000 0.000 0.000 0.000 0.000 0.000 0.000 0.000 0.000 0.000 0.000 0.000 0.000 0.000 0.000 0.000
0.000 0.000 0.000 0.004 0.030 0.076 0.126 0.172 0.190 0.170 0.123 0.071 0.041 0.018 0.002 0.000 0.000 0.000 0.000 0.000 0.000 0.000 0.000 0.000 0.000 0.000 0.000 0.000 0.000 0.000 0.000 0.000
0.000 0.000 0.003 0.036 0.096 0.193 0.313 0.404 0.445 0.408 0.303 0.188 0.106 0.056 0.030 0.006 0.000 0.000 0.000 0.000 0.000 0.000 0.000 0.000 0.000 0.000 0.000 0.000 0.000 0.000 0.000 0.000
0.000 0.000 0.021 0.092 0.214 0.404 0.593 0.768 0.851 0.785 0.616 0.416 0.249 0.144 0.071 0.036 0.010 0.000 0.000 0.000 0.000 0.000 0.000 0.000 0.000 0.000 0.000 0.000 0.000 0.000 0.000 0.000
0.000 0.008 0.066 0.175 0.379 0.668 0.967 1.209 1.337 1.289 1.066 0.762 0.492 0.304 0.168 0.084 0.042 0.016 0.000 0.000 0.000 0.000 0.000 0.000 0.000 0.000 0.000 0.000 0.000 0.000 0.000 0.000
0.001 0.027 0.112 0.281 0.573 0.957 1.351 1.665 1.851 1.814 1.603 1.231 0.837 0.569 0.354 0.191 0.099 0.045 0.018 0.001 0.000 0.000 0.000 0.000 0.000 0.000 0.000 0.000 0.000 0.000 0.000 0.000
0.004 0.054 0.166 0.391 0.749 1.192 1.654 2.013 2.269 2.339 2.128 1.746 1.306 0.918 0.622 0.379 0.220 0.102 0.044 0.018 0.001 0.000 0.000 0.000 0.000 0.000 0.000 0.000 0.000 0.000 0.000 0.000
0.011 0.074 0.214 0.470 0.862 1.331 1.836 2.278 2.524 2.658 2.537 2.268 1.839 1.426 1.005 0.660 0.400 0.202 0.100 0.041 0.017 0.000 0.000 0.000 0.000 0.000 0.000 0.000 0.000 0.000 0.000 0.000
0.016 0.085 0.242 0.517 0.912 1.379 1.866 2.316 2.610 2.832 2.874 2.750 2.400 1.875 1.436 1.011 0.629 0.368 0.191 0.086 0.035 0.013 0.000 0.000 0.000 0.000 0.000 0.000 0.000 0.000 0.000 0.000
0.018 0.086 0.248 0.516 0.902 1.327 1.766 2.204 2.551 2.847 3.039 3.025 2.805 2.279 1.846 1.425 0.940 0.585 0.317 0.159 0.065 0.028 0.006 0.000 0.000 0.000 0.000 0.000 0.000 0.000 0.000 0.000
0.017 0.079 0.222 0.474 0.807 1.194 1.591 1.963 2.301 2.667 2.974 3.141 2.946 2.561 2.276 1.750 1.291 0.898 0.509 0.261 0.107 0.042 0.023 0.001 0.000 0.000 0.000 0.000 0.000 0.000 0.000 0.000
0.014 0.062 0.181 0.391 0.691 1.021 1.347 1.640 2.011 2.379 2.729 2.906 2.985 2.742 2.491 2.115 1.813 1.305 0.743 0.363 0.169 0.073 0.028 0.015 0.000 0.000 0.000 0.000 0.000 0.000 0.000 0.000
0.009 0.046 0.133 0.309 0.559 0.826 1.092 1.329 1.641 2.008 2.368 2.649 2.948 2.865 2.696 2.453 2.201 1.554 0.892 0.502 0.262 0.105 0.047 0.021 0.004 0.000 0.000 0.000 0.000 0.000 0.000 0.000
0.004 0.033 0.093 0.224 0.428 0.660 0.867 1.058 1.287 1.622 1.940 2.346 2.617 2.597 2.635 2.689 2.413 1.714 1.104 0.711 0.360 0.151 0.069 0.028 0.017 0.000 0.000 0.000 0.000 0.000 0.000 0.000
0.001 0.021 0.057 0.154 0.304 0.484 0.652 0.801 0.989 1.248 1.591 1.995 2.224 2.322 2.565 2.703 2.463 1.821 1.354 0.916 0.444 0.209 0.088 0.042 0.016 0.006 0.000 0.000 0.000 0.000 0.000 0.000
0.000 0.012 0.037 0.097 0.208 0.368 0.504 0.619 0.737 0.926 1.209 1.537 1.734 2.002 2.386 2.512 2.356 1.936 1.536 0.995 0.530 0.255 0.112 0.058 0.025 0.016 0.000 0.000 0.000 0.000 0.000 0.000
0.000 0.005 0.025 0.063 0.148 0.266 0.375 0.465 0.537 0.661 0.878 1.142 1.365 1.724 1.991 2.195 2.256 2.008 1.571 1.096 0.598 0.312 0.157 0.075 0.032 0.014 0.010 0.000 0.000 0.000 0.000 0.000
0.000 0.001 0.017 0.039 0.101 0.195 0.303 0.387 0.437 0.515 0.653 0.826 1.012 1.273 1.590 2.019 2.089 1.883 1.589 1.140 0.659 0.388 0.194 0.080 0.037 0.021 0.013 0.001 0.000 0.000 0.000 0.000
0.000 0.000 0.009 0.027 0.072 0.151 0.261 0.354 0.387 0.432 0.519 0.611 0.743 0.982 1.351 1.707 1.798 1.839 1.595 1.146 0.728 0.440 0.229 0.101 0.048 0.028 0.011 0.011 0.000 0.000 0.000 0.000
0.000 0.000 0.003 0.020 0.052 0.141 0.266 0.356 0.388 0.394 0.420 0.479 0.585 0.765 1.060 1.328 1.571 1.623 1.443 1.092 0.797 0.508 0.272 0.131 0.063 0.033 0.017 0.010 0.001 0.000 0.000 0.000
0.000 0.000 0.000 0.014 0.052 0.156 0.303 0.412 0.427 0.379 0.362 0.399 0.444 0.557 0.798 1.071 1.300 1.348 1.249 1.042 0.843 0.543 0.316 0.166 0.081 0.040 0.021 0.009 0.009 0.000 0.000 0.000
0.000 0.000 0.000 0.008 0.058 0.193 0.378 0.497 0.480 0.393 0.344 0.325 0.334 0.458 0.634 0.816 0.962 1.046 1.044 1.019 0.848 0.592 0.372 0.198 0.092 0.047 0.026 0.013 0.008 0.000 0.000 0.000
0.000 0.000 0.000 0.007 0.076 0.246 0.453 0.573 0.536 0.428 0.337 0.292 0.307 0.380 0.481 0.601 0.737 0.824 0.953 0.958 0.806 0.625 0.386 0.216 0.102 0.053 0.030 0.016 0.007 0.006 0.000 0.000
0.000 0.000 0.000 0.010 0.096 0.296 0.515 0.631 0.580 0.432 0.338 0.292 0.277 0.304 0.362 0.470 0.583 0.678 0.821 0.829 0.751 0.599 0.380 0.227 0.117 0.065 0.037 0.021 0.012 0.009 0.000 0.000
0.000 0.000 0.000 0.014 0.115 0.323 0.537 0.641 0.577 0.446 0.337 0.280 0.250 0.255 0.300 0.358 0.401 0.541 0.666 0.725 0.665 0.537 0.375 0.251 0.144 0.080 0.043 0.028 0.015 0.006 0.002 0.000
0.000 0.000 0.000 0.018 0.128 0.334 0.545 0.631 0.556 0.435 0.322 0.252 0.226 0.222 0.237 0.257 0.326 0.442 0.508 0.574 0.605 0.495 0.378 0.281 0.176 0.097 0.050 0.032 0.018 0.008 0.009 0.000
0.000 0.000 0.000 0.021 0.131 0.322 0.497 0.560 0.514 0.398 0.304 0.241 0.212 0.183 0.179 0.211 0.268 0.327 0.405 0.515 0.530 0.433 0.408 0.309 0.190 0.111 0.059 0.035 0.022 0.010 0.005 0.000
0.000 0.000 0.001 0.022 0.128 0.299 0.460 0.494 0.451 0.380 0.278 0.204 0.168 0.157 0.162 0.186 0.214 0.247 0.322 0.403 0.411 0.447 0.417 0.302 0.215 0.122 0.067 0.038 0.023 0.010 0.004 0.001
0.000 0.000 0.000 0.021 0.120 0.265 0.402 0.431 0.396 0.339 0.242 0.180 0.147 0.141 0.146 0.151 0.169 0.192 0.240 0.300 0.373 0.428 0.395 0.325 0.222 0.130 0.073 0.046 0.030 0.015 0.006 0.008
0.000 0.000 0.000 0.019 0.106 0.231 0.355 0.385 0.348 0.299 0.217 0.158 0.135 0.135 0.126 0.133 0.143 0.152 0.183 0.254 0.335 0.397 0.402 0.329 0.228 0.141 0.089 0.059 0.038 0.021 0.011 0.010
0.000 0.000 0.000 0.016 0.091 0.207 0.309 0.327 0.295 0.254 0.190 0.141 0.127 0.116 0.111 0.116 0.129 0.130 0.142 0.201 0.284 0.359 0.375 0.321 0.243 0.167 0.109 0.067 0.045 0.027 0.014 0.006
0.000 0.000 0.000 0.014 0.076 0.179 0.277 0.281 0.258 0.215 0.170 0.134 0.114 0.104 0.100 0.102 0.111 0.103 0.116 0.160 0.233 0.305 0.343 0.328 0.276 0.192 0.114 0.073 0.053 0.032 0.018 0.008
0.000 0.000 0.000 0.012 0.056 0.161 0.243 0.241 0.217 0.197 0.152 0.124 0.113 0.093 0.084 0.083 0.094 0.093 0.094 0.123 0.184 0.257 0.326 0.338 0.290 0.205 0.119 0.079 0.061 0.044 0.026 0.015
0.000 0.000 0.000 0.011 0.046 0.144 0.219 0.208 0.177 0.158 0.141 0.124 0.101 0.081 0.076 0.078 0.084 0.087 0.079 0.098 0.151 0.225 0.307 0.322 0.284 0.210 0.129 0.094 0.068 0.054 0.034 0.018
0.000 0.000 0.000 0.010 0.039 0.126 0.189 0.178 0.158 0.145 0.131 0.103 0.091 0.078 0.076 0.066 0.073 0.080 0.074 0.082 0.113 0.181 0.245 0.286 0.298 0.216 0.153 0.111 0.078 0.064 0.044 0.017
0.000 0.000 0.000 0.012 0.031 0.110 0.166 0.154 0.138 0.123 0.111 0.100 0.085 0.079 0.071 0.054 0.067 0.080 0.071 0.065 0.083 0.137 0.216 0.273 0.275 0.211 0.168 0.123 0.085 0.076 0.060 0.023
0.000 0.000 0.000 0.015 0.025 0.088 0.151 0.141 0.123 0.108 0.095 0.087 0.080 0.076 0.058 0.048 0.066 0.075 0.059 0.052 0.069 0.115 0.183 0.235 0.243 0.220 0.190 0.131 0.099 0.097 0.083 0.039
0.000 0.000 0.001 0.011 0.021 0.074 0.131 0.126 0.108 0.094 0.081 0.079 0.078 0.065 0.049 0.051 0.063 0.066 0.051 0.047 0.057 0.089 0.139 0.190 0.225 0.234 0.189 0.134 0.125 0.106 0.089 0.037
0.000 0.000 0.000 0.009 0.019 0.059 0.110 0.114 0.095 0.077 0.070 0.073 0.063 0.049 0.052 0.054 0.053 0.059 0.049 0.045 0.048 0.067 0.110 0.155 0.197 0.206 0.175 0.156 0.134 0.110 0.080 0.038
0.000 0.000 0.000 0.006 0.017 0.050 0.096 0.100 0.080 0.063 0.060 0.060 0.051 0.050 0.054 0.051 0.049 0.054 0.045 0.043 0.044 0.053 0.083 0.125 0.168 0.188 0.177 0.157 0.135 0.109 0.076 0.040
0.000 0.000 0.000 0.004 0.016 0.042 0.079 0.085 0.064 0.049 0.046 0.047 0.051 0.049 0.047 0.044 0.045 0.053 0.048 0.040 0.038 0.044 0.068 0.105 0.141 0.175 0.178 0.155 0.134 0.115 0.076 0.043
0.000 0.000 0.000 0.003 0.014 0.033 0.065 0.070 0.056 0.044 0.043 0.046 0.045 0.044 0.039 0.037 0.044 0.050 0.046 0.039 0.034 0.042 0.052 0.083 0.120 0.149 0.161 0.146 0.124 0.100 0.076 0.044
0.000 0.000 0.000 0.002 0.012 0.027 0.055 0.058 0.048 0.043 0.041 0.043 0.043 0.041 0.036 0.040 0.046 0.047 0.045 0.042 0.037 0.036 0.046 0.069 0.100 0.132 0.146 0.134 0.106 0.091 0.075 0.046
0.000 0.000 0.000 0.001 0.010 0.021 0.048 0.053 0.045 0.040 0.041 0.039 0.040 0.041 0.036 0.041 0.045 0.041 0.045 0.045 0.035 0.035 0.043 0.055 0.078 0.107 0.133 0.120 0.096 0.080 0.068 0.047
0.000 0.000 0.000 0.000 0.007 0.018 0.047 0.048 0.041 0.041 0.039 0.035 0.037 0.040 0.041 0.040 0.043 0.040 0.042 0.044 0.034 0.031 0.037 0.046 0.066 0.097 0.115 0.106 0.090 0.068 0.061 0.047
0.000 0.000 0.000 0.000 0.004 0.016 0.036 0.043 0.040 0.041 0.036 0.031 0.031 0.035 0.040 0.040 0.042 0.043 0.041 0.036 0.031 0.028 0.032 0.040 0.051 0.074 0.099 0.092 0.074 0.059 0.054 0.044
0.000 0.000 0.000 0.000 0.002 0.014 0.026 0.036 0.040 0.038 0.033 0.028 0.025 0.031 0.038 0.038 0.041 0.041 0.038 0.035 0.029 0.026 0.028 0.032 0.042 0.064 0.077 0.070 0.057 0.048 0.047 0.041
0.000 0.000 0.000 0.000 0.001 0.011 0.020 0.029 0.032 0.032 0.029 0.023 0.020 0.024 0.033 0.033 0.034 0.034 0.036 0.030 0.025 0.023 0.022 0.025 0.031 0.044 0.049 0.047 0.041 0.041 0.040 0.034
