ncols        32
nrows        44
xllcorner    409792.8
yllcorner    6870644.1
cellsize     5.00
NODATA_value -9999
0.000 0.000 0.000 0.000 0.000 0.000 0.000 0.000 0.001 0.009 0.024 0.032 0.033 0.024 0.009 0.001 0.000 0.000 0.000 0.000 0.000 0.000 0.000 0.000 0.000 0.000 0.000 0.000 0.000 0.000 0.000 0.000
0.000 0.000 0.000 0.000 0.000 0.000 0.000 0.005 0.034 0.072 0.103 0.122 0.118 0.089 0.058 0.028 0.006 0.000 0.000 0.000 0.000 0.000 0.000 0.000 0.000 0.000 0.000 0.000 0.000 0.000 0.000 0.000
0.000 0.000 0.000 0.000 0.000 0.000 0.008 0.054 0.113 0.192 0.287 0.318 0.296 0.236 0.152 0.077 0.039 0.010 0.000 0.000 0.000 0.000 0.000 0.000 0.000 0.000 0.000 0.000 0.000 0.000 0.000 0.000
0.000 0.000 0.000 0.000 0.000 0.006 0.051 0.128 0.258 0.436 0.600 0.655 0.627 0.500 0.325 0.183 0.088 0.040 0.009 0.000 0.000 0.000 0.000 0.000 0.000 0.000 0.000 0.000 0.000 0.000 0.000 0.000
0.000 0.000 0.000 0.000 0.001 0.030 0.108 0.248 0.473 0.765 1.004 1.144 1.077 0.860 0.580 0.366 0.196 0.086 0.038 0.006 0.000 0.000 0.000 0.000 0.000 0.000 0.000 0.000 0.000 0.000 0.000 0.000
0.000 0.000 0.000 0.000 0.009 0.072 0.191 0.393 0.696 1.114 1.486 1.678 1.576 1.281 0.931 0.642 0.369 0.187 0.082 0.037 0.003 0.000 0.000 0.000 0.000 0.000 0.000 0.000 0.000 0.000 0.000 0.000
0.000 0.000 0.000 0.000 0.025 0.107 0.268 0.525 0.961 1.465 1.878 2.083 1.995 1.718 1.420 1.016 0.645 0.370 0.187 0.074 0.034 0.003 0.000 0.000 0.000 0.000 0.000 0.000 0.000 0.000 0.000 0.000
0.000 0.000 0.000 0.002 0.039 0.136 0.328 0.655 1.134 1.650 2.078 2.370 2.328 2.275 1.968 1.468 1.049 0.636 0.362 0.177 0.076 0.035 0.005 0.000 0.000 0.000 0.000 0.000 0.000 0.000 0.000 0.000
0.000 0.000 0.000 0.004 0.048 0.152 0.364 0.694 1.133 1.634 2.184 2.518 2.609 2.684 2.408 1.981 1.513 0.998 0.632 0.366 0.195 0.084 0.037 0.004 0.000 0.000 0.000 0.000 0.000 0.000 0.000 0.000
0.000 0.000 0.000 0.005 0.050 0.151 0.350 0.649 1.041 1.548 2.028 2.234 2.708 2.871 2.793 2.433 1.938 1.464 1.063 0.692 0.403 0.196 0.079 0.032 0.001 0.000 0.000 0.000 0.000 0.000 0.000 0.000
0.000 0.000 0.000 0.005 0.045 0.133 0.293 0.542 0.890 1.279 1.604 2.084 2.635 2.737 2.840 2.890 2.410 1.989 1.664 1.182 0.717 0.380 0.167 0.055 0.020 0.000 0.000 0.000 0.000 0.000 0.000 0.000
0.000 0.000 0.000 0.003 0.037 0.110 0.250 0.441 0.648 0.907 1.301 1.799 2.196 2.529 2.996 3.062 2.697 2.748 2.335 1.696 1.105 0.614 0.290 0.117 0.036 0.002 0.000 0.000 0.000 0.000 0.000 0.000
0.000 0.000 0.000 0.002 0.029 0.083 0.179 0.300 0.462 0.696 1.028 1.388 1.725 2.207 2.658 2.756 3.227 3.336 2.825 2.310 1.505 0.867 0.424 0.178 0.051 0.021 0.000 0.000 0.000 0.000 0.000 0.000
0.000 0.000 0.000 0.001 0.020 0.057 0.125 0.208 0.330 0.502 0.699 0.974 1.300 1.692 2.109 2.692 3.341 3.560 3.419 2.749 1.834 1.068 0.586 0.274 0.096 0.028 0.000 0.000 0.000 0.000 0.000 0.000
0.000 0.000 0.000 0.000 0.011 0.043 0.087 0.151 0.245 0.341 0.493 0.676 0.914 1.239 1.777 2.450 3.179 3.721 3.663 3.019 2.118 1.355 0.776 0.376 0.137 0.036 0.006 0.000 0.000 0.000 0.000 0.000
0.000 0.000 0.000 0.000 0.005 0.034 0.067 0.116 0.173 0.244 0.346 0.497 0.664 0.867 1.339 2.030 2.846 3.452 3.563 3.229 2.505 1.633 0.877 0.467 0.192 0.057 0.022 0.000 0.000 0.000 0.000 0.000
0.000 0.000 0.000 0.000 0.003 0.037 0.065 0.101 0.143 0.195 0.261 0.349 0.428 0.620 0.972 1.568 2.307 3.009 3.451 3.409 2.730 1.714 0.931 0.522 0.227 0.077 0.023 0.002 0.000 0.000 0.000 0.000
0.000 0.000 0.000 0.001 0.019 0.063 0.094 0.129 0.151 0.172 0.204 0.261 0.324 0.436 0.672 1.121 1.793 2.642 3.267 3.324 2.701 1.678 0.970 0.562 0.284 0.104 0.033 0.016 0.000 0.000 0.000 0.000
0.000 0.000 0.001 0.017 0.067 0.119 0.166 0.187 0.190 0.198 0.218 0.241 0.277 0.324 0.485 0.828 1.403 2.253 2.843 2.955 2.482 1.599 1.055 0.592 0.333 0.135 0.048 0.016 0.001 0.000 0.000 0.000
0.000 0.000 0.009 0.063 0.127 0.205 0.251 0.266 0.262 0.268 0.238 0.246 0.264 0.282 0.370 0.574 1.029 1.608 2.281 2.752 2.283 1.624 1.092 0.619 0.355 0.164 0.055 0.017 0.014 0.000 0.000 0.000
0.000 0.003 0.040 0.108 0.207 0.294 0.348 0.342 0.340 0.322 0.257 0.276 0.297 0.281 0.288 0.399 0.715 1.261 1.896 2.270 1.981 1.555 1.051 0.594 0.361 0.193 0.070 0.026 0.016 0.001 0.000 0.000
0.000 0.012 0.070 0.162 0.281 0.363 0.402 0.401 0.392 0.319 0.276 0.325 0.327 0.267 0.243 0.322 0.554 0.982 1.480 1.782 1.832 1.542 0.985 0.600 0.393 0.230 0.102 0.037 0.016 0.016 0.000 0.000
0.001 0.027 0.100 0.208 0.323 0.382 0.422 0.446 0.384 0.293 0.324 0.354 0.334 0.265 0.243 0.278 0.419 0.695 1.096 1.485 1.704 1.391 0.876 0.630 0.402 0.252 0.106 0.045 0.022 0.019 0.001 0.000
0.003 0.043 0.124 0.235 0.319 0.363 0.408 0.382 0.312 0.327 0.346 0.331 0.331 0.287 0.241 0.239 0.313 0.520 0.825 1.184 1.362 1.155 0.883 0.616 0.409 0.243 0.116 0.054 0.029 0.019 0.014 0.000
0.006 0.055 0.137 0.234 0.295 0.334 0.347 0.305 0.327 0.342 0.329 0.316 0.316 0.280 0.232 0.217 0.250 0.371 0.615 0.936 1.131 1.075 0.827 0.572 0.382 0.239 0.126 0.067 0.040 0.031 0.019 0.002
0.009 0.058 0.137 0.215 0.248 0.255 0.286 0.303 0.319 0.318 0.290 0.290 0.310 0.281 0.217 0.185 0.196 0.295 0.481 0.727 0.982 0.995 0.778 0.542 0.390 0.242 0.145 0.077 0.052 0.044 0.021 0.017
0.011 0.057 0.129 0.193 0.205 0.223 0.258 0.266 0.279 0.248 0.237 0.281 0.287 0.249 0.195 0.161 0.175 0.215 0.351 0.575 0.785 0.849 0.717 0.508 0.344 0.245 0.154 0.094 0.070 0.051 0.031 0.022
0.012 0.053 0.116 0.166 0.185 0.195 0.215 0.226 0.233 0.218 0.230 0.267 0.253 0.215 0.183 0.155 0.141 0.173 0.272 0.450 0.660 0.724 0.642 0.444 0.323 0.245 0.169 0.109 0.073 0.055 0.042 0.025
0.011 0.047 0.102 0.139 0.154 0.171 0.174 0.184 0.200 0.198 0.215 0.231 0.204 0.192 0.169 0.135 0.125 0.148 0.204 0.328 0.504 0.627 0.561 0.404 0.300 0.234 0.178 0.118 0.081 0.061 0.046 0.028
0.009 0.042 0.084 0.116 0.140 0.152 0.149 0.160 0.172 0.184 0.182 0.193 0.178 0.167 0.156 0.123 0.107 0.119 0.157 0.259 0.428 0.528 0.494 0.391 0.270 0.222 0.190 0.130 0.091 0.060 0.047 0.034
0.006 0.035 0.067 0.098 0.126 0.130 0.124 0.130 0.142 0.155 0.161 0.164 0.161 0.150 0.124 0.106 0.092 0.098 0.126 0.193 0.320 0.451 0.446 0.340 0.250 0.218 0.195 0.143 0.099 0.066 0.050 0.041
0.004 0.027 0.053 0.086 0.107 0.113 0.110 0.111 0.125 0.138 0.138 0.145 0.144 0.127 0.114 0.096 0.085 0.084 0.097 0.147 0.273 0.380 0.387 0.304 0.233 0.217 0.195 0.145 0.109 0.075 0.052 0.042
0.002 0.021 0.042 0.068 0.089 0.098 0.095 0.093 0.107 0.121 0.119 0.121 0.113 0.115 0.100 0.084 0.075 0.071 0.082 0.116 0.214 0.305 0.343 0.281 0.233 0.209 0.178 0.150 0.114 0.081 0.057 0.039
0.001 0.016 0.034 0.054 0.070 0.082 0.085 0.088 0.100 0.109 0.105 0.105 0.105 0.099 0.089 0.080 0.070 0.067 0.066 0.090 0.159 0.250 0.282 0.258 0.214 0.184 0.175 0.151 0.115 0.084 0.059 0.036
0.000 0.010 0.027 0.042 0.054 0.072 0.083 0.074 0.091 0.098 0.084 0.092 0.090 0.083 0.077 0.071 0.063 0.058 0.054 0.082 0.133 0.203 0.262 0.251 0.197 0.171 0.157 0.137 0.113 0.085 0.061 0.036
0.000 0.005 0.022 0.034 0.047 0.067 0.073 0.075 0.089 0.084 0.079 0.080 0.074 0.070 0.066 0.060 0.056 0.048 0.049 0.072 0.109 0.163 0.235 0.223 0.179 0.151 0.139 0.129 0.109 0.083 0.063 0.037
0.000 0.002 0.017 0.028 0.041 0.054 0.064 0.074 0.078 0.077 0.073 0.065 0.060 0.056 0.053 0.050 0.047 0.044 0.046 0.061 0.086 0.127 0.193 0.199 0.164 0.137 0.126 0.118 0.102 0.079 0.056 0.035
0.000 0.001 0.012 0.024 0.035 0.046 0.056 0.068 0.073 0.071 0.061 0.050 0.047 0.046 0.046 0.045 0.042 0.040 0.040 0.046 0.066 0.095 0.154 0.174 0.148 0.121 0.113 0.111 0.092 0.070 0.053 0.034
0.000 0.000 0.007 0.020 0.028 0.036 0.050 0.064 0.065 0.058 0.050 0.043 0.041 0.044 0.045 0.041 0.040 0.039 0.035 0.040 0.055 0.077 0.124 0.139 0.132 0.112 0.099 0.095 0.082 0.065 0.045 0.033
0.000 0.000 0.003 0.017 0.022 0.028 0.044 0.054 0.053 0.047 0.044 0.040 0.039 0.040 0.043 0.038 0.038 0.035 0.032 0.034 0.043 0.067 0.102 0.114 0.108 0.098 0.086 0.082 0.073 0.057 0.042 0.032
0.000 0.000 0.001 0.013 0.019 0.026 0.041 0.049 0.044 0.042 0.042 0.039 0.036 0.036 0.039 0.036 0.033 0.031 0.034 0.035 0.040 0.048 0.073 0.088 0.088 0.078 0.072 0.074 0.065 0.047 0.039 0.028
0.000 0.000 0.000 0.008 0.016 0.023 0.036 0.043 0.043 0.041 0.038 0.035 0.033 0.033 0.036 0.032 0.029 0.031 0.033 0.034 0.036 0.043 0.053 0.064 0.064 0.063 0.056 0.055 0.051 0.043 0.037 0.027
0.000 0.000 0.000 0.003 0.013 0.017 0.028 0.038 0.035 0.034 0.033 0.030 0.027 0.027 0.032 0.028 0.026 0.024 0.025 0.025 0.028 0.035 0.040 0.050 0.051 0.044 0.039 0.040 0.040 0.038 0.032 0.026
0.000 0.000 0.000 0.001 0.009 0.011 0.018 0.025 0.024 0.024 0.023 0.021 0.018 0.020 0.021 0.018 0.016 0.016 0.022 0.023 0.022 0.023 0.024 0.025 0.028 0.025 0.025 0.026 0.027 0.027 0.023 0.019
