ncols        35
nrows        74
xllcorner    409662.8
yllcorner    6870784.1
cellsize     5.00
NODATA_value -9999
0.000 0.000 0.000 0.000 0.000 0.000 0.000 0.000 0.000 0.000 0.000 0.000 0.000 0.000 0.000 0.000 0.000 0.000 0.000 0.000 0.000 0.000 0.000 0.000 0.000 0.000 0.000 0.000 0.000 0.000 0.000 0.000 0.000 0.000 0.000
0.000 0.000 0.011 0.044 0.084 0.090 0.081 0.068 0.044 0.024 0.005 0.000 0.000 0.000 0.000 0.000 0.000 0.000 0.000 0.000 0.000 0.000 0.000 0.000 0.000 0.000 0.000 0.000 0.000 0.000 0.000 0.000 0.000 0.000 0.000
0.000 0.011 0.073 0.145 0.216 0.233 0.209 0.168 0.104 0.062 0.041 0.014 0.002 0.000 0.000 0.000 0.000 0.000 0.000 0.000 0.000 0.000 0.000 0.000 0.000 0.000 0.000 0.000 0.000 0.000 0.000 0.000 0.000 0.000 0.000
0.004 0.057 0.155 0.327 0.460 0.495 0.410 0.326 0.207 0.134 0.085 0.050 0.031 0.013 0.002 0.000 0.000 0.000 0.000 0.000 0.000 0.000 0.000 0.000 0.000 0.000 0.000 0.000 0.000 0.000 0.000 0.000 0.000 0.000 0.000
0.016 0.101 0.279 0.554 0.785 0.822 0.738 0.540 0.372 0.255 0.157 0.092 0.055 0.045 0.033 0.015 0.000 0.000 0.000 0.000 0.000 0.000 0.000 0.000 0.000 0.000 0.000 0.000 0.000 0.000 0.000 0.000 0.000 0.000 0.000
0.029 0.143 0.411 0.839 1.127 1.241 1.109 0.830 0.647 0.421 0.245 0.139 0.086 0.062 0.054 0.046 0.019 0.000 0.000 0.000 0.000 0.000 0.000 0.000 0.000 0.000 0.000 0.000 0.000 0.000 0.000 0.000 0.000 0.000 0.000
0.040 0.175 0.519 1.043 1.492 1.703 1.577 1.209 0.957 0.590 0.306 0.193 0.117 0.087 0.080 0.063 0.044 0.000 0.000 0.000 0.000 0.000 0.000 0.000 0.000 0.000 0.000 0.000 0.000 0.000 0.000 0.000 0.000 0.000 0.000
0.043 0.184 0.540 1.092 1.788 2.150 1.961 1.588 1.251 0.752 0.411 0.247 0.143 0.115 0.099 0.082 0.059 0.009 0.000 0.000 0.000 0.000 0.000 0.000 0.000 0.000 0.000 0.000 0.000 0.000 0.000 0.000 0.000 0.000 0.000
0.044 0.183 0.524 1.142 1.992 2.493 2.493 2.042 1.512 0.944 0.546 0.287 0.177 0.129 0.105 0.102 0.083 0.037 0.000 0.000 0.000 0.000 0.000 0.000 0.000 0.000 0.000 0.000 0.000 0.000 0.000 0.000 0.000 0.000 0.000
0.042 0.162 0.493 1.113 1.881 2.596 2.882 2.453 1.720 1.264 0.673 0.359 0.202 0.146 0.128 0.121 0.101 0.042 0.000 0.000 0.000 0.000 0.000 0.000 0.000 0.000 0.000 0.000 0.000 0.000 0.000 0.000 0.000 0.000 0.000
0.039 0.151 0.439 0.992 1.802 2.689 3.033 2.667 2.014 1.596 0.887 0.466 0.226 0.185 0.148 0.141 0.112 0.045 0.006 0.000 0.000 0.000 0.000 0.000 0.000 0.000 0.000 0.000 0.000 0.000 0.000 0.000 0.000 0.000 0.000
0.036 0.136 0.370 0.842 1.677 2.562 2.966 2.781 2.399 1.759 1.036 0.569 0.310 0.228 0.172 0.142 0.117 0.054 0.030 0.000 0.000 0.000 0.000 0.000 0.000 0.000 0.000 0.000 0.000 0.000 0.000 0.000 0.000 0.000 0.000
0.032 0.109 0.310 0.715 1.416 2.258 2.687 2.826 2.669 1.869 1.340 0.775 0.403 0.258 0.177 0.136 0.122 0.064 0.033 0.000 0.000 0.000 0.000 0.000 0.000 0.000 0.000 0.000 0.000 0.000 0.000 0.000 0.000 0.000 0.000
0.025 0.079 0.226 0.546 1.212 1.867 2.407 2.891 2.565 2.105 1.574 1.015 0.521 0.296 0.182 0.141 0.128 0.070 0.031 0.003 0.000 0.000 0.000 0.000 0.000 0.000 0.000 0.000 0.000 0.000 0.000 0.000 0.000 0.000 0.000
0.017 0.057 0.163 0.425 0.892 1.552 2.347 2.835 2.730 2.416 1.947 1.325 0.655 0.357 0.207 0.164 0.130 0.076 0.034 0.021 0.000 0.000 0.000 0.000 0.000 0.000 0.000 0.000 0.000 0.000 0.000 0.000 0.000 0.000 0.000
0.011 0.039 0.104 0.296 0.749 1.248 2.033 2.617 2.829 2.656 2.297 1.503 0.787 0.413 0.241 0.165 0.145 0.089 0.039 0.023 0.003 0.000 0.000 0.000 0.000 0.000 0.000 0.000 0.000 0.000 0.000 0.000 0.000 0.000 0.000
0.006 0.023 0.063 0.219 0.542 1.033 1.959 2.375 2.865 2.812 2.541 1.595 0.875 0.528 0.301 0.189 0.157 0.096 0.044 0.021 0.018 0.000 0.000 0.000 0.000 0.000 0.000 0.000 0.000 0.000 0.000 0.000 0.000 0.000 0.000
0.002 0.015 0.040 0.135 0.400 0.855 1.455 2.040 2.524 2.721 2.388 1.715 1.075 0.715 0.331 0.227 0.161 0.106 0.051 0.022 0.019 0.010 0.000 0.000 0.000 0.000 0.000 0.000 0.000 0.000 0.000 0.000 0.000 0.000 0.000
0.000 0.009 0.024 0.093 0.299 0.707 1.332 1.774 2.055 2.322 2.218 1.936 1.326 0.787 0.443 0.329 0.189 0.115 0.059 0.023 0.014 0.019 0.003 0.000 0.000 0.000 0.000 0.000 0.000 0.000 0.000 0.000 0.000 0.000 0.000
0.000 0.003 0.014 0.054 0.197 0.483 0.901 1.237 1.600 1.992 2.171 2.104 1.496 0.928 0.598 0.424 0.253 0.126 0.069 0.026 0.014 0.014 0.014 0.001 0.000 0.000 0.000 0.000 0.000 0.000 0.000 0.000 0.000 0.000 0.000
0.000 0.000 0.010 0.036 0.143 0.381 0.628 0.967 1.305 1.635 2.087 2.220 1.756 1.114 0.742 0.509 0.294 0.158 0.080 0.032 0.015 0.012 0.013 0.011 0.000 0.000 0.000 0.000 0.000 0.000 0.000 0.000 0.000 0.000 0.000
0.000 0.000 0.004 0.019 0.067 0.220 0.470 0.763 1.065 1.493 1.902 2.100 1.688 1.177 0.775 0.541 0.358 0.197 0.103 0.041 0.018 0.011 0.010 0.015 0.002 0.000 0.000 0.000 0.000 0.000 0.000 0.000 0.000 0.000 0.000
0.000 0.000 0.001 0.010 0.027 0.108 0.278 0.544 0.837 1.155 1.595 1.721 1.640 1.222 0.912 0.699 0.461 0.261 0.131 0.051 0.023 0.012 0.009 0.012 0.016 0.001 0.000 0.000 0.000 0.000 0.000 0.000 0.000 0.000 0.000
0.000 0.000 0.000 0.003 0.011 0.060 0.188 0.360 0.613 0.912 1.289 1.592 1.553 1.252 1.148 0.890 0.569 0.336 0.175 0.075 0.032 0.015 0.010 0.010 0.016 0.003 0.000 0.000 0.000 0.000 0.000 0.000 0.000 0.000 0.000
0.000 0.000 0.000 0.000 0.006 0.023 0.084 0.192 0.376 0.648 1.036 1.373 1.482 1.444 1.434 1.137 0.709 0.461 0.243 0.108 0.047 0.022 0.014 0.011 0.011 0.011 0.000 0.000 0.000 0.000 0.000 0.000 0.000 0.000 0.000
0.000 0.000 0.000 0.000 0.001 0.010 0.033 0.091 0.196 0.414 0.774 1.111 1.320 1.329 1.507 1.278 0.935 0.546 0.303 0.146 0.072 0.036 0.021 0.018 0.010 0.017 0.004 0.000 0.000 0.000 0.000 0.000 0.000 0.000 0.000
0.000 0.000 0.000 0.000 0.000 0.006 0.013 0.034 0.088 0.228 0.497 0.841 1.132 1.297 1.561 1.525 1.087 0.618 0.376 0.196 0.099 0.049 0.036 0.024 0.015 0.010 0.010 0.000 0.000 0.000 0.000 0.000 0.000 0.000 0.000
0.000 0.000 0.000 0.000 0.000 0.000 0.007 0.014 0.046 0.128 0.277 0.528 0.876 1.379 1.598 1.598 1.165 0.733 0.467 0.255 0.136 0.071 0.043 0.031 0.021 0.008 0.007 0.004 0.000 0.000 0.000 0.000 0.000 0.000 0.000
0.000 0.000 0.000 0.000 0.000 0.000 0.005 0.009 0.022 0.048 0.109 0.266 0.626 1.080 1.425 1.477 1.238 0.903 0.551 0.326 0.187 0.098 0.050 0.039 0.026 0.011 0.006 0.010 0.000 0.000 0.000 0.000 0.000 0.000 0.000
0.000 0.000 0.000 0.000 0.000 0.000 0.001 0.007 0.010 0.020 0.047 0.155 0.420 0.868 1.218 1.339 1.253 0.936 0.649 0.399 0.241 0.128 0.065 0.049 0.033 0.016 0.008 0.005 0.004 0.000 0.000 0.000 0.000 0.000 0.000
0.000 0.000 0.000 0.000 0.000 0.000 0.000 0.003 0.009 0.009 0.019 0.066 0.225 0.546 0.995 1.180 1.265 0.983 0.751 0.485 0.312 0.172 0.092 0.055 0.035 0.021 0.013 0.005 0.008 0.000 0.000 0.000 0.000 0.000 0.000
0.000 0.000 0.000 0.000 0.000 0.000 0.000 0.001 0.005 0.003 0.007 0.037 0.107 0.355 0.760 1.187 1.111 1.015 0.840 0.583 0.391 0.219 0.120 0.062 0.038 0.027 0.020 0.009 0.005 0.006 0.000 0.000 0.000 0.000 0.000
0.000 0.000 0.000 0.000 0.000 0.000 0.000 0.000 0.002 0.003 0.003 0.016 0.053 0.179 0.493 0.917 1.059 1.046 0.926 0.679 0.467 0.285 0.160 0.076 0.041 0.029 0.022 0.014 0.006 0.005 0.003 0.000 0.000 0.000 0.000
0.000 0.000 0.000 0.000 0.000 0.000 0.000 0.000 0.000 0.002 0.002 0.005 0.023 0.081 0.305 0.714 0.977 1.055 0.967 0.735 0.567 0.384 0.218 0.100 0.046 0.031 0.024 0.017 0.007 0.003 0.004 0.001 0.000 0.000 0.000
0.000 0.000 0.000 0.000 0.000 0.000 0.000 0.000 0.000 0.000 0.003 0.002 0.007 0.032 0.140 0.506 0.918 1.029 0.945 0.815 0.665 0.483 0.287 0.142 0.060 0.034 0.030 0.021 0.009 0.004 0.002 0.004 0.000 0.000 0.000
0.000 0.000 0.000 0.000 0.000 0.000 0.000 0.000 0.000 0.000 0.000 0.001 0.002 0.009 0.054 0.319 0.728 0.931 0.959 0.887 0.705 0.570 0.359 0.200 0.091 0.047 0.039 0.027 0.014 0.005 0.002 0.002 0.003 0.000 0.000
0.000 0.000 0.000 0.000 0.000 0.000 0.000 0.000 0.000 0.000 0.000 0.002 0.001 0.002 0.025 0.189 0.487 0.701 0.815 0.946 0.823 0.615 0.417 0.260 0.136 0.078 0.046 0.034 0.019 0.007 0.003 0.002 0.003 0.002 0.000
0.000 0.000 0.000 0.000 0.000 0.000 0.000 0.000 0.000 0.000 0.000 0.000 0.001 0.001 0.008 0.081 0.312 0.516 0.728 0.846 0.790 0.660 0.458 0.323 0.177 0.097 0.056 0.041 0.025 0.011 0.005 0.002 0.002 0.003 0.001
0.000 0.000 0.000 0.000 0.000 0.000 0.000 0.000 0.000 0.000 0.000 0.000 0.002 0.001 0.005 0.033 0.164 0.313 0.553 0.731 0.763 0.660 0.535 0.381 0.229 0.128 0.074 0.052 0.035 0.019 0.007 0.003 0.002 0.002 0.009
0.000 0.000 0.000 0.000 0.000 0.000 0.000 0.000 0.000 0.000 0.000 0.000 0.000 0.001 0.003 0.017 0.084 0.167 0.359 0.616 0.683 0.692 0.579 0.434 0.276 0.177 0.107 0.072 0.048 0.026 0.010 0.005 0.003 0.003 0.002
0.000 0.000 0.000 0.000 0.000 0.000 0.000 0.000 0.000 0.000 0.000 0.000 0.000 0.002 0.002 0.006 0.043 0.091 0.218 0.478 0.630 0.625 0.552 0.460 0.335 0.238 0.151 0.105 0.072 0.038 0.018 0.008 0.006 0.004 0.002
0.000 0.000 0.000 0.000 0.000 0.000 0.000 0.000 0.000 0.000 0.000 0.000 0.000 0.001 0.001 0.002 0.018 0.046 0.118 0.345 0.510 0.578 0.525 0.477 0.392 0.287 0.219 0.160 0.098 0.054 0.030 0.014 0.009 0.005 0.002
0.000 0.000 0.000 0.000 0.000 0.000 0.000 0.000 0.000 0.000 0.000 0.000 0.000 0.001 0.002 0.001 0.011 0.023 0.068 0.235 0.450 0.499 0.502 0.463 0.409 0.328 0.265 0.201 0.131 0.079 0.046 0.022 0.011 0.005 0.002
0.000 0.000 0.000 0.000 0.000 0.000 0.000 0.000 0.000 0.000 0.000 0.000 0.000 0.000 0.002 0.011 0.004 0.012 0.047 0.166 0.312 0.394 0.425 0.438 0.413 0.359 0.286 0.240 0.172 0.114 0.065 0.038 0.017 0.007 0.003
0.000 0.000 0.000 0.000 0.000 0.000 0.000 0.000 0.000 0.000 0.000 0.000 0.000 0.000 0.001 0.003 0.002 0.005 0.037 0.102 0.196 0.287 0.359 0.406 0.420 0.382 0.299 0.280 0.203 0.145 0.096 0.055 0.020 0.008 0.004
0.000 0.000 0.000 0.000 0.000 0.000 0.000 0.000 0.000 0.000 0.000 0.000 0.000 0.000 0.000 0.003 0.001 0.003 0.040 0.083 0.106 0.192 0.284 0.365 0.396 0.396 0.342 0.302 0.222 0.185 0.130 0.065 0.029 0.012 0.005
0.000 0.000 0.000 0.000 0.000 0.000 0.000 0.000 0.000 0.000 0.000 0.000 0.000 0.000 0.000 0.001 0.002 0.002 0.020 0.048 0.045 0.125 0.197 0.278 0.351 0.412 0.408 0.287 0.234 0.213 0.166 0.100 0.048 0.023 0.008
0.000 0.000 0.000 0.000 0.000 0.000 0.000 0.000 0.000 0.000 0.000 0.000 0.000 0.000 0.000 0.000 0.002 0.003 0.016 0.015 0.022 0.072 0.137 0.196 0.304 0.386 0.382 0.296 0.231 0.212 0.194 0.144 0.066 0.030 0.012
0.000 0.000 0.000 0.000 0.000 0.000 0.000 0.000 0.000 0.000 0.000 0.000 0.000 0.000 0.000 0.000 0.001 0.004 0.010 0.005 0.012 0.049 0.103 0.157 0.246 0.361 0.403 0.307 0.214 0.206 0.198 0.175 0.095 0.040 0.017
0.000 0.000 0.000 0.000 0.000 0.000 0.000 0.000 0.000 0.000 0.000 0.000 0.000 0.000 0.000 0.000 0.000 0.009 0.002 0.001 0.005 0.035 0.090 0.120 0.189 0.299 0.378 0.334 0.200 0.177 0.188 0.178 0.117 0.053 0.023
0.000 0.000 0.000 0.000 0.000 0.000 0.000 0.000 0.000 0.000 0.000 0.000 0.000 0.000 0.000 0.000 0.000 0.003 0.001 0.001 0.002 0.021 0.075 0.098 0.140 0.238 0.334 0.344 0.214 0.158 0.159 0.163 0.133 0.063 0.029
0.000 0.000 0.000 0.000 0.000 0.000 0.000 0.000 0.000 0.000 0.000 0.000 0.000 0.000 0.000 0.000 0.000 0.001 0.001 0.001 0.002 0.010 0.065 0.084 0.118 0.206 0.306 0.339 0.217 0.153 0.149 0.150 0.130 0.066 0.025
0.000 0.000 0.000 0.000 0.000 0.000 0.000 0.000 0.000 0.000 0.000 0.000 0.000 0.000 0.000 0.000 0.000 0.000 0.002 0.001 0.001 0.003 0.043 0.071 0.096 0.180 0.288 0.335 0.218 0.149 0.143 0.142 0.115 0.060 0.025
0.000 0.000 0.000 0.000 0.000 0.000 0.000 0.000 0.000 0.000 0.000 0.000 0.000 0.000 0.000 0.000 0.000 0.000 0.001 0.001 0.001 0.004 0.028 0.043 0.071 0.142 0.266 0.336 0.220 0.145 0.136 0.132 0.109 0.054 0.024
0.000 0.000 0.000 0.000 0.000 0.000 0.000 0.000 0.000 0.000 0.000 0.000 0.000 0.000 0.000 0.000 0.000 0.000 0.000 0.001 0.001 0.006 0.014 0.021 0.045 0.107 0.236 0.334 0.222 0.145 0.133 0.123 0.099 0.056 0.025
0.000 0.000 0.000 0.000 0.000 0.000 0.000 0.000 0.000 0.000 0.000 0.000 0.000 0.000 0.000 0.000 0.000 0.000 0.000 0.000 0.001 0.003 0.005 0.009 0.027 0.070 0.190 0.325 0.237 0.140 0.130 0.117 0.095 0.059 0.026
0.000 0.000 0.000 0.000 0.000 0.000 0.000 0.000 0.000 0.000 0.000 0.000 0.000 0.000 0.000 0.000 0.000 0.000 0.000 0.000 0.001 0.002 0.002 0.004 0.015 0.039 0.140 0.295 0.253 0.135 0.124 0.113 0.092 0.056 0.026
0.000 0.000 0.000 0.000 0.000 0.000 0.000 0.000 0.000 0.000 0.000 0.000 0.000 0.000 0.000 0.000 0.000 0.000 0.000 0.000 0.001 0.001 0.001 0.002 0.010 0.019 0.089 0.243 0.254 0.132 0.112 0.111 0.085 0.049 0.026
0.000 0.000 0.000 0.000 0.000 0.000 0.000 0.000 0.000 0.000 0.000 0.000 0.000 0.000 0.000 0.000 0.000 0.000 0.000 0.000 0.000 0.001 0.001 0.001 0.007 0.011 0.059 0.196 0.252 0.130 0.098 0.100 0.071 0.042 0.026
0.000 0.000 0.000 0.000 0.000 0.000 0.000 0.000 0.000 0.000 0.000 0.000 0.000 0.000 0.000 0.000 0.000 0.000 0.000 0.000 0.000 0.002 0.001 0.001 0.005 0.010 0.036 0.144 0.235 0.136 0.089 0.088 0.062 0.039 0.026
0.000 0.000 0.000 0.000 0.000 0.000 0.000 0.000 0.000 0.000 0.000 0.000 0.000 0.000 0.000 0.000 0.000 0.000 0.000 0.000 0.000 0.000 0.001 0.001 0.005 0.009 0.022 0.109 0.220 0.155 0.094 0.081 0.055 0.037 0.024
0.000 0.000 0.000 0.000 0.000 0.000 0.000 0.000 0.000 0.000 0.000 0.000 0.000 0.000 0.000 0.000 0.000 0.000 0.000 0.000 0.000 0.000 0.001 0.001 0.005 0.009 0.017 0.076 0.191 0.169 0.103 0.076 0.050 0.036 0.024
0.000 0.000 0.000 0.000 0.000 0.000 0.000 0.000 0.000 0.000 0.000 0.000 0.000 0.000 0.000 0.000 0.000 0.000 0.000 0.000 0.000 0.000 0.000 0.001 0.005 0.008 0.017 0.059 0.150 0.177 0.112 0.069 0.047 0.037 0.025
0.000 0.000 0.000 0.000 0.000 0.000 0.000 0.000 0.000 0.000 0.000 0.000 0.000 0.000 0.000 0.000 0.000 0.000 0.000 0.000 0.000 0.000 0.000 0.001 0.004 0.007 0.017 0.048 0.118 0.172 0.121 0.070 0.044 0.030 0.023
0.000 0.000 0.000 0.000 0.000 0.000 0.000 0.000 0.000 0.000 0.000 0.000 0.000 0.000 0.000 0.000 0.000 0.000 0.000 0.000 0.000 0.000 0.000 0.001 0.004 0.006 0.015 0.043 0.088 0.152 0.138 0.083 0.041 0.027 0.026
0.000 0.000 0.000 0.000 0.000 0.000 0.000 0.000 0.000 0.000 0.000 0.000 0.000 0.000 0.000 0.000 0.000 0.000 0.000 0.000 0.000 0.000 0.000 0.000 0.004 0.006 0.016 0.038 0.063 0.126 0.154 0.102 0.048 0.037 0.031
0.000 0.000 0.000 0.000 0.000 0.000 0.000 0.000 0.000 0.000 0.000 0.000 0.000 0.000 0.000 0.000 0.000 0.000 0.000 0.000 0.000 0.000 0.000 0.001 0.004 0.006 0.017 0.034 0.052 0.099 0.151 0.136 0.061 0.040 0.029
0.000 0.000 0.000 0.000 0.000 0.000 0.000 0.000 0.000 0.000 0.000 0.000 0.000 0.000 0.000 0.000 0.000 0.000 0.000 0.000 0.000 0.000 0.000 0.001 0.003 0.007 0.018 0.033 0.045 0.069 0.159 0.179 0.064 0.039 0.025
0.000 0.000 0.000 0.000 0.000 0.000 0.000 0.000 0.000 0.000 0.000 0.000 0.000 0.000 0.000 0.000 0.000 0.000 0.000 0.000 0.000 0.000 0.000 0.001 0.003 0.007 0.019 0.031 0.041 0.047 0.139 0.214 0.061 0.040 0.021
0.000 0.000 0.000 0.000 0.000 0.000 0.000 0.000 0.000 0.000 0.000 0.000 0.000 0.000 0.000 0.000 0.000 0.000 0.000 0.000 0.000 0.000 0.000 0.001 0.002 0.007 0.019 0.028 0.031 0.038 0.107 0.222 0.052 0.033 0.016
0.000 0.000 0.000 0.000 0.000 0.000 0.000 0.000 0.000 0.000 0.000 0.000 0.000 0.000 0.000 0.000 0.000 0.000 0.000 0.000 0.000 0.000 0.000 0.000 0.002 0.007 0.019 0.026 0.027 0.032 0.098 0.168 0.033 0.022 0.014
0.000 0.000 0.000 0.000 0.000 0.000 0.000 0.000 0.000 0.000 0.000 0.000 0.000 0.000 0.000 0.000 0.000 0.000 0.000 0.000 0.000 0.000 0.000 0.000 0.001 0.007 0.017 0.020 0.025 0.029 0.076 0.106 0.026 0.019 0.013
0.000 0.000 0.000 0.000 0.000 0.000 0.000 0.000 0.000 0.000 0.000 0.000 0.000 0.000 0.000 0.000 0.000 0.000 0.000 0.000 0.000 0.000 0.000 0.000 0.001 0.006 0.014 0.015 0.021 0.025 0.050 0.059 0.017 0.016 0.012
0.000 0.000 0.000 0.000 0.000 0.000 0.000 0.000 0.000 0.000 0.000 0.000 0.000 0.000 0.000 0.000 0.000 0.000 0.000 0.000 0.000 0.000 0.000 0.000 0.001 0.004 0.009 0.009 0.013 0.018 0.026 0.025 0.008 0.008 0.006
