ncols        35
nrows        61
xllcorner    409702.8
yllcorner    6870759.1
cellsize     5.00
NODATA_value -9999
0.000 0.000 0.000 0.031 1.051 4.467 7.209 7.867 4.834 1.467 0.095 0.000 0.000 0.000 0.000 0.000 0.000 0.000 0.000 0.000 0.000 0.000 0.000 0.000 0.000 0.000 0.000 0.000 0.000 0.000 0.000 0.000 0.000 0.000 0.000
0.000 0.000 0.523 5.308 13.638 14.218 14.184 13.417 12.578 13.106 7.039 0.803 0.001 0.000 0.000 0.000 0.000 0.000 0.000 0.000 0.000 0.000 0.000 0.000 0.000 0.000 0.000 0.000 0.000 0.000 0.000 0.000 0.000 0.000 0.000
0.000 0.525 7.248 13.470 13.731 14.811 15.094 14.513 14.304 13.552 12.534 10.045 1.592 0.004 0.000 0.000 0.000 0.000 0.000 0.000 0.000 0.000 0.000 0.000 0.000 0.000 0.000 0.000 0.000 0.000 0.000 0.000 0.000 0.000 0.000
0.032 4.348 13.493 13.650 14.865 16.008 17.027 16.563 15.375 14.705 13.271 12.742 10.455 1.898 0.008 0.000 0.000 0.000 0.000 0.000 0.000 0.000 0.000 0.000 0.000 0.000 0.000 0.000 0.000 0.000 0.000 0.000 0.000 0.000 0.000
1.323 13.510 13.756 14.824 15.533 17.071 17.831 16.628 15.599 15.184 14.229 14.306 13.022 9.938 1.823 0.005 0.000 0.000 0.000 0.000 0.000 0.000 0.000 0.000 0.000 0.000 0.000 0.000 0.000 0.000 0.000 0.000 0.000 0.000 0.000
4.611 13.443 14.338 14.960 15.976 17.769 17.309 16.535 15.854 15.778 14.881 14.725 14.230 12.956 8.020 1.191 0.001 0.000 0.000 0.000 0.000 0.000 0.000 0.000 0.000 0.000 0.000 0.000 0.000 0.000 0.000 0.000 0.000 0.000 0.000
7.768 13.582 14.502 15.138 15.963 16.549 16.423 15.855 16.247 14.902 14.820 15.090 14.937 14.029 10.876 5.821 0.512 0.000 0.000 0.000 0.000 0.000 0.000 0.000 0.000 0.000 0.000 0.000 0.000 0.000 0.000 0.000 0.000 0.000 0.000
9.445 13.657 14.334 15.241 16.096 17.164 16.384 16.458 15.283 15.133 15.408 15.754 15.175 13.771 12.138 8.198 3.749 0.117 0.000 0.000 0.000 0.000 0.000 0.000 0.000 0.000 0.000 0.000 0.000 0.000 0.000 0.000 0.000 0.000 0.000
8.458 13.537 14.156 15.074 15.785 16.630 16.068 15.480 15.113 16.044 15.841 16.067 15.621 15.167 12.250 9.606 6.507 2.101 0.009 0.000 0.000 0.000 0.000 0.000 0.000 0.000 0.000 0.000 0.000 0.000 0.000 0.000 0.000 0.000 0.000
6.181 12.357 13.849 15.129 16.287 15.202 15.308 15.043 15.622 16.653 15.847 16.421 16.204 15.274 13.340 11.138 7.640 5.337 0.823 0.000 0.000 0.000 0.000 0.000 0.000 0.000 0.000 0.000 0.000 0.000 0.000 0.000 0.000 0.000 0.000
3.828 12.157 14.608 16.269 15.875 15.746 15.300 15.458 15.990 15.650 16.484 16.606 16.219 15.187 14.706 12.202 9.438 6.958 3.551 0.089 0.000 0.000 0.000 0.000 0.000 0.000 0.000 0.000 0.000 0.000 0.000 0.000 0.000 0.000 0.000
1.522 12.265 14.056 14.726 15.198 14.891 15.448 15.578 16.252 16.579 16.854 17.064 16.755 16.009 15.718 12.900 10.583 8.002 5.859 1.650 0.001 0.000 0.000 0.000 0.000 0.000 0.000 0.000 0.000 0.000 0.000 0.000 0.000 0.000 0.000
0.296 7.326 13.459 15.055 14.788 15.840 15.292 16.413 15.424 17.053 16.886 17.296 16.777 16.203 15.480 13.621 12.015 9.779 6.656 4.290 0.261 0.000 0.000 0.000 0.000 0.000 0.000 0.000 0.000 0.000 0.000 0.000 0.000 0.000 0.000
0.013 2.666 11.693 13.119 14.862 14.778 15.388 15.162 16.694 17.295 16.968 17.322 16.727 16.855 15.723 14.701 13.236 11.611 7.494 5.726 2.197 0.016 0.000 0.000 0.000 0.000 0.000 0.000 0.000 0.000 0.000 0.000 0.000 0.000 0.000
0.000 0.441 7.057 11.986 13.658 14.659 15.616 15.826 16.583 17.028 16.629 17.029 17.336 17.358 16.007 15.047 14.254 12.702 9.165 6.272 4.463 0.919 0.002 0.000 0.000 0.000 0.000 0.000 0.000 0.000 0.000 0.000 0.000 0.000 0.000
0.000 0.022 2.671 10.118 13.040 14.170 14.732 15.529 16.634 16.581 16.175 17.415 17.314 16.914 15.915 15.544 15.209 13.933 11.250 7.153 5.417 3.492 0.423 0.000 0.000 0.000 0.000 0.000 0.000 0.000 0.000 0.000 0.000 0.000 0.000
0.000 0.000 0.399 6.314 11.446 13.602 14.514 15.108 15.343 15.853 16.829 17.304 16.402 16.598 16.227 15.825 15.990 14.922 12.253 8.379 6.209 5.061 2.603 0.132 0.000 0.000 0.000 0.000 0.000 0.000 0.000 0.000 0.000 0.000 0.000
0.000 0.000 0.010 2.258 8.308 12.216 13.835 14.499 14.374 15.006 15.807 16.704 17.249 15.999 16.325 16.080 16.022 15.744 12.675 10.134 6.672 5.585 4.698 1.625 0.043 0.000 0.000 0.000 0.000 0.000 0.000 0.000 0.000 0.000 0.000
0.000 0.000 0.000 0.257 4.720 10.073 12.022 13.087 14.263 15.011 16.702 15.787 15.824 16.341 16.307 16.254 16.128 14.441 13.899 11.273 7.776 6.293 5.388 3.759 1.059 0.014 0.000 0.000 0.000 0.000 0.000 0.000 0.000 0.000 0.000
0.000 0.000 0.000 0.004 1.225 6.497 10.637 12.199 13.353 14.277 15.430 15.668 16.441 15.934 17.059 15.835 16.244 15.630 14.853 12.636 9.631 6.829 5.168 4.972 3.130 0.599 0.001 0.000 0.000 0.000 0.000 0.000 0.000 0.000 0.000
0.000 0.000 0.000 0.000 0.146 4.043 8.745 11.797 12.911 14.021 14.669 15.757 15.761 16.507 16.263 15.879 15.926 16.145 15.526 13.330 10.712 7.264 5.685 5.397 4.381 2.345 0.119 0.008 0.000 0.000 0.000 0.000 0.000 0.000 0.000
0.000 0.000 0.000 0.000 0.016 2.223 5.828 9.758 12.210 13.796 14.729 14.888 15.998 15.231 15.427 15.631 16.407 16.065 15.393 13.590 11.346 8.910 6.361 5.354 4.577 3.690 2.234 0.495 0.001 0.000 0.000 0.000 0.000 0.000 0.000
0.000 0.000 0.000 0.000 0.000 0.642 4.362 7.578 10.533 12.585 13.848 14.426 14.557 15.209 15.527 15.686 16.336 15.464 15.490 13.990 11.486 9.956 7.052 5.467 4.447 4.157 3.819 2.300 0.193 0.000 0.000 0.000 0.000 0.000 0.000
0.000 0.000 0.000 0.000 0.000 0.100 3.143 5.944 9.874 11.342 13.339 13.415 14.689 14.320 15.346 15.356 15.341 15.590 14.660 13.244 11.905 10.804 8.294 5.931 4.439 4.284 4.360 3.743 1.778 0.116 0.000 0.000 0.000 0.000 0.000
0.000 0.000 0.000 0.000 0.000 0.027 1.269 4.717 6.016 10.074 11.380 12.789 12.716 13.709 14.272 15.112 15.183 15.212 14.352 13.516 12.392 11.349 9.184 6.714 4.929 4.846 4.557 4.333 3.353 1.486 0.013 0.000 0.000 0.000 0.000
0.000 0.000 0.000 0.000 0.000 0.000 0.308 2.014 4.887 6.885 9.090 11.097 12.201 13.266 14.423 14.834 15.136 14.766 14.423 13.730 12.624 11.455 10.079 8.003 5.548 5.159 4.865 4.534 3.995 2.857 0.341 0.003 0.000 0.000 0.000
0.000 0.000 0.000 0.000 0.000 0.000 0.033 1.816 4.067 4.536 7.306 10.146 11.658 13.026 14.035 14.608 14.670 14.474 14.768 13.443 12.687 11.908 10.580 8.557 6.755 5.664 5.140 4.676 4.093 3.763 2.494 0.318 0.000 0.000 0.000
0.000 0.000 0.000 0.000 0.000 0.000 0.003 0.761 3.010 3.366 5.736 8.869 10.971 12.965 13.589 13.739 14.525 14.503 14.425 12.906 13.013 12.161 10.870 9.779 8.190 6.410 5.499 4.905 4.149 4.171 3.480 1.946 0.075 0.000 0.000
0.000 0.000 0.000 0.000 0.000 0.000 0.000 0.165 1.583 2.968 4.369 7.102 11.524 12.221 13.630 13.830 14.411 14.181 12.928 13.512 13.090 12.082 11.266 10.315 8.863 7.323 5.881 5.159 4.655 4.408 4.019 3.162 1.112 0.002 0.000
0.000 0.000 0.000 0.000 0.000 0.000 0.000 0.009 0.846 2.321 3.880 6.741 10.621 12.672 13.370 14.662 14.040 13.967 13.863 13.474 12.900 12.597 11.633 10.445 9.574 8.371 6.610 6.072 5.045 4.733 4.204 3.738 2.676 0.216 0.000
0.000 0.000 0.000 0.000 0.000 0.000 0.000 0.000 0.154 1.681 3.381 5.643 8.059 11.456 13.162 13.458 13.685 13.474 13.148 13.450 12.985 12.372 12.091 10.905 9.861 9.394 7.866 6.532 5.652 4.952 4.412 4.108 3.474 1.563 0.001
0.000 0.000 0.000 0.000 0.000 0.000 0.000 0.000 0.008 1.111 4.087 5.390 6.286 9.912 11.381 12.946 13.222 13.303 13.198 12.947 13.390 12.742 12.028 11.343 10.615 9.806 8.849 7.513 6.282 5.021 5.080 4.296 3.680 2.839 0.100
0.000 0.000 0.000 0.000 0.000 0.000 0.000 0.000 0.007 1.257 3.847 4.584 4.835 7.664 10.507 12.113 13.508 13.547 13.410 12.802 12.727 12.995 12.637 12.019 10.855 10.411 9.567 8.586 7.105 5.816 5.518 4.303 3.918 3.399 1.904
0.000 0.000 0.000 0.000 0.000 0.000 0.000 0.000 0.001 0.371 2.170 3.319 3.427 5.065 8.276 11.106 12.576 13.129 13.129 12.670 12.587 12.987 12.678 12.251 11.028 10.475 11.043 10.008 8.042 6.750 5.596 4.571 4.094 3.774 3.388
0.000 0.000 0.000 0.000 0.000 0.000 0.000 0.000 0.000 0.004 0.395 2.377 3.226 3.705 6.854 9.105 11.632 12.319 12.667 12.414 12.325 12.737 12.632 12.175 11.675 11.290 12.037 11.392 9.283 7.460 5.825 4.911 4.081 4.028 3.683
0.000 0.000 0.000 0.000 0.000 0.000 0.000 0.000 0.000 0.000 0.017 1.351 2.705 2.723 4.398 7.982 10.420 12.042 12.348 12.052 11.952 12.628 12.657 12.333 11.814 12.453 13.213 12.194 10.821 8.163 5.559 4.777 4.266 4.454 3.878
0.000 0.000 0.000 0.000 0.000 0.000 0.000 0.000 0.000 0.000 0.000 0.144 1.674 2.013 3.757 6.045 9.268 11.381 11.961 11.831 11.710 12.061 12.380 12.476 12.444 12.651 13.632 12.908 11.656 8.005 5.645 5.316 4.963 4.328 3.893
0.000 0.000 0.000 0.000 0.000 0.000 0.000 0.000 0.000 0.000 0.000 0.004 1.410 2.838 3.783 4.882 6.833 10.288 11.767 11.644 11.236 11.654 12.081 12.366 12.511 12.224 13.528 13.077 11.237 8.222 6.968 6.414 4.886 3.748 4.240
0.000 0.000 0.000 0.000 0.000 0.000 0.000 0.000 0.000 0.000 0.000 0.000 0.734 2.786 3.863 4.043 5.272 8.381 11.189 11.579 10.713 11.242 11.626 12.227 12.168 12.465 13.946 13.739 11.379 8.890 8.124 6.615 4.122 3.909 4.114
0.000 0.000 0.000 0.000 0.000 0.000 0.000 0.000 0.000 0.000 0.000 0.000 0.151 2.551 3.727 3.947 4.366 6.157 11.121 11.850 10.757 10.736 11.337 11.625 11.691 12.764 13.910 13.074 11.280 9.680 8.958 6.718 4.144 4.679 4.262
0.000 0.000 0.000 0.000 0.000 0.000 0.000 0.000 0.000 0.000 0.000 0.000 0.010 1.255 3.179 3.668 4.225 4.580 9.614 11.688 10.677 10.537 11.157 11.389 11.884 13.271 13.890 12.815 11.651 10.312 9.314 6.794 5.402 5.270 4.835
0.000 0.000 0.000 0.000 0.000 0.000 0.000 0.000 0.000 0.000 0.000 0.000 0.003 0.391 2.247 3.476 4.139 4.122 7.073 11.838 10.996 10.398 11.065 11.135 11.743 13.261 13.194 13.089 12.063 10.368 9.294 7.941 6.214 5.910 5.049
0.000 0.000 0.000 0.000 0.000 0.000 0.000 0.000 0.000 0.000 0.000 0.000 0.000 0.050 1.331 2.930 4.065 4.016 5.559 11.266 10.856 9.775 10.098 10.526 11.363 12.968 13.531 13.071 11.411 10.248 9.631 8.595 7.204 6.531 5.208
0.000 0.000 0.000 0.000 0.000 0.000 0.000 0.000 0.000 0.000 0.000 0.000 0.000 0.000 0.421 2.225 3.531 3.943 5.256 10.915 10.693 9.362 9.191 9.602 10.776 12.194 12.672 11.637 10.301 10.580 9.216 8.766 8.376 6.962 5.473
0.000 0.000 0.000 0.000 0.000 0.000 0.000 0.000 0.000 0.000 0.000 0.000 0.000 0.000 0.012 1.349 3.302 3.893 4.742 9.859 10.760 9.019 8.528 9.167 10.120 11.097 11.544 10.804 10.335 9.827 9.641 9.552 9.209 7.258 5.488
0.000 0.000 0.000 0.000 0.000 0.000 0.000 0.000 0.000 0.000 0.000 0.000 0.000 0.000 0.000 0.318 3.585 3.771 4.366 9.224 10.427 8.836 8.275 8.759 9.472 10.957 11.408 10.584 10.017 9.889 10.387 10.389 9.705 7.779 5.819
0.000 0.000 0.000 0.000 0.000 0.000 0.000 0.000 0.000 0.000 0.000 0.000 0.000 0.000 0.000 0.115 3.351 3.878 4.421 8.296 9.983 8.888 7.792 7.958 9.149 10.899 10.291 9.633 10.013 10.692 11.154 11.035 9.603 8.121 5.980
0.000 0.000 0.000 0.000 0.000 0.000 0.000 0.000 0.000 0.000 0.000 0.000 0.000 0.000 0.000 0.070 3.182 3.623 4.247 7.906 9.780 8.902 7.138 7.205 8.205 8.715 8.936 9.607 10.250 10.728 11.400 10.480 9.468 8.807 6.299
0.000 0.000 0.000 0.000 0.000 0.000 0.000 0.000 0.000 0.000 0.000 0.000 0.000 0.000 0.000 0.094 2.732 3.418 4.167 7.312 9.115 8.544 6.981 6.256 6.965 8.030 8.817 9.692 10.092 10.611 11.238 10.222 10.059 9.323 6.862
0.000 0.000 0.000 0.000 0.000 0.000 0.000 0.000 0.000 0.000 0.000 0.000 0.000 0.000 0.000 0.094 2.571 2.978 4.136 6.551 8.541 8.483 6.398 5.401 6.382 7.652 8.655 9.217 10.192 11.600 11.081 10.691 10.385 10.040 7.483
0.000 0.000 0.000 0.000 0.000 0.000 0.000 0.000 0.000 0.000 0.000 0.000 0.000 0.000 0.000 0.079 2.529 2.930 3.943 5.277 7.749 8.098 6.302 4.894 6.109 7.148 8.366 9.363 10.741 10.930 10.263 11.351 11.180 10.286 8.110
0.000 0.000 0.000 0.000 0.000 0.000 0.000 0.000 0.000 0.000 0.000 0.000 0.000 0.000 0.000 0.096 2.403 2.940 3.825 4.986 7.766 7.731 6.276 4.647 5.614 6.875 8.340 9.601 10.122 9.871 10.592 11.340 10.758 10.626 9.006
0.000 0.000 0.000 0.000 0.000 0.000 0.000 0.000 0.000 0.000 0.000 0.000 0.000 0.000 0.000 0.134 2.481 2.844 3.767 4.558 7.315 7.570 5.843 4.893 6.175 7.534 8.147 8.620 9.120 9.664 10.600 11.109 11.298 11.807 8.612
0.000 0.000 0.000 0.000 0.000 0.000 0.000 0.000 0.000 0.000 0.000 0.000 0.000 0.000 0.000 0.093 2.469 2.877 3.774 4.450 6.811 7.131 5.861 5.168 6.025 7.143 7.527 7.868 8.690 9.376 10.080 10.894 11.720 11.318 7.802
0.000 0.000 0.000 0.000 0.000 0.000 0.000 0.000 0.000 0.000 0.000 0.000 0.000 0.000 0.000 0.082 2.479 2.956 3.635 4.233 6.284 6.734 5.937 5.327 6.044 6.434 6.522 7.542 7.928 8.281 8.801 9.651 9.953 9.370 7.175
0.000 0.000 0.000 0.000 0.000 0.000 0.000 0.000 0.000 0.000 0.000 0.000 0.000 0.000 0.000 0.083 2.349 2.790 3.515 3.974 6.154 6.548 6.161 5.639 5.919 5.870 6.443 7.066 7.452 7.458 7.845 8.582 8.406 7.851 6.571
0.000 0.000 0.000 0.000 0.000 0.000 0.000 0.000 0.000 0.000 0.000 0.000 0.000 0.000 0.000 0.059 2.477 2.835 3.559 3.658 5.911 6.174 6.003 5.403 5.525 5.665 6.089 6.670 7.285 7.373 7.966 7.705 7.437 7.067 6.284
0.000 0.000 0.000 0.000 0.000 0.000 0.000 0.000 0.000 0.000 0.000 0.000 0.000 0.000 0.000 0.034 2.315 3.045 3.267 3.447 5.533 6.359 5.589 5.094 5.196 5.088 5.997 6.681 7.384 7.342 7.228 7.148 6.856 6.438 5.866
0.000 0.000 0.000 0.000 0.000 0.000 0.000 0.000 0.000 0.000 0.000 0.000 0.000 0.000 0.000 0.034 1.909 2.784 3.039 3.256 4.513 6.252 5.786 4.414 4.733 5.434 6.019 6.180 6.495 6.875 6.528 6.423 6.093 5.638 5.072
0.000 0.000 0.000 0.000 0.000 0.000 0.000 0.000 0.000 0.000 0.000 0.000 0.000 0.000 0.000 0.021 1.963 2.785 2.796 3.263 4.019 5.381 4.793 4.027 5.050 5.292 5.375 5.177 6.251 6.345 5.742 5.230 5.106 5.344 4.645
0.000 0.000 0.000 0.000 0.000 0.000 0.000 0.000 0.000 0.000 0.000 0.000 0.000 0.000 0.000 0.004 0.675 2.657 2.608 2.722 3.331 3.561 3.521 3.826 4.108 4.615 4.287 4.816 5.939 5.279 4.286 4.055 4.727 4.750 4.041
