ncols        42
nrows        111
xllcorner    409607.8
yllcorner    6870839.1
cellsize     5.00
NODATA_value -9999
0.000 0.000 0.000 0.000 0.000 0.000 0.000 0.000 0.000 0.000 0.000 0.000 0.000 0.000 0.000 0.000 0.000 0.000 0.000 0.000 0.000 0.000 0.000 0.000 0.000 0.000 0.000 0.000 0.000 0.000 0.000 0.000 0.000 0.000 0.000 0.000 0.000 0.000 0.000 0.000 0.000 0.000
0.000 0.001 1.319 15.886 17.870 18.362 10.951 0.647 0.000 0.000 0.000 0.000 0.000 0.000 0.000 0.000 0.000 0.000 0.000 0.000 0.000 0.000 0.000 0.000 0.000 0.000 0.000 0.000 0.000 0.000 0.000 0.000 0.000 0.000 0.000 0.000 0.000 0.000 0.000 0.000 0.000 0.000
0.000 1.075 16.423 18.053 18.928 18.691 17.777 13.706 0.018 0.000 0.000 0.000 0.000 0.000 0.000 0.000 0.000 0.000 0.000 0.000 0.000 0.000 0.000 0.000 0.000 0.000 0.000 0.000 0.000 0.000 0.000 0.000 0.000 0.000 0.000 0.000 0.000 0.000 0.000 0.000 0.000 0.000
0.056 6.326 18.684 18.111 18.703 19.932 20.186 18.335 5.051 0.000 0.000 0.000 0.000 0.000 0.000 0.000 0.000 0.000 0.000 0.000 0.000 0.000 0.000 0.000 0.000 0.000 0.000 0.000 0.000 0.000 0.000 0.000 0.000 0.000 0.000 0.000 0.000 0.000 0.000 0.000 0.000 0.000
1.860 20.424 19.784 18.666 18.497 20.120 19.241 19.469 17.049 0.052 0.000 0.000 0.000 0.000 0.000 0.000 0.000 0.000 0.000 0.000 0.000 0.000 0.000 0.000 0.000 0.000 0.000 0.000 0.000 0.000 0.000 0.000 0.000 0.000 0.000 0.000 0.000 0.000 0.000 0.000 0.000 0.000
6.797 21.604 22.555 22.097 21.762 20.836 19.375 22.061 18.043 5.308 0.000 0.000 0.000 0.000 0.000 0.000 0.000 0.000 0.000 0.000 0.000 0.000 0.000 0.000 0.000 0.000 0.000 0.000 0.000 0.000 0.000 0.000 0.000 0.000 0.000 0.000 0.000 0.000 0.000 0.000 0.000 0.000
10.157 22.036 23.612 24.226 25.416 24.592 23.400 21.979 19.895 15.731 0.083 0.000 0.000 0.000 0.000 0.000 0.000 0.000 0.000 0.000 0.000 0.000 0.000 0.000 0.000 0.000 0.000 0.000 0.000 0.000 0.000 0.000 0.000 0.000 0.000 0.000 0.000 0.000 0.000 0.000 0.000 0.000
10.836 21.311 24.467 26.062 25.782 24.730 24.685 23.871 21.061 18.130 5.031 0.000 0.000 0.000 0.000 0.000 0.000 0.000 0.000 0.000 0.000 0.000 0.000 0.000 0.000 0.000 0.000 0.000 0.000 0.000 0.000 0.000 0.000 0.000 0.000 0.000 0.000 0.000 0.000 0.000 0.000 0.000
9.985 21.197 24.032 25.605 25.557 25.146 25.146 24.003 21.944 18.518 12.549 0.272 0.000 0.000 0.000 0.000 0.000 0.000 0.000 0.000 0.000 0.000 0.000 0.000 0.000 0.000 0.000 0.000 0.000 0.000 0.000 0.000 0.000 0.000 0.000 0.000 0.000 0.000 0.000 0.000 0.000 0.000
8.026 21.017 24.123 24.564 25.695 26.863 25.724 26.141 24.782 20.913 14.264 6.160 0.000 0.000 0.000 0.000 0.000 0.000 0.000 0.000 0.000 0.000 0.000 0.000 0.000 0.000 0.000 0.000 0.000 0.000 0.000 0.000 0.000 0.000 0.000 0.000 0.000 0.000 0.000 0.000 0.000 0.000
5.196 20.152 23.188 25.301 24.533 25.386 24.070 26.297 23.140 20.990 16.131 12.541 0.000 0.000 0.000 0.000 0.000 0.000 0.000 0.000 0.000 0.000 0.000 0.000 0.000 0.000 0.000 0.000 0.000 0.000 0.000 0.000 0.000 0.000 0.000 0.000 0.000 0.000 0.000 0.000 0.000 0.000
2.389 18.879 23.511 24.202 25.050 26.025 25.733 24.933 22.807 21.297 18.247 14.848 0.001 0.000 0.000 0.000 0.000 0.000 0.000 0.000 0.000 0.000 0.000 0.000 0.000 0.000 0.000 0.000 0.000 0.000 0.000 0.000 0.000 0.000 0.000 0.000 0.000 0.000 0.000 0.000 0.000 0.000
0.737 13.157 21.336 23.004 25.126 24.171 24.693 23.966 23.288 21.051 18.170 16.026 0.984 0.000 0.000 0.000 0.000 0.000 0.000 0.000 0.000 0.000 0.000 0.000 0.000 0.000 0.000 0.000 0.000 0.000 0.000 0.000 0.000 0.000 0.000 0.000 0.000 0.000 0.000 0.000 0.000 0.000
0.166 7.781 18.733 24.044 23.232 25.583 25.375 23.138 22.557 20.118 20.386 15.872 6.779 0.000 0.000 0.000 0.000 0.000 0.000 0.000 0.000 0.000 0.000 0.000 0.000 0.000 0.000 0.000 0.000 0.000 0.000 0.000 0.000 0.000 0.000 0.000 0.000 0.000 0.000 0.000 0.000 0.000
0.018 3.490 17.325 22.200 23.950 23.868 24.971 23.990 20.855 20.256 20.252 16.657 9.366 0.000 0.000 0.000 0.000 0.000 0.000 0.000 0.000 0.000 0.000 0.000 0.000 0.000 0.000 0.000 0.000 0.000 0.000 0.000 0.000 0.000 0.000 0.000 0.000 0.000 0.000 0.000 0.000 0.000
0.001 1.149 12.160 18.934 22.305 23.521 24.678 22.545 20.562 20.072 23.076 17.275 10.471 0.000 0.000 0.000 0.000 0.000 0.000 0.000 0.000 0.000 0.000 0.000 0.000 0.000 0.000 0.000 0.000 0.000 0.000 0.000 0.000 0.000 0.000 0.000 0.000 0.000 0.000 0.000 0.000 0.000
0.000 0.412 8.927 16.566 21.384 23.526 23.532 21.636 19.424 22.541 22.297 17.840 12.445 0.000 0.000 0.000 0.000 0.000 0.000 0.000 0.000 0.000 0.000 0.000 0.000 0.000 0.000 0.000 0.000 0.000 0.000 0.000 0.000 0.000 0.000 0.000 0.000 0.000 0.000 0.000 0.000 0.000
0.000 0.440 8.167 14.838 19.245 21.362 22.193 20.455 19.327 24.284 22.338 18.916 12.300 0.000 0.000 0.000 0.000 0.000 0.000 0.000 0.000 0.000 0.000 0.000 0.000 0.000 0.000 0.000 0.000 0.000 0.000 0.000 0.000 0.000 0.000 0.000 0.000 0.000 0.000 0.000 0.000 0.000
0.000 0.758 8.704 12.842 16.455 21.095 21.197 20.242 22.893 24.369 22.368 19.496 12.572 0.374 0.000 0.000 0.000 0.000 0.000 0.000 0.000 0.000 0.000 0.000 0.000 0.000 0.000 0.000 0.000 0.000 0.000 0.000 0.000 0.000 0.000 0.000 0.000 0.000 0.000 0.000 0.000 0.000
0.001 1.020 8.786 12.630 16.667 21.212 22.731 22.967 23.258 24.446 21.776 18.662 13.273 3.556 0.000 0.000 0.000 0.000 0.000 0.000 0.000 0.000 0.000 0.000 0.000 0.000 0.000 0.000 0.000 0.000 0.000 0.000 0.000 0.000 0.000 0.000 0.000 0.000 0.000 0.000 0.000 0.000
0.001 1.057 8.692 11.619 16.182 20.384 21.879 22.614 21.411 23.267 20.592 18.961 15.004 5.791 0.000 0.000 0.000 0.000 0.000 0.000 0.000 0.000 0.000 0.000 0.000 0.000 0.000 0.000 0.000 0.000 0.000 0.000 0.000 0.000 0.000 0.000 0.000 0.000 0.000 0.000 0.000 0.000
0.001 0.898 7.868 11.084 14.696 17.705 21.317 22.185 20.851 22.098 20.874 19.809 15.921 7.323 0.055 0.000 0.000 0.000 0.000 0.000 0.000 0.000 0.000 0.000 0.000 0.000 0.000 0.000 0.000 0.000 0.000 0.000 0.000 0.000 0.000 0.000 0.000 0.000 0.000 0.000 0.000 0.000
0.001 0.968 7.660 11.254 14.176 16.402 20.846 21.112 21.550 20.996 20.991 20.538 16.682 9.733 2.134 0.000 0.000 0.000 0.000 0.000 0.000 0.000 0.000 0.000 0.000 0.000 0.000 0.000 0.000 0.000 0.000 0.000 0.000 0.000 0.000 0.000 0.000 0.000 0.000 0.000 0.000 0.000
0.001 0.914 7.335 10.752 13.695 15.443 19.548 20.000 20.485 21.071 21.352 21.078 17.272 11.291 5.858 0.007 0.000 0.000 0.000 0.000 0.000 0.000 0.000 0.000 0.000 0.000 0.000 0.000 0.000 0.000 0.000 0.000 0.000 0.000 0.000 0.000 0.000 0.000 0.000 0.000 0.000 0.000
0.000 0.689 6.571 10.417 13.397 15.491 17.940 19.903 20.012 21.618 21.628 21.758 17.929 13.222 8.651 1.262 0.000 0.000 0.000 0.000 0.000 0.000 0.000 0.000 0.000 0.000 0.000 0.000 0.000 0.000 0.000 0.000 0.000 0.000 0.000 0.000 0.000 0.000 0.000 0.000 0.000 0.000
0.000 0.457 6.250 10.205 12.956 15.686 17.425 20.482 20.999 20.856 22.365 21.930 20.020 15.619 10.144 5.454 0.702 0.030 0.000 0.000 0.000 0.000 0.000 0.000 0.000 0.000 0.000 0.000 0.000 0.000 0.000 0.000 0.000 0.000 0.000 0.000 0.000 0.000 0.000 0.000 0.000 0.000
0.000 0.410 5.734 9.661 12.665 15.783 19.330 21.107 23.344 24.349 23.935 22.638 20.822 15.461 10.105 8.067 5.678 2.604 0.023 0.000 0.000 0.000 0.000 0.000 0.000 0.000 0.000 0.000 0.000 0.000 0.000 0.000 0.000 0.000 0.000 0.000 0.000 0.000 0.000 0.000 0.000 0.000
0.000 0.473 5.469 8.960 11.461 14.325 17.538 20.655 22.508 22.901 21.984 21.953 20.839 15.532 10.580 9.101 8.970 7.705 1.762 0.005 0.000 0.000 0.000 0.000 0.000 0.000 0.000 0.000 0.000 0.000 0.000 0.000 0.000 0.000 0.000 0.000 0.000 0.000 0.000 0.000 0.000 0.000
0.000 0.315 5.360 7.865 10.988 14.738 18.095 20.501 24.429 24.557 20.306 23.126 19.580 16.353 11.208 9.952 9.876 8.121 5.997 1.180 0.000 0.000 0.000 0.000 0.000 0.000 0.000 0.000 0.000 0.000 0.000 0.000 0.000 0.000 0.000 0.000 0.000 0.000 0.000 0.000 0.000 0.000
0.000 0.074 4.521 7.223 10.508 14.076 17.051 19.113 22.257 23.686 22.725 21.773 19.542 16.733 12.258 10.191 9.362 9.053 8.827 6.348 0.109 0.000 0.000 0.000 0.000 0.000 0.000 0.000 0.000 0.000 0.000 0.000 0.000 0.000 0.000 0.000 0.000 0.000 0.000 0.000 0.000 0.000
0.000 0.051 4.067 6.383 9.224 11.915 16.331 18.811 21.027 22.378 21.645 21.037 19.592 17.166 13.215 10.279 9.889 9.918 10.267 9.103 2.391 0.000 0.000 0.000 0.000 0.000 0.000 0.000 0.000 0.000 0.000 0.000 0.000 0.000 0.000 0.000 0.000 0.000 0.000 0.000 0.000 0.000
0.000 0.103 4.014 6.520 7.950 11.361 14.065 16.835 20.224 22.573 22.653 21.656 19.891 17.521 14.257 11.108 10.161 9.753 10.729 8.472 5.717 0.303 0.000 0.000 0.000 0.000 0.000 0.000 0.000 0.000 0.000 0.000 0.000 0.000 0.000 0.000 0.000 0.000 0.000 0.000 0.000 0.000
0.000 0.374 4.019 6.590 7.473 9.433 13.566 16.302 18.758 21.228 22.996 21.250 20.922 18.059 14.732 12.197 10.257 10.576 11.758 9.275 7.616 2.992 0.097 0.000 0.000 0.000 0.000 0.000 0.000 0.000 0.000 0.000 0.000 0.000 0.000 0.000 0.000 0.000 0.000 0.000 0.000 0.000
0.000 0.242 3.670 5.931 7.170 9.021 12.739 15.533 18.988 21.305 23.884 22.638 20.157 18.400 15.771 13.179 10.375 10.237 10.241 10.489 8.477 5.568 1.783 0.001 0.000 0.000 0.000 0.000 0.000 0.000 0.000 0.000 0.000 0.000 0.000 0.000 0.000 0.000 0.000 0.000 0.000 0.000
0.000 0.064 2.960 5.926 6.950 8.264 12.052 15.433 18.913 21.212 22.845 23.025 20.470 18.175 16.528 14.372 11.252 10.104 9.654 10.287 8.166 7.175 4.107 0.327 0.000 0.000 0.000 0.000 0.000 0.000 0.000 0.000 0.000 0.000 0.000 0.000 0.000 0.000 0.000 0.000 0.000 0.000
0.000 0.025 2.072 5.476 6.257 7.338 10.533 15.116 17.394 21.005 22.414 23.267 22.681 20.917 17.483 15.729 11.622 10.540 10.434 10.400 8.823 7.752 5.626 2.474 0.000 0.000 0.000 0.000 0.000 0.000 0.000 0.000 0.000 0.000 0.000 0.000 0.000 0.000 0.000 0.000 0.000 0.000
0.000 0.000 1.029 5.116 6.243 7.206 9.749 14.340 16.866 20.321 22.644 22.114 22.675 22.451 19.315 16.026 13.035 10.714 10.083 9.100 9.370 8.627 6.786 4.519 0.104 0.000 0.000 0.000 0.000 0.000 0.000 0.000 0.000 0.000 0.000 0.000 0.000 0.000 0.000 0.000 0.000 0.000
0.000 0.003 0.953 4.663 6.207 7.257 8.483 12.328 16.265 19.601 23.061 22.757 22.672 23.442 22.379 17.201 13.435 10.724 10.317 9.809 9.635 9.491 7.959 5.861 1.609 0.000 0.000 0.000 0.000 0.000 0.000 0.000 0.000 0.000 0.000 0.000 0.000 0.000 0.000 0.000 0.000 0.000
0.000 0.001 0.666 3.794 5.775 6.653 7.991 10.839 15.520 19.246 21.919 23.645 23.429 23.047 21.098 16.973 12.617 11.034 10.154 10.223 10.416 9.775 9.123 6.750 4.361 0.031 0.000 0.000 0.000 0.000 0.000 0.000 0.000 0.000 0.000 0.000 0.000 0.000 0.000 0.000 0.000 0.000
0.000 0.002 0.548 3.321 5.346 5.848 7.000 9.516 13.791 18.256 21.743 23.712 23.046 23.205 23.171 19.833 14.348 12.282 10.292 10.665 10.774 11.119 9.449 8.665 6.444 1.085 0.000 0.000 0.000 0.000 0.000 0.000 0.000 0.000 0.000 0.000 0.000 0.000 0.000 0.000 0.000 0.000
0.000 0.000 0.285 2.764 4.811 5.771 6.721 8.544 12.493 17.269 20.405 22.178 21.444 23.375 22.123 19.768 16.647 12.915 11.285 11.087 11.283 10.979 10.405 10.041 7.237 3.237 0.022 0.000 0.000 0.000 0.000 0.000 0.000 0.000 0.000 0.000 0.000 0.000 0.000 0.000 0.000 0.000
0.000 0.000 0.105 2.214 4.529 5.587 6.581 8.460 10.915 15.639 19.457 21.755 22.597 23.382 20.884 20.251 15.701 14.031 13.111 11.647 10.955 10.840 11.145 10.406 7.179 5.172 0.981 0.000 0.000 0.000 0.000 0.000 0.000 0.000 0.000 0.000 0.000 0.000 0.000 0.000 0.000 0.000
0.000 0.000 0.006 1.167 4.150 5.164 5.941 7.146 9.851 14.351 19.187 23.646 22.945 21.863 22.459 18.881 16.161 15.110 12.022 10.347 9.941 10.949 11.992 9.927 7.893 6.818 3.315 0.000 0.000 0.000 0.000 0.000 0.000 0.000 0.000 0.000 0.000 0.000 0.000 0.000 0.000 0.000
0.000 0.000 0.002 0.552 3.785 4.949 6.126 7.324 8.602 13.135 19.690 22.171 20.843 23.063 20.912 18.360 17.191 14.047 11.233 10.416 10.481 11.751 10.764 9.923 9.708 8.445 4.502 0.184 0.000 0.000 0.000 0.000 0.000 0.000 0.000 0.000 0.000 0.000 0.000 0.000 0.000 0.000
0.000 0.000 0.003 0.709 3.731 5.089 5.958 6.683 8.942 12.159 18.154 20.263 21.705 21.829 20.727 20.379 17.911 15.767 13.355 11.578 11.641 11.085 10.337 11.317 10.187 8.129 6.233 1.835 0.000 0.000 0.000 0.000 0.000 0.000 0.000 0.000 0.000 0.000 0.000 0.000 0.000 0.000
0.000 0.000 0.002 0.486 3.287 4.824 5.003 6.701 8.130 9.512 15.737 19.312 20.087 21.164 22.249 20.723 17.795 16.184 14.562 13.458 11.272 11.177 11.204 10.881 10.270 8.627 7.375 3.694 0.006 0.000 0.000 0.000 0.000 0.000 0.000 0.000 0.000 0.000 0.000 0.000 0.000 0.000
0.000 0.000 0.000 0.130 2.473 4.576 4.967 5.937 5.565 8.423 13.477 18.648 20.284 21.813 22.588 21.671 19.321 17.091 16.768 14.212 11.968 11.823 10.886 10.187 10.122 9.254 8.566 6.632 0.722 0.000 0.000 0.000 0.000 0.000 0.000 0.000 0.000 0.000 0.000 0.000 0.000 0.000
0.000 0.000 0.000 0.032 1.637 4.343 5.091 5.235 5.294 7.297 12.876 17.320 20.411 20.985 21.895 21.193 18.016 18.240 17.686 13.721 12.657 10.960 8.720 9.650 10.227 10.641 10.398 8.293 3.384 0.000 0.000 0.000 0.000 0.000 0.000 0.000 0.000 0.000 0.000 0.000 0.000 0.000
0.000 0.000 0.000 0.000 0.098 3.533 4.869 4.649 5.049 7.751 11.868 16.947 20.669 22.106 21.526 19.798 17.807 18.951 17.528 15.438 13.636 10.574 8.528 9.169 10.606 11.255 10.820 9.274 5.452 0.000 0.000 0.000 0.000 0.000 0.000 0.000 0.000 0.000 0.000 0.000 0.000 0.000
0.000 0.000 0.000 0.000 0.098 1.874 4.102 3.776 5.236 7.564 10.997 16.003 19.098 20.208 20.274 19.121 19.389 20.421 17.755 15.461 13.075 9.821 8.831 9.668 10.665 10.871 10.884 9.947 7.000 0.006 0.000 0.000 0.000 0.000 0.000 0.000 0.000 0.000 0.000 0.000 0.000 0.000
0.000 0.000 0.000 0.000 0.000 1.167 2.731 3.986 5.536 6.762 9.355 14.481 18.223 18.364 20.403 18.923 20.732 19.432 17.756 16.374 14.027 11.332 9.219 9.485 10.164 10.768 11.520 11.368 7.626 0.675 0.002 0.000 0.000 0.000 0.000 0.000 0.000 0.000 0.000 0.000 0.000 0.000
0.000 0.000 0.000 0.000 0.000 0.200 2.594 4.288 5.528 6.476 8.347 11.720 16.138 18.557 18.962 20.366 20.364 20.441 18.181 17.431 14.535 11.015 8.620 8.301 8.559 10.181 10.903 10.728 6.558 2.501 0.034 0.000 0.000 0.000 0.000 0.000 0.000 0.000 0.000 0.000 0.000 0.000
0.000 0.000 0.000 0.000 0.000 0.050 1.507 4.059 5.242 6.091 6.604 10.480 14.997 18.368 19.776 19.284 20.950 19.841 18.423 17.070 13.730 10.735 8.003 7.506 7.963 9.294 9.912 9.449 7.213 3.642 0.000 0.000 0.000 0.000 0.000 0.000 0.000 0.000 0.000 0.000 0.000 0.000
0.000 0.000 0.000 0.000 0.000 0.006 0.545 2.871 4.855 5.054 5.747 8.521 13.649 17.082 18.380 19.142 19.006 18.755 18.093 15.116 12.261 10.177 8.392 7.300 7.624 7.870 9.070 9.936 8.348 4.154 0.003 0.000 0.000 0.000 0.000 0.000 0.000 0.000 0.000 0.000 0.000 0.000
0.000 0.000 0.000 0.000 0.000 0.000 0.146 1.778 3.982 4.733 5.346 6.794 10.285 14.266 16.564 18.342 18.170 16.952 16.673 13.910 12.572 12.132 8.718 7.630 7.319 6.600 8.153 10.284 7.927 4.737 0.002 0.000 0.000 0.000 0.000 0.000 0.000 0.000 0.000 0.000 0.000 0.000
0.000 0.000 0.000 0.000 0.000 0.000 0.014 0.724 3.351 4.334 4.707 5.635 8.988 13.121 15.938 16.987 17.167 17.481 16.535 14.597 13.751 12.316 9.235 8.330 7.122 6.819 8.166 9.765 8.299 5.381 0.381 0.000 0.000 0.000 0.000 0.000 0.000 0.000 0.000 0.000 0.000 0.000
0.000 0.000 0.000 0.000 0.000 0.000 0.000 0.181 2.558 3.997 4.389 5.112 6.443 11.012 14.011 14.679 15.718 15.773 15.566 14.823 15.212 12.522 10.589 8.472 7.785 7.423 7.376 10.079 8.728 5.697 2.098 0.000 0.000 0.000 0.000 0.000 0.000 0.000 0.000 0.000 0.000 0.000
0.000 0.000 0.000 0.000 0.000 0.000 0.000 0.097 1.629 3.538 4.246 4.680 5.690 8.392 12.068 14.554 15.504 14.949 15.437 15.337 13.792 13.618 11.587 9.045 7.858 6.401 6.267 9.774 8.927 6.076 2.919 0.002 0.000 0.000 0.000 0.000 0.000 0.000 0.000 0.000 0.000 0.000
0.000 0.000 0.000 0.000 0.000 0.000 0.000 0.030 0.917 3.023 3.907 4.350 4.623 6.971 10.653 13.350 13.951 14.265 15.432 15.621 13.147 13.461 11.397 9.700 6.738 5.626 5.029 9.260 9.089 6.539 3.158 0.292 0.000 0.000 0.000 0.000 0.000 0.000 0.000 0.000 0.000 0.000
0.000 0.000 0.000 0.000 0.000 0.000 0.000 0.011 0.399 2.016 3.285 3.981 4.030 6.033 9.283 12.382 13.574 14.490 14.679 14.952 13.625 13.947 12.157 9.063 6.251 5.200 5.809 9.381 9.415 6.909 3.888 1.791 0.000 0.000 0.000 0.000 0.000 0.000 0.000 0.000 0.000 0.000
0.000 0.000 0.000 0.000 0.000 0.000 0.000 0.001 0.429 1.568 3.013 3.811 4.461 5.375 7.960 11.961 13.785 15.252 15.158 13.571 14.300 12.747 11.064 9.116 6.740 6.053 6.659 9.321 9.511 7.285 4.241 2.975 0.205 0.000 0.000 0.000 0.000 0.000 0.000 0.000 0.000 0.000
0.000 0.000 0.000 0.000 0.000 0.000 0.000 0.000 0.002 0.689 2.636 3.588 4.334 5.235 7.524 10.311 12.954 15.203 14.464 14.303 13.797 12.538 10.466 8.972 7.203 6.729 6.711 9.011 9.487 7.238 4.225 3.588 1.722 0.001 0.000 0.000 0.000 0.000 0.000 0.000 0.000 0.000
0.000 0.000 0.000 0.000 0.000 0.000 0.000 0.000 0.000 0.209 1.872 3.454 3.530 4.838 6.387 9.280 11.989 12.672 13.232 13.047 12.215 11.232 9.321 9.211 7.716 6.908 6.158 8.933 9.305 7.161 4.265 3.787 2.838 0.233 0.000 0.000 0.000 0.000 0.000 0.000 0.000 0.000
0.000 0.000 0.000 0.000 0.000 0.000 0.000 0.000 0.000 0.036 1.038 2.876 3.375 4.546 5.534 7.129 9.306 11.755 11.899 11.821 10.939 9.924 9.626 9.770 8.885 7.285 6.962 8.117 8.319 7.170 4.314 3.706 3.169 1.484 0.022 0.000 0.000 0.000 0.000 0.000 0.000 0.000
0.000 0.000 0.000 0.000 0.000 0.000 0.000 0.000 0.000 0.000 0.427 2.536 3.688 4.192 4.595 5.944 7.417 8.566 10.184 9.692 9.938 9.385 10.289 10.324 9.142 7.534 7.165 7.711 8.125 7.259 4.005 3.426 3.298 2.574 0.699 0.000 0.000 0.000 0.000 0.000 0.000 0.000
0.000 0.000 0.000 0.000 0.000 0.000 0.000 0.000 0.000 0.001 0.745 2.257 3.291 3.512 3.956 4.865 5.376 8.933 8.912 9.322 9.564 10.034 10.102 9.493 7.844 8.786 6.880 7.620 7.688 6.881 3.804 3.436 3.325 2.864 2.161 0.131 0.000 0.000 0.000 0.000 0.000 0.000
0.000 0.000 0.000 0.000 0.000 0.000 0.000 0.000 0.000 0.000 0.224 1.468 2.484 3.197 3.244 3.636 4.720 6.021 7.685 9.282 9.738 10.074 9.045 8.178 8.383 8.315 5.375 6.346 7.379 6.510 4.271 3.602 3.329 3.084 2.888 1.192 0.000 0.000 0.000 0.000 0.000 0.000
0.000 0.000 0.000 0.000 0.000 0.000 0.000 0.000 0.000 0.000 0.034 0.646 1.618 2.662 2.941 2.761 4.098 7.100 8.199 9.111 9.273 9.001 8.020 7.644 7.988 7.090 5.312 4.970 6.909 6.211 4.589 3.567 3.297 3.199 2.795 1.720 0.040 0.000 0.000 0.000 0.000 0.000
0.000 0.000 0.000 0.000 0.000 0.000 0.000 0.000 0.000 0.000 0.000 0.011 0.261 1.361 2.106 2.120 2.494 6.511 7.078 7.938 8.786 7.933 7.148 6.812 7.619 7.144 6.093 5.555 5.640 5.881 4.414 3.475 3.198 2.941 2.858 2.707 0.712 0.002 0.000 0.000 0.000 0.000
0.000 0.000 0.000 0.000 0.000 0.000 0.000 0.000 0.000 0.000 0.000 0.000 0.001 0.657 2.123 2.786 3.536 5.183 5.689 6.683 7.138 7.274 7.244 7.636 8.140 8.078 6.855 5.367 4.793 4.824 4.138 3.386 3.069 2.876 2.733 2.533 1.442 0.051 0.000 0.000 0.000 0.000
0.000 0.000 0.000 0.000 0.000 0.000 0.000 0.000 0.000 0.000 0.000 0.000 0.000 0.192 1.840 2.877 3.015 3.943 4.649 5.530 6.707 6.803 7.651 7.536 8.192 7.324 5.502 4.560 3.777 3.895 3.914 3.359 2.987 2.737 2.371 2.077 1.988 0.257 0.000 0.000 0.000 0.000
0.000 0.000 0.000 0.000 0.000 0.000 0.000 0.000 0.000 0.000 0.000 0.000 0.000 0.018 0.547 2.090 2.431 1.323 3.719 4.790 5.637 5.908 6.281 6.938 7.467 5.550 3.938 3.748 2.511 2.410 2.870 3.141 2.767 2.363 2.004 2.284 2.698 0.742 0.000 0.000 0.000 0.000
0.000 0.000 0.000 0.000 0.000 0.000 0.000 0.000 0.000 0.000 0.000 0.000 0.000 0.000 0.011 0.507 2.393 3.145 3.577 4.643 4.921 4.594 5.180 5.806 5.500 3.964 2.869 1.815 0.098 0.226 2.215 2.834 2.429 1.958 1.645 2.002 2.372 1.380 0.000 0.000 0.000 0.000
0.000 0.000 0.000 0.000 0.000 0.000 0.000 0.000 0.000 0.000 0.000 0.000 0.000 0.000 0.000 0.513 1.848 3.272 3.785 4.411 4.172 3.553 4.290 5.040 5.164 3.357 2.508 0.078 0.013 0.299 1.660 1.864 2.054 1.268 0.091 1.165 1.164 1.344 0.063 0.000 0.000 0.000
0.000 0.000 0.000 0.000 0.000 0.000 0.000 0.000 0.000 0.000 0.000 0.000 0.000 0.000 0.000 0.001 1.355 2.705 3.841 3.820 2.732 2.670 3.453 4.254 3.087 1.269 0.003 0.021 0.332 0.028 1.168 1.655 1.589 0.043 0.087 0.075 1.111 1.385 0.609 0.000 0.000 0.000
0.000 0.000 0.000 0.000 0.000 0.000 0.000 0.000 0.000 0.000 0.000 0.000 0.000 0.000 0.000 0.000 0.070 1.685 2.450 2.698 1.670 3.126 3.964 3.563 0.399 0.002 0.046 0.014 0.086 0.069 0.913 1.235 0.202 0.060 0.070 0.087 1.433 1.450 0.723 0.009 0.000 0.000
0.000 0.000 0.000 0.000 0.000 0.000 0.000 0.000 0.000 0.000 0.000 0.000 0.000 0.000 0.000 0.000 0.000 0.627 1.745 2.395 3.228 3.846 3.500 2.366 0.219 0.030 0.046 0.093 0.093 0.364 0.863 0.636 0.532 1.001 0.078 0.074 1.421 1.433 0.858 0.182 0.000 0.000
0.000 0.000 0.000 0.000 0.000 0.000 0.000 0.000 0.000 0.000 0.000 0.000 0.000 0.000 0.000 0.000 0.000 0.016 1.153 1.949 2.462 3.268 2.675 1.528 0.874 0.089 0.825 0.024 0.620 0.654 1.249 0.819 1.179 0.396 0.065 0.143 1.592 1.674 1.331 0.545 0.007 0.000
0.000 0.000 0.000 0.000 0.000 0.000 0.000 0.000 0.000 0.000 0.000 0.000 0.000 0.000 0.000 0.000 0.000 0.003 0.127 1.363 2.166 2.736 2.619 1.960 1.430 0.334 0.002 0.070 1.381 0.870 1.262 0.493 1.065 0.072 0.078 0.662 1.799 1.593 1.585 0.853 0.167 0.001
0.000 0.000 0.000 0.000 0.000 0.000 0.000 0.000 0.000 0.000 0.000 0.000 0.000 0.000 0.000 0.000 0.000 0.002 0.049 1.288 2.180 2.282 1.818 1.906 0.580 1.525 0.014 1.708 1.300 0.727 1.045 1.107 1.531 0.053 0.078 1.282 1.469 1.446 1.652 1.288 0.419 0.062
0.000 0.000 0.000 0.000 0.000 0.000 0.000 0.000 0.000 0.000 0.000 0.000 0.000 0.000 0.000 0.000 0.000 0.000 0.049 0.590 1.403 1.954 1.999 1.742 1.457 1.567 1.069 1.569 0.807 0.053 1.319 1.661 1.287 0.065 0.237 1.865 1.863 1.822 1.505 1.616 1.202 0.704
0.000 0.000 0.000 0.000 0.000 0.000 0.000 0.000 0.000 0.000 0.000 0.000 0.000 0.000 0.000 0.000 0.000 0.000 0.000 0.065 0.410 1.542 1.973 1.926 1.890 1.480 1.558 0.893 0.088 0.611 1.718 0.865 0.099 0.086 1.049 2.392 2.350 1.961 1.534 1.911 1.817 1.387
0.000 0.000 0.000 0.000 0.000 0.000 0.000 0.000 0.000 0.000 0.000 0.000 0.000 0.000 0.000 0.000 0.000 0.000 0.000 0.000 0.043 0.660 1.805 1.910 1.996 1.827 1.454 0.028 0.013 0.026 0.331 0.826 0.088 0.060 1.324 2.489 2.503 1.569 1.620 2.050 1.998 1.809
0.000 0.000 0.000 0.000 0.000 0.000 0.000 0.000 0.000 0.000 0.000 0.000 0.000 0.000 0.000 0.000 0.000 0.000 0.000 0.000 0.000 0.059 1.359 2.009 1.967 1.465 0.255 0.092 0.069 0.062 0.082 0.079 0.017 0.030 1.163 2.532 1.740 0.083 1.182 1.701 2.130 2.018
0.000 0.000 0.000 0.000 0.000 0.000 0.000 0.000 0.000 0.000 0.000 0.000 0.000 0.000 0.000 0.000 0.000 0.000 0.000 0.000 0.000 0.002 0.652 1.757 1.864 1.355 0.098 0.016 0.052 0.099 0.060 0.083 0.051 0.646 0.830 1.691 1.144 1.373 1.076 1.675 2.358 2.070
0.000 0.000 0.000 0.000 0.000 0.000 0.000 0.000 0.000 0.000 0.000 0.000 0.000 0.000 0.000 0.000 0.000 0.000 0.000 0.000 0.000 0.000 0.032 0.827 1.646 1.506 0.620 0.073 0.019 0.056 0.089 0.085 0.186 0.978 0.850 2.114 2.192 2.014 1.465 1.834 2.108 1.945
0.000 0.000 0.000 0.000 0.000 0.000 0.000 0.000 0.000 0.000 0.000 0.000 0.000 0.000 0.000 0.000 0.000 0.000 0.000 0.000 0.000 0.000 0.000 0.094 1.283 1.350 1.148 0.056 0.517 0.276 0.102 0.263 0.459 0.039 0.943 2.448 2.611 2.116 1.137 1.142 1.290 2.089
0.000 0.000 0.000 0.000 0.000 0.000 0.000 0.000 0.000 0.000 0.000 0.000 0.000 0.000 0.000 0.000 0.000 0.000 0.000 0.000 0.000 0.000 0.000 0.016 1.058 1.373 1.131 0.094 0.982 1.610 0.387 0.046 0.012 0.101 1.605 2.853 2.461 1.855 0.968 0.323 1.260 2.062
0.000 0.000 0.000 0.000 0.000 0.000 0.000 0.000 0.000 0.000 0.000 0.000 0.000 0.000 0.000 0.000 0.000 0.000 0.000 0.000 0.000 0.000 0.000 0.001 0.386 1.364 1.390 1.769 1.041 2.193 0.898 0.054 0.027 1.070 2.061 2.406 2.486 1.822 0.077 0.098 0.758 1.645
0.000 0.000 0.000 0.000 0.000 0.000 0.000 0.000 0.000 0.000 0.000 0.000 0.000 0.000 0.000 0.000 0.000 0.000 0.000 0.000 0.000 0.000 0.000 0.000 0.100 1.251 1.778 1.716 2.006 2.022 1.796 0.050 0.075 0.771 1.902 2.109 2.291 0.909 0.082 0.087 0.099 0.984
0.000 0.000 0.000 0.000 0.000 0.000 0.000 0.000 0.000 0.000 0.000 0.000 0.000 0.000 0.000 0.000 0.000 0.000 0.000 0.000 0.000 0.000 0.000 0.000 0.164 0.690 1.506 1.278 1.879 0.591 0.946 0.016 0.040 1.230 2.325 2.519 1.990 0.920 0.073 0.085 0.087 0.099
0.000 0.000 0.000 0.000 0.000 0.000 0.000 0.000 0.000 0.000 0.000 0.000 0.000 0.000 0.000 0.000 0.000 0.000 0.000 0.000 0.000 0.000 0.000 0.000 0.001 0.380 0.075 1.635 1.386 0.050 0.065 0.088 0.234 2.237 2.627 2.768 2.084 1.671 0.068 0.052 0.050 0.080
0.000 0.000 0.000 0.000 0.000 0.000 0.000 0.000 0.000 0.000 0.000 0.000 0.000 0.000 0.000 0.000 0.000 0.000 0.000 0.000 0.000 0.000 0.000 0.000 0.001 0.040 0.787 1.627 1.358 0.070 0.079 0.148 1.549 2.553 2.610 2.824 2.594 1.692 0.051 0.070 0.080 0.058
0.000 0.000 0.000 0.000 0.000 0.000 0.000 0.000 0.000 0.000 0.000 0.000 0.000 0.000 0.000 0.000 0.000 0.000 0.000 0.000 0.000 0.000 0.000 0.000 0.000 0.019 0.731 1.285 1.282 0.084 0.009 1.800 2.563 2.970 2.905 3.260 2.945 0.043 0.287 0.057 0.035 0.098
0.000 0.000 0.000 0.000 0.000 0.000 0.000 0.000 0.000 0.000 0.000 0.000 0.000 0.000 0.000 0.000 0.000 0.000 0.000 0.000 0.000 0.000 0.000 0.000 0.000 0.001 0.428 0.555 1.164 0.343 0.211 3.638 3.764 3.910 3.960 3.433 2.420 0.077 0.542 0.068 0.059 0.037
0.000 0.000 0.000 0.000 0.000 0.000 0.000 0.000 0.000 0.000 0.000 0.000 0.000 0.000 0.000 0.000 0.000 0.000 0.000 0.000 0.000 0.000 0.000 0.000 0.000 0.000 0.041 0.560 0.372 0.088 1.831 3.450 4.421 4.300 4.278 3.287 2.605 1.711 0.843 0.056 0.051 0.059
0.000 0.000 0.000 0.000 0.000 0.000 0.000 0.000 0.000 0.000 0.000 0.000 0.000 0.000 0.000 0.000 0.000 0.000 0.000 0.000 0.000 0.000 0.000 0.000 0.000 0.000 0.000 0.308 0.387 0.595 2.167 2.813 3.679 3.801 3.475 3.329 2.650 2.090 1.377 0.328 0.052 0.037
0.000 0.000 0.000 0.000 0.000 0.000 0.000 0.000 0.000 0.000 0.000 0.000 0.000 0.000 0.000 0.000 0.000 0.000 0.000 0.000 0.000 0.000 0.000 0.000 0.000 0.000 0.000 0.023 0.090 1.709 2.071 2.147 2.931 2.807 3.137 3.793 3.519 3.132 2.140 0.888 0.165 0.010
0.000 0.000 0.000 0.000 0.000 0.000 0.000 0.000 0.000 0.000 0.000 0.000 0.000 0.000 0.000 0.000 0.000 0.000 0.000 0.000 0.000 0.000 0.000 0.000 0.000 0.000 0.000 0.043 1.177 1.816 1.851 1.803 2.086 2.012 2.455 3.958 3.941 3.740 2.809 1.253 1.012 0.285
0.000 0.000 0.000 0.000 0.000 0.000 0.000 0.000 0.000 0.000 0.000 0.000 0.000 0.000 0.000 0.000 0.000 0.000 0.000 0.000 0.000 0.000 0.000 0.000 0.000 0.000 0.000 0.111 1.020 1.443 1.510 1.543 1.806 1.312 1.408 3.242 3.512 3.625 3.284 2.266 1.372 0.716
0.000 0.000 0.000 0.000 0.000 0.000 0.000 0.000 0.000 0.000 0.000 0.000 0.000 0.000 0.000 0.000 0.000 0.000 0.000 0.000 0.000 0.000 0.000 0.000 0.000 0.000 0.000 0.000 0.050 0.564 1.254 1.460 1.608 1.315 1.225 2.897 3.201 3.378 3.303 2.828 1.783 1.165
0.000 0.000 0.000 0.000 0.000 0.000 0.000 0.000 0.000 0.000 0.000 0.000 0.000 0.000 0.000 0.000 0.000 0.000 0.000 0.000 0.000 0.000 0.000 0.000 0.000 0.000 0.000 0.000 0.001 0.035 0.949 1.237 1.129 1.307 2.464 2.991 3.337 3.253 3.155 3.242 2.130 1.479
0.000 0.000 0.000 0.000 0.000 0.000 0.000 0.000 0.000 0.000 0.000 0.000 0.000 0.000 0.000 0.000 0.000 0.000 0.000 0.000 0.000 0.000 0.000 0.000 0.000 0.000 0.000 0.000 0.000 0.000 0.192 0.823 0.220 1.752 3.005 3.222 3.183 3.279 3.181 3.368 2.198 1.627
0.000 0.000 0.000 0.000 0.000 0.000 0.000 0.000 0.000 0.000 0.000 0.000 0.000 0.000 0.000 0.000 0.000 0.000 0.000 0.000 0.000 0.000 0.000 0.000 0.000 0.000 0.000 0.000 0.000 0.000 0.004 0.925 1.274 1.940 2.805 3.100 3.186 3.397 3.362 3.166 2.344 1.709
0.000 0.000 0.000 0.000 0.000 0.000 0.000 0.000 0.000 0.000 0.000 0.000 0.000 0.000 0.000 0.000 0.000 0.000 0.000 0.000 0.000 0.000 0.000 0.000 0.000 0.000 0.000 0.000 0.000 0.000 0.000 0.750 1.415 1.857 2.222 2.884 3.313 3.660 3.896 3.377 2.452 1.901
0.000 0.000 0.000 0.000 0.000 0.000 0.000 0.000 0.000 0.000 0.000 0.000 0.000 0.000 0.000 0.000 0.000 0.000 0.000 0.000 0.000 0.000 0.000 0.000 0.000 0.000 0.000 0.000 0.000 0.000 0.000 0.315 1.565 1.784 1.824 2.516 3.377 3.802 4.428 3.872 2.756 2.375
0.000 0.000 0.000 0.000 0.000 0.000 0.000 0.000 0.000 0.000 0.000 0.000 0.000 0.000 0.000 0.000 0.000 0.000 0.000 0.000 0.000 0.000 0.000 0.000 0.000 0.000 0.000 0.000 0.000 0.000 0.000 0.047 1.189 1.644 1.709 2.272 2.434 3.442 4.671 4.343 3.379 3.007
0.000 0.000 0.000 0.000 0.000 0.000 0.000 0.000 0.000 0.000 0.000 0.000 0.000 0.000 0.000 0.000 0.000 0.000 0.000 0.000 0.000 0.000 0.000 0.000 0.000 0.000 0.000 0.000 0.000 0.000 0.000 0.067 0.715 1.382 1.632 2.236 2.080 3.398 4.770 4.725 3.634 3.092
0.000 0.000 0.000 0.000 0.000 0.000 0.000 0.000 0.000 0.000 0.000 0.000 0.000 0.000 0.000 0.000 0.000 0.000 0.000 0.000 0.000 0.000 0.000 0.000 0.000 0.000 0.000 0.000 0.000 0.000 0.000 0.000 0.213 1.112 1.467 2.138 2.010 3.014 4.193 4.532 3.367 2.559
0.000 0.000 0.000 0.000 0.000 0.000 0.000 0.000 0.000 0.000 0.000 0.000 0.000 0.000 0.000 0.000 0.000 0.000 0.000 0.000 0.000 0.000 0.000 0.000 0.000 0.000 0.000 0.000 0.000 0.000 0.000 0.000 0.001 0.646 1.296 1.709 2.047 2.655 3.347 4.277 3.002 2.084
0.000 0.000 0.000 0.000 0.000 0.000 0.000 0.000 0.000 0.000 0.000 0.000 0.000 0.000 0.000 0.000 0.000 0.000 0.000 0.000 0.000 0.000 0.000 0.000 0.000 0.000 0.000 0.000 0.000 0.000 0.000 0.000 0.000 0.040 1.017 1.634 1.986 2.175 2.545 3.198 2.341 1.862
