ncols        34
nrows        50
xllcorner    409757.8
yllcorner    6870709.1
cellsize     5.00
NODATA_value -9999
0.000 0.000 0.000 0.000 0.007 0.804 5.058 10.067 12.334 10.562 5.880 1.059 0.016 0.000 0.000 0.000 0.000 0.000 0.000 0.000 0.000 0.000 0.000 0.000 0.000 0.000 0.000 0.000 0.000 0.000 0.000 0.000 0.000 0.000
0.000 0.000 0.000 0.208 3.857 15.830 16.378 16.654 16.434 15.795 15.449 15.170 5.607 0.316 0.000 0.000 0.000 0.000 0.000 0.000 0.000 0.000 0.000 0.000 0.000 0.000 0.000 0.000 0.000 0.000 0.000 0.000 0.000 0.000
0.000 0.000 0.365 6.386 16.598 16.648 17.335 17.408 17.143 16.899 16.794 15.834 15.317 9.258 1.458 0.012 0.000 0.000 0.000 0.000 0.000 0.000 0.000 0.000 0.000 0.000 0.000 0.000 0.000 0.000 0.000 0.000 0.000 0.000
0.000 0.027 4.435 16.541 16.827 17.580 18.207 18.283 18.318 18.106 17.990 17.219 16.528 14.726 13.464 3.906 0.113 0.000 0.000 0.000 0.000 0.000 0.000 0.000 0.000 0.000 0.000 0.000 0.000 0.000 0.000 0.000 0.000 0.000
0.000 1.569 16.181 16.697 17.775 18.578 18.869 19.156 19.327 19.043 18.683 18.465 17.870 16.737 16.100 16.764 7.046 0.370 0.000 0.000 0.000 0.000 0.000 0.000 0.000 0.000 0.000 0.000 0.000 0.000 0.000 0.000 0.000 0.000
0.019 6.278 16.076 17.382 18.607 19.191 19.454 20.133 19.818 19.678 19.655 19.393 18.405 18.408 18.166 17.457 17.245 9.109 0.779 0.000 0.000 0.000 0.000 0.000 0.000 0.000 0.000 0.000 0.000 0.000 0.000 0.000 0.000 0.000
0.325 12.735 16.658 17.832 18.731 19.970 20.292 20.409 19.822 20.521 20.422 19.948 20.065 19.906 19.802 19.126 18.278 15.664 10.639 0.968 0.000 0.000 0.000 0.000 0.000 0.000 0.000 0.000 0.000 0.000 0.000 0.000 0.000 0.000
1.804 16.458 16.692 18.566 19.295 20.646 20.869 19.868 20.896 21.124 20.639 20.562 20.804 20.568 20.061 19.847 19.072 17.574 16.077 10.356 0.611 0.000 0.000 0.000 0.000 0.000 0.000 0.000 0.000 0.000 0.000 0.000 0.000 0.000
3.582 16.249 17.453 18.861 20.658 20.727 21.211 21.633 21.427 21.165 21.632 21.278 20.802 21.197 21.300 20.479 21.273 19.303 18.082 16.792 7.943 0.221 0.000 0.000 0.000 0.000 0.000 0.000 0.000 0.000 0.000 0.000 0.000 0.000
4.310 16.367 17.486 19.390 19.958 20.707 21.003 21.075 22.060 21.656 21.387 22.008 21.502 21.072 22.056 21.530 21.558 20.681 19.087 17.202 14.364 5.165 0.044 0.000 0.000 0.000 0.000 0.000 0.000 0.000 0.000 0.000 0.000 0.000
3.821 15.882 17.156 18.389 19.937 20.389 21.014 21.353 21.743 22.729 22.155 21.868 21.777 22.093 21.957 22.008 22.377 22.432 19.425 19.595 16.345 11.484 2.762 0.002 0.000 0.000 0.000 0.000 0.000 0.000 0.000 0.000 0.000 0.000
2.602 15.056 16.415 18.361 19.480 21.150 21.577 21.994 21.898 22.118 22.718 22.850 22.786 22.098 22.639 22.083 21.864 22.528 20.840 21.351 17.637 13.731 8.812 0.950 0.000 0.000 0.000 0.000 0.000 0.000 0.000 0.000 0.000 0.000
1.275 13.141 15.011 16.813 19.183 20.523 21.378 21.956 22.059 22.276 23.052 22.999 23.248 22.023 21.711 23.593 23.736 23.191 22.911 21.807 19.017 15.976 11.367 6.030 0.096 0.000 0.000 0.000 0.000 0.000 0.000 0.000 0.000 0.000
0.463 9.546 14.384 16.532 17.385 19.958 20.455 21.527 22.017 22.307 22.986 23.063 22.871 22.882 22.517 24.267 25.152 24.420 23.688 22.316 20.572 17.150 13.852 9.695 2.587 0.001 0.000 0.000 0.000 0.000 0.000 0.000 0.000 0.000
0.086 5.489 13.342 14.752 17.363 18.891 20.282 21.077 21.597 22.026 23.221 23.375 23.113 22.566 24.210 26.181 25.649 25.738 24.504 22.018 20.655 17.426 16.088 10.706 6.780 0.498 0.000 0.000 0.000 0.000 0.000 0.000 0.000 0.000
0.007 2.264 11.010 14.128 16.660 18.609 19.549 20.220 21.132 22.126 22.610 23.122 23.420 23.501 24.415 26.661 26.720 26.215 22.938 20.709 20.587 19.374 17.015 11.936 8.505 3.859 0.009 0.000 0.000 0.000 0.000 0.000 0.000 0.000
0.000 0.667 8.227 13.116 16.281 17.452 18.419 19.573 20.199 21.699 22.217 22.901 23.322 23.812 23.324 25.928 26.375 25.497 22.354 21.709 23.052 20.836 16.775 14.742 9.089 6.763 0.998 0.000 0.000 0.000 0.000 0.000 0.000 0.000
0.000 0.093 4.501 11.420 14.455 16.533 17.421 18.221 19.132 20.355 21.746 22.186 23.289 23.295 23.433 26.403 27.400 25.162 22.545 23.245 22.954 19.694 17.405 16.024 9.917 7.741 4.471 0.020 0.000 0.000 0.000 0.000 0.000 0.000
0.000 0.004 1.587 8.898 13.288 15.138 16.625 17.767 18.503 19.723 20.825 21.697 22.267 22.147 23.574 26.011 26.091 24.717 23.411 23.780 22.032 18.602 19.120 16.840 12.220 8.123 6.709 1.285 0.000 0.000 0.000 0.000 0.000 0.000
0.000 0.000 0.247 5.204 10.485 13.982 15.802 16.207 17.267 18.431 20.248 21.314 21.727 22.358 24.274 25.933 25.039 24.573 24.060 24.239 21.319 19.942 19.812 18.419 15.022 8.005 6.717 4.401 0.053 0.000 0.000 0.000 0.000 0.000
0.000 0.000 0.017 2.039 8.363 12.254 14.227 15.393 16.853 17.919 19.840 21.488 21.459 22.147 24.503 24.394 24.993 24.979 23.714 23.275 22.415 20.545 20.407 19.069 15.043 8.962 7.718 6.404 1.732 0.000 0.000 0.000 0.000 0.000
0.000 0.000 0.000 0.466 5.668 11.563 13.578 15.030 16.102 17.065 18.555 19.971 20.598 21.559 24.195 25.394 25.240 23.568 22.582 23.272 22.658 21.538 21.880 18.711 16.127 11.974 8.887 6.137 4.379 0.178 0.000 0.000 0.000 0.000
0.000 0.000 0.000 0.044 2.786 10.301 13.178 15.158 16.006 16.477 17.740 18.624 18.996 20.466 22.983 24.195 23.301 21.912 22.902 21.606 21.376 22.042 22.138 19.583 17.074 14.291 8.703 6.427 6.082 2.138 0.000 0.000 0.000 0.000
0.000 0.000 0.000 0.001 0.864 8.431 13.556 15.114 15.730 16.669 17.089 17.584 18.349 19.409 20.880 22.306 22.005 21.892 21.480 21.240 21.678 22.575 21.684 19.561 17.640 14.410 9.497 6.930 5.932 4.359 0.164 0.000 0.000 0.000
0.000 0.000 0.000 0.000 0.132 6.680 13.356 15.070 16.135 16.604 16.598 17.412 18.136 18.431 20.268 21.932 21.545 20.950 20.470 21.580 22.277 22.616 20.552 19.926 18.016 14.854 10.142 7.503 6.401 5.902 1.904 0.000 0.000 0.000
0.000 0.000 0.000 0.000 0.044 5.164 13.786 15.399 16.044 16.461 16.526 17.144 17.389 18.237 20.726 20.157 19.679 20.116 21.403 22.369 23.287 21.792 20.070 19.428 17.374 15.191 12.134 7.935 6.748 6.055 3.918 0.025 0.000 0.000
0.000 0.000 0.000 0.000 0.030 4.437 13.505 15.441 16.424 16.705 16.550 16.162 16.769 17.763 18.129 18.177 19.000 19.991 20.938 22.459 21.700 20.589 20.347 18.897 18.236 16.397 13.861 9.047 7.217 6.294 5.098 0.844 0.000 0.000
0.000 0.000 0.000 0.000 0.042 4.553 13.325 15.146 16.297 16.385 15.948 16.386 15.994 16.013 16.820 17.469 18.840 19.379 19.821 21.576 20.326 20.766 20.293 19.587 19.748 17.508 15.011 9.767 7.223 6.345 4.974 3.144 0.001 0.000
0.000 0.000 0.000 0.000 0.045 4.785 12.757 15.221 16.362 16.176 15.825 15.391 15.052 15.108 16.155 16.980 17.434 18.640 21.277 21.128 20.592 20.336 20.837 20.554 20.895 17.907 14.791 10.738 7.650 6.162 5.392 4.437 0.340 0.000
0.000 0.000 0.000 0.000 0.046 4.860 12.200 14.732 15.384 15.315 15.397 14.747 14.357 14.966 15.511 16.474 17.176 19.317 20.013 19.235 21.119 21.448 21.030 21.314 20.400 17.659 14.223 11.045 8.129 6.683 5.699 4.951 2.201 0.000
0.000 0.000 0.000 0.000 0.054 4.668 11.962 14.352 15.548 15.439 14.870 14.662 13.549 13.802 14.218 16.238 18.110 18.478 18.144 19.268 20.750 20.128 20.455 22.833 19.656 16.567 14.933 11.721 9.181 7.527 6.007 5.360 3.928 0.000
0.000 0.000 0.000 0.000 0.059 4.497 11.329 13.785 14.758 15.057 14.667 13.544 13.089 14.354 15.793 16.190 16.653 16.598 17.283 18.940 20.009 20.442 22.392 21.268 18.703 17.851 14.646 12.755 10.451 8.661 7.025 6.275 4.960 0.057
0.000 0.000 0.000 0.000 0.035 4.172 10.633 13.360 14.547 14.575 14.052 13.067 13.135 14.153 15.363 15.606 15.391 16.471 16.946 18.233 19.617 21.224 21.311 19.842 19.371 17.186 15.312 13.744 12.012 9.217 7.147 6.067 4.972 0.943
0.000 0.000 0.000 0.000 0.033 3.920 10.026 12.878 13.952 13.624 13.301 12.643 12.952 14.120 14.566 13.757 14.832 15.324 15.828 17.143 19.064 19.551 19.522 18.969 17.957 17.134 15.955 14.163 11.978 9.189 7.467 6.183 4.644 1.910
0.000 0.000 0.000 0.000 0.030 3.516 8.084 12.029 13.490 13.215 13.016 12.561 13.129 14.259 13.621 13.694 14.098 14.479 14.600 15.237 17.630 18.589 18.699 18.198 17.815 17.330 15.874 13.420 11.332 10.205 8.022 6.548 4.786 3.334
0.000 0.000 0.000 0.000 0.020 3.310 6.174 11.744 12.660 12.604 12.276 12.798 13.031 13.471 13.575 13.254 13.443 13.944 14.027 15.474 16.097 17.047 17.715 17.869 17.687 16.742 14.694 12.853 12.162 11.158 8.670 7.374 5.177 3.647
0.000 0.000 0.000 0.000 0.013 2.928 5.785 10.991 12.159 12.058 11.934 11.850 12.904 13.338 12.460 13.062 13.349 14.328 14.081 14.248 15.046 15.883 16.688 17.317 16.499 15.665 14.298 13.174 13.131 11.830 9.526 7.053 4.874 2.558
0.000 0.000 0.000 0.000 0.012 2.430 5.179 10.305 11.390 11.631 12.103 12.383 12.256 12.018 12.627 13.225 12.871 12.699 13.487 13.073 13.679 14.631 14.925 15.776 15.170 15.093 14.602 13.596 13.738 11.416 9.848 7.205 4.824 2.940
0.000 0.000 0.000 0.000 0.007 2.296 4.961 9.731 11.136 11.390 11.324 11.276 11.533 13.017 12.741 12.685 10.844 11.483 12.949 12.285 11.833 12.616 14.326 14.714 15.491 15.420 13.508 13.830 12.822 11.028 9.896 7.772 4.844 3.695
0.000 0.000 0.000 0.000 0.004 1.601 4.853 9.025 10.763 11.169 10.971 11.117 11.671 11.962 12.163 11.055 9.682 11.075 11.055 10.682 9.741 11.331 13.419 14.322 14.036 13.837 13.705 14.441 12.592 11.065 10.163 7.621 4.558 3.281
0.000 0.000 0.000 0.000 0.015 1.464 4.709 8.630 10.052 10.474 10.363 10.528 11.600 11.910 11.293 9.701 9.884 10.713 9.398 9.426 9.020 10.224 11.542 12.373 12.780 13.309 13.899 13.719 11.678 11.234 9.687 6.536 3.589 2.205
0.000 0.000 0.000 0.000 0.047 1.905 4.629 6.930 9.768 10.093 9.774 9.895 11.215 11.119 9.563 9.464 10.450 9.156 8.083 8.359 8.593 8.631 9.647 11.284 12.632 13.274 13.265 12.156 11.635 11.703 8.456 6.617 4.176 3.486
0.000 0.000 0.000 0.000 0.019 1.617 4.314 6.155 9.584 9.487 9.052 9.525 9.688 9.364 9.544 10.538 9.542 7.934 8.067 7.880 7.444 7.541 8.466 10.507 11.756 12.823 12.946 12.672 12.480 10.430 8.587 7.036 5.718 4.157
0.000 0.000 0.000 0.000 0.004 1.096 4.200 5.594 8.963 9.087 8.596 8.560 9.004 9.245 9.748 9.003 7.611 7.436 7.510 7.278 6.881 6.840 7.496 9.065 11.239 12.239 12.446 12.430 11.822 10.283 8.836 7.740 6.654 4.525
0.000 0.000 0.000 0.000 0.001 0.536 3.730 5.507 8.585 8.570 8.318 8.581 9.218 9.329 8.394 7.596 7.257 7.618 7.155 6.264 5.947 6.474 7.297 8.390 9.678 11.047 12.016 11.712 10.993 9.995 8.827 7.626 7.227 4.529
0.000 0.000 0.000 0.000 0.001 0.389 3.445 5.481 8.094 8.210 7.751 8.450 8.250 7.642 7.911 7.479 7.804 7.896 6.290 5.579 6.015 6.227 6.771 6.880 8.742 10.479 11.163 11.692 11.120 9.922 8.949 8.616 7.090 4.867
0.000 0.000 0.000 0.000 0.000 0.182 2.939 5.245 7.553 7.686 7.579 7.789 7.571 7.270 7.537 7.516 7.596 6.494 5.280 5.504 5.948 5.574 5.590 6.624 7.495 9.154 10.386 11.018 10.958 9.919 9.480 8.564 6.537 4.830
0.000 0.000 0.000 0.000 0.000 0.093 2.289 5.050 6.910 6.954 7.410 7.623 6.876 6.983 7.249 7.147 7.077 5.865 5.380 5.794 5.608 5.119 5.452 5.907 6.331 7.787 9.843 11.008 10.352 9.807 9.168 7.220 6.338 4.788
0.000 0.000 0.000 0.000 0.000 0.017 1.247 4.654 5.728 6.374 6.986 6.605 6.246 6.445 6.527 6.728 5.992 5.665 5.396 5.376 5.219 4.966 5.303 5.714 5.888 6.613 7.595 9.211 9.662 9.080 7.028 6.478 5.974 4.407
0.000 0.000 0.000 0.000 0.000 0.003 0.530 4.088 5.372 5.550 5.764 5.339 5.586 5.896 5.991 6.101 5.400 4.789 4.712 4.334 4.433 5.051 5.025 5.188 5.094 5.294 5.818 6.641 6.629 5.926 5.628 5.485 4.864 3.775
