ncols        38
nrows        84
xllcorner    409642.8
yllcorner    6870789.1
cellsize     5.00
NODATA_value -9999
0.000 0.000 0.000 0.000 0.000 0.000 0.000 0.000 0.000 0.000 0.000 0.000 0.000 0.000 0.000 0.000 0.000 0.000 0.000 0.000 0.000 0.000 0.000 0.000 0.000 0.000 0.000 0.000 0.000 0.000 0.000 0.000 0.000 0.000 0.000 0.000 0.000 0.000
0.000 0.000 0.262 4.894 18.074 18.812 18.371 19.227 8.307 0.235 0.000 0.000 0.000 0.000 0.000 0.000 0.000 0.000 0.000 0.000 0.000 0.000 0.000 0.000 0.000 0.000 0.000 0.000 0.000 0.000 0.000 0.000 0.000 0.000 0.000 0.000 0.000 0.000
0.000 0.133 5.261 18.916 19.446 19.770 20.198 20.758 18.847 11.483 0.978 0.000 0.000 0.000 0.000 0.000 0.000 0.000 0.000 0.000 0.000 0.000 0.000 0.000 0.000 0.000 0.000 0.000 0.000 0.000 0.000 0.000 0.000 0.000 0.000 0.000 0.000 0.000
0.001 2.094 19.267 19.538 20.399 20.547 22.077 21.793 20.388 18.455 13.303 1.524 0.004 0.000 0.000 0.000 0.000 0.000 0.000 0.000 0.000 0.000 0.000 0.000 0.000 0.000 0.000 0.000 0.000 0.000 0.000 0.000 0.000 0.000 0.000 0.000 0.000 0.000
0.120 8.339 19.057 20.634 21.670 22.575 23.003 22.019 21.975 19.013 17.732 14.121 3.196 0.012 0.000 0.000 0.000 0.000 0.000 0.000 0.000 0.000 0.000 0.000 0.000 0.000 0.000 0.000 0.000 0.000 0.000 0.000 0.000 0.000 0.000 0.000 0.000 0.000
1.665 18.578 19.746 22.268 24.516 23.090 22.581 24.078 21.400 20.324 19.943 16.333 14.407 4.144 0.039 0.000 0.000 0.000 0.000 0.000 0.000 0.000 0.000 0.000 0.000 0.000 0.000 0.000 0.000 0.000 0.000 0.000 0.000 0.000 0.000 0.000 0.000 0.000
3.879 18.301 21.021 24.444 24.181 22.319 24.198 23.267 21.455 21.838 19.747 16.836 15.771 14.789 5.274 0.033 0.000 0.000 0.000 0.000 0.000 0.000 0.000 0.000 0.000 0.000 0.000 0.000 0.000 0.000 0.000 0.000 0.000 0.000 0.000 0.000 0.000 0.000
7.403 19.986 23.296 22.420 23.463 23.502 23.563 23.317 23.773 22.676 21.779 19.609 17.837 17.219 14.643 4.591 0.207 0.001 0.000 0.000 0.000 0.000 0.000 0.000 0.000 0.000 0.000 0.000 0.000 0.000 0.000 0.000 0.000 0.000 0.000 0.000 0.000 0.000
7.481 20.858 20.675 22.047 23.301 22.803 23.538 25.257 24.312 22.402 22.145 21.107 20.685 17.381 15.721 13.575 7.177 1.986 0.036 0.000 0.000 0.000 0.000 0.000 0.000 0.000 0.000 0.000 0.000 0.000 0.000 0.000 0.000 0.000 0.000 0.000 0.000 0.000
6.136 18.704 19.918 21.188 23.714 23.497 24.725 26.078 25.674 24.140 23.014 23.952 21.432 18.833 17.547 14.426 13.328 11.206 3.973 0.020 0.000 0.000 0.000 0.000 0.000 0.000 0.000 0.000 0.000 0.000 0.000 0.000 0.000 0.000 0.000 0.000 0.000 0.000
6.280 17.688 18.846 22.053 23.337 24.393 24.250 25.796 25.331 22.841 24.322 24.819 20.625 19.994 17.190 13.612 13.435 13.183 11.825 2.879 0.000 0.000 0.000 0.000 0.000 0.000 0.000 0.000 0.000 0.000 0.000 0.000 0.000 0.000 0.000 0.000 0.000 0.000
5.496 16.819 19.920 23.106 24.207 25.819 25.774 25.254 24.004 22.346 24.943 24.583 22.819 21.037 16.591 14.114 13.634 13.946 14.183 10.116 0.231 0.000 0.000 0.000 0.000 0.000 0.000 0.000 0.000 0.000 0.000 0.000 0.000 0.000 0.000 0.000 0.000 0.000
4.113 15.732 20.764 23.864 24.697 24.943 24.441 23.975 23.016 24.157 26.518 24.401 22.281 20.110 15.994 15.120 15.215 14.877 13.715 12.528 4.760 0.000 0.000 0.000 0.000 0.000 0.000 0.000 0.000 0.000 0.000 0.000 0.000 0.000 0.000 0.000 0.000 0.000
2.234 14.052 19.493 22.551 24.947 24.420 23.088 24.525 22.640 25.871 25.259 23.923 23.023 21.027 18.629 16.569 16.253 15.358 14.372 13.362 9.933 0.000 0.000 0.000 0.000 0.000 0.000 0.000 0.000 0.000 0.000 0.000 0.000 0.000 0.000 0.000 0.000 0.000
0.901 11.341 18.403 23.061 23.066 23.229 23.920 23.625 24.753 25.352 26.409 24.166 24.068 21.358 17.699 16.415 15.660 14.238 14.595 13.451 11.471 0.056 0.000 0.000 0.000 0.000 0.000 0.000 0.000 0.000 0.000 0.000 0.000 0.000 0.000 0.000 0.000 0.000
0.198 7.019 17.204 20.632 22.900 22.842 24.439 25.042 23.825 26.272 25.493 24.365 23.113 19.886 17.026 15.575 15.129 14.349 14.593 13.042 10.449 2.360 0.000 0.000 0.000 0.000 0.000 0.000 0.000 0.000 0.000 0.000 0.000 0.000 0.000 0.000 0.000 0.000
0.024 3.440 13.649 18.066 21.477 23.223 23.714 23.805 24.035 24.339 24.175 23.992 20.680 18.361 16.243 16.043 15.049 14.707 13.813 12.652 11.026 6.062 0.000 0.000 0.000 0.000 0.000 0.000 0.000 0.000 0.000 0.000 0.000 0.000 0.000 0.000 0.000 0.000
0.005 1.800 11.342 17.623 20.529 21.037 21.881 22.382 23.475 23.448 22.209 22.586 19.344 18.033 18.965 16.256 15.476 14.752 12.812 12.322 11.756 7.175 0.000 0.000 0.000 0.000 0.000 0.000 0.000 0.000 0.000 0.000 0.000 0.000 0.000 0.000 0.000 0.000
0.000 0.738 8.529 14.931 18.899 21.362 21.960 22.738 22.122 22.344 22.886 22.230 19.944 19.083 18.774 16.114 16.696 14.245 12.927 13.476 11.379 8.246 0.021 0.000 0.000 0.000 0.000 0.000 0.000 0.000 0.000 0.000 0.000 0.000 0.000 0.000 0.000 0.000
0.000 0.280 6.176 12.690 17.600 18.984 21.450 21.363 20.177 20.762 21.165 21.098 20.042 20.936 18.451 17.472 16.435 15.237 14.662 13.430 11.800 8.958 1.408 0.000 0.000 0.000 0.000 0.000 0.000 0.000 0.000 0.000 0.000 0.000 0.000 0.000 0.000 0.000
0.000 0.080 4.071 10.933 15.809 19.525 19.976 19.902 20.631 20.619 20.060 20.914 20.794 19.429 19.764 18.330 16.989 15.801 13.297 12.681 11.576 8.962 4.299 0.000 0.000 0.000 0.000 0.000 0.000 0.000 0.000 0.000 0.000 0.000 0.000 0.000 0.000 0.000
0.000 0.017 2.229 9.315 13.991 17.518 18.941 19.459 19.755 19.083 19.048 20.975 21.197 18.285 19.360 17.454 18.020 14.248 12.492 11.010 11.183 9.147 5.481 0.000 0.000 0.000 0.000 0.000 0.000 0.000 0.000 0.000 0.000 0.000 0.000 0.000 0.000 0.000
0.000 0.002 0.880 7.114 11.771 15.069 18.353 19.691 18.850 18.559 19.274 19.971 20.232 18.845 20.082 18.487 16.444 13.008 11.544 11.443 11.553 9.698 6.325 0.030 0.000 0.000 0.000 0.000 0.000 0.000 0.000 0.000 0.000 0.000 0.000 0.000 0.000 0.000
0.000 0.001 0.459 5.493 10.180 14.206 16.864 18.246 19.154 19.065 20.303 20.878 18.961 20.132 18.411 16.836 15.506 13.294 12.315 12.556 11.722 10.041 7.133 1.278 0.000 0.000 0.000 0.000 0.000 0.000 0.000 0.000 0.000 0.000 0.000 0.000 0.000 0.000
0.000 0.000 0.106 3.734 8.732 13.418 16.645 19.200 17.701 18.723 20.626 20.063 20.158 19.865 18.279 15.985 14.797 13.682 13.207 12.962 11.492 10.292 7.358 3.460 0.003 0.000 0.000 0.000 0.000 0.000 0.000 0.000 0.000 0.000 0.000 0.000 0.000 0.000
0.000 0.000 0.013 1.761 7.179 10.156 14.993 17.332 19.141 18.737 17.807 18.862 18.707 18.066 16.742 14.182 14.574 13.540 13.320 11.683 11.885 10.395 7.360 4.354 0.498 0.000 0.000 0.000 0.000 0.000 0.000 0.000 0.000 0.000 0.000 0.000 0.000 0.000
0.000 0.000 0.001 0.503 5.249 8.438 12.404 16.735 16.624 17.221 17.085 17.501 17.328 16.578 15.239 14.294 14.939 14.496 13.429 12.599 11.241 9.700 7.523 4.960 2.505 0.043 0.000 0.000 0.000 0.000 0.000 0.000 0.000 0.000 0.000 0.000 0.000 0.000
0.000 0.000 0.000 0.088 3.541 7.655 10.631 13.864 16.006 16.585 13.693 16.118 15.125 15.289 14.215 15.352 15.784 14.635 13.309 12.409 10.885 9.837 7.881 5.028 3.462 1.128 0.001 0.000 0.000 0.000 0.000 0.000 0.000 0.000 0.000 0.000 0.000 0.000
0.000 0.000 0.000 0.039 1.775 6.164 8.457 12.531 14.363 14.530 14.610 14.686 14.530 14.664 15.079 15.488 15.112 12.727 14.994 12.472 10.732 9.619 7.772 4.979 4.104 2.926 0.246 0.000 0.000 0.000 0.000 0.000 0.000 0.000 0.000 0.000 0.000 0.000
0.000 0.000 0.000 0.002 0.491 3.609 6.594 8.570 12.323 12.531 11.964 13.027 14.542 14.977 15.577 14.439 13.439 13.353 13.943 10.449 10.035 9.395 7.752 5.553 4.745 3.738 1.915 0.066 0.000 0.000 0.000 0.000 0.000 0.000 0.000 0.000 0.000 0.000
0.000 0.000 0.000 0.000 0.048 1.307 4.791 7.136 10.918 12.606 12.629 14.177 14.810 14.524 14.504 13.309 12.936 13.022 12.159 10.108 9.025 9.436 7.754 6.063 4.938 4.223 3.328 1.163 0.000 0.000 0.000 0.000 0.000 0.000 0.000 0.000 0.000 0.000
0.000 0.000 0.000 0.000 0.000 0.084 1.835 4.543 7.894 9.697 12.622 13.256 13.767 14.488 13.183 12.056 11.446 12.188 11.675 10.225 9.516 8.811 7.887 6.139 4.958 4.418 3.657 2.768 0.109 0.000 0.000 0.000 0.000 0.000 0.000 0.000 0.000 0.000
0.000 0.000 0.000 0.000 0.000 0.000 0.573 4.012 6.914 9.630 10.767 11.741 12.623 12.392 12.311 11.568 12.057 12.538 12.705 11.319 9.436 8.445 7.305 6.129 4.955 4.418 3.918 3.317 1.223 0.006 0.000 0.000 0.000 0.000 0.000 0.000 0.000 0.000
0.000 0.000 0.000 0.000 0.000 0.000 0.113 2.860 6.213 8.850 10.372 10.482 11.394 12.282 11.875 12.402 11.993 12.694 12.073 9.999 8.616 7.714 7.047 6.427 5.059 4.460 3.952 3.071 2.101 0.228 0.000 0.000 0.000 0.000 0.000 0.000 0.000 0.000
0.000 0.000 0.000 0.000 0.000 0.000 0.002 0.414 3.483 5.558 7.147 9.194 10.174 11.169 11.309 11.128 11.435 12.369 10.427 8.797 7.966 7.177 6.570 6.151 5.119 4.242 3.528 2.805 2.699 1.250 0.005 0.000 0.000 0.000 0.000 0.000 0.000 0.000
0.000 0.000 0.000 0.000 0.000 0.000 0.000 0.004 0.792 4.729 6.847 8.514 9.638 10.348 10.251 10.237 10.361 9.991 8.616 7.520 7.120 6.089 6.008 6.013 5.293 4.070 3.073 2.494 2.545 1.985 0.044 0.000 0.000 0.000 0.000 0.000 0.000 0.000
0.000 0.000 0.000 0.000 0.000 0.000 0.000 0.000 0.305 2.983 5.933 7.423 9.109 9.462 9.155 9.517 9.757 9.839 8.047 7.149 5.947 6.275 6.255 6.166 5.224 3.865 2.508 1.214 1.833 1.276 0.523 0.000 0.000 0.000 0.000 0.000 0.000 0.000
0.000 0.000 0.000 0.000 0.000 0.000 0.000 0.000 0.000 1.643 4.554 6.506 7.760 8.306 8.260 8.603 8.857 8.538 7.092 6.047 5.947 6.685 6.378 6.256 5.521 4.069 1.843 1.278 1.053 1.608 1.267 0.021 0.000 0.000 0.000 0.000 0.000 0.000
0.000 0.000 0.000 0.000 0.000 0.000 0.000 0.000 0.000 0.035 2.378 4.392 5.314 6.129 7.550 8.374 8.411 6.656 6.200 5.896 6.337 6.590 6.357 6.421 5.745 4.224 2.562 1.449 0.983 2.178 1.673 0.274 0.000 0.000 0.000 0.000 0.000 0.000
0.000 0.000 0.000 0.000 0.000 0.000 0.000 0.000 0.000 0.000 0.605 2.821 4.203 5.677 7.850 8.640 7.718 6.872 6.217 6.323 6.384 6.253 6.713 6.547 5.821 4.691 3.437 1.504 1.382 2.318 2.051 0.807 0.009 0.000 0.000 0.000 0.000 0.000
0.000 0.000 0.000 0.000 0.000 0.000 0.000 0.000 0.000 0.000 0.016 1.541 3.402 4.537 5.832 6.687 6.842 6.471 6.307 6.597 6.456 6.944 6.855 6.821 6.150 5.342 3.889 1.446 1.626 2.566 2.431 1.640 0.238 0.000 0.000 0.000 0.000 0.000
0.000 0.000 0.000 0.000 0.000 0.000 0.000 0.000 0.000 0.000 0.001 0.151 2.119 3.571 4.810 5.366 6.542 6.878 6.325 6.560 6.280 7.088 6.835 6.885 6.178 5.585 4.086 2.508 2.487 2.874 2.480 2.265 0.845 0.021 0.000 0.000 0.000 0.000
0.000 0.000 0.000 0.000 0.000 0.000 0.000 0.000 0.000 0.000 0.000 0.034 1.455 3.431 3.813 3.596 5.647 5.991 6.323 5.632 6.834 6.916 6.733 6.799 6.335 6.002 4.697 3.522 3.011 2.808 2.462 2.412 1.675 0.281 0.005 0.000 0.000 0.000
0.000 0.000 0.000 0.000 0.000 0.000 0.000 0.000 0.000 0.000 0.000 0.004 0.334 1.767 3.017 3.272 3.956 5.812 6.380 6.170 6.363 6.397 6.394 6.704 6.597 6.030 5.010 4.158 3.633 3.234 2.899 2.396 2.255 1.341 0.375 0.005 0.000 0.000
0.000 0.000 0.000 0.000 0.000 0.000 0.000 0.000 0.000 0.000 0.000 0.000 0.012 0.305 2.130 3.081 3.344 4.628 5.741 5.874 5.781 5.714 6.208 6.768 6.322 5.604 5.158 4.811 4.324 3.802 3.165 2.529 2.646 2.392 1.449 0.269 0.000 0.000
0.000 0.000 0.000 0.000 0.000 0.000 0.000 0.000 0.000 0.000 0.000 0.000 0.000 0.017 0.692 2.687 3.009 3.670 5.305 5.416 4.791 5.112 6.190 6.244 5.978 5.471 5.404 5.232 4.876 4.152 3.021 2.689 2.863 2.749 2.278 1.055 0.075 0.000
0.000 0.000 0.000 0.000 0.000 0.000 0.000 0.000 0.000 0.000 0.000 0.000 0.000 0.000 0.036 1.768 3.080 3.080 2.740 4.632 4.507 4.773 5.766 5.841 5.979 5.317 5.549 5.425 5.466 4.132 2.537 2.539 2.589 2.952 2.774 1.808 0.689 0.013
0.000 0.000 0.000 0.000 0.000 0.000 0.000 0.000 0.000 0.000 0.000 0.000 0.000 0.000 0.001 0.586 2.492 2.744 2.117 3.421 4.520 5.060 5.890 5.312 5.399 5.630 5.800 5.511 5.336 4.190 3.396 2.652 2.663 3.243 2.922 2.381 1.506 0.369
0.000 0.000 0.000 0.000 0.000 0.000 0.000 0.000 0.000 0.000 0.000 0.000 0.000 0.000 0.000 0.018 0.973 2.356 2.113 2.547 4.200 4.994 5.337 5.665 5.845 5.774 6.074 5.559 5.746 5.237 4.165 3.062 2.864 2.977 2.728 2.758 2.143 1.039
0.000 0.000 0.000 0.000 0.000 0.000 0.000 0.000 0.000 0.000 0.000 0.000 0.000 0.000 0.000 0.000 0.095 1.751 1.890 2.065 4.342 5.317 5.545 5.736 5.795 5.946 5.659 5.693 5.925 5.755 4.773 3.069 2.411 2.275 2.925 2.961 2.479 1.657
0.000 0.000 0.000 0.000 0.000 0.000 0.000 0.000 0.000 0.000 0.000 0.000 0.000 0.000 0.000 0.000 0.016 1.351 1.912 1.820 3.829 5.294 5.841 5.493 5.718 5.401 5.662 5.906 6.277 5.661 4.720 3.167 1.977 2.340 2.922 2.875 2.496 2.066
0.000 0.000 0.000 0.000 0.000 0.000 0.000 0.000 0.000 0.000 0.000 0.000 0.000 0.000 0.000 0.000 0.001 0.462 1.886 1.963 3.356 4.565 5.613 5.305 5.223 5.598 6.023 6.163 6.112 5.457 4.661 2.788 1.498 2.068 2.490 2.621 2.330 2.268
0.000 0.000 0.000 0.000 0.000 0.000 0.000 0.000 0.000 0.000 0.000 0.000 0.000 0.000 0.000 0.000 0.000 0.100 1.680 2.511 2.886 3.878 5.116 4.937 4.962 5.251 6.002 6.121 5.859 5.485 4.102 2.494 1.847 1.690 1.949 2.346 2.010 2.282
0.000 0.000 0.000 0.000 0.000 0.000 0.000 0.000 0.000 0.000 0.000 0.000 0.000 0.000 0.000 0.000 0.000 0.101 0.853 2.131 1.964 3.093 2.793 4.183 3.889 5.164 5.879 6.331 6.130 5.472 4.274 2.938 2.204 1.490 1.370 1.762 2.184 2.553
0.000 0.000 0.000 0.000 0.000 0.000 0.000 0.000 0.000 0.000 0.000 0.000 0.000 0.000 0.000 0.000 0.000 0.000 0.368 0.074 2.276 2.014 0.814 2.959 4.010 5.356 6.297 6.466 6.362 5.568 4.756 3.140 2.239 1.517 1.372 0.982 1.976 2.609
0.000 0.000 0.000 0.000 0.000 0.000 0.000 0.000 0.000 0.000 0.000 0.000 0.000 0.000 0.000 0.000 0.000 0.000 0.037 1.067 2.250 1.800 0.030 2.487 4.063 5.599 6.316 6.450 6.362 5.823 5.137 3.099 2.559 1.915 0.910 0.674 2.279 2.702
0.000 0.000 0.000 0.000 0.000 0.000 0.000 0.000 0.000 0.000 0.000 0.000 0.000 0.000 0.000 0.000 0.000 0.000 0.011 0.786 1.750 1.726 0.281 0.085 4.633 5.816 6.290 6.330 6.609 6.094 4.811 3.398 3.033 2.057 1.358 1.585 2.220 2.707
0.000 0.000 0.000 0.000 0.000 0.000 0.000 0.000 0.000 0.000 0.000 0.000 0.000 0.000 0.000 0.000 0.000 0.000 0.000 0.349 0.836 1.549 1.046 0.349 5.420 5.954 6.632 6.863 6.775 6.029 4.685 4.490 3.278 2.397 1.939 1.378 1.442 2.195
0.000 0.000 0.000 0.000 0.000 0.000 0.000 0.000 0.000 0.000 0.000 0.000 0.000 0.000 0.000 0.000 0.000 0.000 0.000 0.025 0.652 0.791 0.857 2.727 4.881 6.294 6.630 7.246 6.655 6.283 5.709 4.914 3.832 3.061 2.327 1.550 1.627 1.875
0.000 0.000 0.000 0.000 0.000 0.000 0.000 0.000 0.000 0.000 0.000 0.000 0.000 0.000 0.000 0.000 0.000 0.000 0.000 0.000 0.259 0.668 1.208 2.999 3.954 5.301 6.074 6.363 6.537 6.207 5.777 5.357 4.548 3.707 3.015 2.023 1.763 1.826
0.000 0.000 0.000 0.000 0.000 0.000 0.000 0.000 0.000 0.000 0.000 0.000 0.000 0.000 0.000 0.000 0.000 0.000 0.000 0.000 0.015 0.093 2.342 2.984 3.134 4.365 4.933 5.922 6.530 6.536 6.324 5.657 5.149 4.602 3.768 3.117 2.136 1.445
0.000 0.000 0.000 0.000 0.000 0.000 0.000 0.000 0.000 0.000 0.000 0.000 0.000 0.000 0.000 0.000 0.000 0.000 0.000 0.000 0.023 1.346 2.464 2.619 2.528 3.429 4.239 5.300 6.636 6.788 6.721 6.054 5.274 5.247 4.760 3.999 2.380 1.008
0.000 0.000 0.000 0.000 0.000 0.000 0.000 0.000 0.000 0.000 0.000 0.000 0.000 0.000 0.000 0.000 0.000 0.000 0.000 0.000 0.038 0.988 1.781 2.051 2.085 2.711 3.361 4.547 5.937 6.390 6.568 6.319 5.743 5.536 5.086 4.326 3.007 1.207
0.000 0.000 0.000 0.000 0.000 0.000 0.000 0.000 0.000 0.000 0.000 0.000 0.000 0.000 0.000 0.000 0.000 0.000 0.000 0.000 0.000 0.023 0.543 1.618 1.970 2.132 3.013 3.930 5.464 5.935 6.266 6.279 6.015 5.723 5.339 4.560 3.698 2.173
0.000 0.000 0.000 0.000 0.000 0.000 0.000 0.000 0.000 0.000 0.000 0.000 0.000 0.000 0.000 0.000 0.000 0.000 0.000 0.000 0.000 0.000 0.026 1.123 1.652 1.515 2.344 4.276 5.200 5.882 6.055 6.072 6.167 5.904 5.525 4.903 3.968 2.971
0.000 0.000 0.000 0.000 0.000 0.000 0.000 0.000 0.000 0.000 0.000 0.000 0.000 0.000 0.000 0.000 0.000 0.000 0.000 0.000 0.000 0.000 0.000 0.173 1.061 0.746 2.311 4.234 5.123 5.586 5.897 5.966 6.211 5.804 5.504 5.026 3.894 2.885
0.000 0.000 0.000 0.000 0.000 0.000 0.000 0.000 0.000 0.000 0.000 0.000 0.000 0.000 0.000 0.000 0.000 0.000 0.000 0.000 0.000 0.000 0.000 0.004 1.105 1.702 2.436 3.583 4.585 5.307 5.852 5.926 5.993 5.802 5.449 4.957 3.472 2.680
0.000 0.000 0.000 0.000 0.000 0.000 0.000 0.000 0.000 0.000 0.000 0.000 0.000 0.000 0.000 0.000 0.000 0.000 0.000 0.000 0.000 0.000 0.000 0.000 0.799 1.847 2.462 2.787 3.855 5.046 5.798 6.120 5.923 5.790 5.386 4.777 2.860 2.908
0.000 0.000 0.000 0.000 0.000 0.000 0.000 0.000 0.000 0.000 0.000 0.000 0.000 0.000 0.000 0.000 0.000 0.000 0.000 0.000 0.000 0.000 0.000 0.000 0.258 1.951 2.396 2.475 3.225 4.685 5.927 6.454 6.195 5.863 5.521 4.515 2.756 3.236
0.000 0.000 0.000 0.000 0.000 0.000 0.000 0.000 0.000 0.000 0.000 0.000 0.000 0.000 0.000 0.000 0.000 0.000 0.000 0.000 0.000 0.000 0.000 0.000 0.029 1.317 2.162 2.319 2.982 3.378 5.374 6.496 6.374 6.212 5.773 4.768 3.312 3.677
0.000 0.000 0.000 0.000 0.000 0.000 0.000 0.000 0.000 0.000 0.000 0.000 0.000 0.000 0.000 0.000 0.000 0.000 0.000 0.000 0.000 0.000 0.000 0.000 0.026 0.668 1.726 2.213 2.934 2.697 4.836 6.570 6.646 6.391 5.773 4.833 3.625 3.749
0.000 0.000 0.000 0.000 0.000 0.000 0.000 0.000 0.000 0.000 0.000 0.000 0.000 0.000 0.000 0.000 0.000 0.000 0.000 0.000 0.000 0.000 0.000 0.000 0.000 0.140 1.277 1.946 2.807 2.623 4.028 6.080 6.425 6.119 5.243 4.374 3.664 3.744
0.000 0.000 0.000 0.000 0.000 0.000 0.000 0.000 0.000 0.000 0.000 0.000 0.000 0.000 0.000 0.000 0.000 0.000 0.000 0.000 0.000 0.000 0.000 0.000 0.000 0.001 0.630 1.638 2.277 2.647 3.284 5.555 6.242 5.927 4.938 4.004 3.563 3.559
0.000 0.000 0.000 0.000 0.000 0.000 0.000 0.000 0.000 0.000 0.000 0.000 0.000 0.000 0.000 0.000 0.000 0.000 0.000 0.000 0.000 0.000 0.000 0.000 0.000 0.000 0.027 1.184 2.177 2.611 2.845 4.720 6.147 5.687 4.958 4.222 3.442 3.310
0.000 0.000 0.000 0.000 0.000 0.000 0.000 0.000 0.000 0.000 0.000 0.000 0.000 0.000 0.000 0.000 0.000 0.000 0.000 0.000 0.000 0.000 0.000 0.000 0.000 0.000 0.000 0.437 2.473 2.619 2.690 4.127 5.653 5.527 5.167 4.227 3.463 3.800
0.000 0.000 0.000 0.000 0.000 0.000 0.000 0.000 0.000 0.000 0.000 0.000 0.000 0.000 0.000 0.000 0.000 0.000 0.000 0.000 0.000 0.000 0.000 0.000 0.000 0.000 0.000 0.187 2.351 2.722 2.910 3.780 5.161 5.480 4.964 3.809 3.706 3.689
0.000 0.000 0.000 0.000 0.000 0.000 0.000 0.000 0.000 0.000 0.000 0.000 0.000 0.000 0.000 0.000 0.000 0.000 0.000 0.000 0.000 0.000 0.000 0.000 0.000 0.000 0.000 0.121 2.250 2.560 2.822 3.699 4.683 5.146 4.648 3.424 3.025 2.184
0.000 0.000 0.000 0.000 0.000 0.000 0.000 0.000 0.000 0.000 0.000 0.000 0.000 0.000 0.000 0.000 0.000 0.000 0.000 0.000 0.000 0.000 0.000 0.000 0.000 0.000 0.000 0.157 1.877 2.402 2.872 3.469 3.868 4.499 4.528 2.679 2.153 1.847
0.000 0.000 0.000 0.000 0.000 0.000 0.000 0.000 0.000 0.000 0.000 0.000 0.000 0.000 0.000 0.000 0.000 0.000 0.000 0.000 0.000 0.000 0.000 0.000 0.000 0.000 0.000 0.154 1.775 2.020 2.861 3.116 3.125 3.824 3.797 1.881 2.031 1.913
0.000 0.000 0.000 0.000 0.000 0.000 0.000 0.000 0.000 0.000 0.000 0.000 0.000 0.000 0.000 0.000 0.000 0.000 0.000 0.000 0.000 0.000 0.000 0.000 0.000 0.000 0.000 0.122 1.739 2.026 2.681 2.823 2.780 2.995 3.651 1.457 1.749 1.580
0.000 0.000 0.000 0.000 0.000 0.000 0.000 0.000 0.000 0.000 0.000 0.000 0.000 0.000 0.000 0.000 0.000 0.000 0.000 0.000 0.000 0.000 0.000 0.000 0.000 0.000 0.000 0.149 1.669 2.041 2.531 2.815 3.006 2.673 3.364 1.331 1.619 2.448
0.000 0.000 0.000 0.000 0.000 0.000 0.000 0.000 0.000 0.000 0.000 0.000 0.000 0.000 0.000 0.000 0.000 0.000 0.000 0.000 0.000 0.000 0.000 0.000 0.000 0.000 0.000 0.213 1.739 1.952 2.438 2.544 2.744 2.607 2.006 1.913 2.611 3.477
0.000 0.000 0.000 0.000 0.000 0.000 0.000 0.000 0.000 0.000 0.000 0.000 0.000 0.000 0.000 0.000 0.000 0.000 0.000 0.000 0.000 0.000 0.000 0.000 0.000 0.000 0.000 0.162 1.752 1.970 2.365 2.510 2.238 2.103 1.527 2.172 2.727 3.308
0.000 0.000 0.000 0.000 0.000 0.000 0.000 0.000 0.000 0.000 0.000 0.000 0.000 0.000 0.000 0.000 0.000 0.000 0.000 0.000 0.000 0.000 0.000 0.000 0.000 0.000 0.000 0.141 1.759 1.981 2.053 2.282 1.751 1.740 1.392 1.559 2.873 2.837
