ncols        62
nrows        154
xllcorner    409502.8
yllcorner    6870879.1
cellsize     5.00
NODATA_value -9999
0.000 0.000 0.000 0.000 0.000 0.000 0.000 0.000 0.000 0.000 0.000 0.000 0.000 0.000 0.000 0.000 0.000 0.000 0.000 0.000 0.000 0.000 0.000 0.000 0.000 0.000 0.000 0.000 0.000 0.000 0.000 0.000 0.000 0.000 0.000 0.000 0.000 0.000 0.000 0.000 0.000 0.000 0.000 0.000 0.000 0.000 0.000 0.000 0.000 0.000 0.000 0.000 0.000 0.000 0.000 0.000 0.000 0.000 0.000 0.000 0.000 0.000
0.000 0.011 2.026 14.452 17.912 11.199 2.027 0.001 0.000 0.000 0.000 0.000 0.000 0.000 0.000 0.000 0.000 0.000 0.000 0.000 0.000 0.000 0.000 0.000 0.000 0.000 0.000 0.000 0.000 0.000 0.000 0.000 0.000 0.000 0.000 0.000 0.000 0.000 0.000 0.000 0.000 0.000 0.000 0.000 0.000 0.000 0.000 0.000 0.000 0.000 0.000 0.000 0.000 0.000 0.000 0.000 0.000 0.000 0.000 0.000 0.000 0.000
0.000 1.338 17.202 18.721 18.729 17.635 17.678 2.451 0.001 0.000 0.000 0.000 0.000 0.000 0.000 0.000 0.000 0.000 0.000 0.000 0.000 0.000 0.000 0.000 0.000 0.000 0.000 0.000 0.000 0.000 0.000 0.000 0.000 0.000 0.000 0.000 0.000 0.000 0.000 0.000 0.000 0.000 0.000 0.000 0.000 0.000 0.000 0.000 0.000 0.000 0.000 0.000 0.000 0.000 0.000 0.000 0.000 0.000 0.000 0.000 0.000 0.000
0.030 6.496 18.158 19.779 20.170 19.094 20.456 16.122 1.571 0.000 0.000 0.000 0.000 0.000 0.000 0.000 0.000 0.000 0.000 0.000 0.000 0.000 0.000 0.000 0.000 0.000 0.000 0.000 0.000 0.000 0.000 0.000 0.000 0.000 0.000 0.000 0.000 0.000 0.000 0.000 0.000 0.000 0.000 0.000 0.000 0.000 0.000 0.000 0.000 0.000 0.000 0.000 0.000 0.000 0.000 0.000 0.000 0.000 0.000 0.000 0.000 0.000
0.429 17.383 18.986 19.926 20.931 21.921 23.511 20.404 12.285 0.344 0.000 0.000 0.000 0.000 0.000 0.000 0.000 0.000 0.000 0.000 0.000 0.000 0.000 0.000 0.000 0.000 0.000 0.000 0.000 0.000 0.000 0.000 0.000 0.000 0.000 0.000 0.000 0.000 0.000 0.000 0.000 0.000 0.000 0.000 0.000 0.000 0.000 0.000 0.000 0.000 0.000 0.000 0.000 0.000 0.000 0.000 0.000 0.000 0.000 0.000 0.000 0.000
1.491 19.774 21.581 21.297 20.164 22.852 24.825 20.723 15.458 7.359 0.007 0.000 0.000 0.000 0.000 0.000 0.000 0.000 0.000 0.000 0.000 0.000 0.000 0.000 0.000 0.000 0.000 0.000 0.000 0.000 0.000 0.000 0.000 0.000 0.000 0.000 0.000 0.000 0.000 0.000 0.000 0.000 0.000 0.000 0.000 0.000 0.000 0.000 0.000 0.000 0.000 0.000 0.000 0.000 0.000 0.000 0.000 0.000 0.000 0.000 0.000 0.000
2.327 19.729 21.557 21.480 20.334 21.925 23.711 21.003 17.237 14.968 2.271 0.000 0.000 0.000 0.000 0.000 0.000 0.000 0.000 0.000 0.000 0.000 0.000 0.000 0.000 0.000 0.000 0.000 0.000 0.000 0.000 0.000 0.000 0.000 0.000 0.000 0.000 0.000 0.000 0.000 0.000 0.000 0.000 0.000 0.000 0.000 0.000 0.000 0.000 0.000 0.000 0.000 0.000 0.000 0.000 0.000 0.000 0.000 0.000 0.000 0.000 0.000
2.972 19.199 21.150 21.414 19.626 20.540 22.368 23.031 19.807 16.394 10.200 0.158 0.000 0.000 0.000 0.000 0.000 0.000 0.000 0.000 0.000 0.000 0.000 0.000 0.000 0.000 0.000 0.000 0.000 0.000 0.000 0.000 0.000 0.000 0.000 0.000 0.000 0.000 0.000 0.000 0.000 0.000 0.000 0.000 0.000 0.000 0.000 0.000 0.000 0.000 0.000 0.000 0.000 0.000 0.000 0.000 0.000 0.000 0.000 0.000 0.000 0.000
3.594 19.299 20.066 23.374 22.499 20.898 22.793 23.651 20.088 18.379 14.319 4.422 0.000 0.000 0.000 0.000 0.000 0.000 0.000 0.000 0.000 0.000 0.000 0.000 0.000 0.000 0.000 0.000 0.000 0.000 0.000 0.000 0.000 0.000 0.000 0.000 0.000 0.000 0.000 0.000 0.000 0.000 0.000 0.000 0.000 0.000 0.000 0.000 0.000 0.000 0.000 0.000 0.000 0.000 0.000 0.000 0.000 0.000 0.000 0.000 0.000 0.000
3.617 18.722 22.253 22.648 23.400 22.269 23.544 25.013 22.403 21.278 16.166 10.292 0.560 0.000 0.000 0.000 0.000 0.000 0.000 0.000 0.000 0.000 0.000 0.000 0.000 0.000 0.000 0.000 0.000 0.000 0.000 0.000 0.000 0.000 0.000 0.000 0.000 0.000 0.000 0.000 0.000 0.000 0.000 0.000 0.000 0.000 0.000 0.000 0.000 0.000 0.000 0.000 0.000 0.000 0.000 0.000 0.000 0.000 0.000 0.000 0.000 0.000
3.389 17.747 21.622 22.810 23.015 22.401 22.957 23.960 23.486 22.116 17.999 13.308 5.631 0.063 0.000 0.000 0.000 0.000 0.000 0.000 0.000 0.000 0.000 0.000 0.000 0.000 0.000 0.000 0.000 0.000 0.000 0.000 0.000 0.000 0.000 0.000 0.000 0.000 0.000 0.000 0.000 0.000 0.000 0.000 0.000 0.000 0.000 0.000 0.000 0.000 0.000 0.000 0.000 0.000 0.000 0.000 0.000 0.000 0.000 0.000 0.000 0.000
3.272 17.386 21.036 25.087 24.555 21.239 21.278 22.490 24.592 22.957 18.498 15.097 9.801 2.828 0.063 0.000 0.000 0.000 0.000 0.000 0.000 0.000 0.000 0.000 0.000 0.000 0.000 0.000 0.000 0.000 0.000 0.000 0.000 0.000 0.000 0.000 0.000 0.000 0.000 0.000 0.000 0.000 0.000 0.000 0.000 0.000 0.000 0.000 0.000 0.000 0.000 0.000 0.000 0.000 0.000 0.000 0.000 0.000 0.000 0.000 0.000 0.000
3.108 17.487 22.527 23.980 24.346 22.716 22.084 22.732 24.065 23.392 19.284 14.753 11.791 7.888 2.842 0.126 0.000 0.000 0.000 0.000 0.000 0.000 0.000 0.000 0.000 0.000 0.000 0.000 0.000 0.000 0.000 0.000 0.000 0.000 0.000 0.000 0.000 0.000 0.000 0.000 0.000 0.000 0.000 0.000 0.000 0.000 0.000 0.000 0.000 0.000 0.000 0.000 0.000 0.000 0.000 0.000 0.000 0.000 0.000 0.000 0.000 0.000
2.558 15.845 22.631 24.575 24.261 21.830 22.619 24.889 24.283 23.239 18.667 15.506 12.676 10.160 8.066 3.346 0.226 0.000 0.000 0.000 0.000 0.000 0.000 0.000 0.000 0.000 0.000 0.000 0.000 0.000 0.000 0.000 0.000 0.000 0.000 0.000 0.000 0.000 0.000 0.000 0.000 0.000 0.000 0.000 0.000 0.000 0.000 0.000 0.000 0.000 0.000 0.000 0.000 0.000 0.000 0.000 0.000 0.000 0.000 0.000 0.000 0.000
1.775 13.356 21.097 25.756 26.725 25.024 26.477 25.882 23.170 22.548 17.465 16.492 14.143 11.148 11.277 8.293 3.859 0.463 0.005 0.000 0.000 0.000 0.000 0.000 0.000 0.000 0.000 0.000 0.000 0.000 0.000 0.000 0.000 0.000 0.000 0.000 0.000 0.000 0.000 0.000 0.000 0.000 0.000 0.000 0.000 0.000 0.000 0.000 0.000 0.000 0.000 0.000 0.000 0.000 0.000 0.000 0.000 0.000 0.000 0.000 0.000 0.000
1.080 11.059 18.373 24.063 26.741 27.898 27.529 24.199 24.061 20.959 17.622 17.409 17.928 13.180 12.770 10.569 8.447 4.517 1.042 0.009 0.000 0.000 0.000 0.000 0.000 0.000 0.000 0.000 0.000 0.000 0.000 0.000 0.000 0.000 0.000 0.000 0.000 0.000 0.000 0.000 0.000 0.000 0.000 0.000 0.000 0.000 0.000 0.000 0.000 0.000 0.000 0.000 0.000 0.000 0.000 0.000 0.000 0.000 0.000 0.000 0.000 0.000
0.550 8.667 16.844 21.780 25.088 26.004 27.047 25.363 21.347 20.010 18.346 18.728 19.107 14.658 12.270 11.527 10.316 8.556 5.313 1.174 0.000 0.000 0.000 0.000 0.000 0.000 0.000 0.000 0.000 0.000 0.000 0.000 0.000 0.000 0.000 0.000 0.000 0.000 0.000 0.000 0.000 0.000 0.000 0.000 0.000 0.000 0.000 0.000 0.000 0.000 0.000 0.000 0.000 0.000 0.000 0.000 0.000 0.000 0.000 0.000 0.000 0.000
0.225 6.252 14.387 21.696 24.885 25.136 26.234 24.928 20.096 20.074 18.568 19.014 19.160 17.408 12.977 11.968 11.175 9.528 8.270 5.239 0.119 0.000 0.000 0.000 0.000 0.000 0.000 0.000 0.000 0.000 0.000 0.000 0.000 0.000 0.000 0.000 0.000 0.000 0.000 0.000 0.000 0.000 0.000 0.000 0.000 0.000 0.000 0.000 0.000 0.000 0.000 0.000 0.000 0.000 0.000 0.000 0.000 0.000 0.000 0.000 0.000 0.000
0.067 4.122 12.449 19.263 23.449 23.679 25.772 24.590 23.208 19.502 16.917 15.906 18.415 19.228 14.884 11.864 11.234 10.258 9.969 7.046 2.479 0.000 0.000 0.000 0.000 0.000 0.000 0.000 0.000 0.000 0.000 0.000 0.000 0.000 0.000 0.000 0.000 0.000 0.000 0.000 0.000 0.000 0.000 0.000 0.000 0.000 0.000 0.000 0.000 0.000 0.000 0.000 0.000 0.000 0.000 0.000 0.000 0.000 0.000 0.000 0.000 0.000
0.021 2.760 11.201 17.194 22.849 24.858 25.931 27.901 25.031 21.087 17.061 14.579 18.934 19.648 17.749 12.303 11.541 11.153 9.971 8.293 4.929 0.078 0.000 0.000 0.000 0.000 0.000 0.000 0.000 0.000 0.000 0.000 0.000 0.000 0.000 0.000 0.000 0.000 0.000 0.000 0.000 0.000 0.000 0.000 0.000 0.000 0.000 0.000 0.000 0.000 0.000 0.000 0.000 0.000 0.000 0.000 0.000 0.000 0.000 0.000 0.000 0.000
0.009 2.186 10.106 16.670 21.878 24.937 26.152 28.593 27.808 25.120 23.841 24.719 17.723 21.707 17.912 14.405 13.654 11.651 8.930 8.855 5.156 1.981 0.004 0.000 0.000 0.000 0.000 0.000 0.000 0.000 0.000 0.000 0.000 0.000 0.000 0.000 0.000 0.000 0.000 0.000 0.000 0.000 0.000 0.000 0.000 0.000 0.000 0.000 0.000 0.000 0.000 0.000 0.000 0.000 0.000 0.000 0.000 0.000 0.000 0.000 0.000 0.000
0.007 1.775 9.350 14.426 21.894 24.250 27.232 27.386 27.291 26.076 26.142 23.136 24.165 17.433 18.550 16.434 12.747 11.661 10.327 8.624 6.468 4.320 0.022 0.000 0.000 0.000 0.000 0.000 0.000 0.000 0.000 0.000 0.000 0.000 0.000 0.000 0.000 0.000 0.000 0.000 0.000 0.000 0.000 0.000 0.000 0.000 0.000 0.000 0.000 0.000 0.000 0.000 0.000 0.000 0.000 0.000 0.000 0.000 0.000 0.000 0.000 0.000
0.005 1.339 8.281 13.964 20.827 25.443 25.122 25.966 26.709 25.692 24.289 24.790 23.137 18.629 17.743 17.774 13.633 12.346 10.108 8.158 7.390 5.530 0.800 0.000 0.000 0.000 0.000 0.000 0.000 0.000 0.000 0.000 0.000 0.000 0.000 0.000 0.000 0.000 0.000 0.000 0.000 0.000 0.000 0.000 0.000 0.000 0.000 0.000 0.000 0.000 0.000 0.000 0.000 0.000 0.000 0.000 0.000 0.000 0.000 0.000 0.000 0.000
0.002 0.811 6.902 12.455 20.019 23.447 25.220 24.250 25.895 24.134 23.183 24.337 23.950 22.221 14.096 15.592 14.969 12.970 10.801 9.231 8.472 6.374 4.157 0.000 0.000 0.000 0.000 0.000 0.000 0.000 0.000 0.000 0.000 0.000 0.000 0.000 0.000 0.000 0.000 0.000 0.000 0.000 0.000 0.000 0.000 0.000 0.000 0.000 0.000 0.000 0.000 0.000 0.000 0.000 0.000 0.000 0.000 0.000 0.000 0.000 0.000 0.000
0.000 0.366 4.977 11.133 17.301 22.470 25.315 26.000 24.661 24.698 25.371 22.843 23.507 21.063 18.065 13.749 15.563 14.122 13.253 10.918 8.588 6.444 5.432 0.000 0.000 0.000 0.000 0.000 0.000 0.000 0.000 0.000 0.000 0.000 0.000 0.000 0.000 0.000 0.000 0.000 0.000 0.000 0.000 0.000 0.000 0.000 0.000 0.000 0.000 0.000 0.000 0.000 0.000 0.000 0.000 0.000 0.000 0.000 0.000 0.000 0.000 0.000
0.000 0.078 3.150 8.895 15.053 20.158 24.072 25.802 26.317 25.030 25.236 24.190 23.300 20.285 21.751 18.101 18.571 17.565 12.740 10.793 8.248 6.233 5.926 0.110 0.000 0.000 0.000 0.000 0.000 0.000 0.000 0.000 0.000 0.000 0.000 0.000 0.000 0.000 0.000 0.000 0.000 0.000 0.000 0.000 0.000 0.000 0.000 0.000 0.000 0.000 0.000 0.000 0.000 0.000 0.000 0.000 0.000 0.000 0.000 0.000 0.000 0.000
0.000 0.012 1.753 8.212 13.301 19.448 23.657 25.378 24.893 26.135 25.379 23.271 22.238 21.130 22.367 21.478 16.941 18.546 13.864 10.834 8.214 6.919 6.364 1.922 0.000 0.000 0.000 0.000 0.000 0.000 0.000 0.000 0.000 0.000 0.000 0.000 0.000 0.000 0.000 0.000 0.000 0.000 0.000 0.000 0.000 0.000 0.000 0.000 0.000 0.000 0.000 0.000 0.000 0.000 0.000 0.000 0.000 0.000 0.000 0.000 0.000 0.000
0.000 0.002 0.777 6.607 12.124 19.360 21.587 25.631 24.105 24.740 23.906 21.623 22.062 21.441 22.097 20.087 17.714 17.321 14.904 11.937 8.864 7.285 6.140 3.948 0.000 0.000 0.000 0.000 0.000 0.000 0.000 0.000 0.000 0.000 0.000 0.000 0.000 0.000 0.000 0.000 0.000 0.000 0.000 0.000 0.000 0.000 0.000 0.000 0.000 0.000 0.000 0.000 0.000 0.000 0.000 0.000 0.000 0.000 0.000 0.000 0.000 0.000
0.000 0.000 0.256 4.166 10.102 16.513 21.441 23.937 24.560 24.645 24.608 22.228 21.493 24.635 22.639 20.030 20.714 16.029 16.494 11.842 9.537 7.527 6.065 5.148 0.000 0.000 0.000 0.000 0.000 0.000 0.000 0.000 0.000 0.000 0.000 0.000 0.000 0.000 0.000 0.000 0.000 0.000 0.000 0.000 0.000 0.000 0.000 0.000 0.000 0.000 0.000 0.000 0.000 0.000 0.000 0.000 0.000 0.000 0.000 0.000 0.000 0.000
0.000 0.000 0.050 2.077 8.177 15.141 18.656 21.769 23.972 24.378 23.564 24.080 24.766 23.964 22.573 21.493 18.448 18.420 16.407 11.794 10.287 8.071 6.898 6.155 0.091 0.000 0.000 0.000 0.000 0.000 0.000 0.000 0.000 0.000 0.000 0.000 0.000 0.000 0.000 0.000 0.000 0.000 0.000 0.000 0.000 0.000 0.000 0.000 0.000 0.000 0.000 0.000 0.000 0.000 0.000 0.000 0.000 0.000 0.000 0.000 0.000 0.000
0.000 0.000 0.002 0.739 5.861 12.243 17.716 19.976 22.000 22.967 22.408 22.802 25.248 24.024 21.404 19.370 20.872 21.355 16.599 12.586 10.913 8.585 7.650 6.192 1.510 0.000 0.000 0.000 0.000 0.000 0.000 0.000 0.000 0.000 0.000 0.000 0.000 0.000 0.000 0.000 0.000 0.000 0.000 0.000 0.000 0.000 0.000 0.000 0.000 0.000 0.000 0.000 0.000 0.000 0.000 0.000 0.000 0.000 0.000 0.000 0.000 0.000
0.000 0.000 0.000 0.012 3.935 10.351 15.088 18.758 20.893 21.607 20.913 21.771 25.293 21.784 21.436 21.871 21.243 20.188 15.791 13.877 12.162 9.775 8.574 6.165 3.564 0.000 0.000 0.000 0.000 0.000 0.000 0.000 0.000 0.000 0.000 0.000 0.000 0.000 0.000 0.000 0.000 0.000 0.000 0.000 0.000 0.000 0.000 0.000 0.000 0.000 0.000 0.000 0.000 0.000 0.000 0.000 0.000 0.000 0.000 0.000 0.000 0.000
0.000 0.000 0.000 0.000 1.827 9.851 13.955 17.802 20.282 20.877 21.350 22.941 23.935 23.686 22.752 19.543 19.646 18.852 16.177 15.634 12.985 10.438 9.139 6.794 4.805 0.040 0.000 0.000 0.000 0.000 0.000 0.000 0.000 0.000 0.000 0.000 0.000 0.000 0.000 0.000 0.000 0.000 0.000 0.000 0.000 0.000 0.000 0.000 0.000 0.000 0.000 0.000 0.000 0.000 0.000 0.000 0.000 0.000 0.000 0.000 0.000 0.000
0.000 0.000 0.000 0.000 0.372 7.751 11.509 15.832 18.449 21.648 22.124 22.809 22.368 22.906 20.342 17.547 18.276 20.239 17.322 15.618 13.106 11.017 9.813 6.650 5.047 0.746 0.000 0.000 0.000 0.000 0.000 0.000 0.000 0.000 0.000 0.000 0.000 0.000 0.000 0.000 0.000 0.000 0.000 0.000 0.000 0.000 0.000 0.000 0.000 0.000 0.000 0.000 0.000 0.000 0.000 0.000 0.000 0.000 0.000 0.000 0.000 0.000
0.000 0.000 0.000 0.000 0.224 5.845 9.790 14.123 16.847 19.686 21.721 22.864 23.258 21.884 18.852 19.628 20.009 21.517 18.047 16.711 14.119 12.227 10.054 7.114 5.066 2.155 0.057 0.000 0.000 0.000 0.000 0.000 0.000 0.000 0.000 0.000 0.000 0.000 0.000 0.000 0.000 0.000 0.000 0.000 0.000 0.000 0.000 0.000 0.000 0.000 0.000 0.000 0.000 0.000 0.000 0.000 0.000 0.000 0.000 0.000 0.000 0.000
0.000 0.000 0.000 0.000 0.135 4.911 8.658 12.133 16.100 18.932 19.217 22.099 21.696 20.014 18.674 18.880 19.778 21.079 18.816 16.978 16.003 13.017 10.740 6.730 4.892 4.551 1.517 0.000 0.000 0.000 0.000 0.000 0.000 0.000 0.000 0.000 0.000 0.000 0.000 0.000 0.000 0.000 0.000 0.000 0.000 0.000 0.000 0.000 0.000 0.000 0.000 0.000 0.000 0.000 0.000 0.000 0.000 0.000 0.000 0.000 0.000 0.000
0.000 0.000 0.000 0.000 0.021 3.345 7.412 10.772 15.017 18.335 20.159 20.598 19.833 19.122 19.555 20.827 22.125 20.170 19.825 17.498 15.198 13.146 9.714 6.252 6.074 5.722 3.561 0.001 0.000 0.000 0.000 0.000 0.000 0.000 0.000 0.000 0.000 0.000 0.000 0.000 0.000 0.000 0.000 0.000 0.000 0.000 0.000 0.000 0.000 0.000 0.000 0.000 0.000 0.000 0.000 0.000 0.000 0.000 0.000 0.000 0.000 0.000
0.000 0.000 0.000 0.000 0.001 2.268 6.134 9.367 12.770 16.253 18.787 18.854 19.967 18.615 20.724 19.239 21.230 20.517 19.600 18.637 17.054 12.983 9.152 7.249 6.628 5.562 4.171 0.234 0.000 0.000 0.000 0.000 0.000 0.000 0.000 0.000 0.000 0.000 0.000 0.000 0.000 0.000 0.000 0.000 0.000 0.000 0.000 0.000 0.000 0.000 0.000 0.000 0.000 0.000 0.000 0.000 0.000 0.000 0.000 0.000 0.000 0.000
0.000 0.000 0.000 0.000 0.000 0.535 4.774 8.351 11.289 15.011 16.617 18.511 18.825 20.534 19.548 20.785 19.480 20.525 20.493 20.373 15.744 12.608 9.739 7.788 7.005 5.798 4.450 1.759 0.000 0.000 0.000 0.000 0.000 0.000 0.000 0.000 0.000 0.000 0.000 0.000 0.000 0.000 0.000 0.000 0.000 0.000 0.000 0.000 0.000 0.000 0.000 0.000 0.000 0.000 0.000 0.000 0.000 0.000 0.000 0.000 0.000 0.000
0.000 0.000 0.000 0.000 0.000 0.053 2.297 5.948 9.188 12.228 15.290 17.911 19.153 20.226 20.844 21.215 17.892 19.954 20.502 20.023 14.730 12.439 10.956 9.263 7.304 6.186 4.217 3.111 0.018 0.000 0.000 0.000 0.000 0.000 0.000 0.000 0.000 0.000 0.000 0.000 0.000 0.000 0.000 0.000 0.000 0.000 0.000 0.000 0.000 0.000 0.000 0.000 0.000 0.000 0.000 0.000 0.000 0.000 0.000 0.000 0.000 0.000
0.000 0.000 0.000 0.000 0.000 0.007 0.889 4.121 7.831 11.441 15.581 17.704 20.467 20.094 21.761 20.739 21.152 21.735 21.162 19.781 15.454 14.113 13.358 10.419 7.203 6.743 4.678 4.393 0.839 0.000 0.000 0.000 0.000 0.000 0.000 0.000 0.000 0.000 0.000 0.000 0.000 0.000 0.000 0.000 0.000 0.000 0.000 0.000 0.000 0.000 0.000 0.000 0.000 0.000 0.000 0.000 0.000 0.000 0.000 0.000 0.000 0.000
0.000 0.000 0.000 0.000 0.000 0.000 0.201 2.206 6.242 9.633 12.543 16.290 18.953 20.576 22.027 20.349 18.726 21.010 22.061 19.351 16.491 16.024 14.456 9.871 8.461 7.020 5.897 5.412 2.887 0.000 0.000 0.000 0.000 0.000 0.000 0.000 0.000 0.000 0.000 0.000 0.000 0.000 0.000 0.000 0.000 0.000 0.000 0.000 0.000 0.000 0.000 0.000 0.000 0.000 0.000 0.000 0.000 0.000 0.000 0.000 0.000 0.000
0.000 0.000 0.000 0.000 0.000 0.000 0.019 1.021 4.331 7.713 11.386 15.227 17.122 19.772 19.854 19.180 19.710 19.266 21.516 19.720 18.348 17.473 15.456 11.733 10.093 6.986 6.946 5.848 3.645 0.001 0.000 0.000 0.000 0.000 0.000 0.000 0.000 0.000 0.000 0.000 0.000 0.000 0.000 0.000 0.000 0.000 0.000 0.000 0.000 0.000 0.000 0.000 0.000 0.000 0.000 0.000 0.000 0.000 0.000 0.000 0.000 0.000
0.000 0.000 0.000 0.000 0.000 0.000 0.000 0.156 1.759 5.578 8.515 11.629 16.710 17.491 17.888 18.758 19.899 21.990 21.824 20.284 19.140 18.443 17.073 13.522 9.839 8.031 7.657 6.105 4.401 0.213 0.000 0.000 0.000 0.000 0.000 0.000 0.000 0.000 0.000 0.000 0.000 0.000 0.000 0.000 0.000 0.000 0.000 0.000 0.000 0.000 0.000 0.000 0.000 0.000 0.000 0.000 0.000 0.000 0.000 0.000 0.000 0.000
0.000 0.000 0.000 0.000 0.000 0.000 0.000 0.006 0.453 2.750 6.797 10.286 13.444 16.445 18.459 19.425 20.946 19.084 20.021 20.320 18.632 18.436 17.102 12.728 9.731 10.164 8.060 6.381 5.124 1.864 0.000 0.000 0.000 0.000 0.000 0.000 0.000 0.000 0.000 0.000 0.000 0.000 0.000 0.000 0.000 0.000 0.000 0.000 0.000 0.000 0.000 0.000 0.000 0.000 0.000 0.000 0.000 0.000 0.000 0.000 0.000 0.000
0.000 0.000 0.000 0.000 0.000 0.000 0.000 0.000 0.043 1.136 4.577 7.904 11.907 14.737 16.848 18.273 18.128 16.283 20.650 18.672 18.078 18.943 18.045 13.655 12.801 10.901 7.681 6.107 5.929 3.760 0.002 0.000 0.000 0.000 0.000 0.000 0.000 0.000 0.000 0.000 0.000 0.000 0.000 0.000 0.000 0.000 0.000 0.000 0.000 0.000 0.000 0.000 0.000 0.000 0.000 0.000 0.000 0.000 0.000 0.000 0.000 0.000
0.000 0.000 0.000 0.000 0.000 0.000 0.000 0.000 0.000 0.100 1.677 4.948 7.883 11.907 15.935 17.328 16.010 17.796 21.267 20.524 18.792 19.575 17.401 14.590 14.294 9.754 7.139 7.068 6.412 4.708 0.315 0.000 0.000 0.000 0.000 0.000 0.000 0.000 0.000 0.000 0.000 0.000 0.000 0.000 0.000 0.000 0.000 0.000 0.000 0.000 0.000 0.000 0.000 0.000 0.000 0.000 0.000 0.000 0.000 0.000 0.000 0.000
0.000 0.000 0.000 0.000 0.000 0.000 0.000 0.000 0.000 0.000 0.199 2.811 5.584 8.861 12.418 14.923 17.702 19.127 18.671 20.018 19.864 18.852 17.383 15.793 14.095 10.081 8.288 8.008 6.424 4.859 1.462 0.012 0.000 0.000 0.000 0.000 0.000 0.000 0.000 0.000 0.000 0.000 0.000 0.000 0.000 0.000 0.000 0.000 0.000 0.000 0.000 0.000 0.000 0.000 0.000 0.000 0.000 0.000 0.000 0.000 0.000 0.000
0.000 0.000 0.000 0.000 0.000 0.000 0.000 0.000 0.000 0.000 0.001 0.467 3.430 6.284 9.409 13.208 15.928 17.430 17.983 19.809 19.047 17.421 16.995 16.680 15.443 12.158 10.145 8.013 6.524 4.684 3.419 0.793 0.000 0.000 0.000 0.000 0.000 0.000 0.000 0.000 0.000 0.000 0.000 0.000 0.000 0.000 0.000 0.000 0.000 0.000 0.000 0.000 0.000 0.000 0.000 0.000 0.000 0.000 0.000 0.000 0.000 0.000
0.000 0.000 0.000 0.000 0.000 0.000 0.000 0.000 0.000 0.000 0.000 0.015 1.321 3.973 6.648 10.444 13.586 15.444 16.860 18.033 19.139 20.523 16.974 18.104 17.207 14.340 10.435 7.936 6.029 4.775 4.654 2.772 0.000 0.000 0.000 0.000 0.000 0.000 0.000 0.000 0.000 0.000 0.000 0.000 0.000 0.000 0.000 0.000 0.000 0.000 0.000 0.000 0.000 0.000 0.000 0.000 0.000 0.000 0.000 0.000 0.000 0.000
0.000 0.000 0.000 0.000 0.000 0.000 0.000 0.000 0.000 0.000 0.000 0.000 0.161 2.740 5.205 8.228 12.264 14.483 16.292 17.852 19.673 19.412 17.178 18.818 18.813 14.880 11.170 8.027 6.046 5.662 5.333 3.683 0.019 0.000 0.000 0.000 0.000 0.000 0.000 0.000 0.000 0.000 0.000 0.000 0.000 0.000 0.000 0.000 0.000 0.000 0.000 0.000 0.000 0.000 0.000 0.000 0.000 0.000 0.000 0.000 0.000 0.000
0.000 0.000 0.000 0.000 0.000 0.000 0.000 0.000 0.000 0.000 0.000 0.000 0.019 1.194 4.043 6.332 10.295 13.367 17.414 18.911 18.798 18.790 18.390 19.905 18.041 14.367 11.402 8.572 6.911 6.300 5.508 3.940 0.677 0.000 0.000 0.000 0.000 0.000 0.000 0.000 0.000 0.000 0.000 0.000 0.000 0.000 0.000 0.000 0.000 0.000 0.000 0.000 0.000 0.000 0.000 0.000 0.000 0.000 0.000 0.000 0.000 0.000
0.000 0.000 0.000 0.000 0.000 0.000 0.000 0.000 0.000 0.000 0.000 0.000 0.001 0.283 2.617 5.309 8.962 12.528 14.866 17.570 17.397 18.773 18.494 16.527 17.484 14.473 12.617 9.823 7.393 6.994 6.020 4.640 2.498 0.000 0.000 0.000 0.000 0.000 0.000 0.000 0.000 0.000 0.000 0.000 0.000 0.000 0.000 0.000 0.000 0.000 0.000 0.000 0.000 0.000 0.000 0.000 0.000 0.000 0.000 0.000 0.000 0.000
0.000 0.000 0.000 0.000 0.000 0.000 0.000 0.000 0.000 0.000 0.000 0.000 0.000 0.018 1.364 4.058 7.680 11.294 14.076 15.613 17.486 17.991 17.351 17.476 16.464 15.805 13.241 10.536 8.496 7.749 7.007 5.843 3.419 0.000 0.000 0.000 0.000 0.000 0.000 0.000 0.000 0.000 0.000 0.000 0.000 0.000 0.000 0.000 0.000 0.000 0.000 0.000 0.000 0.000 0.000 0.000 0.000 0.000 0.000 0.000 0.000 0.000
0.000 0.000 0.000 0.000 0.000 0.000 0.000 0.000 0.000 0.000 0.000 0.000 0.000 0.001 0.357 2.528 6.135 10.053 12.368 15.231 18.285 18.586 18.193 17.733 15.421 14.719 14.240 13.149 8.889 8.139 7.737 6.602 4.323 0.001 0.000 0.000 0.000 0.000 0.000 0.000 0.000 0.000 0.000 0.000 0.000 0.000 0.000 0.000 0.000 0.000 0.000 0.000 0.000 0.000 0.000 0.000 0.000 0.000 0.000 0.000 0.000 0.000
0.000 0.000 0.000 0.000 0.000 0.000 0.000 0.000 0.000 0.000 0.000 0.000 0.000 0.000 0.060 1.235 4.467 8.996 11.489 14.077 17.293 20.011 21.329 17.673 14.882 13.782 14.848 12.035 9.602 8.655 8.436 7.212 5.375 0.207 0.000 0.000 0.000 0.000 0.000 0.000 0.000 0.000 0.000 0.000 0.000 0.000 0.000 0.000 0.000 0.000 0.000 0.000 0.000 0.000 0.000 0.000 0.000 0.000 0.000 0.000 0.000 0.000
0.000 0.000 0.000 0.000 0.000 0.000 0.000 0.000 0.000 0.000 0.000 0.000 0.000 0.000 0.000 0.201 2.257 7.911 10.053 12.723 15.892 19.470 21.711 21.412 18.770 17.403 15.312 12.212 11.843 8.887 8.608 8.382 6.250 1.947 0.000 0.000 0.000 0.000 0.000 0.000 0.000 0.000 0.000 0.000 0.000 0.000 0.000 0.000 0.000 0.000 0.000 0.000 0.000 0.000 0.000 0.000 0.000 0.000 0.000 0.000 0.000 0.000
0.000 0.000 0.000 0.000 0.000 0.000 0.000 0.000 0.000 0.000 0.000 0.000 0.000 0.000 0.000 0.015 1.334 6.945 9.836 11.535 14.793 18.270 20.376 21.131 20.937 21.134 18.946 15.703 11.995 9.764 9.571 8.505 7.400 3.617 0.000 0.000 0.000 0.000 0.000 0.000 0.000 0.000 0.000 0.000 0.000 0.000 0.000 0.000 0.000 0.000 0.000 0.000 0.000 0.000 0.000 0.000 0.000 0.000 0.000 0.000 0.000 0.000
0.000 0.000 0.000 0.000 0.000 0.000 0.000 0.000 0.000 0.000 0.000 0.000 0.000 0.000 0.000 0.007 1.020 5.585 8.771 10.733 13.343 16.139 18.230 20.912 22.270 21.022 19.121 17.380 13.458 10.130 9.784 8.110 8.090 4.948 0.000 0.000 0.000 0.000 0.000 0.000 0.000 0.000 0.000 0.000 0.000 0.000 0.000 0.000 0.000 0.000 0.000 0.000 0.000 0.000 0.000 0.000 0.000 0.000 0.000 0.000 0.000 0.000
0.000 0.000 0.000 0.000 0.000 0.000 0.000 0.000 0.000 0.000 0.000 0.000 0.000 0.000 0.000 0.002 0.629 4.625 7.768 9.723 12.061 14.966 17.473 19.815 20.905 20.259 19.449 18.257 14.286 10.848 9.004 8.559 8.253 6.952 0.000 0.000 0.000 0.000 0.000 0.000 0.000 0.000 0.000 0.000 0.000 0.000 0.000 0.000 0.000 0.000 0.000 0.000 0.000 0.000 0.000 0.000 0.000 0.000 0.000 0.000 0.000 0.000
0.000 0.000 0.000 0.000 0.000 0.000 0.000 0.000 0.000 0.000 0.000 0.000 0.000 0.000 0.000 0.000 0.085 3.613 6.875 8.965 10.340 12.979 16.756 19.243 19.440 20.121 20.972 18.866 16.166 12.640 9.334 7.318 8.212 8.383 0.000 0.000 0.000 0.000 0.000 0.000 0.000 0.000 0.000 0.000 0.000 0.000 0.000 0.000 0.000 0.000 0.000 0.000 0.000 0.000 0.000 0.000 0.000 0.000 0.000 0.000 0.000 0.000
0.000 0.000 0.000 0.000 0.000 0.000 0.000 0.000 0.000 0.000 0.000 0.000 0.000 0.000 0.000 0.000 0.021 1.766 5.959 7.984 9.167 11.960 15.592 17.932 19.589 18.886 19.486 17.463 16.944 11.729 8.574 9.393 9.830 8.032 0.045 0.000 0.000 0.000 0.000 0.000 0.000 0.000 0.000 0.000 0.000 0.000 0.000 0.000 0.000 0.000 0.000 0.000 0.000 0.000 0.000 0.000 0.000 0.000 0.000 0.000 0.000 0.000
0.000 0.000 0.000 0.000 0.000 0.000 0.000 0.000 0.000 0.000 0.000 0.000 0.000 0.000 0.000 0.000 0.000 0.214 4.623 7.316 8.087 10.651 14.079 17.622 18.033 19.152 19.813 18.730 16.566 12.264 8.639 8.925 9.350 7.831 1.442 0.000 0.000 0.000 0.000 0.000 0.000 0.000 0.000 0.000 0.000 0.000 0.000 0.000 0.000 0.000 0.000 0.000 0.000 0.000 0.000 0.000 0.000 0.000 0.000 0.000 0.000 0.000
0.000 0.000 0.000 0.000 0.000 0.000 0.000 0.000 0.000 0.000 0.000 0.000 0.000 0.000 0.000 0.000 0.000 0.000 2.785 6.700 7.806 9.413 12.084 14.834 16.796 18.794 17.767 17.799 15.913 13.010 8.362 7.345 8.691 8.043 4.086 0.002 0.000 0.000 0.000 0.000 0.000 0.000 0.000 0.000 0.000 0.000 0.000 0.000 0.000 0.000 0.000 0.000 0.000 0.000 0.000 0.000 0.000 0.000 0.000 0.000 0.000 0.000
0.000 0.000 0.000 0.000 0.000 0.000 0.000 0.000 0.000 0.000 0.000 0.000 0.000 0.000 0.000 0.000 0.000 0.002 1.649 5.854 7.269 7.860 9.661 12.433 16.984 16.676 18.649 18.061 15.699 12.972 8.306 8.030 8.038 7.834 5.323 0.414 0.001 0.000 0.000 0.000 0.000 0.000 0.000 0.000 0.000 0.000 0.000 0.000 0.000 0.000 0.000 0.000 0.000 0.000 0.000 0.000 0.000 0.000 0.000 0.000 0.000 0.000
0.000 0.000 0.000 0.000 0.000 0.000 0.000 0.000 0.000 0.000 0.000 0.000 0.000 0.000 0.000 0.000 0.000 0.006 0.659 4.801 6.918 7.179 8.366 11.299 14.948 16.670 16.923 17.583 16.161 11.567 8.924 8.101 7.557 7.985 5.469 2.656 0.228 0.000 0.000 0.000 0.000 0.000 0.000 0.000 0.000 0.000 0.000 0.000 0.000 0.000 0.000 0.000 0.000 0.000 0.000 0.000 0.000 0.000 0.000 0.000 0.000 0.000
0.000 0.000 0.000 0.000 0.000 0.000 0.000 0.000 0.000 0.000 0.000 0.000 0.000 0.000 0.000 0.000 0.000 0.000 0.113 2.937 6.290 6.295 6.590 8.760 12.023 15.139 16.475 16.997 14.729 11.681 9.655 9.671 7.326 7.910 5.936 4.364 2.170 0.053 0.000 0.000 0.000 0.000 0.000 0.000 0.000 0.000 0.000 0.000 0.000 0.000 0.000 0.000 0.000 0.000 0.000 0.000 0.000 0.000 0.000 0.000 0.000 0.000
0.000 0.000 0.000 0.000 0.000 0.000 0.000 0.000 0.000 0.000 0.000 0.000 0.000 0.000 0.000 0.000 0.000 0.000 0.009 0.717 5.666 6.224 6.054 7.245 10.235 14.042 15.983 15.763 13.840 10.552 11.594 9.696 7.518 8.268 5.997 5.328 4.156 1.134 0.000 0.000 0.000 0.000 0.000 0.000 0.000 0.000 0.000 0.000 0.000 0.000 0.000 0.000 0.000 0.000 0.000 0.000 0.000 0.000 0.000 0.000 0.000 0.000
0.000 0.000 0.000 0.000 0.000 0.000 0.000 0.000 0.000 0.000 0.000 0.000 0.000 0.000 0.000 0.000 0.000 0.000 0.000 0.002 4.549 5.927 5.759 6.160 7.771 11.340 13.280 14.188 12.328 11.580 13.369 10.544 8.135 6.825 5.802 6.667 5.602 3.087 0.000 0.000 0.000 0.000 0.000 0.000 0.000 0.000 0.000 0.000 0.000 0.000 0.000 0.000 0.000 0.000 0.000 0.000 0.000 0.000 0.000 0.000 0.000 0.000
0.000 0.000 0.000 0.000 0.000 0.000 0.000 0.000 0.000 0.000 0.000 0.000 0.000 0.000 0.000 0.000 0.000 0.000 0.000 0.002 3.521 5.433 5.879 5.263 5.500 8.416 12.636 12.983 12.698 14.340 14.200 11.477 8.489 6.781 6.593 7.423 5.953 4.366 0.043 0.000 0.000 0.000 0.000 0.000 0.000 0.000 0.000 0.000 0.000 0.000 0.000 0.000 0.000 0.000 0.000 0.000 0.000 0.000 0.000 0.000 0.000 0.000
0.000 0.000 0.000 0.000 0.000 0.000 0.000 0.000 0.000 0.000 0.000 0.000 0.000 0.000 0.000 0.000 0.000 0.000 0.000 0.005 2.784 4.623 5.496 4.940 4.975 6.771 12.146 13.709 14.333 14.660 14.797 12.046 8.206 7.020 7.308 6.914 6.152 4.573 0.404 0.000 0.000 0.000 0.000 0.000 0.000 0.000 0.000 0.000 0.000 0.000 0.000 0.000 0.000 0.000 0.000 0.000 0.000 0.000 0.000 0.000 0.000 0.000
0.000 0.000 0.000 0.000 0.000 0.000 0.000 0.000 0.000 0.000 0.000 0.000 0.000 0.000 0.000 0.000 0.000 0.000 0.000 0.079 1.778 3.796 4.789 4.800 4.462 4.620 9.905 12.842 13.739 13.072 14.597 11.162 8.909 7.569 7.035 6.372 6.491 4.640 2.170 0.000 0.000 0.000 0.000 0.000 0.000 0.000 0.000 0.000 0.000 0.000 0.000 0.000 0.000 0.000 0.000 0.000 0.000 0.000 0.000 0.000 0.000 0.000
0.000 0.000 0.000 0.000 0.000 0.000 0.000 0.000 0.000 0.000 0.000 0.000 0.000 0.000 0.000 0.000 0.000 0.000 0.000 0.040 1.210 2.946 3.945 4.097 4.415 3.872 7.129 12.098 13.029 12.764 14.014 12.017 9.954 7.650 6.297 7.345 6.630 5.927 3.856 0.107 0.000 0.000 0.000 0.000 0.000 0.000 0.000 0.000 0.000 0.000 0.000 0.000 0.000 0.000 0.000 0.000 0.000 0.000 0.000 0.000 0.000 0.000
0.000 0.000 0.000 0.000 0.000 0.000 0.000 0.000 0.000 0.000 0.000 0.000 0.000 0.000 0.000 0.000 0.000 0.000 0.000 0.000 0.000 2.130 3.275 4.393 4.518 3.733 3.927 11.229 11.737 13.087 13.487 12.812 11.036 7.939 7.194 8.468 7.937 6.912 4.639 1.596 0.001 0.000 0.000 0.000 0.000 0.000 0.000 0.000 0.000 0.000 0.000 0.000 0.000 0.000 0.000 0.000 0.000 0.000 0.000 0.000 0.000 0.000
0.000 0.000 0.000 0.000 0.000 0.000 0.000 0.000 0.000 0.000 0.000 0.000 0.000 0.000 0.000 0.000 0.000 0.000 0.000 0.000 0.000 1.605 3.479 4.169 4.154 3.771 2.944 9.919 11.042 12.440 13.883 13.659 12.065 8.321 7.856 8.438 7.734 7.220 5.773 2.925 0.181 0.000 0.000 0.000 0.000 0.000 0.000 0.000 0.000 0.000 0.000 0.000 0.000 0.000 0.000 0.000 0.000 0.000 0.000 0.000 0.000 0.000
0.000 0.000 0.000 0.000 0.000 0.000 0.000 0.000 0.000 0.000 0.000 0.000 0.000 0.000 0.000 0.000 0.000 0.000 0.000 0.000 0.000 0.523 3.062 3.552 4.080 3.952 3.790 8.557 11.114 12.488 14.503 14.369 13.073 9.164 8.341 8.333 7.780 7.492 5.989 4.024 1.505 0.003 0.000 0.000 0.000 0.000 0.000 0.000 0.000 0.000 0.000 0.000 0.000 0.000 0.000 0.000 0.000 0.000 0.000 0.000 0.000 0.000
0.000 0.000 0.000 0.000 0.000 0.000 0.000 0.000 0.000 0.000 0.000 0.000 0.000 0.000 0.000 0.000 0.000 0.000 0.000 0.000 0.000 0.135 2.295 3.345 4.010 4.114 4.533 8.481 11.598 13.098 14.434 15.457 13.801 11.052 8.513 7.740 7.038 6.643 6.061 4.805 2.488 0.392 0.050 0.000 0.000 0.000 0.000 0.000 0.000 0.000 0.000 0.000 0.000 0.000 0.000 0.000 0.000 0.000 0.000 0.000 0.000 0.000
0.000 0.000 0.000 0.000 0.000 0.000 0.000 0.000 0.000 0.000 0.000 0.000 0.000 0.000 0.000 0.000 0.000 0.000 0.000 0.000 0.000 0.167 1.569 2.977 3.822 3.897 4.497 8.762 11.799 14.405 16.528 16.340 14.386 12.225 7.226 6.719 6.914 6.924 7.233 5.181 3.202 2.412 1.534 0.002 0.000 0.000 0.000 0.000 0.000 0.000 0.000 0.000 0.000 0.000 0.000 0.000 0.000 0.000 0.000 0.000 0.000 0.000
0.000 0.000 0.000 0.000 0.000 0.000 0.000 0.000 0.000 0.000 0.000 0.000 0.000 0.000 0.000 0.000 0.000 0.000 0.000 0.000 0.000 0.003 1.334 3.009 3.540 3.552 4.318 7.012 10.878 13.331 14.699 14.708 14.136 12.583 7.208 6.582 6.622 7.631 7.368 4.859 4.194 4.016 3.849 0.408 0.000 0.000 0.000 0.000 0.000 0.000 0.000 0.000 0.000 0.000 0.000 0.000 0.000 0.000 0.000 0.000 0.000 0.000
0.000 0.000 0.000 0.000 0.000 0.000 0.000 0.000 0.000 0.000 0.000 0.000 0.000 0.000 0.000 0.000 0.000 0.000 0.000 0.000 0.000 0.053 0.867 2.858 3.079 3.602 4.516 6.468 9.602 13.827 14.342 12.680 15.042 11.827 8.024 6.526 7.133 7.608 6.512 5.507 5.879 4.843 5.011 1.609 0.000 0.000 0.000 0.000 0.000 0.000 0.000 0.000 0.000 0.000 0.000 0.000 0.000 0.000 0.000 0.000 0.000 0.000
0.000 0.000 0.000 0.000 0.000 0.000 0.000 0.000 0.000 0.000 0.000 0.000 0.000 0.000 0.000 0.000 0.000 0.000 0.000 0.000 0.000 0.000 0.298 1.906 2.552 3.496 3.856 5.398 6.927 10.611 12.980 13.484 13.560 12.051 8.821 6.236 7.074 7.061 7.342 7.354 7.523 4.939 4.011 1.528 0.005 0.000 0.000 0.000 0.000 0.000 0.000 0.000 0.000 0.000 0.000 0.000 0.000 0.000 0.000 0.000 0.000 0.000
0.000 0.000 0.000 0.000 0.000 0.000 0.000 0.000 0.000 0.000 0.000 0.000 0.000 0.000 0.000 0.000 0.000 0.000 0.000 0.000 0.000 0.000 0.054 1.443 2.355 3.111 3.328 4.337 5.152 6.785 10.511 11.808 12.823 12.403 9.759 6.403 6.623 7.274 7.776 8.227 8.106 5.133 2.073 3.257 0.444 0.000 0.000 0.000 0.000 0.000 0.000 0.000 0.000 0.000 0.000 0.000 0.000 0.000 0.000 0.000 0.000 0.000
0.000 0.000 0.000 0.000 0.000 0.000 0.000 0.000 0.000 0.000 0.000 0.000 0.000 0.000 0.000 0.000 0.000 0.000 0.000 0.000 0.000 0.000 0.093 1.719 3.291 3.228 3.395 3.234 3.575 4.245 9.159 11.885 13.051 12.862 10.399 7.225 6.403 7.308 7.397 8.494 6.892 5.314 1.898 3.833 1.447 0.000 0.000 0.000 0.000 0.000 0.000 0.000 0.000 0.000 0.000 0.000 0.000 0.000 0.000 0.000 0.000 0.000
0.000 0.000 0.000 0.000 0.000 0.000 0.000 0.000 0.000 0.000 0.000 0.000 0.000 0.000 0.000 0.000 0.000 0.000 0.000 0.000 0.000 0.000 0.275 2.429 3.294 3.483 3.374 3.513 3.646 3.908 5.598 11.203 12.791 13.641 10.958 8.066 6.785 6.981 7.928 9.125 7.310 6.118 3.990 3.898 1.982 0.009 0.000 0.000 0.000 0.000 0.000 0.000 0.000 0.000 0.000 0.000 0.000 0.000 0.000 0.000 0.000 0.000
0.000 0.000 0.000 0.000 0.000 0.000 0.000 0.000 0.000 0.000 0.000 0.000 0.000 0.000 0.000 0.000 0.000 0.000 0.000 0.000 0.000 0.001 1.074 2.710 3.001 3.624 3.579 3.775 4.079 4.345 4.499 10.272 13.509 12.818 11.477 9.332 7.418 6.577 7.478 7.620 8.239 6.579 4.935 3.881 2.950 0.420 0.000 0.000 0.000 0.000 0.000 0.000 0.000 0.000 0.000 0.000 0.000 0.000 0.000 0.000 0.000 0.000
0.000 0.000 0.000 0.000 0.000 0.000 0.000 0.000 0.000 0.000 0.000 0.000 0.000 0.000 0.000 0.000 0.000 0.000 0.000 0.000 0.000 0.000 0.326 2.603 3.342 3.482 3.044 3.897 4.740 4.256 4.808 8.145 13.836 13.597 11.694 10.289 8.588 6.888 7.130 7.124 7.904 6.198 5.765 4.384 3.596 1.813 0.022 0.000 0.000 0.000 0.000 0.000 0.000 0.000 0.000 0.000 0.000 0.000 0.000 0.000 0.000 0.000
0.000 0.000 0.000 0.000 0.000 0.000 0.000 0.000 0.000 0.000 0.000 0.000 0.000 0.000 0.000 0.000 0.000 0.000 0.000 0.000 0.000 0.000 0.294 2.664 3.282 3.118 2.710 3.718 4.928 4.031 4.857 7.756 13.825 15.651 14.058 11.210 9.717 7.137 7.180 7.663 7.690 6.663 6.061 4.817 4.023 3.034 0.638 0.000 0.000 0.000 0.000 0.000 0.000 0.000 0.000 0.000 0.000 0.000 0.000 0.000 0.000 0.000
0.000 0.000 0.000 0.000 0.000 0.000 0.000 0.000 0.000 0.000 0.000 0.000 0.000 0.000 0.000 0.000 0.000 0.000 0.000 0.000 0.000 0.000 0.030 2.307 3.357 3.469 3.423 3.604 4.512 4.369 4.812 7.783 12.779 15.781 15.504 12.830 10.238 8.108 6.970 7.044 6.597 7.040 6.734 5.499 4.700 3.421 1.355 0.002 0.000 0.000 0.000 0.000 0.000 0.000 0.000 0.000 0.000 0.000 0.000 0.000 0.000 0.000
0.000 0.000 0.000 0.000 0.000 0.000 0.000 0.000 0.000 0.000 0.000 0.000 0.000 0.000 0.000 0.000 0.000 0.000 0.000 0.000 0.000 0.000 0.131 1.910 3.110 3.497 3.718 3.430 3.912 4.568 5.037 7.760 12.678 15.797 16.343 15.070 10.864 8.047 6.639 6.937 7.055 7.278 7.329 6.372 5.196 3.774 2.797 0.337 0.000 0.000 0.000 0.000 0.000 0.000 0.000 0.000 0.000 0.000 0.000 0.000 0.000 0.000
0.000 0.000 0.000 0.000 0.000 0.000 0.000 0.000 0.000 0.000 0.000 0.000 0.000 0.000 0.000 0.000 0.000 0.000 0.000 0.000 0.000 0.000 0.057 1.883 2.703 3.315 3.316 3.361 3.872 4.506 5.325 7.301 11.921 16.268 16.133 14.004 10.536 7.139 6.937 6.763 7.259 7.837 7.529 7.215 5.670 5.135 4.028 2.038 0.000 0.000 0.000 0.000 0.000 0.000 0.000 0.000 0.000 0.000 0.000 0.000 0.000 0.000
0.000 0.000 0.000 0.000 0.000 0.000 0.000 0.000 0.000 0.000 0.000 0.000 0.000 0.000 0.000 0.000 0.000 0.000 0.000 0.000 0.000 0.002 0.356 1.881 2.855 3.062 2.917 3.027 3.620 4.370 5.354 6.906 10.583 15.826 16.258 15.542 12.734 8.262 7.546 6.996 7.614 8.052 8.506 7.380 7.109 6.169 4.519 3.139 0.130 0.000 0.000 0.000 0.000 0.000 0.000 0.000 0.000 0.000 0.000 0.000 0.000 0.000
0.000 0.000 0.000 0.000 0.000 0.000 0.000 0.000 0.000 0.000 0.000 0.000 0.000 0.000 0.000 0.000 0.000 0.000 0.000 0.000 0.000 0.001 0.177 1.752 2.898 2.817 3.007 3.151 3.763 4.546 5.177 6.247 8.802 13.733 16.130 14.864 12.439 9.312 7.623 7.681 8.050 8.355 8.240 8.040 8.014 6.235 4.633 3.977 1.347 0.000 0.000 0.000 0.000 0.000 0.000 0.000 0.000 0.000 0.000 0.000 0.000 0.000
0.000 0.000 0.000 0.000 0.000 0.000 0.000 0.000 0.000 0.000 0.000 0.000 0.000 0.000 0.000 0.000 0.000 0.000 0.000 0.000 0.000 0.000 0.092 1.315 3.062 2.894 3.006 3.111 3.617 4.358 4.915 6.156 8.108 13.859 15.877 14.062 12.568 8.086 7.916 8.237 8.058 7.859 7.972 8.501 8.030 5.758 5.395 4.461 2.466 0.098 0.000 0.000 0.000 0.000 0.000 0.000 0.000 0.000 0.000 0.000 0.000 0.000
0.000 0.000 0.000 0.000 0.000 0.000 0.000 0.000 0.000 0.000 0.000 0.000 0.000 0.000 0.000 0.000 0.000 0.000 0.000 0.000 0.000 0.000 0.001 0.184 2.530 3.021 2.877 2.930 3.305 3.987 4.890 6.483 8.279 13.536 14.034 14.986 11.664 8.251 7.850 6.516 6.549 6.946 8.125 8.921 7.324 6.036 6.035 4.919 3.067 1.525 0.075 0.000 0.000 0.000 0.000 0.000 0.000 0.000 0.000 0.000 0.000 0.000
0.000 0.000 0.000 0.000 0.000 0.000 0.000 0.000 0.000 0.000 0.000 0.000 0.000 0.000 0.000 0.000 0.000 0.000 0.000 0.000 0.000 0.000 0.001 0.342 1.746 3.060 3.005 3.164 3.577 3.584 5.415 6.334 7.559 10.944 14.503 13.328 11.435 8.811 6.638 5.841 6.414 7.428 8.635 7.732 7.323 7.394 6.737 4.854 4.238 3.168 1.379 0.000 0.000 0.000 0.000 0.000 0.000 0.000 0.000 0.000 0.000 0.000
0.000 0.000 0.000 0.000 0.000 0.000 0.000 0.000 0.000 0.000 0.000 0.000 0.000 0.000 0.000 0.000 0.000 0.000 0.000 0.000 0.000 0.000 0.000 0.479 2.141 3.309 3.415 3.050 3.218 4.419 5.021 5.982 6.635 10.630 13.579 13.480 12.954 9.426 7.569 6.915 7.104 7.902 7.964 7.535 8.275 7.420 5.925 5.362 4.680 3.870 3.514 0.000 0.000 0.000 0.000 0.000 0.000 0.000 0.000 0.000 0.000 0.000
0.000 0.000 0.000 0.000 0.000 0.000 0.000 0.000 0.000 0.000 0.000 0.000 0.000 0.000 0.000 0.000 0.000 0.000 0.000 0.000 0.000 0.000 0.002 0.757 2.307 3.321 3.623 2.664 3.340 3.978 2.538 4.575 6.506 9.229 12.893 14.408 13.273 9.747 7.830 7.525 7.832 7.392 7.985 8.239 7.758 7.214 5.917 5.573 4.521 4.851 4.115 0.000 0.000 0.000 0.000 0.000 0.000 0.000 0.000 0.000 0.000 0.000
0.000 0.000 0.000 0.000 0.000 0.000 0.000 0.000 0.000 0.000 0.000 0.000 0.000 0.000 0.000 0.000 0.000 0.000 0.000 0.000 0.000 0.000 0.001 0.172 1.399 2.886 3.736 2.910 2.873 2.943 2.338 4.050 6.310 9.090 12.858 14.394 13.679 10.602 8.187 8.380 7.731 7.477 8.173 7.683 7.146 7.003 6.161 5.906 5.745 5.505 4.641 0.000 0.000 0.000 0.000 0.000 0.000 0.000 0.000 0.000 0.000 0.000
0.000 0.000 0.000 0.000 0.000 0.000 0.000 0.000 0.000 0.000 0.000 0.000 0.000 0.000 0.000 0.000 0.000 0.000 0.000 0.000 0.000 0.000 0.000 0.069 0.840 2.570 3.856 3.226 2.656 2.712 2.760 4.732 6.314 8.960 11.894 13.738 13.162 9.572 8.589 8.395 6.954 7.429 7.299 5.910 6.671 7.110 7.198 6.805 6.120 5.373 5.186 0.027 0.000 0.000 0.000 0.000 0.000 0.000 0.000 0.000 0.000 0.000
0.000 0.000 0.000 0.000 0.000 0.000 0.000 0.000 0.000 0.000 0.000 0.000 0.000 0.000 0.000 0.000 0.000 0.000 0.000 0.000 0.000 0.000 0.000 0.000 0.102 1.292 3.635 3.348 2.521 2.497 3.601 5.028 6.668 8.884 11.514 13.551 12.027 9.747 9.021 8.152 7.575 7.420 6.683 5.947 6.475 7.521 7.613 6.898 6.116 5.732 5.240 0.663 0.000 0.000 0.000 0.000 0.000 0.000 0.000 0.000 0.000 0.000
0.000 0.000 0.000 0.000 0.000 0.000 0.000 0.000 0.000 0.000 0.000 0.000 0.000 0.000 0.000 0.000 0.000 0.000 0.000 0.000 0.000 0.000 0.000 0.000 0.000 1.471 2.713 3.119 1.988 2.709 3.542 4.643 6.340 8.294 9.787 12.683 11.820 10.877 9.762 8.130 7.369 6.770 6.186 6.213 6.945 7.657 7.435 6.973 6.203 5.738 5.112 1.509 0.000 0.000 0.000 0.000 0.000 0.000 0.000 0.000 0.000 0.000
0.000 0.000 0.000 0.000 0.000 0.000 0.000 0.000 0.000 0.000 0.000 0.000 0.000 0.000 0.000 0.000 0.000 0.000 0.000 0.000 0.000 0.000 0.000 0.000 0.000 0.001 2.331 2.383 2.315 3.043 3.286 4.167 5.681 7.832 8.772 12.290 11.858 11.504 9.451 8.274 7.758 7.225 7.017 6.301 6.718 7.229 7.453 7.427 6.887 5.153 4.293 1.306 0.000 0.000 0.000 0.000 0.000 0.000 0.000 0.000 0.000 0.000
0.000 0.000 0.000 0.000 0.000 0.000 0.000 0.000 0.000 0.000 0.000 0.000 0.000 0.000 0.000 0.000 0.000 0.000 0.000 0.000 0.000 0.000 0.000 0.000 0.000 0.000 1.192 2.563 2.750 3.055 3.291 3.606 5.121 6.889 8.847 10.457 12.402 11.465 10.082 8.630 8.121 7.065 6.236 5.528 5.698 6.045 7.096 6.992 6.233 3.369 3.081 0.587 0.000 0.000 0.000 0.000 0.000 0.000 0.000 0.000 0.000 0.000
0.000 0.000 0.000 0.000 0.000 0.000 0.000 0.000 0.000 0.000 0.000 0.000 0.000 0.000 0.000 0.000 0.000 0.000 0.000 0.000 0.000 0.000 0.000 0.000 0.000 0.000 0.902 2.259 2.851 3.087 3.142 3.088 4.714 6.701 8.591 10.053 11.367 11.702 9.816 8.812 7.764 5.929 5.406 4.750 4.857 5.548 6.412 6.164 5.260 4.117 3.643 1.824 0.000 0.000 0.000 0.000 0.000 0.000 0.000 0.000 0.000 0.000
0.000 0.000 0.000 0.000 0.000 0.000 0.000 0.000 0.000 0.000 0.000 0.000 0.000 0.000 0.000 0.000 0.000 0.000 0.000 0.000 0.000 0.000 0.000 0.000 0.000 0.006 0.530 1.704 2.447 2.979 2.733 2.994 4.050 6.147 7.773 8.844 10.566 10.779 9.324 8.479 6.420 4.513 4.805 4.688 4.409 5.085 5.269 5.480 5.715 5.005 3.823 3.400 0.003 0.000 0.000 0.000 0.000 0.000 0.000 0.000 0.000 0.000
0.000 0.000 0.000 0.000 0.000 0.000 0.000 0.000 0.000 0.000 0.000 0.000 0.000 0.000 0.000 0.000 0.000 0.000 0.000 0.000 0.000 0.000 0.000 0.000 0.000 0.000 0.083 0.999 1.921 2.611 2.590 2.800 3.342 5.088 6.467 7.794 9.511 10.160 8.462 7.611 5.642 5.021 5.620 4.516 4.364 4.509 4.176 5.233 5.786 4.531 3.916 3.595 0.141 0.000 0.000 0.000 0.000 0.000 0.000 0.000 0.000 0.000
0.000 0.000 0.000 0.000 0.000 0.000 0.000 0.000 0.000 0.000 0.000 0.000 0.000 0.000 0.000 0.000 0.000 0.000 0.000 0.000 0.000 0.000 0.000 0.000 0.000 0.000 0.005 0.315 1.334 2.396 2.436 2.542 3.037 4.260 5.998 7.265 8.269 9.258 8.745 7.580 6.274 6.067 5.478 4.731 4.518 4.185 4.422 5.386 5.288 4.695 4.039 3.043 1.073 0.000 0.000 0.000 0.000 0.000 0.000 0.000 0.000 0.000
0.000 0.000 0.000 0.000 0.000 0.000 0.000 0.000 0.000 0.000 0.000 0.000 0.000 0.000 0.000 0.000 0.000 0.000 0.000 0.000 0.000 0.000 0.000 0.000 0.000 0.000 0.000 0.011 0.720 2.098 2.291 2.389 2.868 3.327 4.893 5.952 6.615 8.110 7.965 7.197 6.712 6.652 5.660 5.418 4.561 4.467 4.463 4.610 5.288 4.821 4.009 3.002 2.494 0.002 0.000 0.000 0.000 0.000 0.000 0.000 0.000 0.000
0.000 0.000 0.000 0.000 0.000 0.000 0.000 0.000 0.000 0.000 0.000 0.000 0.000 0.000 0.000 0.000 0.000 0.000 0.000 0.000 0.000 0.000 0.000 0.000 0.000 0.000 0.000 0.003 0.615 1.733 2.107 2.358 2.646 3.031 3.846 4.961 6.285 7.307 7.483 7.305 7.087 5.959 6.158 5.488 4.795 4.302 3.710 3.488 4.736 4.753 4.222 2.838 2.628 0.037 0.000 0.000 0.000 0.000 0.000 0.000 0.000 0.000
0.000 0.000 0.000 0.000 0.000 0.000 0.000 0.000 0.000 0.000 0.000 0.000 0.000 0.000 0.000 0.000 0.000 0.000 0.000 0.000 0.000 0.000 0.000 0.000 0.000 0.000 0.000 0.004 0.381 1.314 1.923 2.172 2.452 2.443 3.135 4.389 5.423 6.143 7.215 7.598 7.104 5.871 6.236 5.405 4.811 3.298 2.832 2.287 4.287 4.797 4.439 2.603 2.222 0.400 0.001 0.000 0.000 0.000 0.000 0.000 0.000 0.000
0.000 0.000 0.000 0.000 0.000 0.000 0.000 0.000 0.000 0.000 0.000 0.000 0.000 0.000 0.000 0.000 0.000 0.000 0.000 0.000 0.000 0.000 0.000 0.000 0.000 0.000 0.000 0.000 0.341 0.937 1.497 1.898 2.250 2.103 2.690 3.768 5.097 5.978 7.383 7.806 6.721 6.469 6.608 5.543 3.991 2.724 2.248 3.049 4.404 5.023 4.612 3.016 2.375 1.766 0.136 0.000 0.000 0.000 0.000 0.000 0.000 0.000
0.000 0.000 0.000 0.000 0.000 0.000 0.000 0.000 0.000 0.000 0.000 0.000 0.000 0.000 0.000 0.000 0.000 0.000 0.000 0.000 0.000 0.000 0.000 0.000 0.000 0.000 0.000 0.000 0.026 0.986 1.299 1.818 2.118 2.420 2.562 3.500 5.030 6.018 7.923 8.358 6.496 6.824 6.070 4.797 3.482 2.966 2.907 3.611 4.302 5.122 4.764 3.186 2.673 2.387 1.641 0.079 0.000 0.000 0.000 0.000 0.000 0.000
0.000 0.000 0.000 0.000 0.000 0.000 0.000 0.000 0.000 0.000 0.000 0.000 0.000 0.000 0.000 0.000 0.000 0.000 0.000 0.000 0.000 0.000 0.000 0.000 0.000 0.000 0.000 0.000 0.000 0.007 0.871 1.708 2.016 2.311 2.502 3.205 4.843 5.790 7.598 8.083 7.072 6.331 5.845 4.068 3.144 2.866 3.158 3.320 4.179 5.187 4.560 3.080 2.850 2.748 2.708 0.968 0.007 0.000 0.000 0.000 0.000 0.000
0.000 0.000 0.000 0.000 0.000 0.000 0.000 0.000 0.000 0.000 0.000 0.000 0.000 0.000 0.000 0.000 0.000 0.000 0.000 0.000 0.000 0.000 0.000 0.000 0.000 0.000 0.000 0.000 0.000 0.000 0.425 1.458 1.984 1.874 2.379 2.983 4.505 5.261 6.231 7.343 6.401 5.277 4.715 3.437 3.397 3.046 3.053 2.871 3.961 4.889 4.352 3.045 2.812 2.709 2.684 1.685 0.267 0.001 0.000 0.000 0.000 0.000
0.000 0.000 0.000 0.000 0.000 0.000 0.000 0.000 0.000 0.000 0.000 0.000 0.000 0.000 0.000 0.000 0.000 0.000 0.000 0.000 0.000 0.000 0.000 0.000 0.000 0.000 0.000 0.000 0.000 0.000 0.149 1.235 1.711 1.832 2.301 2.645 3.624 4.548 5.010 6.377 5.307 4.320 3.558 4.227 4.135 3.694 3.159 3.273 3.439 4.182 4.326 3.026 2.643 2.538 2.425 1.981 1.120 0.173 0.000 0.000 0.000 0.000
0.000 0.000 0.000 0.000 0.000 0.000 0.000 0.000 0.000 0.000 0.000 0.000 0.000 0.000 0.000 0.000 0.000 0.000 0.000 0.000 0.000 0.000 0.000 0.000 0.000 0.000 0.000 0.000 0.000 0.000 0.000 0.985 1.612 1.999 2.147 2.357 2.993 3.700 3.469 4.865 3.986 3.609 3.666 4.814 4.613 3.461 3.299 3.525 3.534 4.055 4.325 2.713 2.355 2.397 2.405 2.318 2.376 1.751 0.000 0.000 0.000 0.000
0.000 0.000 0.000 0.000 0.000 0.000 0.000 0.000 0.000 0.000 0.000 0.000 0.000 0.000 0.000 0.000 0.000 0.000 0.000 0.000 0.000 0.000 0.000 0.000 0.000 0.000 0.000 0.000 0.000 0.000 0.003 1.022 1.567 1.815 1.891 2.055 2.533 2.639 3.101 3.685 3.832 3.710 4.603 4.669 3.889 2.994 3.727 3.078 3.719 3.818 3.934 2.471 2.292 2.293 2.254 2.445 2.852 2.801 0.015 0.000 0.000 0.000
0.000 0.000 0.000 0.000 0.000 0.000 0.000 0.000 0.000 0.000 0.000 0.000 0.000 0.000 0.000 0.000 0.000 0.000 0.000 0.000 0.000 0.000 0.000 0.000 0.000 0.000 0.000 0.000 0.000 0.000 0.012 0.636 1.248 1.540 1.826 1.810 1.996 2.444 1.097 3.327 4.154 4.175 4.570 3.806 2.851 3.516 3.312 1.031 2.896 3.928 3.659 2.755 2.321 2.209 2.209 2.388 2.349 2.760 0.227 0.000 0.000 0.000
0.000 0.000 0.000 0.000 0.000 0.000 0.000 0.000 0.000 0.000 0.000 0.000 0.000 0.000 0.000 0.000 0.000 0.000 0.000 0.000 0.000 0.000 0.000 0.000 0.000 0.000 0.000 0.000 0.000 0.000 0.005 0.281 0.846 1.205 1.623 1.682 1.594 1.861 3.322 4.045 4.145 4.170 3.753 2.743 1.738 2.958 2.485 0.202 1.489 3.733 3.620 2.927 2.256 2.102 2.119 2.069 1.710 2.500 0.130 0.000 0.000 0.000
0.000 0.000 0.000 0.000 0.000 0.000 0.000 0.000 0.000 0.000 0.000 0.000 0.000 0.000 0.000 0.000 0.000 0.000 0.000 0.000 0.000 0.000 0.000 0.000 0.000 0.000 0.000 0.000 0.000 0.000 0.000 0.001 0.076 0.382 1.003 1.317 1.305 0.067 2.932 3.177 3.401 3.643 2.904 1.930 0.924 2.731 2.888 2.766 2.661 3.091 3.466 2.754 2.157 1.985 1.867 1.922 2.105 2.165 0.728 0.000 0.000 0.000
0.000 0.000 0.000 0.000 0.000 0.000 0.000 0.000 0.000 0.000 0.000 0.000 0.000 0.000 0.000 0.000 0.000 0.000 0.000 0.000 0.000 0.000 0.000 0.000 0.000 0.000 0.000 0.000 0.000 0.000 0.000 0.000 0.000 0.003 0.620 1.336 1.603 1.945 2.546 2.112 2.446 2.784 2.573 3.094 2.931 3.421 3.736 3.533 2.804 2.608 2.861 2.605 2.069 1.880 1.787 1.769 1.797 1.703 0.990 0.000 0.000 0.000
0.000 0.000 0.000 0.000 0.000 0.000 0.000 0.000 0.000 0.000 0.000 0.000 0.000 0.000 0.000 0.000 0.000 0.000 0.000 0.000 0.000 0.000 0.000 0.000 0.000 0.000 0.000 0.000 0.000 0.000 0.000 0.000 0.000 0.000 0.255 1.222 1.634 1.648 1.385 1.218 1.246 2.596 2.580 3.497 3.194 3.745 3.536 2.955 2.501 2.031 2.400 2.498 2.050 1.801 1.687 1.568 1.504 1.836 1.460 0.000 0.000 0.000
0.000 0.000 0.000 0.000 0.000 0.000 0.000 0.000 0.000 0.000 0.000 0.000 0.000 0.000 0.000 0.000 0.000 0.000 0.000 0.000 0.000 0.000 0.000 0.000 0.000 0.000 0.000 0.000 0.000 0.000 0.000 0.000 0.000 0.000 0.055 0.548 1.328 1.461 0.007 0.269 0.957 2.017 2.150 2.547 3.052 3.418 2.638 1.846 1.985 0.937 1.232 1.613 1.930 1.690 1.499 1.373 1.620 2.264 1.753 0.026 0.000 0.000
0.000 0.000 0.000 0.000 0.000 0.000 0.000 0.000 0.000 0.000 0.000 0.000 0.000 0.000 0.000 0.000 0.000 0.000 0.000 0.000 0.000 0.000 0.000 0.000 0.000 0.000 0.000 0.000 0.000 0.000 0.000 0.000 0.000 0.000 0.000 0.021 0.340 1.435 1.649 0.261 1.715 1.848 1.096 1.772 2.569 2.574 1.782 1.136 0.415 0.094 0.079 0.699 1.781 1.511 1.304 1.158 1.457 1.961 1.690 0.292 0.000 0.000
0.000 0.000 0.000 0.000 0.000 0.000 0.000 0.000 0.000 0.000 0.000 0.000 0.000 0.000 0.000 0.000 0.000 0.000 0.000 0.000 0.000 0.000 0.000 0.000 0.000 0.000 0.000 0.000 0.000 0.000 0.000 0.000 0.000 0.000 0.000 0.000 0.550 1.212 1.805 2.063 2.307 1.651 0.086 1.041 2.255 2.468 1.552 0.637 0.073 0.022 0.076 0.218 0.873 1.361 0.900 0.077 0.830 0.967 1.332 0.943 0.000 0.000
0.000 0.000 0.000 0.000 0.000 0.000 0.000 0.000 0.000 0.000 0.000 0.000 0.000 0.000 0.000 0.000 0.000 0.000 0.000 0.000 0.000 0.000 0.000 0.000 0.000 0.000 0.000 0.000 0.000 0.000 0.000 0.000 0.000 0.000 0.000 0.000 0.002 0.989 1.625 2.196 2.151 0.248 0.025 0.236 2.287 1.407 0.067 0.009 0.023 0.069 0.083 0.297 0.710 1.048 0.050 0.085 0.096 0.734 1.234 1.208 0.023 0.000
0.000 0.000 0.000 0.000 0.000 0.000 0.000 0.000 0.000 0.000 0.000 0.000 0.000 0.000 0.000 0.000 0.000 0.000 0.000 0.000 0.000 0.000 0.000 0.000 0.000 0.000 0.000 0.000 0.000 0.000 0.000 0.000 0.000 0.000 0.000 0.000 0.000 0.114 1.173 1.513 1.640 0.094 0.112 2.116 1.994 0.051 0.008 0.049 0.032 0.084 0.086 0.059 0.097 0.079 0.100 0.076 0.094 0.935 1.165 0.819 0.315 0.000
0.000 0.000 0.000 0.000 0.000 0.000 0.000 0.000 0.000 0.000 0.000 0.000 0.000 0.000 0.000 0.000 0.000 0.000 0.000 0.000 0.000 0.000 0.000 0.000 0.000 0.000 0.000 0.000 0.000 0.000 0.000 0.000 0.000 0.000 0.000 0.000 0.000 0.000 0.560 1.163 1.463 1.872 2.216 2.136 0.990 0.044 0.033 0.075 0.085 0.009 0.044 0.045 0.063 0.072 0.493 0.089 0.439 0.823 0.997 0.788 0.560 0.006
0.000 0.000 0.000 0.000 0.000 0.000 0.000 0.000 0.000 0.000 0.000 0.000 0.000 0.000 0.000 0.000 0.000 0.000 0.000 0.000 0.000 0.000 0.000 0.000 0.000 0.000 0.000 0.000 0.000 0.000 0.000 0.000 0.000 0.000 0.000 0.000 0.000 0.000 0.016 0.856 1.234 1.444 1.916 1.618 0.253 0.056 0.021 0.062 0.041 0.069 0.067 0.066 0.081 0.080 0.094 0.097 0.240 0.974 1.162 1.020 0.640 0.147
0.000 0.000 0.000 0.000 0.000 0.000 0.000 0.000 0.000 0.000 0.000 0.000 0.000 0.000 0.000 0.000 0.000 0.000 0.000 0.000 0.000 0.000 0.000 0.000 0.000 0.000 0.000 0.000 0.000 0.000 0.000 0.000 0.000 0.000 0.000 0.000 0.000 0.000 0.010 0.100 0.940 1.371 1.631 1.575 1.104 0.263 0.098 0.022 0.010 0.072 0.072 0.086 0.069 0.091 0.079 0.040 0.277 1.179 1.036 1.113 0.762 0.427
0.000 0.000 0.000 0.000 0.000 0.000 0.000 0.000 0.000 0.000 0.000 0.000 0.000 0.000 0.000 0.000 0.000 0.000 0.000 0.000 0.000 0.000 0.000 0.000 0.000 0.000 0.000 0.000 0.000 0.000 0.000 0.000 0.000 0.000 0.000 0.000 0.000 0.000 0.014 0.053 1.006 1.396 1.423 1.182 1.196 0.116 0.092 0.042 0.083 0.091 0.087 0.041 0.048 0.136 0.092 0.188 0.221 0.604 0.791 1.139 0.943 0.444
0.000 0.000 0.000 0.000 0.000 0.000 0.000 0.000 0.000 0.000 0.000 0.000 0.000 0.000 0.000 0.000 0.000 0.000 0.000 0.000 0.000 0.000 0.000 0.000 0.000 0.000 0.000 0.000 0.000 0.000 0.000 0.000 0.000 0.000 0.000 0.000 0.000 0.000 0.001 0.167 0.626 1.045 1.273 1.291 1.091 0.225 0.090 0.065 0.092 0.077 0.066 0.076 0.179 0.331 0.086 0.176 0.956 1.116 1.214 0.936 1.124 0.929
0.000 0.000 0.000 0.000 0.000 0.000 0.000 0.000 0.000 0.000 0.000 0.000 0.000 0.000 0.000 0.000 0.000 0.000 0.000 0.000 0.000 0.000 0.000 0.000 0.000 0.000 0.000 0.000 0.000 0.000 0.000 0.000 0.000 0.000 0.000 0.000 0.000 0.000 0.000 0.008 0.180 0.433 1.086 1.278 1.252 1.166 0.078 0.106 0.074 0.090 0.098 0.517 0.086 0.095 0.064 0.340 1.529 1.625 1.386 0.909 1.311 1.239
0.000 0.000 0.000 0.000 0.000 0.000 0.000 0.000 0.000 0.000 0.000 0.000 0.000 0.000 0.000 0.000 0.000 0.000 0.000 0.000 0.000 0.000 0.000 0.000 0.000 0.000 0.000 0.000 0.000 0.000 0.000 0.000 0.000 0.000 0.000 0.000 0.000 0.000 0.000 0.000 0.002 0.085 0.574 1.204 1.243 1.281 1.178 0.779 0.036 0.021 0.035 0.076 0.089 0.082 0.083 0.142 1.551 1.804 1.094 1.011 1.399 1.318
0.000 0.000 0.000 0.000 0.000 0.000 0.000 0.000 0.000 0.000 0.000 0.000 0.000 0.000 0.000 0.000 0.000 0.000 0.000 0.000 0.000 0.000 0.000 0.000 0.000 0.000 0.000 0.000 0.000 0.000 0.000 0.000 0.000 0.000 0.000 0.000 0.000 0.000 0.000 0.000 0.000 0.000 0.092 0.998 1.311 1.278 1.019 0.089 0.085 0.068 0.067 0.075 0.078 0.023 0.044 0.251 1.590 1.025 0.132 0.362 1.110 1.384
0.000 0.000 0.000 0.000 0.000 0.000 0.000 0.000 0.000 0.000 0.000 0.000 0.000 0.000 0.000 0.000 0.000 0.000 0.000 0.000 0.000 0.000 0.000 0.000 0.000 0.000 0.000 0.000 0.000 0.000 0.000 0.000 0.000 0.000 0.000 0.000 0.000 0.000 0.000 0.000 0.000 0.000 0.003 0.601 1.204 1.245 0.960 0.045 0.024 0.052 0.083 0.065 0.083 0.064 0.084 0.098 0.313 0.135 0.467 0.100 1.077 1.513
0.000 0.000 0.000 0.000 0.000 0.000 0.000 0.000 0.000 0.000 0.000 0.000 0.000 0.000 0.000 0.000 0.000 0.000 0.000 0.000 0.000 0.000 0.000 0.000 0.000 0.000 0.000 0.000 0.000 0.000 0.000 0.000 0.000 0.000 0.000 0.000 0.000 0.000 0.000 0.000 0.000 0.000 0.000 0.051 0.673 1.128 1.068 0.112 0.074 0.031 0.060 0.085 0.086 0.086 0.077 0.060 0.206 1.256 1.351 0.932 1.284 1.384
0.000 0.000 0.000 0.000 0.000 0.000 0.000 0.000 0.000 0.000 0.000 0.000 0.000 0.000 0.000 0.000 0.000 0.000 0.000 0.000 0.000 0.000 0.000 0.000 0.000 0.000 0.000 0.000 0.000 0.000 0.000 0.000 0.000 0.000 0.000 0.000 0.000 0.000 0.000 0.000 0.000 0.000 0.000 0.000 0.093 0.918 0.964 0.797 0.065 0.062 0.081 0.045 0.087 0.086 0.091 0.139 0.315 1.674 1.476 0.718 0.735 0.763
0.000 0.000 0.000 0.000 0.000 0.000 0.000 0.000 0.000 0.000 0.000 0.000 0.000 0.000 0.000 0.000 0.000 0.000 0.000 0.000 0.000 0.000 0.000 0.000 0.000 0.000 0.000 0.000 0.000 0.000 0.000 0.000 0.000 0.000 0.000 0.000 0.000 0.000 0.000 0.000 0.000 0.000 0.000 0.000 0.016 0.803 0.972 0.704 0.154 0.095 0.143 0.095 0.046 0.028 0.099 0.079 1.086 1.372 1.268 0.727 0.141 0.765
0.000 0.000 0.000 0.000 0.000 0.000 0.000 0.000 0.000 0.000 0.000 0.000 0.000 0.000 0.000 0.000 0.000 0.000 0.000 0.000 0.000 0.000 0.000 0.000 0.000 0.000 0.000 0.000 0.000 0.000 0.000 0.000 0.000 0.000 0.000 0.000 0.000 0.000 0.000 0.000 0.000 0.000 0.000 0.000 0.002 0.319 0.965 0.988 1.160 0.122 1.116 0.078 0.056 0.080 0.091 0.075 0.240 1.106 1.199 0.097 0.198 0.146
0.000 0.000 0.000 0.000 0.000 0.000 0.000 0.000 0.000 0.000 0.000 0.000 0.000 0.000 0.000 0.000 0.000 0.000 0.000 0.000 0.000 0.000 0.000 0.000 0.000 0.000 0.000 0.000 0.000 0.000 0.000 0.000 0.000 0.000 0.000 0.000 0.000 0.000 0.000 0.000 0.000 0.000 0.000 0.000 0.001 0.099 0.906 1.293 1.136 1.317 1.273 0.649 0.048 0.085 0.094 0.047 0.255 0.854 0.092 0.081 0.087 0.086
0.000 0.000 0.000 0.000 0.000 0.000 0.000 0.000 0.000 0.000 0.000 0.000 0.000 0.000 0.000 0.000 0.000 0.000 0.000 0.000 0.000 0.000 0.000 0.000 0.000 0.000 0.000 0.000 0.000 0.000 0.000 0.000 0.000 0.000 0.000 0.000 0.000 0.000 0.000 0.000 0.000 0.000 0.000 0.000 0.000 0.225 0.544 1.018 0.881 1.299 0.100 0.096 0.029 0.014 0.065 0.080 0.094 0.138 0.347 0.073 0.080 0.082
0.000 0.000 0.000 0.000 0.000 0.000 0.000 0.000 0.000 0.000 0.000 0.000 0.000 0.000 0.000 0.000 0.000 0.000 0.000 0.000 0.000 0.000 0.000 0.000 0.000 0.000 0.000 0.000 0.000 0.000 0.000 0.000 0.000 0.000 0.000 0.000 0.000 0.000 0.000 0.000 0.000 0.000 0.000 0.000 0.000 0.001 0.364 0.095 1.159 0.989 0.067 0.070 0.088 0.040 0.073 0.090 0.428 0.149 0.523 0.065 0.055 0.053
0.000 0.000 0.000 0.000 0.000 0.000 0.000 0.000 0.000 0.000 0.000 0.000 0.000 0.000 0.000 0.000 0.000 0.000 0.000 0.000 0.000 0.000 0.000 0.000 0.000 0.000 0.000 0.000 0.000 0.000 0.000 0.000 0.000 0.000 0.000 0.000 0.000 0.000 0.000 0.000 0.000 0.000 0.000 0.000 0.000 0.001 0.046 0.566 1.149 0.987 0.086 0.080 0.030 0.052 0.060 0.092 0.159 0.703 1.187 0.059 0.069 0.074
0.000 0.000 0.000 0.000 0.000 0.000 0.000 0.000 0.000 0.000 0.000 0.000 0.000 0.000 0.000 0.000 0.000 0.000 0.000 0.000 0.000 0.000 0.000 0.000 0.000 0.000 0.000 0.000 0.000 0.000 0.000 0.000 0.000 0.000 0.000 0.000 0.000 0.000 0.000 0.000 0.000 0.000 0.000 0.000 0.000 0.000 0.030 0.635 0.920 0.940 0.087 0.065 0.157 0.313 0.292 0.248 1.287 1.141 0.041 0.302 0.073 0.038
0.000 0.000 0.000 0.000 0.000 0.000 0.000 0.000 0.000 0.000 0.000 0.000 0.000 0.000 0.000 0.000 0.000 0.000 0.000 0.000 0.000 0.000 0.000 0.000 0.000 0.000 0.000 0.000 0.000 0.000 0.000 0.000 0.000 0.000 0.000 0.000 0.000 0.000 0.000 0.000 0.000 0.000 0.000 0.000 0.000 0.000 0.001 0.439 0.335 0.861 0.093 0.249 2.287 2.009 1.941 2.334 1.540 0.085 0.093 0.070 0.065 0.058
0.000 0.000 0.000 0.000 0.000 0.000 0.000 0.000 0.000 0.000 0.000 0.000 0.000 0.000 0.000 0.000 0.000 0.000 0.000 0.000 0.000 0.000 0.000 0.000 0.000 0.000 0.000 0.000 0.000 0.000 0.000 0.000 0.000 0.000 0.000 0.000 0.000 0.000 0.000 0.000 0.000 0.000 0.000 0.000 0.000 0.000 0.000 0.062 0.472 0.098 0.091 1.138 2.166 3.003 2.597 2.427 1.120 0.259 0.088 0.096 0.057 0.051
0.000 0.000 0.000 0.000 0.000 0.000 0.000 0.000 0.000 0.000 0.000 0.000 0.000 0.000 0.000 0.000 0.000 0.000 0.000 0.000 0.000 0.000 0.000 0.000 0.000 0.000 0.000 0.000 0.000 0.000 0.000 0.000 0.000 0.000 0.000 0.000 0.000 0.000 0.000 0.000 0.000 0.000 0.000 0.000 0.000 0.000 0.000 0.001 0.322 0.097 0.100 1.497 1.842 2.463 2.187 1.573 1.007 0.262 0.174 0.090 0.066 0.053
0.000 0.000 0.000 0.000 0.000 0.000 0.000 0.000 0.000 0.000 0.000 0.000 0.000 0.000 0.000 0.000 0.000 0.000 0.000 0.000 0.000 0.000 0.000 0.000 0.000 0.000 0.000 0.000 0.000 0.000 0.000 0.000 0.000 0.000 0.000 0.000 0.000 0.000 0.000 0.000 0.000 0.000 0.000 0.000 0.000 0.000 0.000 0.000 0.034 0.088 1.225 1.386 1.411 1.926 1.406 1.357 1.833 1.262 0.895 0.097 0.069 0.079
0.000 0.000 0.000 0.000 0.000 0.000 0.000 0.000 0.000 0.000 0.000 0.000 0.000 0.000 0.000 0.000 0.000 0.000 0.000 0.000 0.000 0.000 0.000 0.000 0.000 0.000 0.000 0.000 0.000 0.000 0.000 0.000 0.000 0.000 0.000 0.000 0.000 0.000 0.000 0.000 0.000 0.000 0.000 0.000 0.000 0.000 0.000 0.000 0.091 0.931 1.281 1.267 1.244 1.326 0.478 0.835 1.960 1.848 1.754 0.257 0.318 0.096
0.000 0.000 0.000 0.000 0.000 0.000 0.000 0.000 0.000 0.000 0.000 0.000 0.000 0.000 0.000 0.000 0.000 0.000 0.000 0.000 0.000 0.000 0.000 0.000 0.000 0.000 0.000 0.000 0.000 0.000 0.000 0.000 0.000 0.000 0.000 0.000 0.000 0.000 0.000 0.000 0.000 0.000 0.000 0.000 0.000 0.000 0.000 0.000 0.208 0.862 1.089 1.074 1.097 1.207 0.186 0.172 0.975 1.193 1.366 0.937 0.093 0.084
0.000 0.000 0.000 0.000 0.000 0.000 0.000 0.000 0.000 0.000 0.000 0.000 0.000 0.000 0.000 0.000 0.000 0.000 0.000 0.000 0.000 0.000 0.000 0.000 0.000 0.000 0.000 0.000 0.000 0.000 0.000 0.000 0.000 0.000 0.000 0.000 0.000 0.000 0.000 0.000 0.000 0.000 0.000 0.000 0.000 0.000 0.000 0.000 0.002 0.095 0.521 0.933 1.044 1.158 0.196 0.207 0.178 0.633 0.855 0.779 0.099 0.101
0.000 0.000 0.000 0.000 0.000 0.000 0.000 0.000 0.000 0.000 0.000 0.000 0.000 0.000 0.000 0.000 0.000 0.000 0.000 0.000 0.000 0.000 0.000 0.000 0.000 0.000 0.000 0.000 0.000 0.000 0.000 0.000 0.000 0.000 0.000 0.000 0.000 0.000 0.000 0.000 0.000 0.000 0.000 0.000 0.000 0.000 0.000 0.000 0.000 0.001 0.047 0.764 0.901 0.838 0.102 0.652 0.766 0.884 0.320 0.096 0.909 0.654
0.000 0.000 0.000 0.000 0.000 0.000 0.000 0.000 0.000 0.000 0.000 0.000 0.000 0.000 0.000 0.000 0.000 0.000 0.000 0.000 0.000 0.000 0.000 0.000 0.000 0.000 0.000 0.000 0.000 0.000 0.000 0.000 0.000 0.000 0.000 0.000 0.000 0.000 0.000 0.000 0.000 0.000 0.000 0.000 0.000 0.000 0.000 0.000 0.000 0.000 0.001 0.205 0.628 0.096 1.035 1.793 1.432 0.488 0.150 0.087 1.009 0.552
