ncols        33
nrows        37
xllcorner    409842.8
yllcorner    6870529.1
cellsize     5.00
NODATA_value -9999
0.000 0.000 0.000 0.000 0.000 0.000 0.000 0.000 0.000 0.000 0.000 0.000 0.002 0.324 2.840 5.866 6.425 5.735 3.816 1.557 0.289 0.010 0.000 0.000 0.000 0.000 0.000 0.000 0.000 0.000 0.000 0.000 0.000
0.000 0.000 0.000 0.000 0.000 0.000 0.000 0.000 0.000 0.000 0.000 0.040 2.354 14.552 16.873 16.085 15.878 16.380 15.833 16.362 10.251 3.787 0.517 0.010 0.000 0.000 0.000 0.000 0.000 0.000 0.000 0.000 0.000
0.000 0.000 0.000 0.000 0.000 0.000 0.000 0.000 0.000 0.000 0.007 2.528 16.700 17.247 17.293 17.151 17.525 17.467 17.262 16.909 15.853 14.967 9.644 2.614 0.153 0.000 0.000 0.000 0.000 0.000 0.000 0.000 0.000
0.000 0.000 0.000 0.000 0.000 0.000 0.000 0.000 0.000 0.000 1.007 16.392 17.505 18.050 18.138 18.484 18.243 18.394 18.770 18.625 17.688 16.065 16.034 11.427 4.986 0.640 0.006 0.000 0.000 0.000 0.000 0.000 0.000
0.000 0.000 0.000 0.000 0.000 0.000 0.000 0.000 0.000 0.004 4.523 16.749 18.127 18.498 19.001 19.094 19.324 19.780 19.939 19.947 19.259 18.347 17.312 14.268 11.945 6.493 1.289 0.029 0.000 0.000 0.000 0.000 0.000
0.000 0.000 0.000 0.000 0.000 0.000 0.000 0.000 0.000 0.063 9.348 17.216 18.516 19.421 19.830 19.979 20.366 20.483 20.469 21.174 20.014 19.139 18.004 16.811 14.118 10.568 6.756 2.000 0.089 0.000 0.000 0.000 0.000
0.000 0.000 0.000 0.000 0.000 0.000 0.000 0.000 0.000 0.351 15.022 17.711 19.131 19.984 20.519 20.614 20.863 21.260 21.010 21.619 21.729 20.661 20.368 17.638 15.758 12.286 9.915 6.792 2.559 0.210 0.001 0.000 0.000
0.000 0.000 0.000 0.000 0.000 0.000 0.000 0.000 0.000 0.831 17.236 18.453 19.570 19.967 21.089 21.782 21.366 20.946 21.876 22.944 21.493 21.246 20.052 19.041 17.172 13.501 11.092 8.789 6.689 3.033 0.451 0.006 0.000
0.000 0.000 0.000 0.000 0.000 0.000 0.000 0.000 0.000 1.070 16.880 18.757 19.621 20.589 21.118 21.767 22.163 21.866 22.477 22.468 22.060 21.424 20.652 19.416 17.348 15.107 12.054 8.877 8.364 6.449 3.668 0.759 0.025
0.000 0.000 0.000 0.000 0.000 0.000 0.000 0.000 0.000 1.028 16.839 17.738 19.125 20.460 21.899 22.113 22.672 22.979 22.646 21.852 22.119 21.757 22.468 19.391 18.971 16.189 13.340 9.974 8.350 7.276 6.420 3.979 1.158
0.000 0.000 0.000 0.000 0.000 0.000 0.000 0.000 0.000 0.730 14.622 17.992 19.624 20.723 21.625 23.425 22.973 21.955 21.890 22.103 22.196 23.454 21.699 20.578 18.342 17.723 14.386 10.707 8.051 7.399 7.573 5.995 3.872
0.000 0.000 0.000 0.000 0.000 0.000 0.000 0.000 0.000 0.334 11.211 17.043 19.191 20.872 22.190 22.425 22.323 22.471 21.943 21.731 22.123 23.298 20.893 19.827 19.479 18.473 15.590 11.517 8.211 7.562 7.414 6.132 5.490
0.000 0.000 0.000 0.000 0.000 0.000 0.000 0.000 0.000 0.124 8.568 16.471 18.445 19.068 20.777 21.714 23.069 22.793 22.100 21.983 22.423 22.612 21.134 21.561 20.880 18.336 16.660 12.382 8.892 7.869 7.165 6.160 5.937
0.000 0.000 0.000 0.000 0.000 0.000 0.000 0.000 0.000 0.067 6.996 16.063 18.477 20.346 20.767 22.908 22.919 22.742 22.401 22.058 22.614 22.275 21.348 21.763 20.587 18.753 17.280 14.022 10.165 8.064 7.031 6.187 5.738
0.000 0.000 0.000 0.000 0.000 0.000 0.000 0.000 0.000 0.161 9.925 15.722 17.854 19.104 20.387 21.503 22.245 22.600 22.661 22.800 23.015 22.012 21.182 21.461 20.708 20.178 18.055 15.928 11.562 8.356 6.880 6.260 5.404
0.000 0.000 0.000 0.000 0.044 0.916 2.532 3.007 3.679 5.655 14.306 15.449 18.465 19.964 20.669 20.937 21.837 22.798 23.321 23.773 23.564 21.823 21.890 21.393 20.876 20.587 18.594 17.126 12.558 8.671 7.192 6.301 5.333
0.000 0.000 0.007 1.109 11.109 17.374 17.973 18.530 17.041 14.969 14.644 16.294 18.446 20.016 19.630 20.779 22.052 23.358 24.563 25.263 25.093 24.618 22.979 22.297 20.507 20.662 18.534 17.307 13.635 10.099 7.553 6.600 5.763
0.000 0.001 1.377 17.420 17.935 18.512 19.936 19.044 17.321 16.283 15.761 17.608 18.813 20.225 20.952 20.943 23.244 23.908 25.411 26.077 25.637 25.513 23.472 20.906 20.537 19.840 18.154 18.495 15.315 12.258 8.704 7.195 5.521
0.000 0.710 14.113 18.443 20.360 20.628 20.278 19.658 18.595 17.955 17.891 18.331 20.135 21.344 22.832 23.336 23.319 24.339 25.180 25.747 26.148 25.397 23.153 19.484 20.336 19.356 20.079 19.285 16.650 14.592 10.405 7.286 5.063
0.000 3.382 18.055 20.267 21.879 20.647 20.740 20.317 19.788 19.299 18.185 18.742 19.604 21.757 22.441 22.511 23.327 23.511 25.630 25.523 26.575 26.408 23.682 19.386 19.134 19.984 20.594 19.362 18.073 16.396 11.827 6.780 4.767
0.000 8.665 19.226 21.862 22.446 22.571 21.809 21.542 20.843 20.121 19.345 19.204 20.757 21.853 22.775 22.060 22.853 24.037 25.565 26.728 26.314 26.276 24.714 21.083 20.815 21.839 20.736 18.757 18.144 17.753 11.604 6.773 4.658
0.000 15.915 20.140 21.570 22.342 22.414 22.758 22.485 21.970 21.465 20.093 20.161 20.501 21.876 22.673 22.109 22.698 24.177 25.082 26.308 27.147 26.464 26.450 21.860 20.715 19.550 19.411 18.317 18.699 16.445 11.986 7.053 3.990
0.000 18.715 19.783 20.934 22.091 22.436 22.840 22.853 22.785 21.175 21.048 21.596 21.360 22.577 22.752 22.898 22.426 23.303 24.904 26.263 27.224 26.999 25.858 21.939 18.773 18.734 18.168 19.474 19.170 15.097 12.735 6.248 4.231
0.000 17.225 19.011 20.888 22.034 23.399 23.933 24.027 22.397 22.245 21.901 22.083 22.478 23.734 23.773 23.172 23.017 22.440 25.150 27.183 26.613 26.682 28.745 22.810 19.826 18.720 19.890 19.869 17.717 15.304 12.314 7.505 5.648
0.000 17.088 19.323 20.665 21.937 22.851 23.871 23.285 23.137 22.901 21.816 22.031 22.597 23.946 24.291 24.103 22.362 25.075 28.179 27.011 27.230 27.176 27.669 22.578 21.291 20.553 19.946 18.823 16.902 15.052 12.703 9.566 5.884
0.000 15.928 18.039 19.368 20.834 22.503 23.024 23.576 23.565 22.050 20.597 21.204 22.652 23.845 25.025 23.823 23.091 23.742 27.447 25.668 26.246 26.966 26.318 21.982 20.090 18.177 17.539 17.383 16.135 15.199 12.951 10.199 5.047
0.000 13.842 18.148 21.310 22.407 21.862 23.368 24.069 22.416 21.385 20.568 22.312 22.998 24.083 24.326 23.744 24.634 26.265 26.281 26.169 25.894 25.109 25.909 22.187 18.726 18.844 17.532 16.725 15.251 13.985 14.214 11.677 6.203
0.000 11.810 17.757 20.317 22.559 23.530 23.509 22.826 21.332 20.214 19.291 21.498 22.473 24.153 24.953 25.478 26.206 25.131 25.985 25.513 24.751 24.970 25.856 22.421 18.587 18.340 17.197 16.168 14.724 15.051 14.913 12.532 6.516
0.000 9.295 16.244 19.601 21.531 22.515 21.993 22.082 21.201 21.296 21.937 21.791 22.439 23.207 24.621 26.236 24.853 24.334 25.341 23.958 23.832 23.930 26.133 20.605 17.596 17.163 15.664 15.524 15.608 16.455 15.802 12.762 6.978
0.000 6.689 13.931 18.105 19.555 22.204 21.974 21.222 22.366 22.235 21.499 21.763 22.512 24.196 25.925 25.683 23.577 22.280 23.776 25.402 23.396 24.186 24.764 19.308 16.457 15.614 16.531 15.524 16.436 16.467 15.753 13.384 7.769
0.000 4.528 11.901 15.937 19.211 20.346 21.032 22.137 20.609 21.598 20.497 20.176 22.008 25.653 25.959 26.527 26.106 25.385 24.382 25.124 22.848 20.893 22.537 18.378 15.718 14.277 14.435 15.782 15.925 16.038 15.304 13.395 8.111
0.000 2.824 11.170 15.963 18.920 20.454 21.342 21.576 20.850 21.700 20.389 19.381 21.413 25.429 25.497 25.869 25.120 23.828 25.269 24.987 20.288 19.323 21.195 17.384 13.933 13.803 13.500 13.900 14.912 14.469 13.839 11.774 9.691
0.000 1.473 9.713 13.966 18.013 19.923 20.937 20.120 21.300 20.573 17.458 18.088 20.477 24.514 24.356 25.214 24.904 21.654 23.197 24.119 19.007 16.631 20.331 16.346 12.039 12.372 12.591 12.969 13.296 12.743 12.578 12.017 10.009
0.000 0.624 7.684 12.171 16.043 18.499 19.129 19.465 19.710 17.792 16.912 17.395 19.625 23.878 22.660 23.207 22.426 17.492 20.066 22.221 14.330 12.923 19.351 14.610 10.747 10.840 10.489 11.043 11.013 10.287 11.814 11.885 7.269
0.000 0.201 5.507 11.021 13.300 16.250 16.993 17.777 18.111 16.669 13.826 13.421 15.905 21.657 21.292 23.261 21.900 14.822 17.879 20.259 12.835 12.108 19.420 12.680 10.719 10.642 10.194 9.905 9.148 10.561 11.071 9.351 5.947
0.000 0.049 3.491 9.787 10.489 12.076 13.797 15.426 15.337 13.218 11.120 12.486 14.862 24.034 17.328 21.892 18.661 13.320 12.952 13.825 11.639 10.560 14.815 11.217 10.873 10.911 10.160 9.369 10.146 10.240 8.047 6.755 5.525
0.000 0.011 2.008 8.219 8.532 9.149 10.081 10.500 12.005 11.256 11.386 11.741 12.368 14.401 13.074 12.165 11.249 10.643 10.993 10.665 10.157 9.013 10.531 10.325 9.114 8.817 7.467 9.079 9.560 7.072 6.956 6.791 5.065
