ncols        39
nrows        40
xllcorner    409867.8
yllcorner    6870439.1
cellsize     5.00
NODATA_value -9999
0.000 0.000 0.000 0.000 0.000 0.000 0.000 0.000 0.000 0.000 0.000 0.000 0.000 0.000 0.000 0.000 0.000 0.000 0.000 0.000 0.000 0.000 0.000 0.000 0.000 0.000 0.000 0.000 0.000 0.000 0.000 0.000 0.000 0.000 0.000 0.000 0.000 0.000 0.000
0.000 0.000 0.000 0.000 0.000 0.000 0.000 0.000 0.000 0.000 0.000 0.000 0.000 0.000 0.000 0.000 0.000 0.000 0.000 0.000 0.000 0.000 0.000 0.000 0.016 1.215 5.764 12.392 15.966 15.833 15.793 12.815 7.310 3.404 1.019 0.279 0.053 0.002 0.000
0.000 0.000 0.000 0.000 0.000 0.000 0.000 0.000 0.000 0.000 0.000 0.000 0.000 0.000 0.000 0.000 0.000 0.000 0.000 0.000 0.000 0.000 0.000 0.170 3.274 15.606 16.283 16.474 16.951 17.168 17.102 18.067 17.469 15.406 12.347 8.337 4.918 1.270 0.035
0.000 0.000 0.000 0.000 0.000 0.000 0.000 0.000 0.000 0.000 0.000 0.000 0.000 0.000 0.000 0.000 0.000 0.000 0.000 0.000 0.000 0.000 0.088 4.106 15.762 16.825 17.381 17.106 18.215 19.105 18.915 19.093 19.269 18.784 17.195 14.906 15.627 10.382 3.270
0.000 0.000 0.000 0.000 0.000 0.000 0.000 0.000 0.000 0.000 0.000 0.000 0.000 0.000 0.000 0.000 0.000 0.000 0.000 0.000 0.000 0.002 2.388 14.894 16.326 17.888 17.502 17.577 18.917 19.981 20.092 20.357 20.139 22.093 18.740 17.962 18.490 15.585 10.377
0.000 0.000 0.000 0.000 0.000 0.000 0.000 0.000 0.000 0.000 0.000 0.000 0.000 0.000 0.000 0.000 0.000 0.000 0.000 0.000 0.000 0.584 12.849 15.104 17.153 17.180 17.522 17.978 19.456 20.452 21.031 21.866 20.652 23.247 20.273 20.474 19.678 18.448 10.596
0.000 0.000 0.000 0.000 0.000 0.000 0.000 0.000 0.000 0.000 0.000 0.000 0.000 0.000 0.000 0.000 0.000 0.000 0.023 0.213 0.472 5.178 13.246 15.620 16.526 16.366 17.672 17.490 18.304 20.775 21.068 22.577 22.619 22.919 22.511 21.225 19.611 22.549 9.786
0.000 0.000 0.000 0.000 0.000 0.000 0.000 0.000 0.000 0.000 0.000 0.000 0.000 0.000 0.000 0.000 0.214 2.841 8.374 12.058 12.529 12.403 14.033 15.871 15.745 16.706 16.176 17.368 18.868 21.036 21.152 23.186 22.369 21.446 22.316 20.742 23.544 22.427 9.090
0.000 0.000 0.000 0.000 0.000 0.000 0.000 0.000 0.000 0.000 0.000 0.000 0.000 0.000 0.000 0.739 9.309 14.157 14.370 14.325 13.803 13.726 14.166 15.066 15.700 16.184 16.383 19.478 19.305 20.438 22.696 23.053 22.778 22.111 21.356 21.180 25.863 19.963 9.681
0.000 0.000 0.000 0.000 0.000 0.000 0.000 0.000 0.000 0.000 0.000 0.000 0.000 0.000 0.453 9.636 14.392 15.097 15.578 16.295 15.846 14.720 13.735 14.386 15.330 16.229 18.181 19.599 18.692 20.112 21.734 21.937 22.377 22.359 21.587 24.564 25.362 14.185 10.072
0.000 0.000 0.000 0.000 0.000 0.000 0.000 0.000 0.000 0.000 0.000 0.000 0.000 0.002 2.826 14.491 15.583 15.995 16.682 17.185 16.077 14.425 13.682 14.210 15.385 15.707 18.096 17.927 19.338 21.149 20.821 22.456 23.080 22.636 23.373 26.918 23.453 12.206 9.051
0.000 0.000 0.000 0.000 0.000 0.000 0.000 0.000 0.000 0.000 0.000 0.001 0.073 0.943 12.548 15.561 16.401 17.247 17.980 17.536 17.806 15.491 13.967 13.773 14.535 16.715 18.433 20.135 19.860 21.484 22.037 22.619 22.038 19.448 23.107 24.401 14.334 11.396 7.878
0.000 0.000 0.000 0.000 0.000 0.000 0.000 0.000 0.000 0.000 0.006 0.980 12.898 15.643 15.095 16.477 17.682 18.606 19.357 18.599 18.605 16.129 14.236 13.769 15.320 17.199 18.818 20.036 19.538 19.702 21.465 20.511 21.242 18.123 20.248 14.826 11.809 8.958 7.362
0.000 0.000 0.000 0.000 0.000 0.000 0.000 0.000 0.000 0.000 0.508 15.752 16.546 16.358 15.589 17.518 18.799 20.043 19.433 18.954 18.489 15.732 14.506 14.809 16.639 17.771 18.047 19.134 19.721 20.319 22.845 20.453 19.638 15.091 13.117 11.185 8.949 8.092 7.337
0.000 0.000 0.000 0.000 0.000 0.000 0.000 0.000 0.001 0.254 8.105 16.311 17.513 17.832 17.149 18.690 20.272 20.612 19.661 19.116 17.815 17.280 15.111 15.783 16.698 17.510 18.134 20.021 20.435 23.139 20.200 16.564 13.554 11.939 10.996 8.605 7.763 7.938 5.789
0.000 0.000 0.000 0.000 0.000 0.000 0.000 0.000 0.352 12.453 16.260 18.340 20.282 19.896 18.383 19.859 19.660 20.718 20.183 19.730 17.727 16.470 16.290 15.860 16.412 16.960 17.712 19.061 23.778 21.372 16.553 14.932 10.750 10.908 9.235 8.119 7.632 6.002 5.206
0.000 0.000 0.000 0.000 0.000 0.000 0.000 0.062 4.824 16.706 17.152 19.498 21.661 22.057 19.509 20.015 20.410 21.191 20.692 19.479 18.697 17.124 16.005 15.965 15.539 15.948 16.301 20.972 21.632 17.204 14.553 10.971 10.228 10.293 8.874 7.720 5.319 4.876 4.435
0.000 0.000 0.000 0.000 0.000 0.000 0.000 0.651 16.899 18.078 18.261 20.802 22.734 22.591 20.230 21.174 20.848 21.873 21.294 20.427 18.917 18.167 16.996 15.920 15.134 16.054 19.306 20.007 15.611 14.708 11.620 10.365 9.360 8.904 8.582 5.890 4.359 3.537 3.405
0.000 0.000 0.000 0.000 0.000 0.000 0.000 1.814 17.220 19.357 18.787 20.858 22.705 22.203 20.494 21.908 21.513 22.359 21.505 20.083 19.292 18.345 17.983 16.105 15.246 17.554 17.567 14.670 13.103 13.214 9.643 9.190 7.298 7.723 7.843 3.905 2.837 0.000 0.000
0.000 0.000 0.000 0.000 0.000 0.000 0.011 4.089 17.878 20.983 20.065 22.178 26.932 24.835 20.444 21.747 21.952 23.917 21.856 20.955 19.692 18.827 18.058 15.764 17.726 16.251 12.862 11.833 12.155 12.789 8.918 8.236 6.989 7.400 5.321 3.175 2.980 0.000 0.000
0.000 0.000 0.000 0.000 0.000 0.023 1.218 13.212 20.222 23.480 22.269 23.665 24.857 22.177 20.076 20.266 19.532 21.599 20.980 22.619 21.466 19.601 18.541 19.337 17.782 12.457 10.139 11.181 12.115 11.761 9.333 6.326 6.378 5.604 4.567 3.156 0.000 0.000 0.000
0.000 0.000 0.000 0.000 0.068 2.073 13.836 18.187 20.294 23.159 19.926 20.271 21.839 21.163 18.373 18.328 17.779 19.813 21.054 19.882 18.157 15.853 18.263 18.522 13.853 12.162 10.892 10.542 10.782 11.276 7.503 5.725 5.586 4.497 3.938 0.000 0.000 0.000 0.000
0.000 0.000 0.003 0.543 7.351 17.386 16.809 17.119 18.300 20.922 17.100 17.539 19.426 18.811 16.490 15.809 17.281 19.369 18.024 16.562 15.547 17.009 17.724 14.660 13.577 11.415 10.076 9.449 10.621 10.886 6.080 5.349 4.879 3.703 3.300 0.000 0.000 0.000 0.000
0.000 0.000 0.490 12.515 17.109 16.601 16.537 16.746 18.254 19.517 18.175 19.068 17.706 16.670 16.372 15.404 16.573 17.316 15.193 15.467 16.813 15.867 14.283 13.079 10.835 9.480 8.662 9.216 10.023 9.204 5.673 4.654 3.533 3.132 0.000 0.000 0.000 0.000 0.000
0.000 0.078 5.726 16.932 16.896 16.747 17.536 18.593 18.633 18.288 16.595 17.091 17.352 16.539 14.613 14.007 15.087 16.403 14.937 15.220 13.301 12.975 11.946 11.047 10.064 10.099 9.220 9.466 10.048 6.141 4.202 3.214 3.176 0.000 0.000 0.000 0.000 0.000 0.000
0.000 1.012 15.739 16.779 18.026 18.365 18.623 17.561 17.293 18.935 18.172 16.839 17.350 16.469 15.390 15.051 15.832 17.024 15.556 13.494 11.747 11.554 9.502 10.473 9.984 9.515 9.872 8.248 7.518 4.036 3.155 3.108 0.000 0.000 0.000 0.000 0.000 0.000 0.000
0.100 7.426 16.555 17.739 18.004 18.311 17.787 17.525 16.925 17.912 17.538 16.888 16.219 16.499 15.738 15.860 16.825 17.334 14.597 12.656 10.758 10.837 11.450 10.262 8.493 9.544 9.066 6.471 4.728 3.617 3.079 0.000 0.000 0.000 0.000 0.000 0.000 0.000 0.000
0.976 15.802 17.177 17.242 17.374 17.715 16.870 16.660 16.728 17.596 17.142 17.103 16.582 16.065 15.536 15.514 16.406 17.022 15.193 13.504 11.626 10.788 11.296 8.645 6.558 7.938 8.378 5.708 3.880 2.846 0.000 0.000 0.000 0.000 0.000 0.000 0.000 0.000 0.000
4.592 15.466 17.460 18.197 18.398 17.708 17.789 17.526 16.673 16.769 15.910 15.977 15.993 15.782 14.971 15.987 16.942 17.519 15.871 12.125 10.749 8.759 8.508 5.541 5.316 6.746 6.641 5.637 2.947 0.000 0.000 0.000 0.000 0.000 0.000 0.000 0.000 0.000 0.000
9.930 15.124 17.149 18.807 17.718 18.330 17.625 16.954 14.546 15.196 15.420 15.516 15.724 17.031 17.664 17.714 18.405 18.040 16.772 10.369 7.793 7.956 5.524 4.970 6.244 4.140 4.134 3.230 0.000 0.000 0.000 0.000 0.000 0.000 0.000 0.000 0.000 0.000 0.000
11.176 16.805 18.975 18.381 19.426 16.852 16.809 16.483 14.785 15.001 15.328 16.549 16.930 17.894 18.373 19.342 19.732 16.782 13.182 9.568 7.847 5.390 4.129 4.169 3.905 3.629 3.219 0.000 0.000 0.000 0.000 0.000 0.000 0.000 0.000 0.000 0.000 0.000 0.000
10.762 15.738 17.720 19.571 18.163 16.550 15.948 15.862 14.524 16.301 17.117 17.684 17.271 17.147 18.520 18.718 17.606 14.524 10.029 7.305 6.509 5.117 4.071 3.291 2.540 0.000 0.000 0.000 0.000 0.000 0.000 0.000 0.000 0.000 0.000 0.000 0.000 0.000 0.000
8.990 15.564 18.262 18.128 18.362 16.834 16.315 16.518 16.826 17.633 18.062 19.421 19.523 19.066 18.555 18.030 14.735 9.523 8.883 7.467 6.492 4.571 3.947 0.000 0.000 0.000 0.000 0.000 0.000 0.000 0.000 0.000 0.000 0.000 0.000 0.000 0.000 0.000 0.000
7.316 13.563 15.238 18.660 17.204 17.682 17.625 18.412 17.888 19.364 18.983 19.069 19.571 20.261 20.944 15.946 10.172 8.822 8.383 7.168 6.326 4.075 0.000 0.000 0.000 0.000 0.000 0.000 0.000 0.000 0.000 0.000 0.000 0.000 0.000 0.000 0.000 0.000 0.000
6.035 9.136 15.236 16.551 16.068 17.237 18.930 19.254 19.491 19.144 20.486 20.402 18.642 17.154 16.871 11.036 8.912 7.965 7.621 7.022 6.285 0.143 0.000 0.000 0.000 0.000 0.000 0.000 0.000 0.000 0.000 0.000 0.000 0.000 0.000 0.000 0.000 0.000 0.000
4.415 7.295 10.538 15.772 16.392 18.932 18.163 16.997 17.566 20.556 19.547 20.676 18.779 15.208 10.795 9.054 8.063 7.197 7.520 6.985 5.652 1.138 0.017 0.000 0.000 0.000 0.000 0.000 0.000 0.000 0.000 0.000 0.000 0.000 0.000 0.000 0.000 0.000 0.000
4.527 6.284 7.859 14.407 16.280 18.856 18.457 15.722 17.133 19.929 20.897 19.833 11.250 10.141 9.154 8.511 7.607 7.219 7.234 5.896 4.777 2.054 0.114 0.000 0.000 0.000 0.000 0.000 0.000 0.000 0.000 0.000 0.000 0.000 0.000 0.000 0.000 0.000 0.000
4.563 6.084 6.905 9.643 11.398 16.439 16.980 14.152 16.833 19.252 19.618 15.587 9.144 9.198 9.068 8.128 7.516 6.545 4.569 4.394 2.491 0.136 0.000 0.000 0.000 0.000 0.000 0.000 0.000 0.000 0.000 0.000 0.000 0.000 0.000 0.000 0.000 0.000 0.000
3.661 5.573 6.242 7.603 8.093 14.723 9.800 9.194 11.272 17.108 19.463 9.678 8.322 7.987 7.229 6.509 5.389 4.052 4.802 0.908 0.000 0.000 0.000 0.000 0.000 0.000 0.000 0.000 0.000 0.000 0.000 0.000 0.000 0.000 0.000 0.000 0.000 0.000 0.000
2.668 5.084 5.624 6.397 7.011 7.886 7.855 5.920 7.671 9.213 9.655 8.267 7.157 6.311 5.237 4.355 4.138 0.000 0.000 0.000 0.000 0.000 0.000 0.000 0.000 0.000 0.000 0.000 0.000 0.000 0.000 0.000 0.000 0.000 0.000 0.000 0.000 0.000 0.000
