ncols        33
nrows        38
xllcorner    409837.8
yllcorner    6870544.1
cellsize     5.00
NODATA_value -9999
0.000 0.000 0.000 0.000 0.000 0.000 0.000 0.000 0.000 0.000 0.000 0.000 0.000 0.000 0.000 0.000 0.000 0.000 0.000 0.000 0.000 0.000 0.000 0.000 0.000 0.000 0.000 0.000 0.000 0.000 0.000 0.000 0.000
0.000 0.000 0.000 0.000 0.000 0.000 0.000 0.000 0.000 0.000 0.000 0.349 4.200 12.932 16.439 16.623 13.356 7.314 2.394 0.262 0.003 0.000 0.000 0.000 0.000 0.000 0.000 0.000 0.000 0.000 0.000 0.000 0.000
0.000 0.000 0.000 0.000 0.000 0.000 0.000 0.000 0.000 0.000 0.813 9.486 16.745 16.999 17.375 17.426 17.299 16.427 16.811 9.815 2.621 0.128 0.000 0.000 0.000 0.000 0.000 0.000 0.000 0.000 0.000 0.000 0.000
0.000 0.000 0.000 0.000 0.000 0.000 0.000 0.000 0.000 0.044 6.017 16.715 17.581 18.077 18.264 19.255 18.986 17.567 17.323 15.604 14.828 6.397 0.691 0.003 0.000 0.000 0.000 0.000 0.000 0.000 0.000 0.000 0.000
0.000 0.000 0.000 0.000 0.000 0.000 0.000 0.000 0.000 1.383 17.342 18.109 18.257 18.960 19.722 20.491 19.956 18.463 18.450 17.411 16.384 15.114 7.989 1.396 0.018 0.000 0.000 0.000 0.000 0.000 0.000 0.000 0.000
0.000 0.000 0.000 0.000 0.000 0.000 0.000 0.000 0.003 4.883 17.462 18.407 19.028 19.946 20.826 21.272 20.033 19.023 19.854 18.698 17.433 16.105 12.349 8.375 2.200 0.059 0.000 0.000 0.000 0.000 0.000 0.000 0.000
0.000 0.000 0.000 0.000 0.000 0.000 0.000 0.000 0.033 8.656 17.926 18.928 20.035 20.481 21.481 21.012 20.246 20.674 20.320 19.667 18.810 17.120 13.539 12.483 8.400 2.603 0.136 0.000 0.000 0.000 0.000 0.000 0.000
0.000 0.000 0.000 0.000 0.000 0.000 0.000 0.000 0.081 10.275 18.737 19.669 20.316 21.906 21.776 21.210 21.388 20.593 20.411 20.647 20.150 18.585 15.900 14.816 11.031 7.703 3.289 0.265 0.001 0.000 0.000 0.000 0.000
0.000 0.000 0.000 0.000 0.000 0.000 0.000 0.000 0.093 9.786 18.025 19.249 20.361 21.695 21.331 21.591 21.337 21.339 21.629 21.423 21.027 19.752 18.132 16.285 12.567 10.366 7.495 3.219 0.387 0.002 0.000 0.000 0.000
0.000 0.000 0.000 0.000 0.000 0.000 0.000 0.000 0.077 8.695 17.522 18.887 20.312 21.145 21.876 22.092 21.982 22.221 22.001 21.506 21.945 20.130 18.589 16.718 14.666 11.227 8.448 6.593 3.560 0.522 0.006 0.000 0.000
0.000 0.000 0.000 0.000 0.000 0.000 0.000 0.000 0.042 6.762 17.067 19.066 20.306 21.348 21.962 22.419 22.296 22.336 22.541 21.819 22.052 21.705 20.058 18.976 15.588 12.493 9.244 7.879 6.318 3.579 0.781 0.019 0.000
0.000 0.000 0.000 0.000 0.000 0.000 0.000 0.000 0.011 4.114 16.624 19.666 20.911 21.488 21.302 22.571 23.389 22.660 21.830 22.498 23.232 21.309 20.566 18.776 17.034 14.259 9.690 8.298 7.166 6.132 3.716 1.096 0.048
0.000 0.000 0.000 0.000 0.000 0.000 0.000 0.000 0.001 1.923 15.597 17.839 20.531 21.003 21.706 22.112 22.858 23.269 22.749 23.021 22.580 21.832 20.760 19.548 17.638 14.875 11.404 8.633 7.133 7.077 5.856 4.003 1.340
0.000 0.000 0.000 0.000 0.000 0.000 0.000 0.000 0.000 0.712 12.130 17.780 18.722 19.836 21.016 22.641 22.949 23.573 23.835 23.255 22.187 21.929 21.240 21.330 18.123 16.760 13.257 9.542 8.036 6.962 6.203 5.689 3.924
0.000 0.000 0.000 0.000 0.000 0.000 0.000 0.000 0.000 0.209 8.206 16.118 18.786 20.291 21.050 21.924 24.113 23.871 23.045 22.935 22.858 22.352 22.938 20.627 19.390 16.914 15.332 11.374 8.724 6.668 6.318 6.461 5.144
0.000 0.000 0.000 0.000 0.001 0.064 0.589 0.868 0.639 0.745 7.920 15.168 17.523 19.736 20.974 22.332 22.991 23.324 23.906 23.624 23.269 23.011 23.079 20.161 18.879 18.357 16.679 13.392 9.720 6.872 6.468 6.304 5.133
0.000 0.000 0.000 0.329 4.731 12.420 17.650 17.663 16.531 15.989 15.143 15.483 17.292 19.171 19.309 20.889 22.277 24.136 24.611 24.446 24.331 24.199 23.075 20.714 20.687 19.920 17.235 15.051 10.688 7.754 6.760 6.100 5.182
0.000 0.000 0.911 11.537 18.023 17.971 18.605 18.787 17.718 16.605 15.402 15.375 17.545 19.542 20.997 21.182 23.436 24.253 24.903 25.223 25.016 25.178 23.569 21.303 21.006 19.829 18.010 16.194 12.904 9.227 6.975 5.974 5.216
0.000 0.622 11.113 18.629 18.670 19.203 20.015 19.489 18.237 17.442 16.874 16.780 17.999 19.380 20.264 21.317 22.629 23.956 24.956 25.589 25.920 25.987 23.952 21.606 20.848 20.084 19.522 17.264 14.955 10.598 7.287 5.853 5.280
0.005 3.643 18.204 19.849 21.434 20.818 20.150 19.860 19.007 19.452 19.213 17.222 18.227 20.396 21.663 22.154 22.621 23.843 25.165 26.112 26.702 26.459 23.816 22.581 20.895 20.308 19.958 17.924 16.178 11.601 7.634 6.192 5.315
0.162 10.936 19.415 21.497 21.595 20.891 21.128 21.021 22.517 21.734 19.302 18.245 19.531 20.621 22.213 21.875 22.826 24.178 25.644 27.249 28.042 27.879 26.987 23.901 21.911 20.027 20.052 17.894 16.380 12.620 8.810 6.621 5.630
1.275 18.557 20.025 21.533 21.875 22.161 21.946 24.770 23.400 21.305 20.193 19.004 21.081 21.149 22.738 23.634 23.172 25.472 26.092 28.000 28.549 27.851 27.261 24.143 20.551 20.062 19.258 17.487 17.530 14.159 10.438 7.707 6.200
2.984 18.270 19.935 21.416 22.532 25.117 24.082 23.385 22.546 21.549 21.199 21.214 21.506 22.650 24.091 25.853 26.079 25.519 26.314 27.252 27.616 27.791 26.296 22.951 19.081 19.805 18.765 19.342 18.310 15.419 12.250 8.999 6.270
4.044 18.120 20.068 21.544 24.219 25.959 22.584 22.611 22.054 21.839 21.726 20.450 21.220 22.020 24.481 25.362 25.309 25.216 24.789 27.236 26.648 27.634 26.794 22.630 18.814 18.496 19.283 19.757 18.349 16.802 14.538 9.696 5.699
4.185 17.464 19.847 22.431 25.263 25.175 24.557 23.162 22.711 22.167 21.549 20.848 20.853 22.934 24.218 25.259 24.566 24.182 24.865 26.447 27.587 26.597 25.873 22.976 20.227 20.056 21.018 19.835 17.709 16.845 15.881 8.971 5.461
3.845 17.146 20.095 22.947 23.480 23.809 23.352 23.492 23.081 22.726 22.330 20.798 21.129 22.203 23.615 24.432 23.894 23.350 24.396 25.077 26.338 26.919 25.439 24.177 20.500 19.793 18.609 18.457 17.214 17.343 14.798 9.133 5.363
2.655 16.825 19.602 21.178 21.649 22.461 22.485 22.753 22.729 22.945 21.132 21.081 22.015 22.546 23.759 23.551 24.054 22.364 22.690 24.121 25.588 26.284 25.324 22.909 19.982 17.623 17.659 17.092 18.214 17.717 13.400 10.135 4.274
1.557 13.221 17.185 19.169 20.722 21.621 22.901 23.332 23.460 21.764 21.607 21.286 21.764 23.159 24.476 23.926 23.539 22.403 21.007 23.793 25.911 24.823 24.436 25.046 20.243 18.354 17.523 18.618 18.466 16.154 13.548 10.123 5.307
0.893 10.633 16.063 18.803 19.723 20.826 21.566 22.577 21.940 21.919 21.554 20.439 20.914 22.522 23.975 23.704 23.911 20.992 23.498 26.430 24.928 24.570 24.264 23.425 19.423 19.391 19.051 18.523 17.388 15.278 13.291 10.438 6.720
0.438 7.639 13.719 16.403 17.503 18.909 20.537 21.064 21.589 21.692 19.850 18.334 19.174 21.787 23.085 23.767 22.800 21.158 21.236 24.901 22.626 22.746 23.380 21.569 18.240 17.941 16.477 15.966 15.716 14.386 13.347 10.574 6.706
0.198 5.633 11.835 15.851 18.865 19.831 19.313 20.824 21.449 19.700 18.388 17.610 19.496 21.395 22.614 22.129 22.012 22.268 22.985 22.846 22.256 21.389 20.893 20.708 17.748 16.220 16.814 15.770 14.893 13.327 11.883 11.542 7.065
0.074 3.855 10.671 14.609 17.251 19.288 20.221 20.338 19.413 17.768 16.258 15.440 17.940 20.090 21.930 22.019 23.270 23.192 20.919 21.710 20.816 19.374 20.058 20.198 17.318 15.640 16.058 15.233 14.130 12.653 12.663 11.935 7.454
0.019 2.268 8.954 11.891 15.978 17.694 18.611 18.122 18.072 17.024 16.581 17.079 17.455 19.330 20.040 20.870 23.304 20.849 19.094 20.182 18.266 17.418 18.590 19.860 15.336 14.324 14.657 13.607 13.277 13.195 13.557 10.714 7.441
0.002 1.081 6.968 9.946 14.069 15.519 17.680 17.432 16.744 17.304 16.542 15.926 16.629 18.668 20.269 21.218 21.888 18.533 15.902 17.806 18.288 13.944 17.791 18.299 13.692 12.844 12.950 13.975 12.912 13.461 12.789 9.960 7.853
0.000 0.366 5.353 8.971 11.684 14.666 15.549 16.031 16.776 15.141 15.071 13.863 14.334 17.469 20.736 20.238 21.698 19.623 16.472 16.828 16.257 11.853 13.840 16.257 12.192 11.586 11.244 11.473 12.430 11.673 10.427 9.482 7.984
0.000 0.108 3.820 8.887 10.455 13.368 14.545 15.182 15.456 14.517 11.544 10.830 11.528 16.047 19.471 18.640 19.917 17.257 12.428 13.624 12.587 10.362 11.404 14.889 10.490 9.905 10.019 9.671 9.669 9.882 9.332 8.823 7.578
0.000 0.027 2.286 8.202 9.298 10.274 10.925 11.398 11.916 11.292 9.943 8.811 10.060 12.726 17.377 15.921 17.901 13.099 11.022 11.832 11.521 10.112 10.296 13.511 9.933 9.563 9.299 9.193 9.167 9.044 8.561 8.754 9.323
0.000 0.005 1.142 6.928 8.472 8.490 8.908 8.916 9.090 9.115 8.144 8.278 9.342 10.871 12.527 11.035 13.062 10.440 9.843 10.581 10.539 9.776 9.651 10.607 9.131 8.684 8.703 8.494 8.691 8.191 7.974 9.634 9.299
