ncols        37
nrows        53
xllcorner    409742.8
yllcorner    6870729.1
cellsize     5.00
NODATA_value -9999
0.000 0.000 0.000 0.000 0.000 0.000 0.000 0.000 0.000 0.000 0.000 0.000 0.000 0.000 0.000 0.000 0.000 0.000 0.000 0.000 0.000 0.000 0.000 0.000 0.000 0.000 0.000 0.000 0.000 0.000 0.000 0.000 0.000 0.000 0.000 0.000 0.000
0.000 0.000 0.000 0.206 3.301 11.596 14.963 15.103 15.383 15.096 8.059 1.571 0.012 0.000 0.000 0.000 0.000 0.000 0.000 0.000 0.000 0.000 0.000 0.000 0.000 0.000 0.000 0.000 0.000 0.000 0.000 0.000 0.000 0.000 0.000 0.000 0.000
0.000 0.000 1.102 9.144 15.455 15.332 15.560 15.822 16.150 16.012 15.044 14.145 3.929 0.043 0.000 0.000 0.000 0.000 0.000 0.000 0.000 0.000 0.000 0.000 0.000 0.000 0.000 0.000 0.000 0.000 0.000 0.000 0.000 0.000 0.000 0.000 0.000
0.000 0.772 10.067 14.992 15.886 15.965 16.572 16.919 17.218 17.261 16.140 15.108 14.944 4.710 0.049 0.000 0.000 0.000 0.000 0.000 0.000 0.000 0.000 0.000 0.000 0.000 0.000 0.000 0.000 0.000 0.000 0.000 0.000 0.000 0.000 0.000 0.000
0.024 5.188 15.201 15.546 16.164 16.987 17.396 17.794 18.057 17.111 17.505 16.552 15.051 14.718 4.340 0.058 0.000 0.000 0.000 0.000 0.000 0.000 0.000 0.000 0.000 0.000 0.000 0.000 0.000 0.000 0.000 0.000 0.000 0.000 0.000 0.000 0.000
0.896 14.570 15.322 16.256 17.248 17.482 18.571 18.194 18.818 18.798 18.787 18.068 16.815 15.935 13.372 4.354 0.080 0.000 0.000 0.000 0.000 0.000 0.000 0.000 0.000 0.000 0.000 0.000 0.000 0.000 0.000 0.000 0.000 0.000 0.000 0.000 0.000
3.384 14.675 15.685 17.068 17.591 18.534 18.681 18.800 19.146 19.807 19.900 18.998 18.137 16.680 15.140 13.569 4.501 0.171 0.000 0.000 0.000 0.000 0.000 0.000 0.000 0.000 0.000 0.000 0.000 0.000 0.000 0.000 0.000 0.000 0.000 0.000 0.000
6.311 15.001 16.316 17.181 18.498 18.276 18.616 19.075 20.088 20.315 20.262 19.450 18.757 17.872 17.402 15.661 12.861 5.147 0.308 0.000 0.000 0.000 0.000 0.000 0.000 0.000 0.000 0.000 0.000 0.000 0.000 0.000 0.000 0.000 0.000 0.000 0.000
7.958 15.022 16.478 17.522 18.000 18.914 19.327 19.637 20.614 20.198 20.888 20.223 18.948 18.881 18.217 17.422 14.882 12.191 5.666 0.364 0.000 0.000 0.000 0.000 0.000 0.000 0.000 0.000 0.000 0.000 0.000 0.000 0.000 0.000 0.000 0.000 0.000
8.699 14.819 16.974 17.278 18.767 18.704 19.876 19.917 20.082 20.798 20.493 19.762 19.356 19.605 18.609 18.466 16.495 14.609 11.794 5.407 0.266 0.000 0.000 0.000 0.000 0.000 0.000 0.000 0.000 0.000 0.000 0.000 0.000 0.000 0.000 0.000 0.000
7.772 15.007 16.460 17.531 17.711 18.729 19.303 20.264 20.397 20.810 20.478 20.356 19.989 20.152 19.281 19.042 17.364 17.213 14.584 11.060 4.424 0.150 0.000 0.000 0.000 0.000 0.000 0.000 0.000 0.000 0.000 0.000 0.000 0.000 0.000 0.000 0.000
6.048 14.117 15.581 16.653 17.591 18.684 20.107 20.579 20.926 20.709 20.769 20.959 20.435 20.048 19.910 19.682 18.360 18.268 16.700 12.924 9.304 3.244 0.036 0.000 0.000 0.000 0.000 0.000 0.000 0.000 0.000 0.000 0.000 0.000 0.000 0.000 0.000
3.969 13.167 14.902 16.479 17.346 18.795 20.096 21.000 20.941 20.717 21.425 20.945 20.572 20.569 20.331 19.102 19.335 19.311 18.306 15.799 10.984 7.828 2.002 0.004 0.000 0.000 0.000 0.000 0.000 0.000 0.000 0.000 0.000 0.000 0.000 0.000 0.000
2.108 12.817 14.095 16.250 16.631 19.152 19.795 20.113 21.365 21.281 21.272 20.346 21.115 20.947 20.339 20.429 20.237 20.314 19.335 17.837 13.616 9.971 6.243 0.828 0.000 0.000 0.000 0.000 0.000 0.000 0.000 0.000 0.000 0.000 0.000 0.000 0.000
0.856 9.706 12.873 14.691 18.092 18.153 20.050 20.167 21.666 21.628 20.127 21.265 21.462 20.683 20.501 20.790 20.318 19.656 19.428 17.973 15.310 11.479 8.626 4.444 0.161 0.000 0.000 0.000 0.000 0.000 0.000 0.000 0.000 0.000 0.000 0.000 0.000
0.233 6.519 12.507 15.731 18.151 18.958 19.639 21.542 21.132 21.570 21.996 21.523 21.098 21.536 20.892 20.237 20.607 20.483 19.404 20.037 16.884 14.306 9.607 7.100 2.629 0.009 0.000 0.000 0.000 0.000 0.000 0.000 0.000 0.000 0.000 0.000 0.000
0.024 3.108 10.351 14.127 16.933 17.995 19.694 19.800 20.454 20.737 20.854 21.959 21.302 20.884 21.434 20.651 20.001 21.006 20.089 19.910 18.100 15.310 10.915 8.085 5.665 0.939 0.000 0.000 0.000 0.000 0.000 0.000 0.000 0.000 0.000 0.000 0.000
0.001 1.069 8.489 13.483 15.509 16.791 17.533 19.032 19.426 20.162 20.657 21.200 22.248 21.450 20.962 20.667 20.842 20.520 20.323 20.496 19.842 15.553 14.031 9.005 6.688 3.931 0.143 0.000 0.000 0.000 0.000 0.000 0.000 0.000 0.000 0.000 0.000
0.000 0.172 4.678 10.733 13.751 15.202 16.895 17.817 19.564 20.139 20.801 20.914 21.229 21.786 21.796 21.519 20.577 21.039 20.109 19.712 19.845 16.931 15.730 10.066 7.159 5.920 2.144 0.008 0.000 0.000 0.000 0.000 0.000 0.000 0.000 0.000 0.000
0.000 0.005 1.216 6.933 10.862 13.007 14.579 16.816 18.161 19.177 20.097 20.583 21.006 21.817 21.685 21.789 20.255 19.753 21.531 21.359 20.351 18.923 16.440 12.323 8.040 6.311 5.135 0.603 0.000 0.000 0.000 0.000 0.000 0.000 0.000 0.000 0.000
0.000 0.000 0.152 3.806 8.074 11.757 13.886 14.634 16.935 17.613 18.932 19.937 20.606 21.396 21.460 21.170 20.991 20.390 22.027 22.604 21.394 19.765 17.061 13.821 8.977 6.948 6.085 2.947 0.059 0.000 0.000 0.000 0.000 0.000 0.000 0.000 0.000
0.000 0.000 0.005 1.326 5.991 9.482 11.675 14.295 15.590 16.867 17.829 18.878 19.856 21.241 21.464 21.169 20.501 21.921 23.681 22.873 22.521 20.603 16.966 14.420 10.352 7.868 6.305 5.061 1.400 0.000 0.000 0.000 0.000 0.000 0.000 0.000 0.000
0.000 0.000 0.000 0.122 3.394 6.540 10.474 13.381 15.160 16.006 16.743 17.868 19.414 20.249 20.879 21.195 21.220 21.925 23.946 23.667 22.844 19.093 16.078 14.965 12.381 8.318 6.444 5.519 3.703 0.124 0.000 0.000 0.000 0.000 0.000 0.000 0.000
0.000 0.000 0.000 0.004 1.810 5.970 8.537 12.723 14.383 15.325 16.238 16.859 18.527 19.494 20.314 20.803 21.269 20.711 23.089 23.249 21.936 18.376 17.154 17.132 14.079 8.585 7.213 5.780 4.992 1.778 0.000 0.000 0.000 0.000 0.000 0.000 0.000
0.000 0.000 0.000 0.000 0.496 4.526 7.468 10.803 13.959 15.145 15.730 16.242 17.183 18.737 19.347 20.457 20.521 20.640 23.302 24.038 21.539 18.548 18.530 17.303 13.463 10.019 7.673 5.862 5.515 4.082 0.151 0.000 0.000 0.000 0.000 0.000 0.000
0.000 0.000 0.000 0.000 0.063 2.828 6.405 8.759 13.202 15.274 16.105 16.289 16.731 17.740 18.663 19.257 19.257 20.629 22.782 22.545 20.906 19.284 19.095 16.821 12.693 11.650 8.364 6.958 5.707 5.220 2.031 0.000 0.000 0.000 0.000 0.000 0.000
0.000 0.000 0.000 0.000 0.002 0.772 4.729 7.132 11.818 15.518 15.849 16.061 16.062 17.216 18.153 18.550 19.211 21.063 22.545 21.510 20.739 19.791 19.560 16.197 14.108 12.756 9.731 7.559 4.981 5.113 4.092 0.209 0.000 0.000 0.000 0.000 0.000
0.000 0.000 0.000 0.000 0.000 0.122 2.662 5.963 7.520 14.783 15.938 16.422 16.194 16.994 18.139 18.082 18.789 21.004 21.002 21.418 21.022 19.418 18.589 17.276 14.924 13.859 10.813 7.326 5.491 5.890 5.148 2.334 0.004 0.000 0.000 0.000 0.000
0.000 0.000 0.000 0.000 0.000 0.008 0.999 4.559 6.600 14.447 16.045 16.107 15.823 16.089 16.783 17.164 18.070 20.489 21.618 21.490 19.756 18.555 18.589 17.670 15.947 15.259 11.937 8.585 7.251 6.341 4.743 3.962 0.594 0.000 0.000 0.000 0.000
0.000 0.000 0.000 0.000 0.000 0.000 0.174 2.900 5.929 13.487 16.042 16.085 15.375 15.452 15.575 15.699 17.003 19.226 20.438 19.487 18.007 18.878 17.279 16.767 16.693 15.850 12.997 9.776 7.743 5.797 4.970 4.916 2.520 0.006 0.000 0.000 0.000
0.000 0.000 0.000 0.000 0.000 0.000 0.004 1.264 5.117 13.115 15.465 15.374 15.421 14.778 14.586 15.040 15.972 17.314 18.477 18.098 17.832 17.420 17.129 17.228 17.403 15.867 13.532 11.240 8.026 6.017 5.201 4.743 3.923 0.560 0.000 0.000 0.000
0.000 0.000 0.000 0.000 0.000 0.000 0.000 0.204 4.971 11.895 14.610 15.320 14.989 14.142 14.288 14.658 14.990 16.760 18.052 17.652 16.976 16.672 17.537 17.911 17.685 15.392 14.231 11.947 8.643 6.268 5.622 5.145 4.828 2.281 0.000 0.000 0.000
0.000 0.000 0.000 0.000 0.000 0.000 0.000 0.069 4.533 11.760 14.458 14.716 14.433 13.837 13.813 13.780 14.599 16.958 16.450 15.846 16.328 17.418 18.231 18.747 17.217 15.330 14.291 12.172 9.883 7.282 5.870 5.443 4.977 3.576 0.125 0.000 0.000
0.000 0.000 0.000 0.000 0.000 0.000 0.000 0.043 4.351 10.753 13.903 14.656 14.285 13.569 12.771 13.026 13.819 14.233 14.444 15.293 16.238 17.067 18.307 17.561 16.295 15.798 14.305 13.327 11.241 8.571 6.556 5.782 5.194 4.277 1.213 0.000 0.000
0.000 0.000 0.000 0.000 0.000 0.000 0.000 0.057 4.037 9.949 13.109 14.130 13.663 12.811 12.681 12.116 12.209 13.054 13.835 15.115 15.719 16.296 17.667 16.448 16.617 16.020 15.157 14.856 12.522 9.565 6.648 5.674 5.184 4.160 3.009 0.014 0.000
0.000 0.000 0.000 0.000 0.000 0.000 0.000 0.058 3.841 7.259 12.748 13.864 13.222 12.512 11.673 11.155 11.357 12.403 13.350 13.985 15.232 17.499 17.340 16.731 16.485 16.697 16.199 15.982 13.293 10.122 6.869 5.802 5.023 4.547 3.872 0.745 0.000
0.000 0.000 0.000 0.000 0.000 0.000 0.000 0.055 3.763 5.925 11.851 12.841 12.361 11.995 11.066 10.480 11.087 11.755 12.853 13.782 15.730 16.505 15.667 17.273 17.442 16.964 17.044 15.835 13.486 10.034 7.322 6.031 5.409 4.775 4.167 2.345 0.000
0.000 0.000 0.000 0.000 0.000 0.000 0.000 0.066 3.530 5.343 11.144 12.840 12.394 11.505 10.848 9.784 10.138 10.840 12.701 14.396 14.878 14.742 15.776 17.036 16.490 16.795 18.425 15.305 12.579 10.906 8.219 6.719 6.081 5.044 4.616 3.579 0.002
0.000 0.000 0.000 0.000 0.000 0.000 0.000 0.081 3.497 4.851 10.420 12.061 11.984 11.303 9.961 9.497 10.572 11.877 12.459 13.108 13.365 14.123 15.581 16.493 16.873 18.414 17.372 14.782 13.743 10.983 9.347 7.579 6.967 5.916 5.379 4.288 0.190
0.000 0.000 0.000 0.000 0.000 0.000 0.000 0.052 3.342 4.564 9.889 11.824 11.533 10.782 9.653 9.536 10.295 11.266 11.646 11.923 13.157 13.815 15.018 16.240 17.521 17.524 16.071 15.403 13.411 11.737 10.304 8.532 7.166 5.906 5.196 4.180 1.227
0.000 0.000 0.000 0.000 0.000 0.000 0.000 0.047 3.256 4.452 9.349 11.278 10.827 10.201 9.428 9.391 9.975 9.552 9.710 11.033 11.981 12.802 14.111 15.774 16.154 16.059 15.454 14.434 13.555 12.383 10.714 8.528 6.784 6.060 5.243 3.952 1.784
0.000 0.000 0.000 0.000 0.000 0.000 0.000 0.045 3.006 4.175 8.567 10.800 10.545 9.963 9.458 9.474 8.925 8.326 8.745 9.522 10.795 11.517 12.528 14.634 15.368 15.390 14.889 14.431 13.823 12.374 10.205 8.433 7.309 6.341 5.465 4.069 2.934
0.000 0.000 0.000 0.000 0.000 0.000 0.000 0.031 2.994 4.004 7.995 10.076 10.103 9.390 9.521 9.212 8.224 8.031 8.103 8.585 9.587 10.712 12.454 13.280 14.119 14.593 14.655 14.343 13.382 11.526 9.944 9.267 7.948 6.630 6.015 4.289 3.079
0.000 0.000 0.000 0.000 0.000 0.000 0.000 0.019 2.727 4.143 6.036 9.645 9.704 9.205 8.724 8.882 8.029 7.326 7.886 8.404 9.445 10.066 10.999 12.184 13.115 13.727 14.161 13.344 12.544 11.328 10.384 10.231 8.337 6.771 5.466 3.869 1.938
0.000 0.000 0.000 0.000 0.000 0.000 0.000 0.018 2.255 3.818 5.204 9.018 9.336 9.185 8.957 8.095 7.392 7.641 8.048 7.976 8.341 9.374 9.807 10.698 11.926 12.259 12.867 12.286 12.187 11.619 10.843 10.812 8.162 6.797 5.234 3.574 2.327
0.000 0.000 0.000 0.000 0.000 0.000 0.000 0.011 2.246 3.805 4.738 8.834 9.166 8.387 7.795 7.505 8.080 7.842 7.709 6.994 8.215 8.948 9.045 9.103 10.155 11.688 11.999 12.518 12.352 10.747 11.108 10.179 8.479 6.759 5.354 3.299 3.048
0.000 0.000 0.000 0.000 0.000 0.000 0.000 0.004 1.248 3.789 4.434 8.412 8.894 7.928 7.423 7.600 7.607 7.695 6.997 7.035 8.433 8.283 7.867 7.741 9.020 10.760 11.536 11.221 11.031 10.975 11.573 9.931 8.594 6.979 5.036 2.389 2.508
0.000 0.000 0.000 0.000 0.000 0.000 0.000 0.018 0.701 3.741 4.414 7.785 8.213 7.320 6.908 7.622 7.829 7.459 6.878 7.922 8.411 7.231 7.234 7.740 8.410 8.816 9.791 10.195 10.652 11.136 10.859 9.105 8.816 6.646 4.111 0.857 1.105
0.000 0.000 0.000 0.000 0.000 0.000 0.000 0.093 1.851 3.717 4.260 7.604 7.864 6.907 6.781 7.748 7.746 7.173 7.849 8.695 7.362 6.584 7.078 7.405 7.069 7.465 8.775 10.039 10.593 10.539 9.551 9.177 9.062 5.940 3.770 1.383 2.554
0.000 0.000 0.000 0.000 0.000 0.000 0.000 0.042 1.762 3.531 4.224 7.466 7.473 6.631 6.965 7.728 7.539 8.070 8.919 7.891 6.493 6.766 6.735 6.346 6.242 6.671 7.717 9.133 10.126 10.200 9.939 9.721 7.763 5.845 3.560 2.783 3.203
0.000 0.000 0.000 0.000 0.000 0.000 0.000 0.011 1.335 3.521 4.051 6.435 7.244 6.584 6.926 7.525 7.858 8.245 7.441 6.190 6.251 6.302 5.974 5.655 5.672 5.990 6.814 7.883 9.274 9.536 9.482 8.852 7.267 5.363 3.634 3.355 3.438
0.000 0.000 0.000 0.000 0.000 0.000 0.000 0.004 0.669 3.166 4.172 5.508 6.825 5.984 6.871 7.565 7.581 6.710 6.052 5.965 6.433 5.743 4.621 4.517 5.255 5.897 6.141 6.217 6.977 8.302 8.144 7.462 5.873 4.343 3.402 3.573 3.356
0.000 0.000 0.000 0.000 0.000 0.000 0.000 0.006 0.526 2.993 4.057 4.537 5.549 4.837 5.991 5.944 5.349 5.622 5.455 6.034 6.022 4.193 3.374 4.028 4.539 5.018 4.559 5.270 5.271 5.303 5.489 5.103 4.218 3.662 3.692 3.438 3.497
