ncols        31
nrows        48
xllcorner    409777.8
yllcorner    6870684.1
cellsize     5.00
NODATA_value -9999
0.000 0.000 0.000 0.000 0.000 0.000 0.000 0.000 0.000 0.000 0.000 0.000 0.000 0.000 0.000 0.000 0.000 0.000 0.000 0.000 0.000 0.000 0.000 0.000 0.000 0.000 0.000 0.000 0.000 0.000 0.000
0.000 0.000 0.000 0.000 0.326 4.380 14.582 17.176 17.005 16.885 17.385 11.881 4.568 0.257 0.000 0.000 0.000 0.000 0.000 0.000 0.000 0.000 0.000 0.000 0.000 0.000 0.000 0.000 0.000 0.000 0.000
0.000 0.000 0.000 1.425 11.635 17.662 17.456 17.856 17.832 17.636 17.868 17.150 17.176 10.717 1.154 0.001 0.000 0.000 0.000 0.000 0.000 0.000 0.000 0.000 0.000 0.000 0.000 0.000 0.000 0.000 0.000
0.000 0.000 1.192 12.996 17.256 18.233 18.613 18.882 19.008 19.171 19.061 18.797 18.266 17.509 13.524 2.456 0.009 0.000 0.000 0.000 0.000 0.000 0.000 0.000 0.000 0.000 0.000 0.000 0.000 0.000 0.000
0.000 0.085 7.162 17.268 18.199 19.014 19.794 20.183 20.360 19.999 20.338 20.023 19.401 18.969 16.847 16.218 3.993 0.020 0.000 0.000 0.000 0.000 0.000 0.000 0.000 0.000 0.000 0.000 0.000 0.000 0.000
0.001 2.436 17.603 17.981 18.986 19.852 20.726 20.959 21.240 20.563 20.390 21.844 21.801 20.785 19.786 17.890 17.619 5.124 0.058 0.000 0.000 0.000 0.000 0.000 0.000 0.000 0.000 0.000 0.000 0.000 0.000
0.062 8.755 17.402 18.635 19.648 20.468 21.305 21.591 21.515 21.547 21.512 23.064 23.604 22.745 21.719 20.011 18.353 17.311 7.052 0.145 0.000 0.000 0.000 0.000 0.000 0.000 0.000 0.000 0.000 0.000 0.000
0.739 16.646 17.831 19.139 20.088 20.842 21.961 22.261 22.151 21.708 23.169 25.056 24.631 24.584 23.257 21.036 19.871 17.629 18.149 7.790 0.095 0.000 0.000 0.000 0.000 0.000 0.000 0.000 0.000 0.000 0.000
2.518 17.326 18.083 19.329 20.459 21.457 22.012 22.507 22.787 22.866 23.657 25.787 25.917 25.447 22.648 20.984 20.972 20.322 18.861 18.106 5.944 0.017 0.000 0.000 0.000 0.000 0.000 0.000 0.000 0.000 0.000
4.092 16.638 18.077 19.581 20.463 21.769 22.214 22.768 23.120 23.532 23.111 25.565 26.064 25.221 22.671 22.396 23.585 22.247 19.710 18.975 15.544 3.324 0.000 0.000 0.000 0.000 0.000 0.000 0.000 0.000 0.000
4.628 16.687 17.988 19.311 20.356 21.389 22.445 22.644 23.531 23.443 23.568 26.310 27.231 25.352 23.280 24.122 24.063 21.797 20.778 20.768 16.444 12.611 0.862 0.000 0.000 0.000 0.000 0.000 0.000 0.000 0.000
4.185 16.154 17.900 19.614 20.528 21.605 22.301 22.778 23.077 22.797 24.123 26.381 26.393 25.245 24.363 24.973 23.703 21.273 22.624 21.713 19.792 15.617 7.792 0.027 0.000 0.000 0.000 0.000 0.000 0.000 0.000
2.864 16.027 17.674 18.737 20.019 21.100 22.527 23.063 23.030 23.409 25.220 26.696 25.841 25.473 25.225 25.649 23.333 22.728 23.427 23.452 21.803 16.268 12.604 2.397 0.000 0.000 0.000 0.000 0.000 0.000 0.000
1.374 14.051 16.505 18.130 20.140 21.258 22.959 24.062 23.352 23.654 25.966 25.698 26.193 26.207 25.235 25.087 24.645 23.511 24.080 24.132 21.832 17.493 14.998 8.745 0.245 0.000 0.000 0.000 0.000 0.000 0.000
0.478 10.037 15.510 17.389 19.146 20.516 22.110 23.143 23.134 23.604 26.128 27.153 26.854 25.247 24.432 25.396 25.078 24.673 25.852 23.662 22.740 21.763 18.895 11.285 4.032 0.002 0.000 0.000 0.000 0.000 0.000
0.095 5.895 13.691 16.738 18.318 19.289 21.285 22.076 21.905 23.020 25.445 26.424 25.418 24.037 25.054 24.040 24.075 25.276 26.210 24.687 23.470 23.009 18.842 12.271 8.635 0.668 0.000 0.000 0.000 0.000 0.000
0.007 2.415 12.181 15.051 16.592 18.649 20.096 20.856 21.503 22.359 23.641 25.015 24.556 24.440 24.025 23.849 24.533 25.969 25.779 24.537 23.817 22.292 19.297 15.241 9.862 4.599 0.003 0.000 0.000 0.000 0.000
0.000 0.552 8.192 13.291 15.543 17.263 18.585 20.321 21.402 21.566 23.254 25.057 24.438 23.860 23.204 24.404 25.287 26.185 24.655 24.878 23.965 22.162 18.688 16.227 10.611 8.098 0.687 0.000 0.000 0.000 0.000
0.000 0.058 4.291 12.770 14.014 15.753 17.310 19.316 20.323 21.462 24.153 23.472 22.942 23.213 24.575 25.527 26.634 25.411 24.110 24.202 22.787 21.800 20.235 16.608 11.997 9.040 4.068 0.000 0.000 0.000 0.000
0.000 0.002 1.602 11.607 13.611 15.055 16.390 17.427 19.140 20.920 21.590 21.686 22.475 23.406 24.372 26.024 25.195 24.356 24.499 23.405 23.510 22.862 22.044 18.265 13.688 9.370 6.583 0.255 0.000 0.000 0.000
0.000 0.000 0.899 13.460 13.688 14.779 15.701 17.262 17.977 18.760 20.050 20.929 22.579 23.102 23.275 25.319 23.949 24.690 24.419 24.140 25.216 23.888 22.951 18.650 14.503 9.943 7.042 2.871 0.000 0.000 0.000
0.000 0.001 1.824 13.122 14.424 15.293 15.976 16.579 17.085 17.728 19.312 20.468 21.069 22.314 25.341 25.081 24.551 24.220 25.062 25.139 26.634 24.040 21.890 18.449 15.414 10.048 7.455 5.277 0.038 0.000 0.000
0.000 0.015 4.175 13.613 14.817 15.658 16.427 16.541 16.747 17.772 18.732 20.057 20.856 23.361 24.173 23.278 25.358 25.807 25.472 25.918 25.766 23.375 20.749 17.942 15.563 11.351 8.006 6.573 1.390 0.000 0.000
0.000 0.250 10.628 14.129 15.725 16.495 16.760 17.140 16.435 16.945 17.429 19.856 22.297 22.625 22.435 23.574 25.212 24.383 24.599 27.777 24.748 21.980 21.275 18.067 16.175 13.374 8.593 6.941 4.229 0.000 0.000
0.000 0.944 13.208 14.436 15.908 16.966 17.273 16.658 16.363 17.918 19.690 20.173 20.971 20.833 21.544 23.418 24.551 24.836 27.246 26.157 23.589 23.647 20.322 18.827 16.839 14.977 10.041 8.083 5.988 0.004 0.000
0.000 1.726 12.890 14.726 16.323 17.225 17.292 16.607 16.844 18.168 19.713 19.919 19.763 21.012 21.430 22.837 24.248 26.155 26.057 24.720 24.410 22.587 20.881 19.783 18.252 15.546 10.755 7.929 6.409 0.455 0.000
0.002 2.379 12.869 14.857 16.273 16.802 16.983 16.452 16.939 18.509 19.337 18.186 19.483 19.943 20.316 21.706 23.907 24.341 24.260 23.762 22.854 22.317 21.497 20.106 17.688 14.597 11.530 8.236 6.044 2.005 0.000
0.004 2.756 12.622 14.493 16.305 16.749 17.089 16.595 17.354 19.061 18.400 18.472 18.922 19.217 19.145 19.426 22.201 23.327 23.419 22.835 22.621 22.492 21.248 18.831 16.241 14.919 12.394 8.816 6.064 3.868 0.022
0.005 2.864 12.127 14.571 15.754 16.348 16.420 17.264 17.507 18.075 18.622 18.170 18.360 18.780 18.517 20.179 20.526 21.477 22.296 22.475 22.523 21.744 19.651 17.585 16.889 15.822 12.738 10.167 6.778 4.666 0.583
0.006 2.728 12.027 14.099 15.433 15.871 16.092 16.061 17.498 18.077 17.147 18.033 18.423 19.732 18.971 18.907 19.564 20.215 21.134 21.957 21.080 20.242 18.913 17.687 17.826 16.433 13.349 10.466 6.742 3.734 2.524
0.005 2.504 11.202 13.531 14.628 15.435 16.513 16.996 16.916 16.381 17.284 18.355 18.309 17.993 18.431 17.651 18.188 19.054 19.005 20.130 19.352 19.180 19.229 17.996 18.565 15.640 13.627 10.490 7.110 4.166 4.786
0.003 2.109 10.430 13.058 14.366 15.149 15.575 15.542 15.702 17.830 17.575 17.964 16.429 17.845 18.148 17.034 16.436 16.790 18.493 18.785 19.901 19.659 17.686 18.056 17.130 14.848 13.511 10.844 7.617 5.215 5.247
0.003 1.749 9.283 12.303 14.057 14.934 15.135 15.369 15.888 16.349 16.978 16.323 15.947 18.282 17.460 15.375 14.416 15.662 17.607 18.596 18.303 18.062 17.791 18.721 16.884 14.779 13.849 10.939 7.441 5.348 5.349
0.006 1.820 8.248 12.018 13.140 14.083 14.380 14.650 15.883 16.484 16.329 15.351 16.698 18.332 15.810 14.298 14.425 15.353 15.714 16.346 16.680 17.291 18.047 17.687 15.702 14.869 13.412 9.798 6.870 4.937 5.338
0.004 1.464 7.534 11.163 12.714 13.658 13.759 13.988 15.867 16.172 15.234 15.784 17.771 16.402 14.187 13.854 14.257 13.604 14.011 15.048 16.522 17.290 17.376 16.069 15.335 15.610 11.876 9.850 7.185 6.555 5.952
0.001 1.034 6.598 10.773 12.448 12.913 13.077 14.199 15.601 15.331 16.120 18.025 16.272 14.534 14.618 13.380 12.559 12.235 12.885 14.465 15.466 16.726 16.925 16.654 16.556 14.085 11.866 10.084 8.584 7.902 6.424
0.000 0.585 5.819 9.783 11.713 12.531 12.857 13.927 14.917 15.207 16.608 15.564 13.748 13.457 13.642 12.634 11.899 11.233 11.420 13.168 15.010 16.136 16.311 16.352 15.746 13.906 12.081 10.900 9.632 8.729 6.420
0.000 0.289 4.863 8.885 11.237 11.992 12.852 13.969 15.269 15.457 14.478 13.551 13.003 13.348 12.869 11.065 10.185 10.234 9.944 12.625 13.335 14.643 15.854 15.428 14.584 13.463 12.045 10.561 10.388 8.925 6.753
0.000 0.170 4.035 8.305 10.674 11.589 11.982 13.711 13.736 13.025 13.554 13.056 13.556 13.892 11.619 9.915 9.834 8.620 9.106 9.952 12.813 14.138 14.833 15.424 14.715 13.318 12.035 11.682 10.821 9.649 6.575
0.000 0.065 3.059 7.553 9.990 11.031 11.750 12.409 12.430 12.052 12.561 12.791 12.999 11.510 9.714 9.290 9.293 7.651 7.394 8.960 11.340 12.801 13.966 14.554 14.545 13.297 12.743 11.933 11.095 9.852 6.667
0.000 0.025 2.100 6.855 9.385 9.943 11.314 11.560 10.210 10.349 11.675 11.720 12.126 10.239 9.277 8.824 7.825 6.982 7.062 7.790 9.231 11.855 13.620 14.806 13.965 13.323 12.850 12.097 11.531 10.056 7.134
0.000 0.003 0.978 5.779 7.697 9.331 9.901 9.535 8.864 8.929 9.274 9.948 9.538 8.743 8.406 7.650 7.201 6.613 6.746 7.310 8.193 10.580 12.320 13.232 13.542 13.177 12.069 12.366 11.651 9.727 7.314
0.000 0.000 0.357 4.726 7.440 8.388 8.983 8.559 8.483 8.514 8.516 8.938 8.460 7.659 7.582 7.118 6.821 7.133 6.862 7.016 7.414 8.790 11.395 13.336 12.752 12.575 12.398 12.074 11.021 9.366 6.983
0.000 0.000 0.137 3.516 7.128 8.146 7.964 8.168 8.277 7.942 8.003 8.223 7.907 7.365 7.173 6.933 6.959 6.752 6.759 6.573 6.840 7.874 10.283 11.510 12.081 12.299 12.203 11.564 10.006 8.874 6.702
0.000 0.000 0.053 2.380 6.563 7.661 7.720 7.946 8.117 7.905 7.764 7.900 7.468 7.088 7.158 7.252 6.587 6.729 6.773 6.435 6.545 6.896 8.697 10.796 11.780 11.741 11.595 10.201 9.183 8.934 6.033
0.000 0.000 0.007 1.318 5.441 7.167 7.311 7.875 8.059 7.630 7.119 7.128 6.816 6.772 6.870 6.350 6.447 6.522 6.274 6.071 5.767 6.709 7.834 10.096 10.824 11.796 10.897 9.616 8.990 7.664 5.412
0.000 0.000 0.001 0.532 4.323 6.644 6.982 7.632 7.262 6.508 7.110 6.469 6.156 6.827 6.249 6.038 6.292 6.282 6.003 5.813 5.661 6.400 6.152 7.247 9.376 10.189 9.193 8.482 6.934 6.121 5.334
0.000 0.000 0.000 0.155 2.929 5.708 6.345 6.460 5.812 6.100 5.867 5.029 5.688 5.447 5.343 5.488 5.732 5.665 5.515 5.230 5.436 5.278 4.980 5.504 6.628 7.368 6.563 5.842 5.488 5.295 4.788
