ncols        32
nrows        41
xllcorner    409807.8
yllcorner    6870619.1
cellsize     5.00
NODATA_value -9999
0.000 0.000 0.000 0.000 0.000 0.000 0.000 0.000 0.015 1.469 8.187 14.739 17.381 14.674 8.173 1.295 0.008 0.000 0.000 0.000 0.000 0.000 0.000 0.000 0.000 0.000 0.000 0.000 0.000 0.000 0.000 0.000
0.000 0.000 0.000 0.000 0.000 0.000 0.000 0.163 4.211 18.309 18.406 18.902 19.148 19.345 19.320 18.753 5.604 0.045 0.000 0.000 0.000 0.000 0.000 0.000 0.000 0.000 0.000 0.000 0.000 0.000 0.000 0.000
0.000 0.000 0.000 0.000 0.000 0.000 0.034 4.369 19.180 18.932 20.261 20.754 20.870 21.672 21.015 19.033 17.503 6.726 0.040 0.000 0.000 0.000 0.000 0.000 0.000 0.000 0.000 0.000 0.000 0.000 0.000 0.000
0.000 0.000 0.000 0.000 0.000 0.001 2.191 18.965 19.092 20.397 21.674 21.598 22.278 24.112 21.877 19.922 18.491 17.067 5.637 0.016 0.000 0.000 0.000 0.000 0.000 0.000 0.000 0.000 0.000 0.000 0.000 0.000
0.000 0.000 0.000 0.000 0.000 0.097 9.940 19.157 20.208 21.774 22.717 23.207 24.979 24.152 22.348 22.091 19.518 17.960 17.396 4.124 0.003 0.000 0.000 0.000 0.000 0.000 0.000 0.000 0.000 0.000 0.000 0.000
0.000 0.000 0.000 0.000 0.000 1.504 19.121 20.212 21.404 22.797 23.920 25.221 25.245 24.116 23.807 22.364 21.078 20.182 18.634 16.424 2.705 0.000 0.000 0.000 0.000 0.000 0.000 0.000 0.000 0.000 0.000 0.000
0.000 0.000 0.000 0.000 0.001 4.314 19.001 20.628 21.964 23.417 25.028 25.161 24.938 24.347 23.525 23.132 22.546 21.633 19.940 17.446 14.956 1.313 0.000 0.000 0.000 0.000 0.000 0.000 0.000 0.000 0.000 0.000
0.000 0.000 0.000 0.000 0.009 6.632 19.141 20.840 22.203 22.988 25.188 25.545 25.209 24.429 24.166 24.146 23.167 21.518 20.184 19.707 17.434 13.822 0.233 0.000 0.000 0.000 0.000 0.000 0.000 0.000 0.000 0.000
0.000 0.000 0.000 0.000 0.028 7.766 18.980 20.950 22.455 24.923 25.078 25.199 25.281 25.002 24.843 24.215 22.652 21.410 21.756 21.888 19.554 18.150 9.408 0.001 0.000 0.000 0.000 0.000 0.000 0.000 0.000 0.000
0.000 0.000 0.000 0.000 0.027 7.311 19.241 22.111 23.219 24.678 25.494 25.266 25.313 25.446 24.205 23.566 22.662 22.278 23.470 23.457 21.532 19.151 16.598 1.816 0.000 0.000 0.000 0.000 0.000 0.000 0.000 0.000
0.000 0.000 0.000 0.000 0.011 5.323 18.795 20.699 22.984 23.908 25.237 25.316 24.259 24.772 23.449 23.239 23.638 23.332 24.890 23.510 22.848 20.413 17.885 12.497 0.100 0.000 0.000 0.000 0.000 0.000 0.000 0.000
0.000 0.000 0.000 0.000 0.003 3.013 18.036 20.180 22.804 23.695 23.975 24.314 25.069 24.109 24.988 24.433 22.883 24.157 24.531 23.384 23.462 21.726 19.269 15.420 5.880 0.000 0.000 0.000 0.000 0.000 0.000 0.000
0.000 0.000 0.000 0.000 0.000 1.286 14.225 19.919 21.844 21.851 22.087 23.957 25.567 24.929 24.103 23.803 23.655 25.523 25.031 23.919 24.537 22.867 20.111 17.124 15.061 0.683 0.000 0.000 0.000 0.000 0.000 0.000
0.000 0.000 0.000 0.000 0.000 0.318 9.781 19.451 19.487 20.352 22.204 24.802 24.419 23.711 23.030 23.595 24.804 24.888 24.404 24.448 24.432 22.416 19.792 16.742 15.560 7.571 0.003 0.000 0.000 0.000 0.000 0.000
0.000 0.000 0.000 0.000 0.000 0.060 6.444 19.069 17.121 19.134 21.957 22.649 22.832 22.802 23.761 24.363 24.804 24.025 24.119 26.087 23.591 22.402 19.669 19.351 17.788 13.958 1.117 0.000 0.000 0.000 0.000 0.000
0.000 0.000 0.000 0.000 0.068 1.684 12.328 16.959 17.212 17.836 19.057 20.386 21.741 23.051 23.184 24.355 24.784 25.223 26.546 25.262 23.728 22.183 21.257 20.927 19.460 16.136 6.384 0.029 0.000 0.000 0.000 0.000
0.000 0.000 0.000 0.698 7.508 17.896 16.804 16.727 17.016 17.063 17.924 18.765 19.962 21.582 23.552 24.383 24.544 25.382 25.745 25.498 24.214 23.493 22.732 22.822 20.290 16.783 9.479 1.783 0.000 0.000 0.000 0.000
0.000 0.000 0.844 11.086 17.723 17.968 18.103 18.534 18.043 16.704 16.361 17.838 19.180 21.697 21.803 22.889 24.585 24.557 24.742 24.858 24.380 22.571 23.675 22.294 21.634 16.340 10.325 5.928 0.106 0.000 0.000 0.000
0.000 0.307 7.814 17.586 18.840 19.308 20.322 20.841 18.666 17.230 17.203 17.733 18.906 19.299 21.971 22.996 23.594 24.960 25.341 24.784 23.825 24.459 23.977 23.292 21.292 16.012 11.676 8.897 2.217 0.001 0.000 0.000
0.004 2.926 18.035 18.422 19.776 20.769 21.474 20.784 18.718 18.038 18.392 17.874 17.524 19.199 20.817 21.813 22.911 23.743 25.491 24.830 25.154 24.775 24.016 23.031 20.416 17.463 13.490 9.697 5.276 0.545 0.000 0.000
0.475 11.670 17.806 19.388 21.009 21.334 21.835 20.803 19.417 19.799 18.998 18.139 18.311 18.568 19.126 21.281 23.163 24.613 25.086 25.036 25.602 25.070 24.688 23.210 20.892 17.852 13.798 11.180 7.883 3.675 0.148 0.000
2.675 17.494 18.195 19.920 21.078 21.967 21.233 21.515 20.434 20.436 19.754 18.145 18.460 18.991 19.058 20.692 22.152 22.985 24.838 25.349 24.170 25.653 25.293 22.326 20.913 17.692 15.560 12.373 8.969 5.397 1.786 0.082
6.203 16.976 18.739 20.896 21.955 22.955 22.482 21.412 20.990 20.307 19.602 20.121 19.527 19.665 19.258 19.795 21.546 23.931 24.104 24.484 25.111 25.356 24.322 21.651 19.997 17.797 15.956 12.971 9.200 6.469 5.044 1.678
9.408 17.114 19.151 20.742 22.253 22.682 22.310 21.687 20.856 19.654 20.458 19.913 19.720 19.445 19.020 19.884 21.466 22.286 23.344 24.282 25.117 25.007 22.716 20.506 20.147 17.681 15.431 13.704 9.591 8.011 6.850 3.758
11.135 17.090 19.363 21.016 22.594 23.054 22.114 21.630 21.218 21.417 19.946 20.146 20.426 19.728 19.765 19.067 20.941 21.691 23.599 23.521 24.378 23.349 21.424 21.300 19.503 17.604 15.809 13.648 10.819 9.204 7.422 4.943
11.427 17.083 19.475 21.361 21.442 21.658 21.399 20.691 21.117 20.050 19.801 19.828 19.499 19.172 18.480 19.152 21.133 22.352 22.800 24.593 23.819 22.693 21.933 19.869 18.471 17.620 16.324 14.430 12.379 10.703 7.537 6.034
10.244 17.073 18.746 19.495 22.421 21.085 20.092 22.253 20.448 19.767 19.931 19.805 19.099 19.035 18.283 19.702 19.215 20.458 21.828 22.901 22.103 22.039 20.781 19.769 19.014 17.721 16.444 14.911 13.611 11.836 8.090 6.820
8.069 15.838 16.881 18.884 20.587 19.368 20.352 20.512 19.280 19.533 19.632 19.186 18.791 18.270 18.474 18.436 18.105 19.136 20.921 21.271 21.676 21.532 20.628 19.834 18.679 17.304 16.675 14.757 13.342 11.609 9.058 6.703
5.634 14.567 16.178 18.477 18.840 19.240 19.407 18.716 18.748 18.900 19.348 18.892 18.068 17.464 17.624 16.790 17.154 18.789 20.231 20.993 20.871 20.830 20.023 19.081 18.526 17.144 16.408 15.677 14.254 13.012 9.506 6.796
3.450 12.264 14.901 17.402 18.182 17.962 17.779 17.857 17.946 17.997 18.202 17.635 16.832 17.478 17.356 17.180 17.363 18.898 20.481 20.905 19.720 20.034 20.092 18.623 17.306 17.209 16.906 15.042 14.215 12.626 10.786 6.931
1.946 10.309 14.115 15.824 16.537 16.551 17.256 16.868 17.073 17.331 16.728 16.119 16.479 16.609 16.471 17.210 16.811 16.866 19.370 19.928 19.790 19.066 18.710 18.250 17.454 17.097 16.030 15.073 14.083 13.035 10.901 6.955
0.913 8.191 12.918 14.727 15.791 15.900 16.249 16.293 16.501 16.251 16.435 15.646 16.245 15.611 15.949 16.871 16.444 17.111 17.112 18.224 18.582 18.976 18.124 17.570 17.452 16.679 15.267 14.668 14.087 14.157 11.137 7.687
0.295 5.527 10.677 12.911 13.612 15.153 15.775 15.510 15.751 15.830 16.217 15.523 14.918 15.046 16.052 14.670 14.438 15.071 16.792 18.181 18.278 17.932 18.295 16.834 15.746 15.353 15.019 14.454 14.612 12.835 11.657 7.346
0.063 3.281 8.807 11.114 12.983 13.615 14.469 15.153 15.385 15.138 14.996 14.587 14.326 14.574 13.725 13.624 12.781 14.117 15.112 16.886 17.662 17.905 16.660 15.479 15.313 14.780 14.296 14.103 14.135 12.196 10.773 7.581
0.009 1.614 7.483 9.980 11.759 13.487 14.413 14.730 14.766 14.822 14.792 13.263 12.681 11.995 13.165 14.462 14.184 14.012 14.232 15.444 15.310 15.630 15.370 15.108 14.655 14.220 13.978 13.946 13.487 12.280 11.605 7.753
0.001 0.613 5.750 9.032 10.651 12.452 13.402 13.850 13.851 13.629 12.890 10.814 10.089 10.267 10.924 12.057 11.791 11.970 13.232 14.617 16.056 15.275 15.530 14.156 13.705 13.571 13.369 13.563 12.968 11.976 9.757 7.181
0.000 0.164 3.748 7.932 9.443 11.158 12.332 13.174 12.836 10.883 9.340 9.013 9.033 8.360 8.059 9.753 11.143 11.363 11.747 13.022 13.645 14.477 13.954 12.960 12.681 12.777 12.966 13.039 12.156 10.771 8.525 6.884
0.000 0.028 2.049 6.911 8.461 9.367 10.443 11.392 9.889 9.526 9.579 8.881 7.688 7.046 7.098 8.697 10.237 8.480 8.868 12.026 13.160 13.939 13.057 11.989 11.798 12.100 12.491 12.184 10.526 8.845 8.015 6.726
0.000 0.002 0.819 5.430 7.861 8.323 9.072 9.095 9.277 9.288 7.982 6.994 7.388 7.327 8.378 8.796 7.858 7.273 7.955 9.116 11.227 11.652 12.298 11.215 10.758 11.323 11.862 11.329 9.321 8.551 7.941 6.470
0.000 0.000 0.194 3.730 6.943 7.441 7.485 7.907 8.245 7.610 6.903 6.871 7.414 8.244 7.693 6.618 6.774 6.723 7.428 7.714 8.210 9.552 11.136 9.218 8.418 8.671 8.794 8.392 8.134 7.700 6.777 6.188
0.000 0.000 0.033 2.009 5.737 6.321 6.398 6.590 6.390 5.894 5.958 6.921 7.128 6.097 5.192 5.268 5.531 6.263 5.969 6.583 6.717 7.621 8.279 6.853 6.553 6.339 6.355 6.372 6.065 5.661 5.317 5.261
