ncols        36
nrows        59
xllcorner    409707.8
yllcorner    6870754.1
cellsize     5.00
NODATA_value -9999
0.000 0.000 0.000 0.012 1.168 6.078 10.747 13.199 11.575 7.029 2.437 0.155 0.000 0.000 0.000 0.000 0.000 0.000 0.000 0.000 0.000 0.000 0.000 0.000 0.000 0.000 0.000 0.000 0.000 0.000 0.000 0.000 0.000 0.000 0.000 0.000
0.000 0.000 0.134 3.258 14.426 14.724 14.358 13.828 13.568 12.915 13.932 7.627 0.988 0.004 0.000 0.000 0.000 0.000 0.000 0.000 0.000 0.000 0.000 0.000 0.000 0.000 0.000 0.000 0.000 0.000 0.000 0.000 0.000 0.000 0.000 0.000
0.000 0.045 3.522 14.213 15.193 15.197 14.911 14.656 14.585 13.958 13.860 13.269 10.461 2.055 0.014 0.000 0.000 0.000 0.000 0.000 0.000 0.000 0.000 0.000 0.000 0.000 0.000 0.000 0.000 0.000 0.000 0.000 0.000 0.000 0.000 0.000
0.000 1.716 13.487 14.045 15.001 15.213 15.054 15.457 14.489 14.450 14.656 14.503 13.492 10.280 2.325 0.011 0.000 0.000 0.000 0.000 0.000 0.000 0.000 0.000 0.000 0.000 0.000 0.000 0.000 0.000 0.000 0.000 0.000 0.000 0.000 0.000
0.000 7.071 13.578 14.667 15.865 15.578 15.814 15.053 15.001 15.255 15.556 15.104 13.945 12.479 8.614 1.740 0.003 0.000 0.000 0.000 0.000 0.000 0.000 0.000 0.000 0.000 0.000 0.000 0.000 0.000 0.000 0.000 0.000 0.000 0.000 0.000
0.000 12.750 13.718 14.844 15.871 15.585 15.309 15.143 15.970 15.857 16.095 15.783 15.479 13.006 10.658 7.120 0.962 0.000 0.000 0.000 0.000 0.000 0.000 0.000 0.000 0.000 0.000 0.000 0.000 0.000 0.000 0.000 0.000 0.000 0.000 0.000
0.000 13.095 14.057 15.424 14.961 15.235 15.135 15.711 16.659 16.038 16.606 16.507 15.788 14.202 12.428 9.644 5.514 0.260 0.000 0.000 0.000 0.000 0.000 0.000 0.000 0.000 0.000 0.000 0.000 0.000 0.000 0.000 0.000 0.000 0.000 0.000
0.000 13.464 14.958 15.247 15.510 15.347 15.596 16.144 15.915 16.740 16.927 16.674 15.857 15.635 13.549 11.155 8.706 3.257 0.014 0.000 0.000 0.000 0.000 0.000 0.000 0.000 0.000 0.000 0.000 0.000 0.000 0.000 0.000 0.000 0.000 0.000
0.000 13.298 14.007 14.869 14.919 15.587 15.788 16.484 16.851 17.198 17.476 17.303 16.748 16.716 14.304 12.406 10.152 6.890 1.152 0.000 0.000 0.000 0.000 0.000 0.000 0.000 0.000 0.000 0.000 0.000 0.000 0.000 0.000 0.000 0.000 0.000
0.000 11.940 14.251 14.573 15.777 15.510 16.618 15.813 17.387 17.339 17.807 17.433 17.008 16.518 14.984 13.818 12.622 8.403 4.568 0.115 0.000 0.000 0.000 0.000 0.000 0.000 0.000 0.000 0.000 0.000 0.000 0.000 0.000 0.000 0.000 0.000
0.000 7.527 12.870 14.678 14.932 15.657 15.575 17.072 17.715 17.516 17.941 17.475 17.723 16.796 16.058 14.971 13.939 9.652 6.936 2.036 0.003 0.000 0.000 0.000 0.000 0.000 0.000 0.000 0.000 0.000 0.000 0.000 0.000 0.000 0.000 0.000
0.000 3.631 11.814 13.709 14.870 15.931 16.257 17.065 17.568 17.283 17.741 18.167 18.321 17.129 16.367 15.898 14.875 12.058 7.804 5.009 0.650 0.000 0.000 0.000 0.000 0.000 0.000 0.000 0.000 0.000 0.000 0.000 0.000 0.000 0.000 0.000
0.000 1.064 10.028 13.183 14.479 15.188 16.058 17.225 17.258 16.921 18.202 18.236 17.965 17.064 16.861 16.779 15.938 13.663 9.208 6.493 3.570 0.211 0.000 0.000 0.000 0.000 0.000 0.000 0.000 0.000 0.000 0.000 0.000 0.000 0.000 0.000
0.000 0.127 5.355 11.827 14.027 15.062 15.750 16.078 16.647 17.680 18.216 17.354 17.723 17.433 17.149 17.540 16.776 14.623 11.188 7.546 5.792 2.399 0.053 0.000 0.000 0.000 0.000 0.000 0.000 0.000 0.000 0.000 0.000 0.000 0.000 0.000
0.000 0.003 1.583 9.275 12.863 14.536 15.277 15.215 15.911 16.736 17.721 18.289 17.173 17.588 17.454 17.527 17.494 14.810 12.473 8.526 6.534 5.143 1.374 0.015 0.000 0.000 0.000 0.000 0.000 0.000 0.000 0.000 0.000 0.000 0.000 0.000
0.000 0.000 0.157 5.025 11.051 12.923 13.995 15.202 16.003 17.807 16.924 16.992 17.615 17.603 17.695 17.699 16.114 15.958 13.595 10.459 7.529 6.181 4.019 0.831 0.005 0.000 0.000 0.000 0.000 0.000 0.000 0.000 0.000 0.000 0.000 0.000
0.000 0.000 0.003 1.275 8.319 11.749 13.222 14.398 15.346 16.614 16.883 17.766 17.242 18.511 17.272 17.836 17.369 16.871 14.909 11.904 8.657 6.070 5.627 3.271 0.461 0.000 0.000 0.000 0.000 0.000 0.000 0.000 0.000 0.000 0.000 0.000
0.000 0.000 0.000 0.178 5.122 10.174 13.004 14.060 15.186 15.889 17.117 17.128 17.988 17.764 17.384 17.491 17.921 17.552 15.548 13.141 9.996 6.856 6.174 4.916 2.446 0.147 0.002 0.000 0.000 0.000 0.000 0.000 0.000 0.000 0.000 0.000
0.000 0.000 0.000 0.016 2.552 7.508 11.157 13.502 15.081 16.066 16.263 17.552 16.707 16.905 17.156 18.050 17.871 17.374 15.707 13.625 11.191 8.123 6.302 5.226 4.134 2.297 0.356 0.000 0.000 0.000 0.000 0.000 0.000 0.000 0.000 0.000
0.000 0.000 0.000 0.000 0.681 5.531 9.617 11.918 13.970 15.244 15.860 16.021 16.799 17.086 17.257 18.065 17.193 17.484 16.153 13.634 12.332 9.763 6.745 5.199 4.692 4.199 2.295 0.132 0.000 0.000 0.000 0.000 0.000 0.000 0.000 0.000
0.000 0.000 0.000 0.000 0.100 3.650 7.203 11.707 12.790 14.910 14.810 16.252 15.854 16.983 16.933 16.977 17.356 16.551 15.212 13.963 13.092 10.546 7.753 5.428 4.896 4.833 4.078 1.721 0.070 0.000 0.000 0.000 0.000 0.000 0.000 0.000
0.000 0.000 0.000 0.000 0.018 1.373 5.815 8.087 11.747 13.028 14.248 14.118 15.149 15.751 16.678 16.783 16.941 16.162 15.464 14.415 13.571 11.470 9.403 6.229 5.613 5.091 4.786 3.603 1.362 0.007 0.000 0.000 0.000 0.000 0.000 0.000
0.000 0.000 0.000 0.000 0.000 0.297 2.720 5.914 9.015 10.769 12.450 13.448 14.550 15.835 16.323 16.708 16.418 16.166 15.687 14.619 13.536 12.286 10.378 7.393 6.132 5.496 5.022 4.386 3.024 0.324 0.001 0.000 0.000 0.000 0.000 0.000
0.000 0.000 0.000 0.000 0.000 0.032 1.989 4.749 6.173 8.991 11.535 12.759 14.148 15.269 15.981 16.119 16.023 16.484 15.347 14.613 13.941 12.728 10.699 9.197 6.970 5.933 5.238 4.516 4.105 2.564 0.235 0.000 0.000 0.000 0.000 0.000
0.000 0.000 0.000 0.000 0.000 0.002 0.733 3.362 4.367 7.377 10.398 11.925 13.972 14.627 14.878 15.849 15.980 16.040 14.666 14.923 14.156 12.899 11.927 10.384 8.149 6.524 5.608 4.612 4.580 3.774 1.911 0.043 0.000 0.000 0.000 0.000
0.000 0.000 0.000 0.000 0.000 0.000 0.139 1.769 3.560 5.964 8.463 12.568 13.088 14.544 14.792 15.587 15.566 14.477 15.275 14.977 13.963 13.210 12.402 10.980 9.323 7.275 5.985 5.186 4.832 4.377 3.357 0.985 0.001 0.000 0.000 0.000
0.000 0.000 0.000 0.000 0.000 0.000 0.007 0.885 2.878 4.887 7.960 11.885 13.539 14.213 15.552 15.057 15.189 15.397 15.188 14.666 14.482 13.530 12.374 11.624 10.499 8.694 7.133 5.688 5.199 4.595 4.036 2.761 0.166 0.000 0.000 0.000
0.000 0.000 0.000 0.000 0.000 0.000 0.000 0.140 2.010 4.002 6.418 9.886 12.407 14.073 14.322 14.616 14.547 14.454 15.131 14.682 14.098 13.951 12.782 11.742 11.412 9.707 7.922 6.434 5.452 4.802 4.438 3.721 1.545 0.001 0.000 0.000
0.000 0.000 0.000 0.000 0.000 0.000 0.000 0.008 1.298 4.529 5.992 7.230 11.000 12.375 13.862 14.122 14.283 14.355 14.457 15.105 14.423 13.742 13.103 12.479 11.695 10.738 9.498 7.322 5.575 5.519 4.645 3.956 3.000 0.136 0.000 0.000
0.000 0.000 0.000 0.000 0.000 0.000 0.000 0.006 1.167 4.098 5.061 5.505 9.148 11.676 13.134 14.463 14.509 14.487 14.160 14.292 14.624 14.320 13.755 12.602 12.245 11.307 10.197 8.367 6.466 6.006 4.659 4.200 3.657 1.964 0.158 0.000
0.000 0.000 0.000 0.000 0.000 0.000 0.000 0.000 0.272 2.167 3.599 3.800 6.050 9.495 12.314 13.632 14.135 14.170 13.887 14.058 14.556 14.279 13.930 12.639 12.055 12.759 11.806 9.571 7.581 6.150 4.961 4.396 4.029 3.619 0.996 0.008
0.000 0.000 0.000 0.000 0.000 0.000 0.000 0.000 0.003 0.366 2.532 3.523 4.345 8.179 10.373 12.821 13.377 13.709 13.508 13.704 14.212 14.146 13.719 13.239 12.786 13.649 13.156 11.239 8.529 6.502 5.369 4.408 4.303 3.951 2.466 0.465
0.000 0.000 0.000 0.000 0.000 0.000 0.000 0.000 0.000 0.016 1.378 2.950 3.108 5.382 9.355 11.721 13.194 13.420 13.044 13.222 14.037 14.110 13.798 13.243 13.960 14.848 13.817 12.646 9.549 6.428 5.319 4.607 4.749 4.155 3.485 1.864
0.000 0.000 0.000 0.000 0.000 0.000 0.000 0.000 0.000 0.000 0.140 1.819 2.350 4.347 6.907 10.734 12.638 13.071 12.766 12.909 13.355 13.739 13.878 13.851 14.101 15.212 14.509 13.334 9.481 6.712 5.909 5.368 4.634 4.171 3.813 3.028
0.000 0.000 0.000 0.000 0.000 0.000 0.000 0.000 0.000 0.000 0.004 1.464 3.126 4.150 5.440 7.885 11.630 12.947 12.547 12.330 12.854 13.356 13.690 13.884 13.535 14.981 14.584 12.730 9.551 8.325 7.168 5.426 4.089 4.566 4.016 3.487
0.000 0.000 0.000 0.000 0.000 0.000 0.000 0.000 0.000 0.000 0.000 0.707 2.982 4.168 4.385 5.888 10.019 12.435 12.462 11.625 12.353 12.788 13.488 13.455 13.706 15.347 15.266 12.825 10.129 9.516 7.610 4.791 4.286 4.509 4.045 3.997
0.000 0.000 0.000 0.000 0.000 0.000 0.000 0.000 0.000 0.000 0.000 0.136 2.632 3.992 4.259 4.677 6.810 12.597 12.734 11.531 11.741 12.401 12.764 12.837 13.942 15.228 14.441 12.605 10.921 10.243 8.140 4.901 5.107 4.726 4.642 4.143
0.000 0.000 0.000 0.000 0.000 0.000 0.000 0.000 0.000 0.000 0.000 0.009 1.209 3.364 3.941 4.464 5.084 11.547 12.584 11.319 11.461 12.138 12.425 12.959 14.420 15.168 14.087 12.924 11.545 10.583 7.911 6.254 5.752 5.349 4.476 3.140
0.000 0.000 0.000 0.000 0.000 0.000 0.000 0.000 0.000 0.000 0.000 0.002 0.343 2.321 3.720 4.346 4.540 10.299 12.779 11.580 11.282 12.027 12.109 12.749 14.374 14.346 14.328 13.354 11.572 10.472 9.079 7.329 6.481 5.595 3.960 3.497
0.000 0.000 0.000 0.000 0.000 0.000 0.000 0.000 0.000 0.000 0.000 0.000 0.040 1.308 3.111 4.291 4.394 7.611 12.285 11.419 10.585 10.995 11.442 12.305 14.029 14.695 14.327 12.671 11.399 10.792 9.722 8.379 7.306 5.898 5.091 4.845
0.000 0.000 0.000 0.000 0.000 0.000 0.000 0.000 0.000 0.000 0.000 0.000 0.000 0.380 2.317 3.780 4.273 6.588 12.062 11.246 10.095 10.033 10.435 11.645 13.179 13.773 12.785 11.403 11.770 10.296 9.797 9.395 7.999 6.431 5.644 4.941
0.000 0.000 0.000 0.000 0.000 0.000 0.000 0.000 0.000 0.000 0.000 0.000 0.000 0.011 1.355 3.520 4.210 5.818 11.138 11.319 9.647 9.313 9.950 10.931 11.973 12.521 11.838 11.397 10.893 10.659 10.565 10.305 8.707 6.780 5.913 4.887
0.000 0.000 0.000 0.000 0.000 0.000 0.000 0.000 0.000 0.000 0.000 0.000 0.000 0.000 0.299 3.783 4.035 5.231 10.713 11.030 9.346 9.041 9.522 10.222 11.780 12.358 11.585 11.008 10.849 11.372 11.404 10.775 8.866 7.498 6.061 4.676
0.000 0.000 0.000 0.000 0.000 0.000 0.000 0.000 0.000 0.000 0.000 0.000 0.000 0.000 0.107 3.526 4.130 5.134 9.817 10.653 9.314 8.546 8.689 9.857 11.758 11.197 10.520 10.917 11.642 12.144 12.100 10.674 9.254 8.184 6.269 5.033
0.000 0.000 0.000 0.000 0.000 0.000 0.000 0.000 0.000 0.000 0.000 0.000 0.000 0.000 0.064 3.347 3.852 4.862 9.404 10.546 9.296 7.808 7.912 8.880 9.423 9.694 10.413 11.110 11.637 12.388 11.495 10.473 9.934 8.656 7.279 5.864
0.000 0.000 0.000 0.000 0.000 0.000 0.000 0.000 0.000 0.000 0.000 0.000 0.000 0.000 0.087 2.896 3.639 4.669 8.688 9.997 8.978 7.596 6.933 7.554 8.641 9.489 10.455 10.901 11.440 12.182 11.147 11.050 10.480 9.653 8.468 6.522
0.000 0.000 0.000 0.000 0.000 0.000 0.000 0.000 0.000 0.000 0.000 0.000 0.000 0.000 0.087 2.724 3.192 4.574 8.177 9.534 8.963 6.878 6.012 6.882 8.197 9.270 9.889 10.922 12.467 12.013 11.602 11.342 11.303 10.745 9.446 6.729
0.000 0.000 0.000 0.000 0.000 0.000 0.000 0.000 0.000 0.000 0.000 0.000 0.000 0.000 0.074 2.679 3.124 4.322 7.345 8.735 8.657 6.676 5.404 6.550 7.656 8.964 10.015 11.465 11.768 11.097 12.270 12.187 11.660 11.637 9.646 6.610
0.000 0.000 0.000 0.000 0.000 0.000 0.000 0.000 0.000 0.000 0.000 0.000 0.000 0.000 0.090 2.540 3.127 4.163 7.030 8.775 8.350 6.632 4.995 5.969 7.273 8.929 10.460 10.832 10.631 11.418 12.257 11.719 11.938 12.701 9.927 6.249
0.000 0.000 0.000 0.000 0.000 0.000 0.000 0.000 0.000 0.000 0.000 0.000 0.000 0.000 0.124 2.611 3.020 4.062 5.616 8.281 8.207 6.211 5.157 6.484 7.908 8.648 9.322 9.840 10.406 11.453 12.031 12.254 13.183 12.018 9.761 6.957
0.000 0.000 0.000 0.000 0.000 0.000 0.000 0.000 0.000 0.000 0.000 0.000 0.000 0.000 0.085 2.587 3.038 4.037 5.169 7.729 7.725 6.185 5.398 6.338 7.489 7.981 8.501 9.708 10.254 11.104 11.991 12.778 12.541 11.195 10.238 6.728
0.000 0.000 0.000 0.000 0.000 0.000 0.000 0.000 0.000 0.000 0.000 0.000 0.000 0.000 0.075 2.589 3.110 3.885 4.808 7.110 7.251 6.194 5.554 6.346 6.755 6.890 8.071 8.725 9.523 10.418 11.615 11.777 11.527 10.816 9.609 6.785
0.000 0.000 0.000 0.000 0.000 0.000 0.000 0.000 0.000 0.000 0.000 0.000 0.000 0.000 0.076 2.447 2.939 3.732 4.475 6.925 7.011 6.369 5.924 6.247 6.169 6.767 7.501 8.089 8.395 9.145 10.456 11.127 10.997 10.434 9.654 6.826
0.000 0.000 0.000 0.000 0.000 0.000 0.000 0.000 0.000 0.000 0.000 0.000 0.000 0.000 0.053 2.565 2.968 3.758 4.098 6.662 6.579 6.228 5.909 5.881 5.982 6.395 7.045 7.795 8.049 8.913 9.140 9.992 10.312 10.212 9.469 6.298
0.000 0.000 0.000 0.000 0.000 0.000 0.000 0.000 0.000 0.000 0.000 0.000 0.000 0.000 0.031 2.390 3.179 3.460 3.862 6.471 6.725 5.841 5.690 5.622 5.431 6.317 7.042 7.887 7.973 8.026 8.238 8.472 9.030 9.513 8.060 5.445
0.000 0.000 0.000 0.000 0.000 0.000 0.000 0.000 0.000 0.000 0.000 0.000 0.000 0.000 0.031 1.971 2.917 3.233 3.650 6.279 6.696 6.071 5.094 5.212 5.840 6.396 6.562 6.979 7.503 7.261 7.297 7.235 7.122 7.144 6.192 5.084
0.000 0.000 0.000 0.000 0.000 0.000 0.000 0.000 0.000 0.000 0.000 0.000 0.000 0.000 0.019 2.020 2.934 3.024 3.693 6.115 6.141 5.268 4.783 5.719 5.860 5.879 5.626 6.805 7.067 6.576 6.077 6.020 6.375 6.013 5.717 4.807
0.000 0.000 0.000 0.000 0.000 0.000 0.000 0.000 0.000 0.000 0.000 0.000 0.000 0.000 0.004 0.745 2.889 2.954 3.348 4.808 5.725 4.904 4.862 5.109 5.505 5.076 5.525 6.712 6.230 5.388 5.117 5.717 5.798 5.311 4.520 3.695
0.000 0.000 0.000 0.000 0.000 0.000 0.000 0.000 0.000 0.000 0.000 0.000 0.000 0.000 0.022 0.000 2.784 2.898 2.807 3.626 4.110 3.602 4.514 4.887 4.853 4.609 5.859 6.202 4.886 4.449 4.958 5.145 4.525 3.785 3.515 3.299
