ncols        35
nrows        57
xllcorner    409727.8
yllcorner    6870739.1
cellsize     5.00
NODATA_value -9999
0.000 0.000 0.000 0.000 0.000 0.000 0.000 0.000 0.000 0.000 0.000 0.000 0.000 0.000 0.000 0.000 0.000 0.000 0.000 0.000 0.000 0.000 0.000 0.000 0.000 0.000 0.000 0.000 0.000 0.000 0.000 0.000 0.000 0.000 0.000
0.000 0.000 0.026 1.693 8.505 13.806 14.175 14.168 13.980 9.054 3.201 0.254 0.000 0.000 0.000 0.000 0.000 0.000 0.000 0.000 0.000 0.000 0.000 0.000 0.000 0.000 0.000 0.000 0.000 0.000 0.000 0.000 0.000 0.000 0.000
0.000 0.092 3.341 13.939 13.860 14.438 14.749 14.706 14.256 13.958 13.540 8.024 1.280 0.002 0.000 0.000 0.000 0.000 0.000 0.000 0.000 0.000 0.000 0.000 0.000 0.000 0.000 0.000 0.000 0.000 0.000 0.000 0.000 0.000 0.000
0.012 2.997 14.206 14.293 14.902 15.450 15.836 15.874 15.626 15.486 14.032 12.784 10.631 1.697 0.001 0.000 0.000 0.000 0.000 0.000 0.000 0.000 0.000 0.000 0.000 0.000 0.000 0.000 0.000 0.000 0.000 0.000 0.000 0.000 0.000
1.144 13.833 14.421 14.547 15.837 16.183 16.680 16.609 16.474 16.119 15.167 14.515 13.852 9.751 0.940 0.000 0.000 0.000 0.000 0.000 0.000 0.000 0.000 0.000 0.000 0.000 0.000 0.000 0.000 0.000 0.000 0.000 0.000 0.000 0.000
4.656 13.699 14.367 15.734 16.516 16.762 17.248 17.141 17.470 16.895 16.476 15.894 15.516 12.699 7.472 0.230 0.000 0.000 0.000 0.000 0.000 0.000 0.000 0.000 0.000 0.000 0.000 0.000 0.000 0.000 0.000 0.000 0.000 0.000 0.000
8.881 14.083 15.071 16.162 16.843 16.973 17.505 18.026 18.303 17.569 17.126 17.012 16.589 14.907 12.020 4.366 0.024 0.000 0.000 0.000 0.000 0.000 0.000 0.000 0.000 0.000 0.000 0.000 0.000 0.000 0.000 0.000 0.000 0.000 0.000
12.078 14.056 15.306 16.586 16.948 17.010 18.162 18.380 18.352 17.828 17.851 18.030 17.760 16.603 13.629 9.760 2.036 0.002 0.000 0.000 0.000 0.000 0.000 0.000 0.000 0.000 0.000 0.000 0.000 0.000 0.000 0.000 0.000 0.000 0.000
12.768 14.177 15.342 16.092 16.787 17.817 18.442 17.928 18.426 18.389 18.358 18.930 18.638 17.540 15.109 12.416 7.550 0.844 0.000 0.000 0.000 0.000 0.000 0.000 0.000 0.000 0.000 0.000 0.000 0.000 0.000 0.000 0.000 0.000 0.000
10.926 14.060 15.224 15.649 16.479 17.304 18.270 18.924 18.202 18.741 18.851 19.113 19.348 17.648 16.364 14.001 10.736 5.752 0.392 0.000 0.000 0.000 0.000 0.000 0.000 0.000 0.000 0.000 0.000 0.000 0.000 0.000 0.000 0.000 0.000
7.792 13.199 14.541 15.812 16.729 18.454 17.845 18.015 18.809 18.947 19.278 19.472 18.156 18.663 17.245 15.235 13.437 9.523 4.187 0.203 0.000 0.000 0.000 0.000 0.000 0.000 0.000 0.000 0.000 0.000 0.000 0.000 0.000 0.000 0.000
5.197 12.588 14.115 15.404 16.394 17.666 18.028 18.995 18.659 20.046 19.069 19.808 19.621 19.596 18.505 16.564 15.339 10.446 8.271 3.168 0.124 0.000 0.000 0.000 0.000 0.000 0.000 0.000 0.000 0.000 0.000 0.000 0.000 0.000 0.000
2.854 11.805 14.170 15.324 16.507 17.250 18.534 18.631 19.652 19.567 19.383 19.628 20.340 20.377 19.059 17.629 15.530 13.166 9.979 6.937 2.407 0.090 0.000 0.000 0.000 0.000 0.000 0.000 0.000 0.000 0.000 0.000 0.000 0.000 0.000
1.019 10.194 12.992 15.142 16.725 17.760 17.976 19.392 18.665 18.913 19.315 20.379 20.499 20.284 19.080 17.913 16.409 15.177 11.296 8.198 5.761 2.200 0.088 0.000 0.000 0.000 0.000 0.000 0.000 0.000 0.000 0.000 0.000 0.000 0.000
0.230 6.638 12.228 13.995 16.087 17.333 17.950 18.117 19.097 19.385 19.619 20.655 19.927 20.605 19.593 17.709 17.224 15.811 13.816 9.207 7.046 5.506 1.990 0.030 0.000 0.000 0.000 0.000 0.000 0.000 0.000 0.000 0.000 0.000 0.000
0.028 3.376 10.827 14.400 15.289 17.551 17.185 18.687 18.429 19.669 19.542 19.664 20.286 19.768 18.712 17.901 17.794 16.066 15.031 11.548 7.887 6.763 5.121 1.357 0.010 0.000 0.000 0.000 0.000 0.000 0.000 0.000 0.000 0.000 0.000
0.001 0.970 8.397 11.268 14.919 16.131 17.101 16.912 18.010 18.598 19.575 19.652 19.993 19.416 19.038 18.337 18.157 16.626 15.638 12.694 9.861 7.479 6.502 4.314 0.887 0.001 0.000 0.000 0.000 0.000 0.000 0.000 0.000 0.000 0.000
0.000 0.179 4.438 9.657 12.785 14.263 15.424 16.342 17.549 19.068 19.533 19.864 19.573 19.459 19.395 18.562 17.862 17.221 16.239 13.957 12.339 8.647 6.981 5.793 3.429 0.228 0.000 0.000 0.000 0.000 0.000 0.000 0.000 0.000 0.000
0.000 0.014 2.050 7.689 11.031 12.823 14.733 15.636 17.178 18.595 19.524 19.482 19.272 19.898 19.100 18.504 18.218 17.523 15.804 15.170 13.849 10.318 7.758 6.118 5.272 2.637 0.080 0.000 0.000 0.000 0.000 0.000 0.000 0.000 0.000
0.000 0.000 0.538 5.026 9.069 11.396 13.893 14.568 16.993 17.751 18.193 19.453 19.471 19.482 18.274 18.870 18.420 17.447 17.015 16.098 15.084 12.743 9.153 6.527 6.011 4.687 1.650 0.007 0.000 0.000 0.000 0.000 0.000 0.000 0.000
0.000 0.000 0.073 2.466 6.728 9.674 11.861 15.483 15.673 17.444 17.770 19.200 19.296 17.992 19.017 18.994 18.039 17.572 17.335 16.313 15.037 13.705 10.839 7.574 6.415 5.575 3.867 0.607 0.000 0.000 0.000 0.000 0.000 0.000 0.000
0.000 0.000 0.003 0.991 5.280 8.294 12.386 14.987 16.011 16.687 18.355 18.166 18.763 19.324 18.995 18.519 18.675 17.830 16.886 16.660 15.928 14.198 13.175 8.954 7.094 5.944 4.990 2.887 0.069 0.000 0.000 0.000 0.000 0.000 0.000
0.000 0.000 0.000 0.108 3.164 6.247 9.520 13.259 14.754 16.290 16.507 17.126 17.544 17.943 19.061 18.509 18.001 18.231 17.191 16.285 16.574 15.061 13.925 11.217 7.735 6.232 5.495 4.440 1.399 0.001 0.000 0.000 0.000 0.000 0.000
0.000 0.000 0.000 0.006 1.707 6.025 8.235 11.261 13.354 14.323 15.667 16.089 16.719 17.425 18.136 19.107 18.342 17.742 17.256 16.987 16.377 15.640 14.846 12.935 8.442 7.231 5.822 4.809 3.412 0.196 0.000 0.000 0.000 0.000 0.000
0.000 0.000 0.000 0.002 0.818 4.747 6.825 8.244 11.727 13.680 14.744 16.110 16.501 17.181 17.610 18.019 18.507 18.351 17.919 16.821 16.803 15.788 14.902 13.812 10.457 8.109 5.951 5.087 4.432 2.094 0.058 0.000 0.000 0.000 0.000
0.000 0.000 0.000 0.000 0.092 1.998 4.594 5.717 9.475 11.723 14.054 15.226 15.877 16.475 17.084 17.643 18.367 18.167 18.026 16.572 15.979 17.151 16.481 14.806 12.309 8.690 6.463 5.396 4.780 4.236 0.877 0.001 0.000 0.000 0.000
0.000 0.000 0.000 0.000 0.001 0.290 3.024 4.636 7.095 10.952 12.486 14.586 15.101 15.768 16.418 17.131 17.858 17.874 17.516 17.139 16.575 17.794 17.731 16.076 13.664 9.666 7.225 5.540 5.136 4.699 2.697 0.237 0.000 0.000 0.000
0.000 0.000 0.000 0.000 0.000 0.013 1.425 3.762 5.075 8.659 12.279 13.856 15.030 15.381 15.639 16.428 17.582 17.749 17.454 16.832 17.849 19.132 18.152 17.346 14.948 10.543 7.621 5.840 5.664 4.902 4.091 1.771 0.003 0.000 0.000
0.000 0.000 0.000 0.000 0.000 0.000 0.131 2.300 3.709 6.581 10.852 13.755 14.781 15.059 15.106 16.004 16.661 17.181 17.417 17.422 17.865 19.400 18.838 17.795 13.911 10.631 8.620 6.900 5.641 4.916 4.435 3.351 0.335 0.000 0.000
0.000 0.000 0.000 0.000 0.000 0.000 0.004 1.621 4.105 5.524 8.032 12.661 14.389 15.053 14.665 15.270 15.972 16.626 17.058 17.385 16.938 18.840 18.706 16.960 13.396 11.995 10.424 7.519 5.254 5.400 4.657 4.076 1.992 0.003 0.000
0.000 0.000 0.000 0.000 0.000 0.000 0.000 0.630 3.574 5.180 5.927 9.789 14.171 14.748 14.427 14.268 15.296 15.806 16.718 16.746 16.936 19.063 19.440 16.910 13.791 13.312 11.593 7.339 5.621 5.461 4.675 4.604 3.665 0.359 0.000
0.000 0.000 0.000 0.000 0.000 0.000 0.000 0.105 2.797 4.793 5.346 6.148 13.774 15.193 14.636 13.998 14.459 15.214 15.711 15.788 17.020 18.705 18.126 16.302 14.534 13.974 11.845 7.722 6.657 5.771 5.431 4.776 4.411 2.251 0.002
0.000 0.000 0.000 0.000 0.000 0.000 0.000 0.005 1.051 3.877 4.794 5.318 12.628 14.771 14.436 13.501 14.018 14.771 15.141 15.774 17.449 18.551 17.479 16.416 15.103 14.353 11.247 9.174 7.547 6.544 5.478 3.876 4.387 3.740 0.397
0.000 0.000 0.000 0.000 0.000 0.000 0.000 0.001 0.235 2.492 4.426 5.003 7.981 14.580 14.658 13.617 13.779 14.638 14.689 15.413 17.344 17.407 17.615 16.823 14.967 13.856 12.395 10.203 8.686 6.978 5.034 4.308 5.027 4.448 2.477
0.000 0.000 0.000 0.000 0.000 0.000 0.000 0.000 0.022 1.209 3.618 4.939 6.596 14.316 14.231 13.229 12.940 13.425 13.864 14.796 16.871 17.826 17.684 15.975 14.563 14.053 12.956 11.368 10.331 7.462 6.157 5.778 5.247 4.028 3.565
0.000 0.000 0.000 0.000 0.000 0.000 0.000 0.000 0.000 0.283 2.550 4.478 5.901 13.720 14.095 12.824 12.332 12.319 12.629 13.928 15.796 16.715 15.845 14.328 14.985 13.243 12.667 12.314 11.131 8.421 6.854 5.983 4.677 4.212 4.198
0.000 0.000 0.000 0.000 0.000 0.000 0.000 0.000 0.000 0.007 1.339 4.113 5.617 12.429 13.333 12.811 11.732 11.460 12.038 13.064 14.283 15.096 14.549 14.186 13.703 13.396 13.318 13.157 11.525 9.436 7.426 6.066 4.822 4.373 4.021
0.000 0.000 0.000 0.000 0.000 0.000 0.000 0.000 0.000 0.000 0.254 4.300 5.142 11.042 13.164 12.437 11.229 11.155 11.602 12.237 13.977 14.857 14.196 13.584 13.356 13.983 14.117 13.600 11.507 10.279 8.066 6.208 5.040 4.758 4.343
0.000 0.000 0.000 0.000 0.000 0.000 0.000 0.000 0.000 0.000 0.088 3.988 5.119 10.558 12.525 12.015 11.009 10.668 10.744 11.827 14.103 13.589 12.812 13.251 14.113 14.731 14.890 13.393 11.757 10.701 8.849 6.877 5.848 4.981 4.629
0.000 0.000 0.000 0.000 0.000 0.000 0.000 0.000 0.000 0.000 0.053 3.787 4.711 9.810 12.418 11.910 10.793 9.824 9.996 10.876 11.406 11.701 12.500 13.316 13.967 14.920 14.076 12.936 12.388 11.068 10.117 8.107 6.839 5.510 4.881
0.000 0.000 0.000 0.000 0.000 0.000 0.000 0.000 0.000 0.000 0.072 3.353 4.432 9.090 11.809 11.454 10.223 9.666 9.082 9.439 10.431 11.295 12.428 12.960 13.529 14.543 13.433 13.426 12.828 12.038 11.619 9.309 7.405 5.402 4.703
0.000 0.000 0.000 0.000 0.000 0.000 0.000 0.000 0.000 0.000 0.072 3.155 3.933 8.685 11.402 11.147 10.048 8.807 8.148 8.637 9.834 10.904 11.590 12.753 14.622 14.304 13.816 13.560 13.610 13.107 12.705 10.323 7.363 5.369 4.652
0.000 0.000 0.000 0.000 0.000 0.000 0.000 0.000 0.000 0.000 0.065 3.097 3.767 7.988 10.324 10.487 9.708 8.340 7.430 8.181 9.113 10.431 11.521 13.243 13.791 13.076 14.440 14.460 13.946 13.961 12.724 10.532 7.404 5.488 4.710
0.000 0.000 0.000 0.000 0.000 0.000 0.000 0.000 0.000 0.000 0.078 2.920 3.724 6.783 10.194 10.638 9.453 8.077 6.686 7.174 8.292 10.256 11.962 12.472 12.384 13.305 14.339 13.799 14.065 15.183 12.335 10.002 8.384 5.967 5.170
0.000 0.000 0.000 0.000 0.000 0.000 0.000 0.000 0.000 0.000 0.103 2.961 3.566 5.704 9.394 10.240 9.407 7.347 6.405 7.386 8.770 9.685 10.734 11.225 11.979 13.248 13.986 14.281 15.477 14.377 12.078 11.036 8.555 6.693 5.680
0.000 0.000 0.000 0.000 0.000 0.000 0.000 0.000 0.000 0.000 0.068 2.893 3.525 5.218 9.105 9.741 9.009 7.190 6.403 7.116 8.251 8.874 9.592 11.021 11.743 12.822 13.876 14.872 14.739 13.368 12.631 10.840 9.281 7.336 6.103
0.000 0.000 0.000 0.000 0.000 0.000 0.000 0.000 0.000 0.000 0.061 2.868 3.562 4.860 8.610 9.028 8.502 7.083 6.417 7.067 7.481 7.598 8.947 10.018 10.906 12.082 13.504 13.743 13.561 12.913 11.913 11.047 9.844 7.581 5.452
0.000 0.000 0.000 0.000 0.000 0.000 0.000 0.000 0.000 0.000 0.061 2.686 3.370 4.513 8.152 8.763 8.219 7.145 6.719 7.017 6.842 7.389 8.221 9.113 9.832 10.811 12.597 13.093 13.005 12.487 11.977 11.298 9.812 7.409 4.814
0.000 0.000 0.000 0.000 0.000 0.000 0.000 0.000 0.000 0.000 0.042 2.763 3.340 4.429 7.537 8.375 7.623 7.008 6.706 6.689 6.683 6.984 7.666 8.658 9.278 10.626 11.404 12.059 12.341 12.315 11.890 10.902 9.100 7.350 5.364
0.000 0.000 0.000 0.000 0.000 0.000 0.000 0.000 0.000 0.000 0.025 2.554 3.539 4.069 7.138 8.059 7.555 6.521 6.669 6.541 6.138 6.916 7.636 8.705 9.084 9.519 10.247 11.174 11.579 11.852 10.997 10.188 9.000 7.817 6.045
0.000 0.000 0.000 0.000 0.000 0.000 0.000 0.000 0.000 0.000 0.024 2.110 3.263 3.796 6.357 7.775 7.466 6.768 6.241 6.141 6.599 7.083 7.192 7.738 8.563 8.604 9.092 9.848 10.279 10.704 10.104 9.949 9.239 8.284 6.264
0.000 0.000 0.000 0.000 0.000 0.000 0.000 0.000 0.000 0.000 0.015 2.141 3.281 3.577 5.496 7.724 6.908 6.083 6.122 6.837 6.776 6.700 6.295 7.617 8.160 7.924 7.667 8.132 9.620 9.931 10.234 9.949 8.451 8.560 5.663
0.000 0.000 0.000 0.000 0.000 0.000 0.000 0.000 0.000 0.000 0.004 0.942 3.255 3.488 4.883 7.522 6.643 5.965 6.268 6.406 6.624 6.065 6.372 7.698 7.425 6.802 6.574 7.441 8.289 9.279 8.885 8.639 8.581 7.781 5.233
0.000 0.000 0.000 0.000 0.000 0.000 0.000 0.000 0.000 0.000 0.020 0.114 3.214 3.555 4.338 6.927 6.179 5.472 6.294 6.592 6.378 6.004 7.143 7.492 6.317 6.171 6.624 6.896 6.699 7.139 7.640 8.046 8.341 6.603 4.335
0.000 0.000 0.000 0.000 0.000 0.000 0.000 0.000 0.000 0.000 0.104 1.759 3.195 3.486 4.181 6.538 5.715 5.093 6.252 6.343 6.047 6.885 7.630 6.379 5.627 5.903 6.152 5.605 5.452 5.650 6.302 6.636 6.261 5.034 4.355
0.000 0.000 0.000 0.000 0.000 0.000 0.000 0.000 0.000 0.000 0.069 1.804 3.044 3.395 3.951 5.817 5.065 5.072 5.906 5.828 6.575 7.448 6.527 5.293 5.499 5.291 4.925 4.735 4.752 4.956 4.987 5.215 5.035 4.725 4.450
0.000 0.000 0.000 0.000 0.000 0.000 0.000 0.000 0.000 0.000 0.018 1.462 2.980 3.018 3.268 3.875 3.904 4.550 5.218 5.625 6.087 5.516 4.434 4.599 4.607 4.075 3.818 3.898 3.975 4.320 4.212 4.090 4.037 3.893 3.461
