ncols        35
nrows        38
xllcorner    409862.8
yllcorner    6870469.1
cellsize     5.00
NODATA_value -9999
0.000 0.000 0.000 0.000 0.000 0.000 0.000 0.000 0.000 0.000 0.000 0.000 0.000 0.000 0.000 0.000 0.000 0.000 0.000 0.000 0.000 0.036 0.760 2.900 4.299 3.890 2.404 0.920 0.140 0.005 0.000 0.000 0.000 0.000 0.000
0.000 0.000 0.000 0.000 0.000 0.000 0.000 0.000 0.000 0.000 0.000 0.000 0.000 0.000 0.000 0.000 0.000 0.000 0.000 0.006 1.239 6.800 16.268 16.727 16.845 16.882 17.661 13.556 7.720 2.448 0.353 0.010 0.000 0.000 0.000
0.000 0.000 0.000 0.000 0.000 0.000 0.000 0.000 0.000 0.000 0.000 0.000 0.000 0.000 0.000 0.000 0.000 0.000 0.024 2.252 15.524 16.209 17.325 18.044 18.940 18.818 18.546 17.766 17.534 12.965 7.316 2.091 0.202 0.003 0.000
0.000 0.000 0.000 0.000 0.000 0.000 0.000 0.000 0.000 0.000 0.000 0.000 0.000 0.000 0.000 0.000 0.000 0.010 2.118 15.658 16.352 17.405 18.464 19.706 20.413 20.527 20.077 19.883 19.074 16.700 14.594 10.590 5.182 1.339 0.140
0.000 0.000 0.000 0.000 0.000 0.000 0.000 0.000 0.000 0.000 0.000 0.000 0.000 0.000 0.000 0.010 0.379 3.004 14.990 16.155 17.225 18.401 19.198 20.558 20.509 20.756 21.755 21.695 20.608 19.851 17.038 15.198 11.972 8.671 4.394
0.000 0.000 0.000 0.000 0.000 0.000 0.000 0.000 0.000 0.000 0.000 0.000 0.000 0.001 0.683 6.504 14.962 15.068 15.629 16.755 17.455 18.934 19.225 20.359 20.561 21.657 22.665 23.035 22.828 21.605 18.719 17.047 15.658 12.533 9.874
0.000 0.000 0.000 0.000 0.000 0.000 0.000 0.000 0.000 0.000 0.000 0.000 0.000 0.992 12.784 15.849 16.123 16.213 16.136 16.642 17.669 18.525 18.818 21.242 21.216 22.886 24.081 25.028 23.234 22.130 20.490 18.639 18.419 14.229 8.876
0.000 0.000 0.000 0.000 0.000 0.000 0.000 0.000 0.000 0.000 0.000 0.000 0.650 11.852 16.186 16.987 17.499 17.220 16.373 16.545 17.989 18.201 20.112 21.590 21.350 23.702 25.464 24.552 22.368 22.490 22.196 19.995 18.568 16.401 9.730
0.000 0.000 0.000 0.000 0.000 0.000 0.000 0.000 0.000 0.000 0.000 0.241 6.945 15.696 17.183 18.003 18.803 18.577 17.139 16.855 17.713 18.980 20.473 21.267 22.193 24.030 25.617 23.398 21.929 22.339 22.304 20.518 19.069 16.109 10.584
0.000 0.000 0.000 0.000 0.000 0.000 0.000 0.000 0.000 0.000 0.028 3.066 15.281 16.477 18.031 19.353 19.577 19.466 18.438 18.330 19.201 20.487 20.081 19.738 21.473 24.504 22.957 22.518 21.706 22.414 22.208 20.987 20.031 15.433 10.687
0.000 0.000 0.000 0.000 0.000 0.000 0.000 0.000 0.000 0.000 0.740 15.515 15.990 17.287 18.383 20.032 20.783 20.402 20.197 19.317 19.210 18.522 19.201 18.866 21.348 21.680 20.031 21.365 20.272 19.820 21.981 20.346 20.001 15.748 9.887
0.000 0.000 0.000 0.000 0.000 0.000 0.000 0.000 0.000 0.129 8.063 15.794 16.764 17.447 18.830 20.785 21.622 21.336 20.552 19.763 17.826 18.099 18.263 20.243 21.544 19.582 19.872 18.160 18.930 19.701 21.276 19.266 19.277 12.399 8.413
0.000 0.000 0.000 0.000 0.000 0.000 0.000 0.000 0.001 0.923 15.192 16.573 17.848 17.341 19.641 22.075 21.849 22.002 23.106 20.749 18.947 18.325 19.976 20.475 19.589 18.600 17.991 16.953 20.483 19.098 19.004 19.591 15.469 10.691 8.051
0.000 0.000 0.000 0.000 0.000 0.000 0.000 0.000 0.222 11.844 15.972 17.532 17.956 19.678 21.894 22.351 22.721 22.965 22.906 20.902 20.735 20.107 19.813 18.927 17.931 17.352 17.115 18.481 19.106 16.782 16.809 16.212 11.700 10.027 7.835
0.000 0.000 0.000 0.000 0.000 0.000 0.000 0.002 1.470 15.484 17.085 17.877 18.937 19.545 21.904 21.162 22.464 23.306 22.310 20.753 20.158 18.109 17.490 17.515 16.953 16.958 16.151 17.537 15.839 15.320 14.678 11.094 10.909 10.074 7.794
0.000 0.000 0.000 0.000 0.000 0.000 0.000 0.294 12.293 16.372 17.347 18.189 20.627 21.825 21.156 21.499 22.398 22.167 22.581 21.345 19.532 19.335 17.699 16.980 16.035 15.642 17.271 17.475 17.103 13.715 11.112 10.647 10.375 9.667 6.825
0.000 0.000 0.000 0.000 0.000 0.000 0.000 1.358 15.485 17.397 18.525 19.570 22.221 21.318 21.197 20.741 21.721 22.489 23.107 22.063 20.020 19.561 17.768 16.629 15.606 16.685 17.856 17.916 16.949 13.125 9.990 10.131 9.120 8.632 6.984
0.000 0.000 0.000 0.000 0.000 0.000 0.019 3.852 15.874 17.482 19.284 20.298 21.114 21.097 21.129 18.818 21.211 22.247 23.705 21.064 19.781 19.117 16.831 16.395 16.653 18.212 18.688 17.593 16.876 13.640 10.385 11.011 9.281 8.619 8.479
0.000 0.000 0.000 0.000 0.000 0.007 0.836 14.778 16.706 18.887 20.959 20.202 20.139 19.959 20.841 19.761 20.933 22.793 23.035 20.540 19.498 18.304 18.309 16.776 17.763 18.395 18.634 18.161 18.171 15.156 11.642 10.595 8.472 8.410 8.579
0.000 0.000 0.000 0.008 0.622 5.351 13.333 15.806 17.401 20.528 21.839 21.079 22.334 22.890 22.186 20.275 20.581 20.819 21.999 20.491 19.807 17.843 17.192 17.852 17.828 18.362 18.438 18.411 18.199 18.096 10.950 8.382 8.147 7.794 8.078
0.000 0.000 0.156 3.915 15.705 16.570 16.485 16.725 18.209 21.193 22.451 21.026 22.062 22.753 23.637 21.165 19.661 20.666 21.786 20.555 19.362 18.564 17.270 16.941 17.818 17.616 17.743 17.423 20.746 17.925 8.272 7.621 7.495 7.904 7.790
0.000 0.098 4.039 16.783 17.363 17.718 17.360 18.370 19.161 21.484 22.786 21.174 22.507 22.839 23.266 21.868 20.479 20.700 22.079 20.887 20.014 18.556 17.896 17.371 17.411 17.287 18.116 21.103 20.777 14.800 7.369 7.417 7.896 7.429 7.080
0.001 1.632 17.287 17.849 18.832 18.997 19.510 20.615 20.504 22.020 22.965 20.795 21.740 22.459 22.402 22.216 21.303 21.550 22.589 21.180 19.676 18.771 17.562 17.699 17.084 17.290 20.470 19.930 16.174 13.037 6.849 7.112 7.121 5.897 6.338
0.033 6.706 17.940 19.329 20.271 20.848 20.460 21.392 20.374 21.838 24.005 21.781 22.490 25.116 25.243 23.059 21.922 22.648 24.344 21.831 20.486 19.211 17.768 16.996 15.952 19.361 19.288 15.181 13.564 12.219 6.510 6.886 6.563 5.862 6.060
0.263 14.916 19.291 20.732 20.856 21.598 22.686 24.775 24.120 24.862 26.311 23.525 23.945 24.602 23.756 23.412 22.414 22.657 23.840 22.068 22.304 20.879 18.514 16.977 18.426 18.684 15.184 12.417 12.608 12.105 6.162 6.966 5.087 5.329 4.736
0.618 18.740 20.986 21.891 21.760 24.577 26.800 27.446 25.337 24.353 25.668 21.659 21.966 24.055 23.912 22.496 22.807 22.572 23.707 23.680 21.384 19.159 16.342 16.900 17.185 14.383 14.250 13.470 11.953 10.297 5.704 5.583 4.704 4.706 3.865
1.024 19.729 21.797 24.271 26.322 28.280 27.337 25.776 23.479 22.163 23.676 20.132 20.642 23.348 23.294 21.473 21.697 23.728 25.636 22.942 19.974 18.068 18.843 17.427 14.208 14.114 13.287 12.535 10.616 7.845 5.234 4.678 4.510 4.149 3.266
2.020 19.697 22.240 25.590 25.530 27.643 25.228 24.250 22.339 22.109 22.666 22.051 23.214 23.269 22.246 22.331 23.182 24.419 25.139 21.438 20.543 22.142 19.445 15.117 13.380 12.087 10.932 10.568 10.257 5.884 4.617 4.605 3.934 3.100 2.805
3.124 21.560 25.103 27.819 27.857 25.832 24.123 24.334 24.883 22.845 22.475 21.543 22.520 23.819 23.183 21.079 21.425 22.484 24.405 21.591 22.806 19.520 16.758 12.583 11.906 11.837 11.763 10.938 10.805 5.092 4.123 3.428 2.795 2.839 0.000
4.244 21.096 25.543 28.663 25.914 26.128 26.140 25.778 23.751 21.802 23.974 24.452 22.978 24.915 23.949 23.411 23.369 23.827 26.305 23.912 19.604 17.052 14.945 8.795 10.652 12.643 10.189 11.905 10.271 3.810 3.167 2.757 2.782 0.000 0.000
5.022 17.699 22.361 27.712 27.302 25.099 25.414 24.553 23.805 21.637 23.691 24.833 23.952 24.056 25.088 24.055 24.210 25.031 23.718 19.142 16.177 14.037 12.612 8.081 8.361 11.311 6.672 9.972 8.021 3.749 3.147 2.766 0.000 0.000 0.000
6.157 14.311 20.311 25.927 24.971 23.119 24.396 23.521 22.856 21.775 24.478 25.961 25.851 25.204 23.325 21.083 20.775 20.387 17.281 14.820 15.049 14.419 9.702 6.899 6.200 8.595 4.667 5.982 5.197 3.360 2.581 0.000 0.000 0.000 0.000
5.682 12.299 14.603 22.335 25.249 24.015 24.142 25.190 24.505 23.103 24.991 24.837 24.111 23.237 20.653 17.427 17.342 15.587 10.370 9.476 9.087 8.824 5.677 4.541 3.864 5.468 3.401 3.690 3.216 2.662 0.000 0.000 0.000 0.000 0.000
3.695 8.946 10.509 17.508 23.688 21.700 25.412 24.998 23.317 20.436 22.738 23.019 21.858 20.506 19.599 17.835 15.408 10.990 8.298 7.838 5.776 4.811 3.777 3.124 3.891 3.409 3.160 3.417 2.907 0.000 0.000 0.000 0.000 0.000 0.000
2.517 9.314 10.109 13.327 19.991 22.876 23.321 22.349 20.487 19.285 20.467 20.764 20.788 19.197 17.111 14.188 11.354 9.178 7.331 6.343 5.564 4.532 3.438 3.424 3.512 3.073 3.163 2.919 0.000 0.000 0.000 0.000 0.000 0.000 0.000
1.758 8.863 8.673 9.695 17.021 18.601 21.228 18.933 16.569 15.715 19.836 21.432 18.634 14.628 11.586 9.473 8.952 7.726 6.946 6.230 6.024 5.504 4.318 3.554 2.930 2.313 0.000 0.000 0.000 0.000 0.000 0.000 0.000 0.000 0.000
1.277 7.258 8.080 8.799 10.326 12.427 19.121 15.094 12.780 15.541 17.453 18.812 13.476 10.837 9.225 8.251 8.053 7.152 6.668 7.021 6.233 5.611 3.934 3.442 0.000 0.000 0.000 0.000 0.000 0.000 0.000 0.000 0.000 0.000 0.000
0.809 6.484 7.130 6.866 8.620 8.895 15.386 9.496 8.921 9.498 10.711 11.537 9.299 8.488 8.397 8.391 7.516 6.965 6.844 6.687 6.015 5.550 3.552 0.000 0.000 0.000 0.000 0.000 0.000 0.000 0.000 0.000 0.000 0.000 0.000
