ncols        49
nrows        122
xllcorner    409567.8
yllcorner    6870859.1
cellsize     5.00
NODATA_value -9999
0.000 0.000 0.000 0.000 0.000 0.000 0.000 0.000 0.000 0.000 0.000 0.000 0.000 0.000 0.000 0.000 0.000 0.000 0.000 0.000 0.000 0.000 0.000 0.000 0.000 0.000 0.000 0.000 0.000 0.000 0.000 0.000 0.000 0.000 0.000 0.000 0.000 0.000 0.000 0.000 0.000 0.000 0.000 0.000 0.000 0.000 0.000 0.000 0.000
0.000 0.000 0.000 0.037 2.297 13.431 19.480 19.117 17.819 12.446 1.787 0.001 0.000 0.000 0.000 0.000 0.000 0.000 0.000 0.000 0.000 0.000 0.000 0.000 0.000 0.000 0.000 0.000 0.000 0.000 0.000 0.000 0.000 0.000 0.000 0.000 0.000 0.000 0.000 0.000 0.000 0.000 0.000 0.000 0.000 0.000 0.000 0.000 0.000
0.000 0.000 0.115 4.037 18.886 19.690 20.740 19.144 18.068 16.661 15.480 2.268 0.000 0.000 0.000 0.000 0.000 0.000 0.000 0.000 0.000 0.000 0.000 0.000 0.000 0.000 0.000 0.000 0.000 0.000 0.000 0.000 0.000 0.000 0.000 0.000 0.000 0.000 0.000 0.000 0.000 0.000 0.000 0.000 0.000 0.000 0.000 0.000 0.000
0.000 0.035 3.734 18.454 19.535 20.809 21.782 19.443 18.889 18.434 17.233 14.366 0.745 0.000 0.000 0.000 0.000 0.000 0.000 0.000 0.000 0.000 0.000 0.000 0.000 0.000 0.000 0.000 0.000 0.000 0.000 0.000 0.000 0.000 0.000 0.000 0.000 0.000 0.000 0.000 0.000 0.000 0.000 0.000 0.000 0.000 0.000 0.000 0.000
0.000 1.738 18.980 19.503 21.028 22.334 22.422 20.424 20.708 21.571 19.160 16.365 9.924 0.004 0.000 0.000 0.000 0.000 0.000 0.000 0.000 0.000 0.000 0.000 0.000 0.000 0.000 0.000 0.000 0.000 0.000 0.000 0.000 0.000 0.000 0.000 0.000 0.000 0.000 0.000 0.000 0.000 0.000 0.000 0.000 0.000 0.000 0.000 0.000
0.000 8.202 18.743 19.173 21.879 23.634 22.557 21.446 22.764 22.985 18.824 18.440 16.418 2.088 0.000 0.000 0.000 0.000 0.000 0.000 0.000 0.000 0.000 0.000 0.000 0.000 0.000 0.000 0.000 0.000 0.000 0.000 0.000 0.000 0.000 0.000 0.000 0.000 0.000 0.000 0.000 0.000 0.000 0.000 0.000 0.000 0.000 0.000 0.000
0.000 18.285 19.007 20.368 21.288 23.806 23.136 23.224 24.230 23.883 21.261 21.488 16.503 11.010 0.020 0.000 0.000 0.000 0.000 0.000 0.000 0.000 0.000 0.000 0.000 0.000 0.000 0.000 0.000 0.000 0.000 0.000 0.000 0.000 0.000 0.000 0.000 0.000 0.000 0.000 0.000 0.000 0.000 0.000 0.000 0.000 0.000 0.000 0.000
0.000 18.320 19.519 21.499 24.095 24.448 23.720 23.865 24.953 25.543 23.503 20.305 18.641 16.577 2.492 0.000 0.000 0.000 0.000 0.000 0.000 0.000 0.000 0.000 0.000 0.000 0.000 0.000 0.000 0.000 0.000 0.000 0.000 0.000 0.000 0.000 0.000 0.000 0.000 0.000 0.000 0.000 0.000 0.000 0.000 0.000 0.000 0.000 0.000
0.000 18.915 20.560 22.863 22.171 23.270 23.830 23.077 24.423 24.732 22.219 20.328 23.320 18.816 9.173 0.001 0.000 0.000 0.000 0.000 0.000 0.000 0.000 0.000 0.000 0.000 0.000 0.000 0.000 0.000 0.000 0.000 0.000 0.000 0.000 0.000 0.000 0.000 0.000 0.000 0.000 0.000 0.000 0.000 0.000 0.000 0.000 0.000 0.000
0.000 18.030 20.162 20.899 19.984 24.110 22.238 22.497 24.354 24.956 22.709 25.047 24.290 18.709 12.701 0.650 0.000 0.000 0.000 0.000 0.000 0.000 0.000 0.000 0.000 0.000 0.000 0.000 0.000 0.000 0.000 0.000 0.000 0.000 0.000 0.000 0.000 0.000 0.000 0.000 0.000 0.000 0.000 0.000 0.000 0.000 0.000 0.000 0.000
0.000 13.217 19.739 19.335 21.328 25.117 24.433 23.091 24.570 23.657 22.586 26.025 22.538 18.636 15.712 5.752 0.000 0.000 0.000 0.000 0.000 0.000 0.000 0.000 0.000 0.000 0.000 0.000 0.000 0.000 0.000 0.000 0.000 0.000 0.000 0.000 0.000 0.000 0.000 0.000 0.000 0.000 0.000 0.000 0.000 0.000 0.000 0.000 0.000
0.000 6.217 17.825 21.419 22.947 22.995 24.180 24.230 23.175 22.881 23.231 24.181 22.131 19.879 18.333 10.034 0.000 0.000 0.000 0.000 0.000 0.000 0.000 0.000 0.000 0.000 0.000 0.000 0.000 0.000 0.000 0.000 0.000 0.000 0.000 0.000 0.000 0.000 0.000 0.000 0.000 0.000 0.000 0.000 0.000 0.000 0.000 0.000 0.000
0.000 1.412 14.983 20.061 21.840 22.635 24.158 23.508 21.313 22.049 23.016 24.467 23.979 23.987 19.211 13.348 0.449 0.000 0.000 0.000 0.000 0.000 0.000 0.000 0.000 0.000 0.000 0.000 0.000 0.000 0.000 0.000 0.000 0.000 0.000 0.000 0.000 0.000 0.000 0.000 0.000 0.000 0.000 0.000 0.000 0.000 0.000 0.000 0.000
0.000 0.118 7.358 17.593 20.425 21.700 22.707 23.673 24.920 21.872 23.880 25.327 26.141 23.493 19.426 13.888 4.056 0.000 0.000 0.000 0.000 0.000 0.000 0.000 0.000 0.000 0.000 0.000 0.000 0.000 0.000 0.000 0.000 0.000 0.000 0.000 0.000 0.000 0.000 0.000 0.000 0.000 0.000 0.000 0.000 0.000 0.000 0.000 0.000
0.000 0.005 2.731 16.621 19.909 21.549 22.694 24.576 23.781 21.730 23.639 25.950 24.687 23.183 19.392 14.137 8.009 0.029 0.000 0.000 0.000 0.000 0.000 0.000 0.000 0.000 0.000 0.000 0.000 0.000 0.000 0.000 0.000 0.000 0.000 0.000 0.000 0.000 0.000 0.000 0.000 0.000 0.000 0.000 0.000 0.000 0.000 0.000 0.000
0.000 0.000 0.888 12.275 18.776 23.908 25.022 24.359 23.446 22.802 24.553 23.779 22.459 21.875 19.131 15.872 11.250 1.856 0.000 0.000 0.000 0.000 0.000 0.000 0.000 0.000 0.000 0.000 0.000 0.000 0.000 0.000 0.000 0.000 0.000 0.000 0.000 0.000 0.000 0.000 0.000 0.000 0.000 0.000 0.000 0.000 0.000 0.000 0.000
0.000 0.000 0.244 8.284 17.587 21.496 24.269 23.366 23.996 22.954 20.581 22.477 21.311 21.431 20.393 16.484 12.914 6.150 0.025 0.000 0.000 0.000 0.000 0.000 0.000 0.000 0.000 0.000 0.000 0.000 0.000 0.000 0.000 0.000 0.000 0.000 0.000 0.000 0.000 0.000 0.000 0.000 0.000 0.000 0.000 0.000 0.000 0.000 0.000
0.000 0.000 0.047 4.610 15.826 20.963 23.079 24.140 23.610 22.205 21.782 20.843 22.158 21.130 19.853 18.408 14.354 9.468 1.876 0.000 0.000 0.000 0.000 0.000 0.000 0.000 0.000 0.000 0.000 0.000 0.000 0.000 0.000 0.000 0.000 0.000 0.000 0.000 0.000 0.000 0.000 0.000 0.000 0.000 0.000 0.000 0.000 0.000 0.000
0.000 0.000 0.004 1.926 12.533 18.508 22.764 25.921 24.907 23.077 22.147 19.627 19.881 21.221 22.171 19.258 15.613 11.543 6.093 0.001 0.000 0.000 0.000 0.000 0.000 0.000 0.000 0.000 0.000 0.000 0.000 0.000 0.000 0.000 0.000 0.000 0.000 0.000 0.000 0.000 0.000 0.000 0.000 0.000 0.000 0.000 0.000 0.000 0.000
0.000 0.000 0.000 0.525 8.726 17.091 20.990 24.796 27.111 27.645 22.273 18.937 18.432 20.963 19.642 19.424 16.528 12.514 8.388 0.601 0.000 0.000 0.000 0.000 0.000 0.000 0.000 0.000 0.000 0.000 0.000 0.000 0.000 0.000 0.000 0.000 0.000 0.000 0.000 0.000 0.000 0.000 0.000 0.000 0.000 0.000 0.000 0.000 0.000
0.000 0.000 0.000 0.050 4.471 13.463 18.686 22.835 26.569 28.241 27.346 23.586 22.342 20.927 18.959 21.996 17.290 12.518 10.417 4.140 0.000 0.000 0.000 0.000 0.000 0.000 0.000 0.000 0.000 0.000 0.000 0.000 0.000 0.000 0.000 0.000 0.000 0.000 0.000 0.000 0.000 0.000 0.000 0.000 0.000 0.000 0.000 0.000 0.000
0.000 0.000 0.000 0.002 1.587 10.883 16.562 21.357 25.241 26.715 27.175 26.215 26.965 25.270 23.413 21.262 18.737 14.455 10.541 7.074 0.000 0.000 0.000 0.000 0.000 0.000 0.000 0.000 0.000 0.000 0.000 0.000 0.000 0.000 0.000 0.000 0.000 0.000 0.000 0.000 0.000 0.000 0.000 0.000 0.000 0.000 0.000 0.000 0.000
0.000 0.000 0.000 0.000 0.356 7.160 15.053 19.743 22.665 24.374 26.943 27.915 26.794 24.872 24.497 22.954 19.468 15.581 10.583 8.837 0.000 0.000 0.000 0.000 0.000 0.000 0.000 0.000 0.000 0.000 0.000 0.000 0.000 0.000 0.000 0.000 0.000 0.000 0.000 0.000 0.000 0.000 0.000 0.000 0.000 0.000 0.000 0.000 0.000
0.000 0.000 0.000 0.000 0.038 3.353 12.008 17.980 21.576 23.672 25.637 26.465 25.788 24.931 24.718 22.771 20.167 16.054 11.917 9.756 0.388 0.000 0.000 0.000 0.000 0.000 0.000 0.000 0.000 0.000 0.000 0.000 0.000 0.000 0.000 0.000 0.000 0.000 0.000 0.000 0.000 0.000 0.000 0.000 0.000 0.000 0.000 0.000 0.000
0.000 0.000 0.000 0.000 0.002 1.047 8.537 15.147 19.223 23.031 25.227 24.750 25.484 26.608 25.078 24.843 22.869 18.205 11.040 9.551 3.795 0.000 0.000 0.000 0.000 0.000 0.000 0.000 0.000 0.000 0.000 0.000 0.000 0.000 0.000 0.000 0.000 0.000 0.000 0.000 0.000 0.000 0.000 0.000 0.000 0.000 0.000 0.000 0.000
0.000 0.000 0.000 0.000 0.000 0.186 4.788 12.457 17.709 21.969 23.613 25.206 23.832 24.625 23.020 24.935 21.068 18.064 13.798 11.602 5.853 0.000 0.000 0.000 0.000 0.000 0.000 0.000 0.000 0.000 0.000 0.000 0.000 0.000 0.000 0.000 0.000 0.000 0.000 0.000 0.000 0.000 0.000 0.000 0.000 0.000 0.000 0.000 0.000
0.000 0.000 0.000 0.000 0.000 0.013 1.918 8.961 15.343 20.463 23.656 23.497 24.170 25.043 24.505 23.451 20.729 18.290 15.291 11.990 7.215 0.000 0.000 0.000 0.000 0.000 0.000 0.000 0.000 0.000 0.000 0.000 0.000 0.000 0.000 0.000 0.000 0.000 0.000 0.000 0.000 0.000 0.000 0.000 0.000 0.000 0.000 0.000 0.000
0.000 0.000 0.000 0.000 0.000 0.000 0.483 5.763 12.692 17.649 20.926 22.063 23.953 22.800 23.196 22.328 21.196 18.054 14.916 12.393 8.439 0.000 0.000 0.000 0.000 0.000 0.000 0.000 0.000 0.000 0.000 0.000 0.000 0.000 0.000 0.000 0.000 0.000 0.000 0.000 0.000 0.000 0.000 0.000 0.000 0.000 0.000 0.000 0.000
0.000 0.000 0.000 0.000 0.000 0.000 0.072 2.993 9.378 13.886 18.203 22.993 21.751 24.047 23.629 21.452 20.474 17.201 17.015 12.894 8.990 0.000 0.000 0.000 0.000 0.000 0.000 0.000 0.000 0.000 0.000 0.000 0.000 0.000 0.000 0.000 0.000 0.000 0.000 0.000 0.000 0.000 0.000 0.000 0.000 0.000 0.000 0.000 0.000
0.000 0.000 0.000 0.000 0.000 0.000 0.007 1.340 7.146 11.649 16.479 21.010 22.144 22.059 23.088 22.115 18.732 17.387 16.874 13.359 9.704 0.000 0.000 0.000 0.000 0.000 0.000 0.000 0.000 0.000 0.000 0.000 0.000 0.000 0.000 0.000 0.000 0.000 0.000 0.000 0.000 0.000 0.000 0.000 0.000 0.000 0.000 0.000 0.000
0.000 0.000 0.000 0.000 0.000 0.000 0.001 0.675 5.433 8.762 12.453 17.746 20.453 21.561 22.592 20.508 18.386 17.387 19.487 13.807 9.797 0.040 0.000 0.000 0.000 0.000 0.000 0.000 0.000 0.000 0.000 0.000 0.000 0.000 0.000 0.000 0.000 0.000 0.000 0.000 0.000 0.000 0.000 0.000 0.000 0.000 0.000 0.000 0.000
0.000 0.000 0.000 0.000 0.000 0.000 0.000 0.475 4.977 7.959 10.075 14.847 19.652 21.268 21.240 19.425 17.197 19.726 18.852 14.292 10.446 1.307 0.000 0.000 0.000 0.000 0.000 0.000 0.000 0.000 0.000 0.000 0.000 0.000 0.000 0.000 0.000 0.000 0.000 0.000 0.000 0.000 0.000 0.000 0.000 0.000 0.000 0.000 0.000
0.000 0.000 0.000 0.000 0.000 0.000 0.000 0.294 4.501 7.356 8.866 11.414 17.372 18.758 19.639 18.056 17.277 21.479 19.105 15.236 9.223 3.373 0.000 0.000 0.000 0.000 0.000 0.000 0.000 0.000 0.000 0.000 0.000 0.000 0.000 0.000 0.000 0.000 0.000 0.000 0.000 0.000 0.000 0.000 0.000 0.000 0.000 0.000 0.000
0.000 0.000 0.000 0.000 0.000 0.000 0.000 0.137 3.650 7.245 7.599 8.040 13.435 18.209 18.378 17.903 20.630 21.696 19.315 15.804 9.548 5.632 0.019 0.000 0.000 0.000 0.000 0.000 0.000 0.000 0.000 0.000 0.000 0.000 0.000 0.000 0.000 0.000 0.000 0.000 0.000 0.000 0.000 0.000 0.000 0.000 0.000 0.000 0.000
0.000 0.000 0.000 0.000 0.000 0.000 0.000 0.056 2.479 6.607 6.935 7.262 10.286 18.033 19.444 20.177 20.929 21.843 18.896 15.009 10.223 7.762 1.394 0.017 0.000 0.000 0.000 0.000 0.000 0.000 0.000 0.000 0.000 0.000 0.000 0.000 0.000 0.000 0.000 0.000 0.000 0.000 0.000 0.000 0.000 0.000 0.000 0.000 0.000
0.000 0.000 0.000 0.000 0.000 0.000 0.000 0.019 1.563 5.591 6.779 6.473 7.176 16.672 18.302 19.601 18.928 20.889 17.785 15.501 11.492 8.267 4.813 1.691 0.143 0.000 0.000 0.000 0.000 0.000 0.000 0.000 0.000 0.000 0.000 0.000 0.000 0.000 0.000 0.000 0.000 0.000 0.000 0.000 0.000 0.000 0.000 0.000 0.000
0.000 0.000 0.000 0.000 0.000 0.000 0.000 0.006 0.807 4.404 5.816 6.202 6.045 12.240 17.350 18.928 18.305 19.763 18.194 16.472 12.163 7.787 7.531 5.716 3.202 0.004 0.000 0.000 0.000 0.000 0.000 0.000 0.000 0.000 0.000 0.000 0.000 0.000 0.000 0.000 0.000 0.000 0.000 0.000 0.000 0.000 0.000 0.000 0.000
0.000 0.000 0.000 0.000 0.000 0.000 0.000 0.000 0.359 3.546 6.010 6.273 5.783 7.174 16.290 17.463 18.776 18.636 18.478 17.362 12.994 8.744 9.282 7.909 6.556 0.849 0.000 0.000 0.000 0.000 0.000 0.000 0.000 0.000 0.000 0.000 0.000 0.000 0.000 0.000 0.000 0.000 0.000 0.000 0.000 0.000 0.000 0.000 0.000
0.000 0.000 0.000 0.000 0.000 0.000 0.000 0.000 0.266 3.322 5.795 5.807 5.647 5.691 14.566 16.186 17.579 18.713 18.945 18.079 13.816 9.697 9.622 8.418 7.566 4.252 0.001 0.000 0.000 0.000 0.000 0.000 0.000 0.000 0.000 0.000 0.000 0.000 0.000 0.000 0.000 0.000 0.000 0.000 0.000 0.000 0.000 0.000 0.000
0.000 0.000 0.000 0.000 0.000 0.000 0.000 0.000 0.048 2.422 4.968 5.597 5.765 6.165 12.231 15.813 17.129 19.189 19.311 18.856 14.726 10.742 9.706 8.809 8.178 5.857 0.310 0.000 0.000 0.000 0.000 0.000 0.000 0.000 0.000 0.000 0.000 0.000 0.000 0.000 0.000 0.000 0.000 0.000 0.000 0.000 0.000 0.000 0.000
0.000 0.000 0.000 0.000 0.000 0.000 0.000 0.000 0.008 1.435 4.722 5.440 5.905 6.782 11.433 15.981 17.753 18.563 20.115 19.201 16.820 12.127 9.221 8.032 7.566 6.586 2.784 0.007 0.000 0.000 0.000 0.000 0.000 0.000 0.000 0.000 0.000 0.000 0.000 0.000 0.000 0.000 0.000 0.000 0.000 0.000 0.000 0.000 0.000
0.000 0.000 0.000 0.000 0.000 0.000 0.000 0.000 0.010 1.026 4.281 5.125 5.825 6.843 12.070 15.922 19.464 21.439 21.401 19.839 17.753 11.637 8.113 7.907 7.777 7.893 4.805 0.574 0.000 0.000 0.000 0.000 0.000 0.000 0.000 0.000 0.000 0.000 0.000 0.000 0.000 0.000 0.000 0.000 0.000 0.000 0.000 0.000 0.000
0.000 0.000 0.000 0.000 0.000 0.000 0.000 0.000 0.001 1.023 4.212 4.841 5.425 6.427 10.638 14.530 18.063 19.614 19.442 19.292 17.938 12.128 8.305 7.681 8.596 8.233 5.234 2.817 0.041 0.000 0.000 0.000 0.000 0.000 0.000 0.000 0.000 0.000 0.000 0.000 0.000 0.000 0.000 0.000 0.000 0.000 0.000 0.000 0.000
0.000 0.000 0.000 0.000 0.000 0.000 0.000 0.000 0.005 0.610 4.016 4.406 5.421 6.727 10.801 13.320 18.821 20.466 17.637 20.380 16.737 13.133 8.611 8.340 8.651 7.397 6.186 5.925 1.334 0.000 0.000 0.000 0.000 0.000 0.000 0.000 0.000 0.000 0.000 0.000 0.000 0.000 0.000 0.000 0.000 0.000 0.000 0.000 0.000
0.000 0.000 0.000 0.000 0.000 0.000 0.000 0.000 0.000 0.148 2.992 4.049 5.365 6.261 9.655 11.515 14.683 19.209 19.478 19.004 16.817 13.748 9.165 8.430 8.161 8.333 8.264 8.386 3.918 0.031 0.000 0.000 0.000 0.000 0.000 0.000 0.000 0.000 0.000 0.000 0.000 0.000 0.000 0.000 0.000 0.000 0.000 0.000 0.000
0.000 0.000 0.000 0.000 0.000 0.000 0.000 0.000 0.000 0.052 2.567 3.864 4.934 5.481 8.581 10.497 12.033 17.129 18.135 18.197 17.011 14.359 10.143 8.250 8.489 8.932 9.312 9.020 5.372 0.491 0.090 0.000 0.000 0.000 0.000 0.000 0.000 0.000 0.000 0.000 0.000 0.000 0.000 0.000 0.000 0.000 0.000 0.000 0.000
0.000 0.000 0.000 0.000 0.000 0.000 0.000 0.000 0.000 0.097 2.725 4.584 4.822 5.410 7.135 8.902 10.895 16.704 18.886 18.746 17.413 14.887 11.407 8.586 8.642 8.651 9.736 7.837 6.160 1.623 1.610 0.000 0.000 0.000 0.000 0.000 0.000 0.000 0.000 0.000 0.000 0.000 0.000 0.000 0.000 0.000 0.000 0.000 0.000
0.000 0.000 0.000 0.000 0.000 0.000 0.000 0.000 0.000 0.483 3.170 4.657 4.971 5.111 6.750 8.539 10.403 14.983 19.064 18.469 18.405 15.506 12.127 9.563 8.543 9.309 10.629 8.514 7.061 4.295 3.251 0.084 0.000 0.000 0.000 0.000 0.000 0.000 0.000 0.000 0.000 0.000 0.000 0.000 0.000 0.000 0.000 0.000 0.000
0.000 0.000 0.000 0.000 0.000 0.000 0.000 0.000 0.000 0.634 3.204 4.259 5.059 5.332 6.469 8.092 10.225 14.701 19.671 19.728 17.656 16.006 13.244 10.778 8.417 9.005 9.208 9.642 7.830 5.696 3.850 1.356 0.000 0.000 0.000 0.000 0.000 0.000 0.000 0.000 0.000 0.000 0.000 0.000 0.000 0.000 0.000 0.000 0.000
0.000 0.000 0.000 0.000 0.000 0.000 0.000 0.000 0.000 0.152 2.804 4.483 4.963 4.895 6.385 8.171 10.145 14.460 18.623 20.177 18.147 15.829 14.137 12.089 9.115 8.844 8.690 9.422 7.549 6.788 4.772 2.950 0.004 0.000 0.000 0.000 0.000 0.000 0.000 0.000 0.000 0.000 0.000 0.000 0.000 0.000 0.000 0.000 0.000
0.000 0.000 0.000 0.000 0.000 0.000 0.000 0.000 0.000 0.104 2.317 4.290 4.545 4.585 6.018 8.103 9.490 14.157 18.097 20.401 20.309 18.459 15.179 13.425 9.570 9.142 9.436 9.467 8.193 7.294 5.575 3.958 0.501 0.000 0.000 0.000 0.000 0.000 0.000 0.000 0.000 0.000 0.000 0.000 0.000 0.000 0.000 0.000 0.000
0.000 0.000 0.000 0.000 0.000 0.000 0.000 0.000 0.000 0.002 1.504 4.204 4.795 5.087 5.864 7.622 9.230 13.577 18.089 19.309 20.382 19.988 17.014 13.904 10.978 9.088 8.981 8.308 8.760 8.193 6.553 5.068 2.111 0.000 0.000 0.000 0.000 0.000 0.000 0.000 0.000 0.000 0.000 0.000 0.000 0.000 0.000 0.000 0.000
0.000 0.000 0.000 0.000 0.000 0.000 0.000 0.000 0.000 0.020 1.415 3.903 4.831 5.358 5.409 6.710 8.926 12.975 18.167 19.817 20.415 20.959 19.843 14.977 11.445 8.852 9.067 9.007 9.067 9.037 7.678 5.880 3.255 0.216 0.000 0.000 0.000 0.000 0.000 0.000 0.000 0.000 0.000 0.000 0.000 0.000 0.000 0.000 0.000
0.000 0.000 0.000 0.000 0.000 0.000 0.000 0.000 0.000 0.006 1.236 3.292 4.552 4.873 5.299 6.468 8.531 12.160 16.991 20.414 21.098 20.657 18.725 14.791 10.507 9.145 8.791 9.372 9.812 9.288 8.821 6.674 5.276 2.108 0.000 0.000 0.000 0.000 0.000 0.000 0.000 0.000 0.000 0.000 0.000 0.000 0.000 0.000 0.000
0.000 0.000 0.000 0.000 0.000 0.000 0.000 0.000 0.000 0.034 1.198 3.180 4.235 4.310 4.786 6.025 7.803 11.048 16.426 20.176 20.737 20.836 20.669 17.537 12.156 10.074 8.954 9.712 10.156 10.571 9.127 8.499 6.763 3.666 0.125 0.000 0.000 0.000 0.000 0.000 0.000 0.000 0.000 0.000 0.000 0.000 0.000 0.000 0.000
0.000 0.000 0.000 0.000 0.000 0.000 0.000 0.000 0.000 0.009 0.846 2.942 3.877 4.362 4.825 5.865 7.605 10.141 15.005 18.445 19.090 20.934 19.817 17.400 14.194 10.522 9.852 10.070 10.593 10.456 10.002 9.784 7.275 4.473 1.631 0.000 0.000 0.000 0.000 0.000 0.000 0.000 0.000 0.000 0.000 0.000 0.000 0.000 0.000
0.000 0.000 0.000 0.000 0.000 0.000 0.000 0.000 0.000 0.002 0.445 2.785 3.834 4.300 4.807 5.850 7.112 9.095 13.940 17.850 19.983 20.892 18.646 17.907 13.128 11.466 11.135 10.330 10.111 10.274 10.661 10.099 7.154 5.770 3.390 0.004 0.000 0.000 0.000 0.000 0.000 0.000 0.000 0.000 0.000 0.000 0.000 0.000 0.000
0.000 0.000 0.000 0.000 0.000 0.000 0.000 0.000 0.000 0.000 0.029 1.953 3.797 4.051 4.463 5.177 6.575 8.443 13.199 18.862 20.223 19.374 20.016 16.679 13.638 12.406 9.704 8.838 9.045 10.358 11.450 9.555 7.778 7.073 4.679 0.374 0.000 0.000 0.000 0.000 0.000 0.000 0.000 0.000 0.000 0.000 0.000 0.000 0.000
0.000 0.000 0.000 0.000 0.000 0.000 0.000 0.000 0.000 0.000 0.025 1.212 3.746 4.051 4.751 5.506 5.921 8.426 12.431 17.546 18.101 20.395 18.507 16.199 14.640 11.425 8.888 8.831 9.517 11.001 10.268 9.579 9.515 8.603 5.332 2.301 0.000 0.000 0.000 0.000 0.000 0.000 0.000 0.000 0.000 0.000 0.000 0.000 0.000
0.000 0.000 0.000 0.000 0.000 0.000 0.000 0.000 0.000 0.000 0.053 1.647 3.942 4.393 4.618 5.039 6.871 8.011 11.802 15.567 18.801 19.341 18.477 18.106 15.461 13.025 10.628 9.868 10.378 10.246 9.813 10.874 9.864 8.078 6.548 3.879 0.099 0.000 0.000 0.000 0.000 0.000 0.000 0.000 0.000 0.000 0.000 0.000 0.000
0.000 0.000 0.000 0.000 0.000 0.000 0.000 0.000 0.000 0.000 0.067 1.573 3.858 4.456 3.954 5.161 6.251 4.701 9.936 14.837 17.086 18.766 19.843 18.500 15.592 13.594 11.718 11.309 9.894 10.230 10.530 10.364 9.843 8.424 7.567 5.022 1.661 0.000 0.000 0.000 0.000 0.000 0.000 0.000 0.000 0.000 0.000 0.000 0.000
0.000 0.000 0.000 0.000 0.000 0.000 0.000 0.000 0.000 0.000 0.006 0.564 3.193 4.498 4.102 4.483 4.337 4.810 8.711 14.254 17.173 19.294 20.117 19.369 17.030 14.534 13.605 11.729 10.312 10.602 10.055 9.578 9.693 8.889 8.410 7.007 3.930 0.000 0.000 0.000 0.000 0.000 0.000 0.000 0.000 0.000 0.000 0.000 0.000
0.000 0.000 0.000 0.000 0.000 0.000 0.000 0.000 0.000 0.000 0.001 0.230 2.596 4.533 4.392 4.085 4.056 4.939 8.783 13.187 17.120 18.561 19.473 18.965 15.791 15.714 14.585 10.971 10.684 9.592 7.868 9.066 9.741 10.157 10.034 8.389 5.319 0.229 0.000 0.000 0.000 0.000 0.000 0.000 0.000 0.000 0.000 0.000 0.000
0.000 0.000 0.000 0.000 0.000 0.000 0.000 0.000 0.000 0.000 0.000 0.002 0.245 4.132 4.387 3.718 3.801 5.791 8.803 12.523 17.098 19.496 19.176 17.607 15.777 16.565 14.859 12.484 11.239 9.048 7.743 8.602 10.053 10.691 10.350 9.235 6.919 2.658 0.000 0.000 0.000 0.000 0.000 0.000 0.000 0.000 0.000 0.000 0.000
0.000 0.000 0.000 0.000 0.000 0.000 0.000 0.000 0.000 0.000 0.000 0.000 0.516 2.722 3.923 2.975 4.098 5.728 8.164 11.469 15.591 17.588 18.099 17.113 17.319 18.029 15.280 12.770 10.546 8.314 7.969 9.014 10.097 10.277 10.295 9.572 7.850 4.509 0.035 0.000 0.000 0.000 0.000 0.000 0.000 0.000 0.000 0.000 0.000
0.000 0.000 0.000 0.000 0.000 0.000 0.000 0.000 0.000 0.000 0.000 0.000 0.000 2.090 2.800 3.312 4.464 5.217 7.062 10.455 14.634 15.688 18.160 17.014 18.561 17.213 15.525 14.038 11.474 9.613 8.164 8.694 9.569 10.171 10.824 10.748 8.054 4.230 0.305 0.000 0.000 0.000 0.000 0.000 0.000 0.000 0.000 0.000 0.000
0.000 0.000 0.000 0.000 0.000 0.000 0.000 0.000 0.000 0.000 0.000 0.000 0.000 0.533 2.869 3.760 4.484 5.090 6.188 8.971 12.601 15.678 16.620 18.240 18.315 18.198 16.052 15.139 11.992 9.020 7.408 7.402 7.954 9.575 10.153 10.049 6.499 3.326 0.311 0.000 0.000 0.000 0.000 0.000 0.000 0.000 0.000 0.000 0.000
0.000 0.000 0.000 0.000 0.000 0.000 0.000 0.000 0.000 0.000 0.000 0.000 0.000 0.235 2.133 3.757 4.383 4.812 5.013 8.080 11.327 15.330 17.160 17.210 18.852 17.732 16.368 15.023 11.590 8.644 6.687 6.480 7.225 8.651 9.144 8.891 6.937 4.161 0.000 0.000 0.000 0.000 0.000 0.000 0.000 0.000 0.000 0.000 0.000
0.000 0.000 0.000 0.000 0.000 0.000 0.000 0.000 0.000 0.000 0.000 0.000 0.000 0.063 1.173 2.973 4.150 4.072 4.557 6.625 10.265 13.986 15.779 16.961 16.926 16.817 16.112 13.281 10.272 8.268 6.895 6.136 6.696 7.163 8.231 9.296 8.107 4.679 0.239 0.000 0.000 0.000 0.000 0.000 0.000 0.000 0.000 0.000 0.000
0.000 0.000 0.000 0.000 0.000 0.000 0.000 0.000 0.000 0.000 0.000 0.000 0.000 0.004 0.430 2.058 3.505 3.838 4.241 5.294 8.116 11.236 14.028 16.163 16.110 15.049 14.680 12.080 10.733 9.917 7.044 6.335 6.229 5.799 7.448 9.509 7.803 5.068 1.900 0.000 0.000 0.000 0.000 0.000 0.000 0.000 0.000 0.000 0.000
0.000 0.000 0.000 0.000 0.000 0.000 0.000 0.000 0.000 0.000 0.000 0.000 0.000 0.000 0.064 1.072 3.080 3.561 3.792 4.529 6.983 9.728 13.118 14.875 15.159 15.512 14.604 12.803 11.947 10.360 7.474 6.850 5.999 5.947 7.281 8.843 8.033 5.386 2.672 0.000 0.000 0.000 0.000 0.000 0.000 0.000 0.000 0.000 0.000
0.000 0.000 0.000 0.000 0.000 0.000 0.000 0.000 0.000 0.000 0.000 0.000 0.000 0.000 0.001 0.341 2.506 3.318 3.551 4.229 5.093 7.979 10.970 12.402 13.787 13.981 13.792 13.109 13.251 10.677 8.573 6.962 6.524 6.318 6.231 8.927 8.329 5.522 3.090 0.046 0.000 0.000 0.000 0.000 0.000 0.000 0.000 0.000 0.000
0.000 0.000 0.000 0.000 0.000 0.000 0.000 0.000 0.000 0.000 0.000 0.000 0.000 0.000 0.000 0.237 1.805 2.991 3.463 3.879 4.553 6.268 8.825 12.019 13.479 13.256 13.713 13.612 12.076 11.709 9.164 7.360 6.429 5.343 5.041 8.317 8.396 5.847 3.210 0.952 0.000 0.000 0.000 0.000 0.000 0.000 0.000 0.000 0.000
0.000 0.000 0.000 0.000 0.000 0.000 0.000 0.000 0.000 0.000 0.000 0.000 0.000 0.000 0.000 0.097 1.164 2.639 3.177 3.588 3.633 5.137 7.582 10.623 12.000 12.696 13.736 13.868 11.611 11.697 9.231 7.643 5.245 4.453 3.869 7.492 8.455 6.201 3.191 1.934 0.001 0.000 0.000 0.000 0.000 0.000 0.000 0.000 0.000
0.000 0.000 0.000 0.000 0.000 0.000 0.000 0.000 0.000 0.000 0.000 0.000 0.000 0.000 0.000 0.055 0.646 1.880 2.700 3.273 3.136 4.418 6.837 9.499 11.556 12.947 13.146 13.275 12.127 12.190 10.157 6.814 4.696 3.987 4.755 7.155 8.675 6.416 3.709 2.550 0.315 0.000 0.000 0.000 0.000 0.000 0.000 0.000 0.000
0.000 0.000 0.000 0.000 0.000 0.000 0.000 0.000 0.000 0.000 0.000 0.000 0.000 0.000 0.000 0.005 0.714 1.522 2.509 3.101 3.591 4.071 5.990 8.643 11.439 13.644 13.581 12.035 12.716 11.177 9.229 6.530 5.062 4.809 5.532 6.845 8.671 6.632 3.973 3.149 1.702 0.005 0.000 0.000 0.000 0.000 0.000 0.000 0.000
0.000 0.000 0.000 0.000 0.000 0.000 0.000 0.000 0.000 0.000 0.000 0.000 0.000 0.000 0.000 0.000 0.004 0.803 2.246 2.926 3.458 3.993 5.576 7.657 10.083 13.505 12.932 12.662 12.204 10.999 8.738 6.512 5.244 5.319 5.404 6.479 8.545 6.425 3.907 3.508 2.764 0.501 0.000 0.000 0.000 0.000 0.000 0.000 0.000
0.000 0.000 0.000 0.000 0.000 0.000 0.000 0.000 0.000 0.000 0.000 0.000 0.000 0.000 0.000 0.000 0.000 0.291 1.696 2.849 2.794 3.744 4.877 7.276 9.061 11.174 11.733 11.457 10.715 9.778 7.890 7.020 5.526 5.334 4.870 6.232 8.161 6.194 3.903 3.555 3.096 1.888 0.024 0.000 0.000 0.000 0.000 0.000 0.000
0.000 0.000 0.000 0.000 0.000 0.000 0.000 0.000 0.000 0.000 0.000 0.000 0.000 0.000 0.000 0.000 0.000 0.063 1.095 2.399 2.707 3.563 4.253 5.650 7.423 10.164 10.452 10.209 9.515 8.578 8.361 7.952 6.354 5.535 5.493 5.461 6.824 6.081 3.917 3.409 3.125 2.436 0.583 0.001 0.000 0.000 0.000 0.000 0.000
0.000 0.000 0.000 0.000 0.000 0.000 0.000 0.000 0.000 0.000 0.000 0.000 0.000 0.000 0.000 0.000 0.000 0.000 0.663 2.177 2.970 3.290 3.636 4.690 5.723 6.841 8.681 8.245 8.591 8.201 9.022 8.564 6.271 5.601 5.587 5.234 6.081 6.044 3.590 3.094 3.078 2.781 1.858 0.270 0.000 0.000 0.000 0.000 0.000
0.000 0.000 0.000 0.000 0.000 0.000 0.000 0.000 0.000 0.000 0.000 0.000 0.000 0.000 0.000 0.000 0.000 0.001 0.930 2.034 2.669 2.808 3.134 3.909 4.090 6.825 7.394 7.943 8.298 8.886 8.845 7.845 5.387 6.259 4.972 5.305 5.523 5.536 3.367 3.058 3.016 2.794 2.627 1.886 0.000 0.000 0.000 0.000 0.000
0.000 0.000 0.000 0.000 0.000 0.000 0.000 0.000 0.000 0.000 0.000 0.000 0.000 0.000 0.000 0.000 0.000 0.002 0.384 1.455 2.114 2.617 2.645 2.972 3.753 4.474 6.339 7.933 8.465 8.875 7.841 6.625 5.785 5.343 2.910 4.143 5.303 5.092 3.780 3.164 2.967 2.865 2.938 2.418 0.111 0.000 0.000 0.000 0.000
0.000 0.000 0.000 0.000 0.000 0.000 0.000 0.000 0.000 0.000 0.000 0.000 0.000 0.000 0.000 0.000 0.000 0.000 0.094 0.798 1.485 2.239 2.415 2.259 2.922 5.464 6.859 7.681 8.012 7.803 6.823 5.988 5.294 4.341 2.799 2.658 4.900 4.808 4.042 3.110 2.889 2.860 2.632 1.864 1.117 0.000 0.000 0.000 0.000
0.000 0.000 0.000 0.000 0.000 0.000 0.000 0.000 0.000 0.000 0.000 0.000 0.000 0.000 0.000 0.000 0.000 0.000 0.000 0.024 0.315 1.232 1.789 1.765 1.026 4.636 5.736 6.505 7.409 6.763 6.026 5.173 4.832 4.409 3.765 3.386 3.868 4.482 3.835 3.005 2.767 2.567 2.554 2.578 1.898 0.017 0.000 0.000 0.000
0.000 0.000 0.000 0.000 0.000 0.000 0.000 0.000 0.000 0.000 0.000 0.000 0.000 0.000 0.000 0.000 0.000 0.000 0.000 0.000 0.002 0.655 1.809 2.287 2.855 3.621 4.380 5.272 5.886 6.109 6.303 6.062 5.269 5.254 4.470 3.345 3.164 3.582 3.561 2.905 2.635 2.479 2.387 2.314 1.714 0.222 0.000 0.000 0.000
0.000 0.000 0.000 0.000 0.000 0.000 0.000 0.000 0.000 0.000 0.000 0.000 0.000 0.000 0.000 0.000 0.000 0.000 0.000 0.000 0.000 0.217 1.602 2.349 2.416 2.250 3.372 4.135 5.443 5.623 6.652 5.619 5.461 4.866 3.587 2.847 2.448 2.908 3.315 2.870 2.541 2.339 2.070 1.888 2.010 0.741 0.000 0.000 0.000
0.000 0.000 0.000 0.000 0.000 0.000 0.000 0.000 0.000 0.000 0.000 0.000 0.000 0.000 0.000 0.000 0.000 0.000 0.000 0.000 0.000 0.028 0.562 1.788 2.037 0.346 2.403 3.545 4.449 4.692 5.179 4.772 4.950 3.628 2.352 2.308 1.311 1.713 2.185 2.664 2.356 2.028 1.760 2.046 2.609 1.463 0.000 0.000 0.000
0.000 0.000 0.000 0.000 0.000 0.000 0.000 0.000 0.000 0.000 0.000 0.000 0.000 0.000 0.000 0.000 0.000 0.000 0.000 0.000 0.000 0.000 0.014 0.442 2.003 2.527 2.364 3.439 3.830 3.269 4.004 3.805 3.567 2.520 1.565 0.794 0.096 0.102 1.249 2.369 2.060 1.703 1.458 1.799 2.269 1.697 0.006 0.000 0.000
0.000 0.000 0.000 0.000 0.000 0.000 0.000 0.000 0.000 0.000 0.000 0.000 0.000 0.000 0.000 0.000 0.000 0.000 0.000 0.000 0.000 0.000 0.000 0.546 1.602 2.689 3.094 3.522 3.146 2.124 2.998 3.124 3.298 2.005 1.053 0.076 0.018 0.061 0.677 1.296 1.750 1.126 0.097 1.039 1.101 1.384 0.277 0.000 0.000
0.000 0.000 0.000 0.000 0.000 0.000 0.000 0.000 0.000 0.000 0.000 0.000 0.000 0.000 0.000 0.000 0.000 0.000 0.000 0.000 0.000 0.000 0.000 0.001 1.226 2.280 3.211 3.044 1.407 0.850 2.063 2.854 1.852 0.337 0.005 0.022 0.062 0.078 0.100 1.009 1.318 0.044 0.086 0.100 0.973 1.353 0.959 0.000 0.000
0.000 0.000 0.000 0.000 0.000 0.000 0.000 0.000 0.000 0.000 0.000 0.000 0.000 0.000 0.000 0.000 0.000 0.000 0.000 0.000 0.000 0.000 0.000 0.000 0.084 1.496 2.074 2.242 0.084 1.737 2.725 2.534 0.052 0.004 0.047 0.021 0.086 0.090 0.057 0.333 0.075 0.093 0.071 0.082 1.243 1.357 0.794 0.043 0.000
0.000 0.000 0.000 0.000 0.000 0.000 0.000 0.000 0.000 0.000 0.000 0.000 0.000 0.000 0.000 0.000 0.000 0.000 0.000 0.000 0.000 0.000 0.000 0.000 0.000 0.611 1.519 2.020 2.672 3.118 2.777 1.455 0.042 0.032 0.075 0.091 0.005 0.042 0.043 0.059 0.062 0.740 0.079 0.061 1.193 1.269 0.843 0.320 0.000
0.000 0.000 0.000 0.000 0.000 0.000 0.000 0.000 0.000 0.000 0.000 0.000 0.000 0.000 0.000 0.000 0.000 0.000 0.000 0.000 0.000 0.000 0.000 0.000 0.000 0.016 1.045 1.661 2.045 2.719 2.121 0.451 0.079 0.012 0.069 0.035 0.069 0.066 0.061 0.083 0.170 0.092 0.075 0.172 1.349 1.479 1.222 0.604 0.025
0.000 0.000 0.000 0.000 0.000 0.000 0.000 0.000 0.000 0.000 0.000 0.000 0.000 0.000 0.000 0.000 0.000 0.000 0.000 0.000 0.000 0.000 0.000 0.000 0.000 0.005 0.118 1.198 1.852 2.290 2.170 1.410 0.537 0.170 0.012 0.121 0.071 0.068 0.094 0.069 0.068 0.072 0.092 0.112 1.550 1.374 1.408 0.830 0.259
0.000 0.000 0.000 0.000 0.000 0.000 0.000 0.000 0.000 0.000 0.000 0.000 0.000 0.000 0.000 0.000 0.000 0.000 0.000 0.000 0.000 0.000 0.000 0.000 0.000 0.005 0.051 1.197 1.872 1.941 1.559 1.591 0.080 0.415 0.036 0.670 0.126 0.095 0.036 0.085 0.721 0.058 0.152 0.834 1.133 1.187 1.457 1.165 0.442
0.000 0.000 0.000 0.000 0.000 0.000 0.000 0.000 0.000 0.000 0.000 0.000 0.000 0.000 0.000 0.000 0.000 0.000 0.000 0.000 0.000 0.000 0.000 0.000 0.000 0.000 0.082 0.626 1.278 1.691 1.723 1.459 0.842 0.405 0.068 0.925 0.072 0.055 0.083 0.989 0.536 0.068 0.333 1.489 1.540 1.562 1.283 1.436 1.119
0.000 0.000 0.000 0.000 0.000 0.000 0.000 0.000 0.000 0.000 0.000 0.000 0.000 0.000 0.000 0.000 0.000 0.000 0.000 0.000 0.000 0.000 0.000 0.000 0.000 0.000 0.001 0.099 0.428 1.374 1.703 1.663 1.559 0.504 0.730 0.091 0.092 0.355 1.247 0.083 0.098 0.049 0.065 2.025 2.027 1.704 1.288 1.697 1.614
0.000 0.000 0.000 0.000 0.000 0.000 0.000 0.000 0.000 0.000 0.000 0.000 0.000 0.000 0.000 0.000 0.000 0.000 0.000 0.000 0.000 0.000 0.000 0.000 0.000 0.000 0.000 0.001 0.056 0.635 1.576 1.651 1.714 1.528 1.019 0.031 0.016 0.029 0.076 0.094 0.086 0.078 0.208 2.071 2.191 1.368 1.375 1.816 1.750
0.000 0.000 0.000 0.000 0.000 0.000 0.000 0.000 0.000 0.000 0.000 0.000 0.000 0.000 0.000 0.000 0.000 0.000 0.000 0.000 0.000 0.000 0.000 0.000 0.000 0.000 0.000 0.000 0.000 0.069 1.231 1.739 1.700 1.291 0.092 0.090 0.069 0.064 0.079 0.079 0.019 0.024 0.101 2.050 1.392 0.195 0.864 1.469 1.856
0.000 0.000 0.000 0.000 0.000 0.000 0.000 0.000 0.000 0.000 0.000 0.000 0.000 0.000 0.000 0.000 0.000 0.000 0.000 0.000 0.000 0.000 0.000 0.000 0.000 0.000 0.000 0.000 0.000 0.002 0.646 1.549 1.628 1.205 0.027 0.019 0.052 0.093 0.062 0.083 0.061 0.084 0.068 0.750 0.419 0.999 0.719 1.432 2.050
0.000 0.000 0.000 0.000 0.000 0.000 0.000 0.000 0.000 0.000 0.000 0.000 0.000 0.000 0.000 0.000 0.000 0.000 0.000 0.000 0.000 0.000 0.000 0.000 0.000 0.000 0.000 0.000 0.000 0.000 0.038 0.775 1.452 1.345 0.425 0.074 0.028 0.058 0.088 0.086 0.086 0.076 0.068 1.191 1.763 1.725 1.226 1.614 1.830
0.000 0.000 0.000 0.000 0.000 0.000 0.000 0.000 0.000 0.000 0.000 0.000 0.000 0.000 0.000 0.000 0.000 0.000 0.000 0.000 0.000 0.000 0.000 0.000 0.000 0.000 0.000 0.000 0.000 0.000 0.000 0.094 1.150 1.207 1.012 0.080 0.056 0.042 0.035 0.091 0.095 0.071 0.085 1.594 2.171 1.837 0.927 0.956 1.039
0.000 0.000 0.000 0.000 0.000 0.000 0.000 0.000 0.000 0.000 0.000 0.000 0.000 0.000 0.000 0.000 0.000 0.000 0.000 0.000 0.000 0.000 0.000 0.000 0.000 0.000 0.000 0.000 0.000 0.000 0.000 0.016 0.968 1.225 0.993 0.124 0.069 0.872 0.098 0.046 0.017 0.099 0.076 2.057 1.877 1.573 0.841 0.102 1.024
0.000 0.000 0.000 0.000 0.000 0.000 0.000 0.000 0.000 0.000 0.000 0.000 0.000 0.000 0.000 0.000 0.000 0.000 0.000 0.000 0.000 0.000 0.000 0.000 0.000 0.000 0.000 0.000 0.000 0.000 0.000 0.001 0.363 1.217 1.242 1.489 0.086 1.419 0.100 0.054 0.080 0.084 0.812 1.436 1.634 1.483 0.084 0.140 0.505
0.000 0.000 0.000 0.000 0.000 0.000 0.000 0.000 0.000 0.000 0.000 0.000 0.000 0.000 0.000 0.000 0.000 0.000 0.000 0.000 0.000 0.000 0.000 0.000 0.000 0.000 0.000 0.000 0.000 0.000 0.000 0.000 0.099 1.126 1.584 1.484 1.717 1.672 1.049 0.049 0.088 0.094 0.456 1.069 1.494 0.076 0.082 0.087 0.096
0.000 0.000 0.000 0.000 0.000 0.000 0.000 0.000 0.000 0.000 0.000 0.000 0.000 0.000 0.000 0.000 0.000 0.000 0.000 0.000 0.000 0.000 0.000 0.000 0.000 0.000 0.000 0.000 0.000 0.000 0.000 0.000 0.187 0.639 1.326 1.125 1.657 0.396 0.433 0.021 0.011 0.098 1.084 1.681 1.255 0.100 0.073 0.084 0.086
0.000 0.000 0.000 0.000 0.000 0.000 0.000 0.000 0.000 0.000 0.000 0.000 0.000 0.000 0.000 0.000 0.000 0.000 0.000 0.000 0.000 0.000 0.000 0.000 0.000 0.000 0.000 0.000 0.000 0.000 0.000 0.000 0.001 0.378 0.085 1.457 1.239 0.054 0.067 0.093 0.014 0.742 1.509 1.946 1.203 0.850 0.068 0.053 0.051
0.000 0.000 0.000 0.000 0.000 0.000 0.000 0.000 0.000 0.000 0.000 0.000 0.000 0.000 0.000 0.000 0.000 0.000 0.000 0.000 0.000 0.000 0.000 0.000 0.000 0.000 0.000 0.000 0.000 0.000 0.000 0.000 0.001 0.042 0.706 1.450 1.224 0.080 0.096 0.101 0.085 1.280 1.422 2.009 1.956 1.291 0.043 0.069 0.078
0.000 0.000 0.000 0.000 0.000 0.000 0.000 0.000 0.000 0.000 0.000 0.000 0.000 0.000 0.000 0.000 0.000 0.000 0.000 0.000 0.000 0.000 0.000 0.000 0.000 0.000 0.000 0.000 0.000 0.000 0.000 0.000 0.000 0.022 0.703 1.151 1.157 0.090 0.030 0.501 1.265 1.923 1.911 2.511 2.181 0.083 0.300 0.059 0.036
0.000 0.000 0.000 0.000 0.000 0.000 0.000 0.000 0.000 0.000 0.000 0.000 0.000 0.000 0.000 0.000 0.000 0.000 0.000 0.000 0.000 0.000 0.000 0.000 0.000 0.000 0.000 0.000 0.000 0.000 0.000 0.000 0.000 0.001 0.441 0.474 1.054 0.097 0.211 3.115 3.114 3.194 3.257 2.611 1.425 0.095 0.066 0.067 0.059
0.000 0.000 0.000 0.000 0.000 0.000 0.000 0.000 0.000 0.000 0.000 0.000 0.000 0.000 0.000 0.000 0.000 0.000 0.000 0.000 0.000 0.000 0.000 0.000 0.000 0.000 0.000 0.000 0.000 0.000 0.000 0.000 0.000 0.000 0.047 0.530 0.244 0.084 1.581 2.980 3.885 3.719 3.518 2.339 1.514 0.288 0.084 0.058 0.051
0.000 0.000 0.000 0.000 0.000 0.000 0.000 0.000 0.000 0.000 0.000 0.000 0.000 0.000 0.000 0.000 0.000 0.000 0.000 0.000 0.000 0.000 0.000 0.000 0.000 0.000 0.000 0.000 0.000 0.000 0.000 0.000 0.000 0.000 0.000 0.317 0.292 0.407 1.923 2.463 3.242 3.229 2.683 2.388 1.480 0.828 0.073 0.065 0.052
0.000 0.000 0.000 0.000 0.000 0.000 0.000 0.000 0.000 0.000 0.000 0.000 0.000 0.000 0.000 0.000 0.000 0.000 0.000 0.000 0.000 0.000 0.000 0.000 0.000 0.000 0.000 0.000 0.000 0.000 0.000 0.000 0.000 0.000 0.000 0.026 0.099 1.528 1.813 1.869 2.547 2.255 2.432 3.053 2.673 2.249 1.110 0.062 0.077
0.000 0.000 0.000 0.000 0.000 0.000 0.000 0.000 0.000 0.000 0.000 0.000 0.000 0.000 0.000 0.000 0.000 0.000 0.000 0.000 0.000 0.000 0.000 0.000 0.000 0.000 0.000 0.000 0.000 0.000 0.000 0.000 0.000 0.000 0.000 0.054 1.098 1.622 1.632 1.596 1.751 1.334 1.866 3.253 3.180 2.942 1.968 0.103 0.101
0.000 0.000 0.000 0.000 0.000 0.000 0.000 0.000 0.000 0.000 0.000 0.000 0.000 0.000 0.000 0.000 0.000 0.000 0.000 0.000 0.000 0.000 0.000 0.000 0.000 0.000 0.000 0.000 0.000 0.000 0.000 0.000 0.000 0.000 0.000 0.144 0.979 1.322 1.350 1.380 1.564 0.531 0.072 2.474 2.699 2.798 2.419 1.282 0.493
0.000 0.000 0.000 0.000 0.000 0.000 0.000 0.000 0.000 0.000 0.000 0.000 0.000 0.000 0.000 0.000 0.000 0.000 0.000 0.000 0.000 0.000 0.000 0.000 0.000 0.000 0.000 0.000 0.000 0.000 0.000 0.000 0.000 0.000 0.000 0.001 0.064 0.556 1.140 1.308 1.444 0.695 0.082 2.112 2.385 2.520 2.424 2.003 0.984
0.000 0.000 0.000 0.000 0.000 0.000 0.000 0.000 0.000 0.000 0.000 0.000 0.000 0.000 0.000 0.000 0.000 0.000 0.000 0.000 0.000 0.000 0.000 0.000 0.000 0.000 0.000 0.000 0.000 0.000 0.000 0.000 0.000 0.000 0.000 0.000 0.001 0.039 0.886 1.115 1.021 0.887 1.900 2.329 2.568 2.362 2.213 2.493 1.319
0.000 0.000 0.000 0.000 0.000 0.000 0.000 0.000 0.000 0.000 0.000 0.000 0.000 0.000 0.000 0.000 0.000 0.000 0.000 0.000 0.000 0.000 0.000 0.000 0.000 0.000 0.000 0.000 0.000 0.000 0.000 0.000 0.000 0.000 0.000 0.000 0.000 0.000 0.197 0.753 0.095 1.520 2.625 2.665 2.388 2.388 2.189 2.555 1.295
0.000 0.000 0.000 0.000 0.000 0.000 0.000 0.000 0.000 0.000 0.000 0.000 0.000 0.000 0.000 0.000 0.000 0.000 0.000 0.000 0.000 0.000 0.000 0.000 0.000 0.000 0.000 0.000 0.000 0.000 0.000 0.000 0.000 0.000 0.000 0.000 0.000 0.000 0.004 0.862 1.147 1.768 2.512 2.630 2.400 2.485 2.341 2.138 1.371
0.000 0.000 0.000 0.000 0.000 0.000 0.000 0.000 0.000 0.000 0.000 0.000 0.000 0.000 0.000 0.000 0.000 0.000 0.000 0.000 0.000 0.000 0.000 0.000 0.000 0.000 0.000 0.000 0.000 0.000 0.000 0.000 0.000 0.000 0.000 0.000 0.000 0.000 0.000 0.721 1.281 1.672 2.017 2.560 2.759 2.802 2.894 2.211 1.311
0.000 0.000 0.000 0.000 0.000 0.000 0.000 0.000 0.000 0.000 0.000 0.000 0.000 0.000 0.000 0.000 0.000 0.000 0.000 0.000 0.000 0.000 0.000 0.000 0.000 0.000 0.000 0.000 0.000 0.000 0.000 0.000 0.000 0.000 0.000 0.000 0.000 0.000 0.001 0.328 1.431 1.597 1.629 2.260 2.932 2.822 3.212 2.283 1.447
0.000 0.000 0.000 0.000 0.000 0.000 0.000 0.000 0.000 0.000 0.000 0.000 0.000 0.000 0.000 0.000 0.000 0.000 0.000 0.000 0.000 0.000 0.000 0.000 0.000 0.000 0.000 0.000 0.000 0.000 0.000 0.000 0.000 0.000 0.000 0.000 0.000 0.000 0.000 0.056 1.120 1.478 1.526 2.018 2.141 2.440 2.471 1.917 1.945
