ncols        35
nrows        71
xllcorner    409667.8
yllcorner    6870784.1
cellsize     5.00
NODATA_value -9999
0.000 0.000 0.000 0.174 2.420 6.444 7.786 5.846 2.180 0.238 0.000 0.000 0.000 0.000 0.000 0.000 0.000 0.000 0.000 0.000 0.000 0.000 0.000 0.000 0.000 0.000 0.000 0.000 0.000 0.000 0.000 0.000 0.000 0.000 0.000
0.000 0.009 1.667 11.977 17.784 17.574 17.923 17.411 16.200 10.618 2.840 0.177 0.001 0.000 0.000 0.000 0.000 0.000 0.000 0.000 0.000 0.000 0.000 0.000 0.000 0.000 0.000 0.000 0.000 0.000 0.000 0.000 0.000 0.000 0.000
0.001 1.944 15.532 16.521 18.002 18.966 19.227 17.535 15.779 14.475 15.532 9.730 2.611 0.297 0.002 0.000 0.000 0.000 0.000 0.000 0.000 0.000 0.000 0.000 0.000 0.000 0.000 0.000 0.000 0.000 0.000 0.000 0.000 0.000 0.000
0.263 10.851 16.481 17.789 18.594 19.138 19.633 17.760 16.968 17.398 15.546 15.352 14.687 9.592 3.016 0.049 0.000 0.000 0.000 0.000 0.000 0.000 0.000 0.000 0.000 0.000 0.000 0.000 0.000 0.000 0.000 0.000 0.000 0.000 0.000
2.174 15.831 17.314 18.340 18.998 20.352 20.247 18.807 18.600 18.438 16.570 17.225 14.804 13.481 13.226 5.437 0.000 0.000 0.000 0.000 0.000 0.000 0.000 0.000 0.000 0.000 0.000 0.000 0.000 0.000 0.000 0.000 0.000 0.000 0.000
5.275 16.019 17.353 17.878 18.968 19.816 20.122 19.521 20.722 18.759 18.467 17.942 16.623 15.410 13.498 12.305 0.158 0.000 0.000 0.000 0.000 0.000 0.000 0.000 0.000 0.000 0.000 0.000 0.000 0.000 0.000 0.000 0.000 0.000 0.000
7.963 15.651 17.132 18.670 19.362 19.412 20.554 20.640 19.853 20.506 19.747 19.052 17.972 15.226 13.690 11.846 5.082 0.000 0.000 0.000 0.000 0.000 0.000 0.000 0.000 0.000 0.000 0.000 0.000 0.000 0.000 0.000 0.000 0.000 0.000
11.341 15.579 17.221 18.529 18.622 18.958 21.044 21.458 19.015 20.570 19.228 20.577 16.968 15.086 13.024 12.279 9.775 0.000 0.000 0.000 0.000 0.000 0.000 0.000 0.000 0.000 0.000 0.000 0.000 0.000 0.000 0.000 0.000 0.000 0.000
13.009 15.895 17.671 18.063 18.489 19.471 20.511 21.081 19.753 21.554 20.570 19.194 15.995 14.413 13.792 13.287 11.268 0.498 0.000 0.000 0.000 0.000 0.000 0.000 0.000 0.000 0.000 0.000 0.000 0.000 0.000 0.000 0.000 0.000 0.000
13.146 15.635 17.168 18.520 19.079 20.607 21.574 20.202 21.505 20.138 19.079 18.424 16.352 15.355 15.249 13.845 11.383 4.669 0.000 0.000 0.000 0.000 0.000 0.000 0.000 0.000 0.000 0.000 0.000 0.000 0.000 0.000 0.000 0.000 0.000
12.604 15.985 18.195 17.440 19.098 21.315 20.862 21.603 21.616 20.181 18.194 17.568 16.834 16.550 15.896 13.727 12.021 7.235 0.002 0.000 0.000 0.000 0.000 0.000 0.000 0.000 0.000 0.000 0.000 0.000 0.000 0.000 0.000 0.000 0.000
10.489 15.562 17.408 18.993 19.178 19.029 20.009 20.435 20.137 18.772 16.410 17.275 16.498 16.799 14.826 14.646 12.478 8.332 0.647 0.000 0.000 0.000 0.000 0.000 0.000 0.000 0.000 0.000 0.000 0.000 0.000 0.000 0.000 0.000 0.000
8.059 15.189 17.568 17.228 18.205 18.609 18.796 19.194 18.839 17.595 16.564 17.661 17.599 16.804 16.002 14.144 11.860 8.894 3.622 0.006 0.000 0.000 0.000 0.000 0.000 0.000 0.000 0.000 0.000 0.000 0.000 0.000 0.000 0.000 0.000
4.925 15.021 15.705 17.292 17.878 15.531 17.933 17.232 17.700 16.583 18.032 18.773 17.885 16.600 15.724 13.825 12.211 9.338 5.241 0.708 0.000 0.000 0.000 0.000 0.000 0.000 0.000 0.000 0.000 0.000 0.000 0.000 0.000 0.000 0.000
2.138 12.515 15.634 16.192 16.516 16.583 16.534 16.672 17.089 17.718 18.551 18.294 15.880 18.993 16.115 13.582 12.032 9.620 6.048 3.214 0.147 0.000 0.000 0.000 0.000 0.000 0.000 0.000 0.000 0.000 0.000 0.000 0.000 0.000 0.000
0.745 8.852 13.539 14.742 14.690 14.456 15.253 16.866 17.545 18.643 17.658 16.823 16.815 17.985 14.431 13.340 11.751 9.726 6.833 5.023 1.983 0.020 0.000 0.000 0.000 0.000 0.000 0.000 0.000 0.000 0.000 0.000 0.000 0.000 0.000
0.105 4.871 12.046 14.002 14.970 15.009 16.821 17.505 17.193 17.711 16.483 16.350 16.730 16.283 14.006 12.426 12.307 9.801 7.498 5.963 4.021 1.007 0.001 0.000 0.000 0.000 0.000 0.000 0.000 0.000 0.000 0.000 0.000 0.000 0.000
0.004 1.492 8.818 11.113 12.583 15.550 16.296 16.694 17.471 16.345 15.129 14.519 15.705 15.554 13.930 13.263 12.132 10.334 7.816 6.306 5.038 3.066 0.346 0.000 0.000 0.000 0.000 0.000 0.000 0.000 0.000 0.000 0.000 0.000 0.000
0.000 0.307 6.177 10.904 12.594 13.744 15.025 15.962 15.471 15.483 14.428 15.222 16.108 17.069 15.775 13.439 12.165 10.015 8.153 6.458 5.493 4.229 2.277 0.013 0.000 0.000 0.000 0.000 0.000 0.000 0.000 0.000 0.000 0.000 0.000
0.000 0.026 2.753 9.483 12.338 13.744 13.909 14.849 15.730 15.105 15.736 15.323 16.484 16.761 14.492 12.652 11.592 10.135 9.159 6.717 5.796 4.822 3.107 0.627 0.003 0.000 0.000 0.000 0.000 0.000 0.000 0.000 0.000 0.000 0.000
0.000 0.000 0.231 5.151 9.379 10.808 12.740 13.655 14.771 14.893 14.591 14.918 16.554 15.148 13.444 12.215 11.409 10.071 9.086 7.142 5.707 4.594 3.301 2.254 0.072 0.000 0.000 0.000 0.000 0.000 0.000 0.000 0.000 0.000 0.000
0.000 0.000 0.001 1.056 7.671 10.092 12.260 13.287 14.138 14.048 13.912 14.116 14.063 13.041 11.938 11.804 10.154 9.647 9.240 8.051 5.867 4.300 3.377 2.711 0.718 0.000 0.000 0.000 0.000 0.000 0.000 0.000 0.000 0.000 0.000
0.000 0.000 0.000 0.147 4.236 8.819 10.851 13.042 13.479 12.988 13.343 13.672 14.263 12.529 11.934 10.404 10.262 10.013 9.646 8.179 5.961 4.180 2.554 2.507 1.201 0.071 0.000 0.000 0.000 0.000 0.000 0.000 0.000 0.000 0.000
0.000 0.000 0.000 0.000 1.265 6.573 9.701 12.252 12.788 12.237 12.511 12.780 13.182 11.729 10.637 10.163 10.848 10.243 9.884 8.734 7.020 4.024 2.836 2.250 1.973 0.815 0.000 0.000 0.000 0.000 0.000 0.000 0.000 0.000 0.000
0.000 0.000 0.000 0.000 0.019 2.707 7.038 9.500 10.172 11.315 12.165 12.677 10.897 10.633 10.169 10.520 10.985 10.208 10.159 9.224 7.347 5.008 3.323 2.368 2.878 1.723 0.068 0.000 0.000 0.000 0.000 0.000 0.000 0.000 0.000
0.000 0.000 0.000 0.000 0.000 0.472 4.107 6.822 9.716 11.981 13.051 11.929 11.197 10.508 10.500 10.565 10.202 10.607 10.316 9.398 7.848 6.324 3.795 2.828 3.151 2.544 0.653 0.000 0.000 0.000 0.000 0.000 0.000 0.000 0.000
0.000 0.000 0.000 0.000 0.000 0.015 1.730 5.321 7.669 10.358 10.849 10.840 10.299 10.442 10.639 10.566 10.870 10.762 10.631 9.844 8.684 7.099 4.307 3.232 3.505 3.121 1.790 0.084 0.000 0.000 0.000 0.000 0.000 0.000 0.000
0.000 0.000 0.000 0.000 0.000 0.000 0.154 2.873 5.382 7.725 10.515 10.351 10.845 10.188 10.983 9.985 11.023 10.686 10.723 9.902 9.062 7.439 5.317 4.092 3.969 3.290 2.838 0.746 0.003 0.000 0.000 0.000 0.000 0.000 0.000
0.000 0.000 0.000 0.000 0.000 0.000 0.014 1.304 4.565 5.893 7.253 9.834 9.664 9.961 9.422 10.679 10.908 10.586 10.631 9.979 9.601 8.077 6.443 4.871 4.142 3.399 3.093 1.908 0.174 0.000 0.000 0.000 0.000 0.000 0.000
0.000 0.000 0.000 0.000 0.000 0.000 0.000 0.147 1.896 4.176 5.430 8.017 9.416 9.940 9.837 10.244 10.405 10.184 10.434 10.337 9.823 8.497 7.211 5.851 4.711 3.956 3.198 2.796 1.346 0.152 0.000 0.000 0.000 0.000 0.000
0.000 0.000 0.000 0.000 0.000 0.000 0.000 0.002 0.222 2.606 4.478 5.831 8.515 9.068 9.413 9.831 9.755 9.832 10.567 10.176 9.455 8.660 7.972 7.128 5.535 4.412 3.427 3.251 2.775 1.295 0.066 0.000 0.000 0.000 0.000
0.000 0.000 0.000 0.000 0.000 0.000 0.000 0.000 0.007 0.680 3.534 4.585 6.518 8.629 8.828 8.703 9.092 9.978 10.162 9.701 9.271 8.947 8.438 7.969 6.373 4.593 3.708 3.554 3.318 2.515 0.773 0.012 0.000 0.000 0.000
0.000 0.000 0.000 0.000 0.000 0.000 0.000 0.000 0.000 0.025 2.048 4.105 4.740 7.352 8.017 8.069 8.495 9.304 9.658 9.999 9.001 9.089 8.692 8.409 7.315 4.632 3.830 3.381 3.579 3.319 1.901 0.412 0.002 0.000 0.000
0.000 0.000 0.000 0.000 0.000 0.000 0.000 0.000 0.000 0.000 0.492 3.044 3.505 4.378 6.768 7.951 8.608 9.622 8.994 9.026 9.254 9.265 8.849 8.442 6.922 5.824 4.228 3.582 3.917 3.556 2.802 1.513 0.180 0.000 0.000
0.000 0.000 0.000 0.000 0.000 0.000 0.000 0.000 0.000 0.000 0.012 1.057 2.946 2.883 5.977 7.296 8.241 8.834 9.134 9.471 9.219 9.672 8.812 8.800 8.021 6.879 4.975 3.974 3.717 3.304 3.346 2.477 0.986 0.001 0.000
0.000 0.000 0.000 0.000 0.000 0.000 0.000 0.000 0.000 0.000 0.000 0.095 2.134 2.454 4.546 7.009 8.250 8.665 9.192 9.246 9.546 9.202 8.941 8.895 8.565 7.483 5.567 3.982 3.181 3.525 3.592 2.991 1.895 0.093 0.139
0.000 0.000 0.000 0.000 0.000 0.000 0.000 0.000 0.000 0.000 0.000 0.016 1.560 2.395 3.154 6.266 8.092 8.833 8.786 9.323 8.839 8.963 9.023 9.328 8.572 7.528 5.815 4.204 3.458 3.573 3.462 3.036 2.517 1.878 0.996
0.000 0.000 0.000 0.000 0.000 0.000 0.000 0.000 0.000 0.000 0.000 0.000 0.516 2.317 2.641 5.052 7.108 8.327 8.517 8.584 8.981 9.259 9.269 9.268 8.387 7.619 5.861 4.189 3.615 3.269 3.200 2.853 2.807 2.734 2.064
0.000 0.000 0.000 0.000 0.000 0.000 0.000 0.000 0.000 0.000 0.000 0.000 0.100 2.006 3.119 4.084 6.112 7.742 7.947 8.567 8.529 9.233 9.205 8.883 8.553 7.189 5.648 4.657 3.917 3.067 2.999 2.562 2.863 3.065 2.719
0.000 0.000 0.000 0.000 0.000 0.000 0.000 0.000 0.000 0.000 0.000 0.000 0.069 0.968 2.629 2.635 4.476 5.825 7.213 7.264 8.268 8.799 9.280 9.067 8.514 7.311 6.042 5.095 4.153 3.103 2.683 2.769 3.208 3.182 3.033
0.000 0.000 0.000 0.000 0.000 0.000 0.000 0.000 0.000 0.000 0.000 0.000 0.000 0.351 0.067 2.797 2.801 3.525 5.755 7.086 8.198 9.118 9.294 9.239 8.496 7.729 6.293 5.299 4.375 3.569 2.526 2.696 3.323 3.369 3.198
0.000 0.000 0.000 0.000 0.000 0.000 0.000 0.000 0.000 0.000 0.000 0.000 0.000 0.035 1.274 2.721 2.178 1.461 4.653 6.784 8.176 8.976 9.215 9.102 8.603 8.177 6.277 5.572 4.826 3.731 2.792 3.118 3.470 3.461 3.253
0.000 0.000 0.000 0.000 0.000 0.000 0.000 0.000 0.000 0.000 0.000 0.000 0.000 0.008 0.797 2.095 2.059 0.493 2.746 6.559 8.143 8.718 8.805 9.210 8.825 7.984 6.365 5.983 5.088 4.175 3.662 3.369 3.592 3.583 3.298
0.000 0.000 0.000 0.000 0.000 0.000 0.000 0.000 0.000 0.000 0.000 0.000 0.000 0.000 0.284 1.046 1.860 1.675 2.419 6.698 7.755 8.819 9.110 9.274 8.677 7.314 7.203 6.199 5.331 4.676 3.885 3.255 3.387 3.632 3.437
0.000 0.000 0.000 0.000 0.000 0.000 0.000 0.000 0.000 0.000 0.000 0.000 0.000 0.000 0.018 0.712 1.141 1.558 3.560 5.827 7.868 8.584 9.561 9.052 8.783 8.297 7.510 6.507 5.895 5.096 4.180 3.769 3.583 3.889 4.027
0.000 0.000 0.000 0.000 0.000 0.000 0.000 0.000 0.000 0.000 0.000 0.000 0.000 0.000 0.000 0.222 0.914 1.726 3.651 4.752 6.661 7.955 8.493 8.803 8.565 8.137 7.808 6.988 6.250 5.686 4.698 4.176 4.146 4.042 4.167
0.000 0.000 0.000 0.000 0.000 0.000 0.000 0.000 0.000 0.000 0.000 0.000 0.000 0.000 0.000 0.012 0.346 2.817 3.666 3.847 5.291 6.526 7.912 8.556 8.678 8.515 7.899 7.490 6.921 6.170 5.510 4.801 4.593 4.639 4.681
0.000 0.000 0.000 0.000 0.000 0.000 0.000 0.000 0.000 0.000 0.000 0.000 0.000 0.000 0.000 0.016 1.384 2.911 3.187 3.079 4.207 5.664 7.142 8.631 8.880 8.845 8.186 7.423 7.431 7.002 6.326 5.226 4.911 4.807 4.987
0.000 0.000 0.000 0.000 0.000 0.000 0.000 0.000 0.000 0.000 0.000 0.000 0.000 0.000 0.000 0.015 0.824 1.964 2.433 2.467 3.191 4.400 6.238 7.818 8.448 8.650 8.362 7.740 7.667 7.324 6.768 5.827 5.491 5.885 5.611
0.000 0.000 0.000 0.000 0.000 0.000 0.000 0.000 0.000 0.000 0.000 0.000 0.000 0.000 0.000 0.000 0.013 0.503 1.858 2.335 2.501 3.689 5.196 7.152 7.847 8.289 8.285 7.912 7.768 7.578 7.106 6.705 6.557 6.761 6.355
0.000 0.000 0.000 0.000 0.000 0.000 0.000 0.000 0.000 0.000 0.000 0.000 0.000 0.000 0.000 0.000 0.000 0.022 1.215 1.954 1.818 2.671 5.086 6.582 7.668 8.019 8.042 7.979 7.909 7.812 7.533 7.244 7.707 7.595 6.701
0.000 0.000 0.000 0.000 0.000 0.000 0.000 0.000 0.000 0.000 0.000 0.000 0.000 0.000 0.000 0.000 0.000 0.000 0.162 1.235 1.094 2.544 4.660 6.228 7.220 7.748 7.889 8.019 7.732 7.824 7.852 7.913 8.032 8.102 7.017
0.000 0.000 0.000 0.000 0.000 0.000 0.000 0.000 0.000 0.000 0.000 0.000 0.000 0.000 0.000 0.000 0.000 0.000 0.004 1.210 2.015 2.781 3.835 5.273 6.686 7.598 7.761 7.797 7.663 7.791 7.940 7.991 7.954 8.647 7.110
0.000 0.000 0.000 0.000 0.000 0.000 0.000 0.000 0.000 0.000 0.000 0.000 0.000 0.000 0.000 0.000 0.000 0.000 0.000 0.799 2.137 2.886 3.120 4.201 6.115 7.308 7.804 7.605 7.578 7.691 7.956 7.819 8.363 9.179 7.471
0.000 0.000 0.000 0.000 0.000 0.000 0.000 0.000 0.000 0.000 0.000 0.000 0.000 0.000 0.000 0.000 0.000 0.000 0.000 0.219 2.175 2.814 2.928 3.556 5.270 7.274 8.048 7.803 7.497 7.732 7.713 7.730 8.792 9.356 7.199
0.000 0.000 0.000 0.000 0.000 0.000 0.000 0.000 0.000 0.000 0.000 0.000 0.000 0.000 0.000 0.000 0.000 0.000 0.000 0.021 1.338 2.498 2.741 3.406 3.747 6.475 7.936 7.843 7.673 7.847 7.817 8.132 9.298 9.368 7.104
0.000 0.000 0.000 0.000 0.000 0.000 0.000 0.000 0.000 0.000 0.000 0.000 0.000 0.000 0.000 0.000 0.000 0.000 0.000 0.013 0.587 1.921 2.614 3.353 3.101 5.701 7.934 8.085 7.764 7.810 7.753 8.164 9.289 8.920 7.322
0.000 0.000 0.000 0.000 0.000 0.000 0.000 0.000 0.000 0.000 0.000 0.000 0.000 0.000 0.000 0.000 0.000 0.000 0.000 0.000 0.103 1.333 2.266 3.225 3.027 4.483 7.287 7.816 7.394 7.070 7.258 7.914 9.030 8.769 7.251
0.000 0.000 0.000 0.000 0.000 0.000 0.000 0.000 0.000 0.000 0.000 0.000 0.000 0.000 0.000 0.000 0.000 0.000 0.000 0.000 0.000 0.576 1.846 2.665 3.032 3.693 6.641 7.559 7.137 6.460 6.561 7.413 8.242 7.654 6.460
0.000 0.000 0.000 0.000 0.000 0.000 0.000 0.000 0.000 0.000 0.000 0.000 0.000 0.000 0.000 0.000 0.000 0.000 0.000 0.000 0.000 0.021 1.264 2.531 2.994 3.247 5.623 7.446 6.861 6.169 6.286 6.671 6.528 6.332 5.248
0.000 0.000 0.000 0.000 0.000 0.000 0.000 0.000 0.000 0.000 0.000 0.000 0.000 0.000 0.000 0.000 0.000 0.000 0.000 0.000 0.000 0.000 0.399 2.846 2.982 3.062 4.929 6.933 6.675 6.194 5.920 5.702 6.082 5.738 4.469
0.000 0.000 0.000 0.000 0.000 0.000 0.000 0.000 0.000 0.000 0.000 0.000 0.000 0.000 0.000 0.000 0.000 0.000 0.000 0.000 0.000 0.000 0.158 2.691 3.096 3.272 4.375 6.382 6.646 5.936 5.235 5.483 5.777 4.579 3.681
0.000 0.000 0.000 0.000 0.000 0.000 0.000 0.000 0.000 0.000 0.000 0.000 0.000 0.000 0.000 0.000 0.000 0.000 0.000 0.000 0.000 0.000 0.099 2.566 2.903 3.179 4.192 5.892 6.448 5.580 4.670 4.920 4.287 3.786 3.818
0.000 0.000 0.000 0.000 0.000 0.000 0.000 0.000 0.000 0.000 0.000 0.000 0.000 0.000 0.000 0.000 0.000 0.000 0.000 0.000 0.000 0.000 0.131 2.152 2.722 3.220 3.930 5.023 5.958 5.518 3.891 3.903 4.034 4.070 3.991
0.000 0.000 0.000 0.000 0.000 0.000 0.000 0.000 0.000 0.000 0.000 0.000 0.000 0.000 0.000 0.000 0.000 0.000 0.000 0.000 0.000 0.000 0.129 2.031 2.312 3.222 3.631 4.089 5.691 4.918 3.242 3.689 4.049 4.298 4.053
0.000 0.000 0.000 0.000 0.000 0.000 0.000 0.000 0.000 0.000 0.000 0.000 0.000 0.000 0.000 0.000 0.000 0.000 0.000 0.000 0.000 0.000 0.104 1.994 2.308 3.064 3.347 3.596 5.082 4.838 2.986 3.617 3.896 4.515 4.849
0.000 0.000 0.000 0.000 0.000 0.000 0.000 0.000 0.000 0.000 0.000 0.000 0.000 0.000 0.000 0.000 0.000 0.000 0.000 0.000 0.000 0.000 0.126 1.908 2.329 2.964 3.383 3.698 4.101 4.702 3.031 3.504 4.437 5.315 5.474
0.000 0.000 0.000 0.000 0.000 0.000 0.000 0.000 0.000 0.000 0.000 0.000 0.000 0.000 0.000 0.000 0.000 0.000 0.000 0.000 0.000 0.000 0.182 1.990 2.253 2.946 3.171 3.454 3.721 4.133 3.484 4.187 5.367 5.414 5.024
0.000 0.000 0.000 0.000 0.000 0.000 0.000 0.000 0.000 0.000 0.000 0.000 0.000 0.000 0.000 0.000 0.000 0.000 0.000 0.000 0.000 0.000 0.134 2.005 2.314 2.976 3.220 3.037 3.214 4.151 3.870 4.238 5.098 4.970 4.753
0.000 0.000 0.000 0.000 0.000 0.000 0.000 0.000 0.000 0.000 0.000 0.000 0.000 0.000 0.000 0.000 0.000 0.000 0.000 0.000 0.000 0.000 0.117 2.028 2.395 2.804 3.079 2.637 2.822 4.179 3.864 4.296 4.469 4.266 4.734
0.000 0.000 0.000 0.000 0.000 0.000 0.000 0.000 0.000 0.000 0.000 0.000 0.000 0.000 0.000 0.000 0.000 0.000 0.000 0.000 0.000 0.000 0.120 1.933 2.196 2.623 2.742 2.441 2.360 3.686 3.448 3.931 3.900 4.194 4.357
