ncols        35
nrows        55
xllcorner    409732.8
yllcorner    6870734.1
cellsize     5.00
NODATA_value -9999
0.000 0.000 0.000 0.000 0.024 0.747 3.455 5.537 4.746 2.260 0.425 0.009 0.000 0.000 0.000 0.000 0.000 0.000 0.000 0.000 0.000 0.000 0.000 0.000 0.000 0.000 0.000 0.000 0.000 0.000 0.000 0.000 0.000 0.000 0.000
0.000 0.000 0.001 1.117 7.300 14.485 14.776 14.446 14.081 14.280 12.082 5.050 0.354 0.000 0.000 0.000 0.000 0.000 0.000 0.000 0.000 0.000 0.000 0.000 0.000 0.000 0.000 0.000 0.000 0.000 0.000 0.000 0.000 0.000 0.000
0.000 0.001 1.557 13.167 14.480 15.129 15.330 15.671 15.353 15.012 14.576 14.452 8.980 0.762 0.000 0.000 0.000 0.000 0.000 0.000 0.000 0.000 0.000 0.000 0.000 0.000 0.000 0.000 0.000 0.000 0.000 0.000 0.000 0.000 0.000
0.000 1.151 13.012 14.699 15.226 15.925 16.526 16.843 16.428 16.118 15.972 15.508 14.187 9.307 0.534 0.000 0.000 0.000 0.000 0.000 0.000 0.000 0.000 0.000 0.000 0.000 0.000 0.000 0.000 0.000 0.000 0.000 0.000 0.000 0.000
0.026 5.745 14.438 15.200 15.783 16.894 17.250 17.354 17.079 17.141 17.284 16.962 16.015 13.625 7.538 0.220 0.000 0.000 0.000 0.000 0.000 0.000 0.000 0.000 0.000 0.000 0.000 0.000 0.000 0.000 0.000 0.000 0.000 0.000 0.000
0.636 13.722 14.555 15.542 16.681 17.457 17.302 17.749 17.827 17.883 18.377 18.131 17.174 15.163 13.690 5.272 0.065 0.000 0.000 0.000 0.000 0.000 0.000 0.000 0.000 0.000 0.000 0.000 0.000 0.000 0.000 0.000 0.000 0.000 0.000
2.399 13.977 14.578 15.722 16.667 17.616 18.314 17.806 18.335 18.526 18.804 18.993 17.603 16.567 14.568 11.971 3.502 0.031 0.000 0.000 0.000 0.000 0.000 0.000 0.000 0.000 0.000 0.000 0.000 0.000 0.000 0.000 0.000 0.000 0.000
3.905 13.695 14.905 16.117 17.738 17.494 17.722 18.493 18.698 19.064 19.297 18.104 18.673 17.574 15.985 14.570 10.628 2.586 0.019 0.000 0.000 0.000 0.000 0.000 0.000 0.000 0.000 0.000 0.000 0.000 0.000 0.000 0.000 0.000 0.000
4.570 13.478 14.836 16.045 17.355 17.814 18.726 18.514 19.821 19.049 19.781 19.680 19.714 18.896 17.397 16.731 12.993 9.405 1.988 0.018 0.000 0.000 0.000 0.000 0.000 0.000 0.000 0.000 0.000 0.000 0.000 0.000 0.000 0.000 0.000
4.324 13.564 14.890 16.260 17.163 18.418 18.572 19.547 19.533 19.479 19.778 20.517 20.622 19.564 18.511 16.866 15.163 12.800 8.008 1.717 0.018 0.000 0.000 0.000 0.000 0.000 0.000 0.000 0.000 0.000 0.000 0.000 0.000 0.000 0.000
3.179 12.948 14.898 16.566 17.722 18.056 19.424 18.812 19.078 19.530 20.615 20.827 20.697 19.700 18.872 17.744 17.135 15.079 11.050 6.843 1.671 0.018 0.000 0.000 0.000 0.000 0.000 0.000 0.000 0.000 0.000 0.000 0.000 0.000 0.000
1.803 12.936 14.103 16.241 17.519 18.196 18.382 19.351 19.678 19.942 21.015 20.412 21.153 20.307 18.760 18.558 17.683 16.545 13.344 9.519 6.370 1.463 0.006 0.000 0.000 0.000 0.000 0.000 0.000 0.000 0.000 0.000 0.000 0.000 0.000
0.692 10.237 14.573 15.675 17.936 17.626 19.095 18.861 20.108 20.029 20.180 20.882 20.482 19.576 18.986 19.131 17.829 17.436 14.789 11.507 8.734 5.746 0.959 0.002 0.000 0.000 0.000 0.000 0.000 0.000 0.000 0.000 0.000 0.000 0.000
0.151 6.423 12.192 15.610 16.861 17.768 17.597 18.656 19.219 20.210 20.305 20.710 20.250 20.000 19.473 19.534 18.348 17.854 15.590 14.500 10.232 8.156 4.694 0.560 0.000 0.000 0.000 0.000 0.000 0.000 0.000 0.000 0.000 0.000 0.000
0.024 3.359 11.718 13.930 15.363 16.363 17.230 18.379 19.895 20.346 20.673 20.416 20.379 20.464 19.773 19.246 18.895 18.393 16.579 15.877 13.262 8.990 7.043 3.579 0.146 0.000 0.000 0.000 0.000 0.000 0.000 0.000 0.000 0.000 0.000
0.001 1.163 8.963 12.479 14.215 15.912 16.716 18.235 19.636 20.585 20.480 20.236 20.916 20.278 19.769 19.648 19.216 17.725 17.599 17.040 15.062 10.694 7.681 6.217 2.543 0.031 0.000 0.000 0.000 0.000 0.000 0.000 0.000 0.000 0.000
0.000 0.249 5.518 10.861 13.017 15.352 15.747 18.308 19.025 19.427 20.703 20.617 20.614 19.503 20.206 19.911 19.122 18.981 18.458 18.053 16.400 13.859 8.672 7.280 5.320 1.368 0.002 0.000 0.000 0.000 0.000 0.000 0.000 0.000 0.000
0.000 0.027 2.534 8.736 11.461 13.351 16.967 17.039 18.959 19.189 20.744 20.745 19.250 20.335 20.436 19.536 19.218 19.292 18.541 17.565 16.773 14.634 10.384 7.949 6.572 4.151 0.397 0.000 0.000 0.000 0.000 0.000 0.000 0.000 0.000
0.000 0.001 0.870 6.655 10.690 14.158 16.668 17.565 18.258 20.139 19.883 20.430 20.910 20.441 19.965 20.286 19.518 18.713 18.819 18.381 16.929 16.697 12.889 9.154 7.113 5.731 2.871 0.035 0.000 0.000 0.000 0.000 0.000 0.000 0.000
0.000 0.000 0.098 3.761 7.819 11.973 15.093 16.320 17.958 18.151 18.875 19.301 19.568 20.688 20.039 19.561 19.975 19.044 18.252 18.932 17.659 16.940 14.469 10.336 7.592 6.344 4.919 1.244 0.000 0.000 0.000 0.000 0.000 0.000 0.000
0.000 0.000 0.006 1.723 7.131 10.040 13.381 14.909 15.724 17.151 17.628 18.428 19.117 19.772 20.808 20.000 19.443 19.040 19.002 18.526 18.027 17.655 16.212 11.691 8.984 6.835 5.455 3.641 0.190 0.000 0.000 0.000 0.000 0.000 0.000
0.000 0.000 0.001 0.552 5.029 8.327 11.186 13.225 14.961 15.920 17.460 18.055 18.910 19.290 19.684 20.218 20.146 19.782 18.739 18.967 17.948 17.263 16.679 13.264 10.500 7.161 5.784 4.981 2.145 0.028 0.000 0.000 0.000 0.000 0.000
0.000 0.000 0.000 0.038 1.766 5.482 7.414 10.996 12.823 14.992 16.200 17.053 17.988 18.754 19.326 20.123 19.957 19.943 18.417 17.848 19.314 18.846 17.428 15.337 12.232 7.981 6.243 5.320 4.607 0.777 0.000 0.000 0.000 0.000 0.000
0.000 0.000 0.000 0.000 0.241 3.382 5.874 9.422 12.129 13.239 15.300 15.894 16.930 17.979 18.810 19.610 19.659 19.330 19.043 18.432 19.845 20.065 18.564 16.446 13.111 9.255 6.552 5.760 5.210 2.812 0.143 0.000 0.000 0.000 0.000
0.000 0.000 0.000 0.000 0.010 1.425 4.462 6.846 10.084 13.095 14.450 15.603 16.236 17.000 18.031 19.348 19.556 19.263 18.601 19.806 21.306 20.378 19.746 17.525 13.399 10.587 6.981 6.384 5.412 4.475 1.650 0.001 0.000 0.000 0.000
0.000 0.000 0.000 0.000 0.000 0.127 2.683 4.854 8.750 12.219 14.397 15.272 15.723 16.271 17.570 18.353 18.936 19.216 19.224 19.784 21.542 21.084 20.121 16.313 13.043 11.438 8.334 6.480 5.453 4.842 3.511 0.232 0.000 0.000 0.000
0.000 0.000 0.000 0.000 0.000 0.004 1.728 4.823 6.722 11.042 13.783 14.970 15.653 15.674 16.765 17.605 18.340 18.804 19.203 18.689 20.815 20.805 19.238 15.640 14.252 13.465 9.543 6.250 6.021 5.077 4.438 1.933 0.001 0.000 0.000
0.000 0.000 0.000 0.000 0.000 0.000 0.583 3.965 6.014 7.580 12.941 14.983 15.374 15.352 15.632 16.879 17.421 18.431 18.482 18.627 20.999 21.567 19.009 15.927 15.595 14.007 9.908 6.835 6.204 5.106 4.961 3.853 0.258 0.000 0.000
0.000 0.000 0.000 0.000 0.000 0.000 0.088 2.851 5.385 6.461 9.498 15.103 15.841 15.544 15.315 15.961 16.769 17.312 17.358 18.649 20.547 20.123 18.376 16.661 16.231 13.938 9.716 8.217 6.616 5.982 5.137 4.737 2.191 0.001 0.000
0.000 0.000 0.000 0.000 0.000 0.000 0.003 0.942 4.212 5.505 6.275 15.201 15.525 15.317 14.745 15.478 16.278 16.656 17.307 19.063 20.343 19.282 18.342 17.184 16.677 13.358 11.239 9.379 7.549 6.213 4.292 4.676 3.903 0.309 0.000
0.000 0.000 0.000 0.000 0.000 0.000 0.000 0.183 2.578 4.932 5.596 13.461 15.480 15.579 14.871 15.241 16.183 16.176 16.899 18.969 19.010 19.313 18.682 16.922 15.908 14.471 12.176 10.912 8.178 5.825 4.747 5.372 4.732 2.444 0.012
0.000 0.000 0.000 0.000 0.000 0.000 0.000 0.015 1.132 3.956 5.438 12.218 15.435 15.152 14.459 14.356 14.887 15.286 16.211 18.453 19.503 19.421 17.646 16.322 16.019 14.959 13.259 12.280 8.895 6.964 6.315 5.673 4.318 3.747 0.834
0.000 0.000 0.000 0.000 0.000 0.000 0.000 0.000 0.234 2.687 4.960 10.874 15.192 15.022 13.990 13.712 13.718 13.928 15.230 17.267 18.344 17.472 15.941 16.741 14.988 14.406 14.127 13.065 10.399 7.809 6.613 5.103 4.522 4.512 2.556
0.000 0.000 0.000 0.000 0.000 0.000 0.000 0.000 0.006 1.314 4.478 8.781 14.294 14.263 13.962 13.053 12.784 13.287 14.275 15.559 16.539 16.085 15.774 15.322 15.000 14.970 14.917 13.286 11.024 8.651 6.758 5.271 4.706 4.346 3.705
0.000 0.000 0.000 0.000 0.000 0.000 0.000 0.000 0.000 0.231 4.586 6.865 13.113 14.116 13.506 12.467 12.466 12.859 13.367 15.133 16.209 15.683 15.054 14.786 15.499 15.716 15.302 13.104 11.901 9.769 7.042 5.497 5.106 4.713 4.433
0.000 0.000 0.000 0.000 0.000 0.000 0.000 0.000 0.000 0.079 4.242 6.396 12.737 13.506 12.973 12.190 11.973 11.983 12.948 15.304 14.816 14.111 14.573 15.528 16.215 16.517 14.995 13.236 12.171 10.163 7.810 6.373 5.337 5.014 4.588
0.000 0.000 0.000 0.000 0.000 0.000 0.000 0.000 0.000 0.048 4.040 5.712 11.940 13.428 12.814 11.934 11.040 11.237 12.072 12.571 12.854 13.689 14.567 15.289 16.357 15.553 14.351 13.812 12.412 11.437 9.214 7.459 5.930 5.326 4.792
0.000 0.000 0.000 0.000 0.000 0.000 0.000 0.000 0.000 0.065 3.637 5.256 11.029 12.894 12.275 11.272 10.908 10.342 10.584 11.517 12.358 13.569 14.142 14.706 15.872 14.713 14.778 14.171 13.336 12.975 10.755 8.176 5.907 5.211 4.779
0.000 0.000 0.000 0.000 0.000 0.000 0.000 0.000 0.000 0.066 3.429 4.628 10.542 12.603 11.913 11.024 9.999 9.434 9.795 10.917 11.932 12.603 13.804 15.844 15.594 15.055 14.805 14.919 14.396 14.046 11.494 8.311 5.982 5.271 4.636
0.000 0.000 0.000 0.000 0.000 0.000 0.000 0.000 0.000 0.060 3.362 4.326 9.707 11.565 11.217 10.572 9.486 8.782 9.462 10.256 11.459 12.466 14.291 14.946 14.173 15.643 15.733 15.234 15.258 14.009 11.749 8.602 6.221 5.439 4.981
0.000 0.000 0.000 0.000 0.000 0.000 0.000 0.000 0.000 0.072 3.161 4.206 9.080 11.521 11.325 10.180 9.257 8.085 8.467 9.363 11.287 12.969 13.478 13.376 14.348 15.487 14.948 15.228 16.565 13.575 11.076 9.431 6.863 6.042 5.595
0.000 0.000 0.000 0.000 0.000 0.000 0.000 0.000 0.000 0.093 3.175 3.983 8.480 10.694 10.976 10.059 8.453 7.738 8.600 9.822 10.771 11.664 12.088 12.867 14.229 15.050 15.380 16.729 15.661 13.215 12.179 9.606 7.880 6.798 6.397
0.000 0.000 0.000 0.000 0.000 0.000 0.000 0.000 0.000 0.061 3.075 3.881 7.902 10.419 10.551 9.642 8.180 7.592 7.835 8.854 9.547 10.401 11.817 12.574 13.736 14.872 15.996 15.924 14.516 13.806 11.932 10.374 8.809 7.554 6.495
0.000 0.000 0.000 0.000 0.000 0.000 0.000 0.000 0.000 0.055 3.028 3.879 6.388 9.889 9.853 9.155 7.979 7.371 7.594 8.005 8.071 9.406 10.643 11.622 12.913 14.460 14.768 14.625 13.995 12.987 12.118 10.968 9.316 7.226 6.038
0.000 0.000 0.000 0.000 0.000 0.000 0.000 0.000 0.000 0.053 2.820 3.666 5.398 9.403 9.583 8.908 8.007 7.537 7.528 7.299 7.772 8.568 9.575 10.459 11.519 13.461 14.063 14.022 13.512 13.025 12.385 10.948 8.790 6.818 6.439
0.000 0.000 0.000 0.000 0.000 0.000 0.000 0.000 0.000 0.037 2.864 3.588 5.062 8.717 9.162 8.315 7.916 7.429 7.183 7.134 7.333 7.945 8.995 9.874 11.471 12.240 12.944 13.304 13.315 12.943 11.981 10.191 8.567 7.414 6.902
0.000 0.000 0.000 0.000 0.000 0.000 0.000 0.000 0.000 0.022 2.632 3.770 4.581 8.296 8.791 8.159 7.244 7.301 7.069 6.552 7.243 7.893 8.997 9.523 10.176 11.223 12.020 12.507 12.845 12.014 11.224 10.058 9.037 8.154 7.080
0.000 0.000 0.000 0.000 0.000 0.000 0.000 0.000 0.000 0.022 2.176 3.478 4.230 7.749 8.441 8.038 7.454 6.804 6.615 6.987 7.434 7.469 7.990 8.947 9.149 9.790 10.832 11.154 11.649 11.064 10.945 10.335 9.548 8.733 6.590
0.000 0.000 0.000 0.000 0.000 0.000 0.000 0.000 0.000 0.013 2.194 3.489 3.969 7.596 8.329 7.375 6.628 6.632 7.349 7.200 7.084 6.559 7.885 8.547 8.454 8.324 8.979 10.551 10.856 11.257 11.038 9.533 9.884 8.781 6.343
0.000 0.000 0.000 0.000 0.000 0.000 0.000 0.000 0.000 0.004 1.072 3.470 3.825 7.158 8.101 7.051 6.503 6.862 6.935 7.077 6.448 6.661 8.042 7.851 7.326 7.140 8.193 9.384 10.342 9.987 9.781 9.751 10.272 8.521 6.306
0.000 0.000 0.000 0.000 0.000 0.000 0.000 0.000 0.000 0.019 0.262 3.428 3.876 6.403 7.506 6.602 6.132 6.933 7.178 6.877 6.415 7.527 7.934 6.781 6.717 7.188 7.632 7.714 8.560 8.969 9.394 9.835 9.485 7.630 6.275
0.000 0.000 0.000 0.000 0.000 0.000 0.000 0.000 0.000 0.102 1.803 3.411 3.796 5.318 7.184 6.244 5.882 7.000 7.043 6.619 7.389 8.172 6.877 6.126 6.511 6.787 6.323 6.413 7.112 8.584 9.145 9.072 8.067 7.461 6.119
0.000 0.000 0.000 0.000 0.000 0.000 0.000 0.000 0.000 0.056 1.793 3.259 3.766 4.918 6.755 5.793 6.012 6.834 6.715 7.363 8.212 7.231 5.918 6.152 6.022 5.643 5.492 5.652 6.182 6.796 8.149 8.239 7.795 6.382 4.833
0.000 0.000 0.000 0.000 0.000 0.000 0.000 0.000 0.000 0.015 1.416 3.262 3.555 4.311 6.276 5.136 5.741 6.392 6.785 7.204 6.510 5.366 5.483 5.470 5.002 4.728 4.819 4.968 5.414 5.638 5.796 5.829 5.593 5.043 4.085
0.000 0.000 0.000 0.000 0.000 0.000 0.000 0.000 0.000 0.007 0.724 2.873 3.463 3.713 4.456 4.199 5.279 5.972 6.034 5.262 4.751 4.769 5.295 4.613 3.310 3.219 4.114 4.702 4.664 4.285 4.234 4.437 4.134 3.719 3.197
