ncols        36
nrows        63
xllcorner    409692.8
yllcorner    6870764.1
cellsize     5.00
NODATA_value -9999
0.000 0.000 0.000 0.000 0.000 0.000 0.000 0.000 0.000 0.000 0.000 0.000 0.000 0.000 0.000 0.000 0.000 0.000 0.000 0.000 0.000 0.000 0.000 0.000 0.000 0.000 0.000 0.000 0.000 0.000 0.000 0.000 0.000 0.000 0.000 0.000
0.000 0.000 0.001 1.170 7.719 14.050 15.137 14.368 14.275 14.342 9.255 2.816 0.026 0.000 0.000 0.000 0.000 0.000 0.000 0.000 0.000 0.000 0.000 0.000 0.000 0.000 0.000 0.000 0.000 0.000 0.000 0.000 0.000 0.000 0.000 0.000
0.000 0.001 1.436 13.317 13.948 15.036 15.479 14.684 16.511 14.538 12.439 12.819 4.475 0.022 0.000 0.000 0.000 0.000 0.000 0.000 0.000 0.000 0.000 0.000 0.000 0.000 0.000 0.000 0.000 0.000 0.000 0.000 0.000 0.000 0.000 0.000
0.000 0.844 10.646 14.082 15.227 15.563 15.677 16.207 17.111 14.748 13.606 12.438 12.523 3.230 0.009 0.000 0.000 0.000 0.000 0.000 0.000 0.000 0.000 0.000 0.000 0.000 0.000 0.000 0.000 0.000 0.000 0.000 0.000 0.000 0.000 0.000
0.017 4.405 13.648 14.665 15.702 15.728 16.209 16.825 16.711 15.300 14.203 13.937 12.079 10.784 2.053 0.004 0.000 0.000 0.000 0.000 0.000 0.000 0.000 0.000 0.000 0.000 0.000 0.000 0.000 0.000 0.000 0.000 0.000 0.000 0.000 0.000
0.540 12.521 13.927 15.409 15.546 15.463 15.537 16.739 16.882 15.834 15.693 14.861 13.500 12.346 8.833 1.305 0.002 0.000 0.000 0.000 0.000 0.000 0.000 0.000 0.000 0.000 0.000 0.000 0.000 0.000 0.000 0.000 0.000 0.000 0.000 0.000
2.199 13.281 14.215 14.922 15.595 15.301 16.395 17.491 18.708 18.033 16.390 15.640 13.785 13.225 11.970 6.774 0.854 0.000 0.000 0.000 0.000 0.000 0.000 0.000 0.000 0.000 0.000 0.000 0.000 0.000 0.000 0.000 0.000 0.000 0.000 0.000
3.750 12.623 14.158 15.483 15.694 16.557 16.760 18.201 19.061 17.424 16.064 15.584 14.392 14.415 12.925 10.420 5.204 0.344 0.000 0.000 0.000 0.000 0.000 0.000 0.000 0.000 0.000 0.000 0.000 0.000 0.000 0.000 0.000 0.000 0.000 0.000
4.376 12.390 13.824 15.334 15.956 16.107 16.794 18.702 17.959 16.908 15.998 15.912 14.782 14.486 13.692 11.376 8.020 3.149 0.063 0.000 0.000 0.000 0.000 0.000 0.000 0.000 0.000 0.000 0.000 0.000 0.000 0.000 0.000 0.000 0.000 0.000
3.145 12.272 13.807 15.207 15.704 15.925 16.496 16.909 16.625 15.814 16.202 14.596 14.419 14.602 14.249 12.972 9.005 5.753 1.567 0.004 0.000 0.000 0.000 0.000 0.000 0.000 0.000 0.000 0.000 0.000 0.000 0.000 0.000 0.000 0.000 0.000
1.535 12.268 13.920 15.001 15.145 15.770 16.399 17.444 16.378 16.357 14.923 14.699 14.901 15.148 14.316 12.608 10.596 6.403 3.838 0.415 0.000 0.000 0.000 0.000 0.000 0.000 0.000 0.000 0.000 0.000 0.000 0.000 0.000 0.000 0.000 0.000
0.403 9.221 13.589 14.714 14.767 15.382 15.842 16.630 15.892 15.106 14.618 15.589 15.240 15.356 14.677 13.872 10.613 7.390 5.179 2.409 0.068 0.000 0.000 0.000 0.000 0.000 0.000 0.000 0.000 0.000 0.000 0.000 0.000 0.000 0.000 0.000
0.038 4.326 11.912 12.977 14.198 15.261 16.329 14.893 14.900 14.523 15.081 16.155 15.151 15.628 15.200 13.947 11.678 9.162 5.759 4.657 1.281 0.001 0.000 0.000 0.000 0.000 0.000 0.000 0.000 0.000 0.000 0.000 0.000 0.000 0.000 0.000
0.001 1.426 10.327 12.985 15.083 16.568 15.783 15.435 14.824 14.907 15.388 14.958 15.731 15.742 15.174 13.888 13.013 10.140 6.916 5.549 3.379 0.216 0.000 0.000 0.000 0.000 0.000 0.000 0.000 0.000 0.000 0.000 0.000 0.000 0.000 0.000
0.000 0.209 6.001 12.761 14.465 14.684 14.935 14.428 14.909 14.991 15.570 15.850 16.024 16.131 15.658 14.694 14.000 10.901 8.424 6.339 4.954 1.838 0.004 0.000 0.000 0.000 0.000 0.000 0.000 0.000 0.000 0.000 0.000 0.000 0.000 0.000
0.000 0.006 1.802 9.066 13.623 15.067 14.451 15.395 14.675 15.807 14.659 16.250 15.978 16.291 15.633 14.900 13.874 11.728 9.786 7.505 5.439 3.929 0.405 0.000 0.000 0.000 0.000 0.000 0.000 0.000 0.000 0.000 0.000 0.000 0.000 0.000
0.000 0.000 0.219 5.076 11.071 12.820 14.483 14.190 14.710 14.358 15.865 16.394 15.979 16.243 15.545 15.514 14.183 12.869 11.074 8.675 5.987 4.827 2.186 0.039 0.000 0.000 0.000 0.000 0.000 0.000 0.000 0.000 0.000 0.000 0.000 0.000
0.000 0.000 0.004 1.110 7.315 11.461 13.125 14.010 14.859 14.965 15.645 16.019 15.568 15.903 16.076 15.941 14.480 13.328 12.230 10.311 7.125 5.210 3.982 1.102 0.009 0.000 0.000 0.000 0.000 0.000 0.000 0.000 0.000 0.000 0.000 0.000
0.000 0.000 0.000 0.074 3.322 8.990 12.388 13.437 13.877 14.575 15.562 15.456 15.058 16.211 15.992 15.465 14.418 13.882 13.288 11.631 8.464 5.825 4.684 3.349 0.657 0.002 0.000 0.000 0.000 0.000 0.000 0.000 0.000 0.000 0.000 0.000
0.000 0.000 0.000 0.001 0.570 5.955 10.536 12.725 13.562 14.062 14.189 14.637 15.566 15.997 15.126 15.120 14.697 14.194 14.124 12.819 9.932 6.600 5.291 4.516 2.670 0.245 0.000 0.000 0.000 0.000 0.000 0.000 0.000 0.000 0.000 0.000
0.000 0.000 0.000 0.000 0.013 2.421 7.205 10.968 12.726 13.339 13.184 13.744 14.515 15.304 15.883 14.530 14.764 14.425 14.239 13.781 10.431 7.642 5.490 4.932 4.318 1.777 0.091 0.000 0.000 0.000 0.000 0.000 0.000 0.000 0.000 0.000
0.000 0.000 0.000 0.000 0.000 0.321 4.144 7.344 10.765 11.854 12.997 13.682 15.217 14.335 14.352 14.786 14.744 14.563 14.303 12.557 11.729 9.126 6.161 5.475 4.823 3.516 1.234 0.030 0.000 0.000 0.000 0.000 0.000 0.000 0.000 0.000
0.000 0.000 0.000 0.000 0.000 0.006 1.183 4.840 9.095 10.897 12.052 12.948 13.951 14.181 14.842 14.392 15.358 14.201 14.453 13.719 12.730 10.411 7.328 5.706 4.555 4.486 2.982 0.719 0.001 0.000 0.000 0.000 0.000 0.000 0.000 0.000
0.000 0.000 0.000 0.000 0.000 0.000 0.116 3.214 6.133 10.277 11.560 12.672 13.240 14.186 14.194 14.840 14.587 14.229 14.218 14.238 13.415 11.164 8.620 5.705 4.929 4.843 3.972 2.241 0.097 0.019 0.000 0.000 0.000 0.000 0.000 0.000
0.000 0.000 0.000 0.000 0.000 0.000 0.016 2.001 4.381 8.052 10.748 12.386 13.266 13.382 14.340 13.683 13.863 14.022 14.667 14.184 13.364 11.503 9.233 6.705 5.332 4.726 4.105 3.346 2.159 0.631 0.003 0.000 0.000 0.000 0.000 0.000
0.000 0.000 0.000 0.000 0.000 0.000 0.000 0.609 3.506 5.757 9.003 11.152 12.418 12.962 13.073 13.669 13.988 14.106 14.585 13.699 13.479 11.868 9.476 7.982 5.628 4.647 3.931 3.755 3.515 2.274 0.259 0.000 0.000 0.000 0.000 0.000
0.000 0.000 0.000 0.000 0.000 0.000 0.000 0.100 2.744 4.943 7.553 9.881 11.836 12.078 13.208 12.931 13.858 13.867 13.750 13.842 12.781 11.308 9.963 8.783 6.328 4.830 3.796 3.847 3.993 3.464 1.801 0.172 0.000 0.000 0.000 0.000
0.000 0.000 0.000 0.000 0.000 0.000 0.000 0.035 1.183 3.970 4.709 8.318 9.868 11.481 11.491 12.471 12.985 13.722 13.700 13.560 12.588 11.616 10.475 9.329 7.277 5.212 4.144 4.322 4.157 3.971 3.135 1.566 0.021 0.000 0.000 0.000
0.000 0.000 0.000 0.000 0.000 0.000 0.000 0.000 0.319 1.459 4.127 5.076 7.594 9.872 11.117 12.170 13.242 13.562 13.745 13.243 12.762 11.842 10.734 9.545 8.162 6.179 4.475 4.539 4.412 4.155 3.680 2.703 0.350 0.006 0.000 0.000
0.000 0.000 0.000 0.000 0.000 0.000 0.000 0.000 0.033 1.665 3.645 3.516 5.822 8.865 10.664 12.034 12.970 13.435 13.402 13.082 13.182 11.625 10.865 10.032 8.662 6.751 5.351 4.866 4.602 4.258 3.757 3.483 2.416 0.403 0.000 0.000
0.000 0.000 0.000 0.000 0.000 0.000 0.000 0.000 0.004 0.778 2.746 2.874 4.276 7.440 10.043 12.015 12.612 12.696 13.347 13.181 12.980 11.239 11.213 10.316 9.047 7.960 6.379 5.297 4.842 4.408 3.795 3.836 3.232 1.953 0.118 0.000
0.000 0.000 0.000 0.000 0.000 0.000 0.000 0.000 0.000 0.191 1.433 2.589 3.396 5.879 10.462 11.313 12.684 12.859 13.305 12.918 11.521 11.870 11.325 10.336 9.498 8.475 7.030 5.622 5.061 4.602 4.260 4.066 3.721 2.985 1.208 0.005
0.000 0.000 0.000 0.000 0.000 0.000 0.000 0.000 0.000 0.011 0.811 1.936 3.133 5.802 9.403 11.668 12.396 13.653 12.987 12.797 12.494 11.908 11.251 10.857 9.899 8.715 7.822 6.754 5.547 5.389 4.589 4.367 3.882 3.485 2.585 0.268
0.000 0.000 0.000 0.000 0.000 0.000 0.000 0.000 0.000 0.000 0.169 1.444 2.873 5.058 6.936 10.308 12.043 12.420 12.646 12.378 11.937 11.955 11.416 10.777 10.392 9.213 8.208 7.679 6.237 5.706 5.121 4.575 4.094 3.826 3.259 1.564
0.000 0.000 0.000 0.000 0.000 0.000 0.000 0.000 0.000 0.000 0.009 0.938 3.729 4.913 5.532 8.559 10.211 11.824 12.186 12.258 12.083 11.623 11.825 11.206 10.467 9.751 8.967 8.211 7.462 6.480 5.606 4.620 4.730 4.004 3.440 2.690
0.000 0.000 0.000 0.000 0.000 0.000 0.000 0.000 0.000 0.000 0.009 1.318 3.619 4.200 4.294 6.258 9.205 10.900 12.377 12.479 12.334 11.630 11.303 11.515 11.117 10.460 9.299 8.825 8.089 7.143 6.359 5.362 5.141 4.013 3.673 3.160
0.000 0.000 0.000 0.000 0.000 0.000 0.000 0.000 0.000 0.000 0.002 0.474 2.148 3.084 3.152 4.388 7.085 9.772 11.389 12.021 12.070 11.615 11.262 11.570 11.236 10.754 9.597 9.095 9.583 8.428 7.135 6.182 5.187 4.260 3.832 3.511
0.000 0.000 0.000 0.000 0.000 0.000 0.000 0.000 0.000 0.000 0.000 0.005 0.422 2.244 2.983 3.268 5.553 7.825 10.415 11.205 11.613 11.435 11.102 11.413 11.275 10.796 10.302 9.993 10.665 9.977 8.088 6.739 5.350 4.556 3.801 3.732
0.000 0.000 0.000 0.000 0.000 0.000 0.000 0.000 0.000 0.000 0.000 0.000 0.018 1.324 2.501 2.446 3.709 6.626 9.237 10.884 11.283 11.118 10.849 11.369 11.360 11.032 10.558 11.162 11.829 10.791 9.320 7.180 4.957 4.361 3.969 4.103
0.000 0.000 0.000 0.000 0.000 0.000 0.000 0.000 0.000 0.000 0.000 0.000 0.000 0.147 1.553 1.750 3.338 5.487 7.953 10.179 10.891 10.915 10.706 10.907 11.167 11.232 11.210 11.409 12.305 11.587 10.276 6.654 4.930 4.869 4.607 3.913
0.000 0.000 0.000 0.000 0.000 0.000 0.000 0.000 0.000 0.000 0.000 0.000 0.000 0.004 1.361 2.606 3.494 4.501 6.207 9.062 10.662 10.736 10.352 10.588 10.946 11.191 11.309 11.095 12.299 11.817 10.002 7.147 6.155 5.864 4.416 3.201
0.000 0.000 0.000 0.000 0.000 0.000 0.000 0.000 0.000 0.000 0.000 0.000 0.000 0.000 0.755 2.617 3.607 3.776 4.856 7.410 10.072 10.683 9.982 10.258 10.591 11.111 11.040 11.392 12.752 12.457 10.161 7.816 7.133 5.906 3.510 3.256
0.000 0.000 0.000 0.000 0.000 0.000 0.000 0.000 0.000 0.000 0.000 0.000 0.000 0.000 0.166 2.470 3.495 3.683 4.130 5.790 9.831 10.943 10.123 9.852 10.392 10.617 10.682 11.741 12.776 11.908 10.153 8.645 7.954 5.792 3.423 3.948
0.000 0.000 0.000 0.000 0.000 0.000 0.000 0.000 0.000 0.000 0.000 0.000 0.000 0.000 0.012 1.290 3.013 3.432 4.022 4.240 8.285 10.769 10.105 9.735 10.289 10.472 10.938 12.267 12.786 11.714 10.553 9.264 8.244 5.842 4.558 4.400
0.000 0.000 0.000 0.000 0.000 0.000 0.000 0.000 0.000 0.000 0.000 0.000 0.000 0.000 0.004 0.437 2.176 3.260 3.953 3.822 6.252 10.857 10.437 9.650 10.213 10.274 10.854 12.285 12.182 12.005 10.940 9.325 8.267 6.905 5.130 4.831
0.000 0.000 0.000 0.000 0.000 0.000 0.000 0.000 0.000 0.000 0.000 0.000 0.000 0.000 0.000 0.060 1.345 2.767 3.861 3.734 4.871 10.212 10.275 9.123 9.300 9.711 10.527 12.029 12.501 11.962 10.302 9.233 8.595 7.485 5.841 5.130
0.000 0.000 0.000 0.000 0.000 0.000 0.000 0.000 0.000 0.000 0.000 0.000 0.000 0.000 0.000 0.000 0.460 2.138 3.311 3.689 4.659 9.704 10.088 8.806 8.449 8.863 10.002 11.316 11.692 10.609 9.306 9.516 8.229 7.713 6.619 5.209
0.000 0.000 0.000 0.000 0.000 0.000 0.000 0.000 0.000 0.000 0.000 0.000 0.000 0.000 0.000 0.000 0.014 1.339 3.107 3.644 4.193 8.551 10.112 8.552 7.851 8.485 9.406 10.316 10.664 9.864 9.367 8.848 8.699 8.558 7.431 5.081
0.000 0.000 0.000 0.000 0.000 0.000 0.000 0.000 0.000 0.000 0.000 0.000 0.000 0.000 0.000 0.000 0.000 0.337 3.406 3.559 3.896 7.797 9.703 8.420 7.639 8.108 8.817 10.222 10.547 9.665 9.102 8.994 9.466 9.409 8.363 4.967
0.000 0.000 0.000 0.000 0.000 0.000 0.000 0.000 0.000 0.000 0.000 0.000 0.000 0.000 0.000 0.000 0.000 0.124 3.192 3.674 4.019 6.940 9.179 8.473 7.207 7.348 8.535 10.136 9.460 8.804 9.164 9.798 10.210 9.987 8.275 5.013
0.000 0.000 0.000 0.000 0.000 0.000 0.000 0.000 0.000 0.000 0.000 0.000 0.000 0.000 0.000 0.000 0.000 0.075 3.034 3.436 3.885 6.255 8.868 8.439 6.668 6.627 7.627 8.064 8.216 8.839 9.431 9.854 10.433 9.401 8.004 5.224
0.000 0.000 0.000 0.000 0.000 0.000 0.000 0.000 0.000 0.000 0.000 0.000 0.000 0.000 0.000 0.000 0.000 0.102 2.587 3.235 3.858 5.331 8.115 8.010 6.582 5.709 6.442 7.441 8.150 8.941 9.302 9.788 10.277 9.140 8.426 5.332
0.000 0.000 0.000 0.000 0.000 0.000 0.000 0.000 0.000 0.000 0.000 0.000 0.000 0.000 0.000 0.000 0.000 0.101 2.436 2.800 3.850 4.868 7.460 7.889 6.055 4.911 5.919 7.096 8.006 8.507 9.444 10.715 10.080 9.544 8.600 5.692
0.000 0.000 0.000 0.000 0.000 0.000 0.000 0.000 0.000 0.000 0.000 0.000 0.000 0.000 0.000 0.000 0.000 0.084 2.396 2.766 3.680 4.411 6.756 7.458 5.982 4.491 5.677 6.605 7.696 8.630 9.943 10.005 9.246 10.037 8.006 5.736
0.000 0.000 0.000 0.000 0.000 0.000 0.000 0.000 0.000 0.000 0.000 0.000 0.000 0.000 0.000 0.000 0.000 0.102 2.281 2.781 3.578 4.378 6.818 7.099 5.933 4.356 5.231 6.424 7.649 8.627 9.168 8.820 9.237 8.917 7.203 6.042
0.000 0.000 0.000 0.000 0.000 0.000 0.000 0.000 0.000 0.000 0.000 0.000 0.000 0.000 0.000 0.000 0.000 0.144 2.363 2.693 3.541 4.074 6.443 6.977 5.504 4.635 5.749 7.084 7.517 7.684 7.720 8.051 8.046 7.836 7.305 6.827
0.000 0.000 0.000 0.000 0.000 0.000 0.000 0.000 0.000 0.000 0.000 0.000 0.000 0.000 0.000 0.000 0.000 0.101 2.360 2.736 3.565 4.048 5.845 6.593 5.574 4.946 5.685 6.741 6.977 7.100 7.552 7.528 7.609 7.695 7.546 6.340
0.000 0.000 0.000 0.000 0.000 0.000 0.000 0.000 0.000 0.000 0.000 0.000 0.000 0.000 0.000 0.000 0.000 0.089 2.375 2.820 3.432 3.885 4.956 6.248 5.702 5.093 5.723 6.076 6.092 6.948 7.094 7.092 7.186 7.471 6.884 5.730
0.000 0.000 0.000 0.000 0.000 0.000 0.000 0.000 0.000 0.000 0.000 0.000 0.000 0.000 0.000 0.000 0.000 0.091 2.256 2.658 3.334 3.649 4.501 6.054 5.949 5.344 5.572 5.541 6.070 6.570 6.772 6.560 6.766 7.147 6.550 5.443
0.000 0.000 0.000 0.000 0.000 0.000 0.000 0.000 0.000 0.000 0.000 0.000 0.000 0.000 0.000 0.000 0.000 0.064 2.391 2.713 3.387 3.351 4.091 5.635 5.745 4.986 5.139 5.312 5.727 6.219 6.694 6.645 7.083 6.673 6.130 5.173
0.000 0.000 0.000 0.000 0.000 0.000 0.000 0.000 0.000 0.000 0.000 0.000 0.000 0.000 0.000 0.000 0.000 0.037 2.239 2.918 3.090 3.121 3.736 5.708 5.289 4.526 4.710 4.682 5.605 6.228 6.772 6.618 6.424 6.290 5.829 4.882
0.000 0.000 0.000 0.000 0.000 0.000 0.000 0.000 0.000 0.000 0.000 0.000 0.000 0.000 0.000 0.000 0.000 0.037 1.847 2.645 2.835 2.882 3.361 4.680 5.408 3.701 4.142 4.918 5.537 5.676 5.859 6.094 5.701 5.610 5.176 4.367
0.000 0.000 0.000 0.000 0.000 0.000 0.000 0.000 0.000 0.000 0.000 0.000 0.000 0.000 0.000 0.000 0.000 0.023 1.904 2.579 2.485 2.774 3.070 3.221 3.495 3.141 4.238 4.564 4.719 4.555 5.487 5.436 4.780 4.325 4.180 4.210
