ncols        42
nrows        105
xllcorner    409617.8
yllcorner    6870809.1
cellsize     5.00
NODATA_value -9999
0.000 0.000 0.000 0.553 7.429 15.807 9.427 1.209 0.000 0.000 0.000 0.000 0.000 0.000 0.000 0.000 0.000 0.000 0.000 0.000 0.000 0.000 0.000 0.000 0.000 0.000 0.000 0.000 0.000 0.000 0.000 0.000 0.000 0.000 0.000 0.000 0.000 0.000 0.000 0.000 0.000 0.000
0.000 0.000 0.364 9.211 18.614 18.868 18.186 17.302 1.544 0.000 0.000 0.000 0.000 0.000 0.000 0.000 0.000 0.000 0.000 0.000 0.000 0.000 0.000 0.000 0.000 0.000 0.000 0.000 0.000 0.000 0.000 0.000 0.000 0.000 0.000 0.000 0.000 0.000 0.000 0.000 0.000 0.000
0.000 0.000 2.257 18.620 20.028 20.351 18.505 17.561 16.464 0.118 0.000 0.000 0.000 0.000 0.000 0.000 0.000 0.000 0.000 0.000 0.000 0.000 0.000 0.000 0.000 0.000 0.000 0.000 0.000 0.000 0.000 0.000 0.000 0.000 0.000 0.000 0.000 0.000 0.000 0.000 0.000 0.000
0.000 0.011 6.538 19.366 21.048 20.602 19.231 18.736 19.339 8.101 0.000 0.000 0.000 0.000 0.000 0.000 0.000 0.000 0.000 0.000 0.000 0.000 0.000 0.000 0.000 0.000 0.000 0.000 0.000 0.000 0.000 0.000 0.000 0.000 0.000 0.000 0.000 0.000 0.000 0.000 0.000 0.000
0.000 0.051 10.186 20.098 21.370 20.687 19.143 21.196 19.976 17.181 0.000 0.000 0.000 0.000 0.000 0.000 0.000 0.000 0.000 0.000 0.000 0.000 0.000 0.000 0.000 0.000 0.000 0.000 0.000 0.000 0.000 0.000 0.000 0.000 0.000 0.000 0.000 0.000 0.000 0.000 0.000 0.000
0.000 0.106 12.743 19.550 21.198 20.373 19.588 23.193 21.040 17.497 1.389 0.000 0.000 0.000 0.000 0.000 0.000 0.000 0.000 0.000 0.000 0.000 0.000 0.000 0.000 0.000 0.000 0.000 0.000 0.000 0.000 0.000 0.000 0.000 0.000 0.000 0.000 0.000 0.000 0.000 0.000 0.000
0.000 0.276 17.880 19.941 21.010 20.615 22.631 23.802 21.788 18.713 10.074 0.000 0.000 0.000 0.000 0.000 0.000 0.000 0.000 0.000 0.000 0.000 0.000 0.000 0.000 0.000 0.000 0.000 0.000 0.000 0.000 0.000 0.000 0.000 0.000 0.000 0.000 0.000 0.000 0.000 0.000 0.000
0.000 0.745 17.224 20.531 22.466 23.033 23.220 24.247 21.736 18.735 13.908 0.000 0.000 0.000 0.000 0.000 0.000 0.000 0.000 0.000 0.000 0.000 0.000 0.000 0.000 0.000 0.000 0.000 0.000 0.000 0.000 0.000 0.000 0.000 0.000 0.000 0.000 0.000 0.000 0.000 0.000 0.000
0.000 1.518 16.213 20.828 22.319 23.149 21.985 23.477 20.992 19.469 15.715 0.006 0.000 0.000 0.000 0.000 0.000 0.000 0.000 0.000 0.000 0.000 0.000 0.000 0.000 0.000 0.000 0.000 0.000 0.000 0.000 0.000 0.000 0.000 0.000 0.000 0.000 0.000 0.000 0.000 0.000 0.000
0.001 2.277 15.631 19.965 22.388 23.146 21.729 22.616 21.462 20.518 16.706 1.606 0.000 0.000 0.000 0.000 0.000 0.000 0.000 0.000 0.000 0.000 0.000 0.000 0.000 0.000 0.000 0.000 0.000 0.000 0.000 0.000 0.000 0.000 0.000 0.000 0.000 0.000 0.000 0.000 0.000 0.000
0.056 6.107 16.098 19.775 22.534 22.555 22.565 21.783 21.720 21.426 17.620 7.401 0.000 0.000 0.000 0.000 0.000 0.000 0.000 0.000 0.000 0.000 0.000 0.000 0.000 0.000 0.000 0.000 0.000 0.000 0.000 0.000 0.000 0.000 0.000 0.000 0.000 0.000 0.000 0.000 0.000 0.000
0.452 14.306 16.616 19.330 21.868 21.896 21.854 22.000 22.165 22.102 18.525 11.679 0.003 0.000 0.000 0.000 0.000 0.000 0.000 0.000 0.000 0.000 0.000 0.000 0.000 0.000 0.000 0.000 0.000 0.000 0.000 0.000 0.000 0.000 0.000 0.000 0.000 0.000 0.000 0.000 0.000 0.000
1.267 14.333 17.196 19.700 20.944 22.126 21.604 22.647 22.512 22.870 19.322 15.328 1.089 0.000 0.000 0.000 0.000 0.000 0.000 0.000 0.000 0.000 0.000 0.000 0.000 0.000 0.000 0.000 0.000 0.000 0.000 0.000 0.000 0.000 0.000 0.000 0.000 0.000 0.000 0.000 0.000 0.000
2.175 14.307 17.495 20.172 20.686 22.999 22.851 22.055 23.302 23.111 21.482 17.610 6.004 0.000 0.000 0.000 0.000 0.000 0.000 0.000 0.000 0.000 0.000 0.000 0.000 0.000 0.000 0.000 0.000 0.000 0.000 0.000 0.000 0.000 0.000 0.000 0.000 0.000 0.000 0.000 0.000 0.000
3.139 14.104 17.960 20.697 23.120 24.091 25.488 25.756 24.955 23.893 22.317 17.639 9.408 0.203 0.000 0.000 0.000 0.000 0.000 0.000 0.000 0.000 0.000 0.000 0.000 0.000 0.000 0.000 0.000 0.000 0.000 0.000 0.000 0.000 0.000 0.000 0.000 0.000 0.000 0.000 0.000 0.000
3.604 14.092 16.956 19.399 21.838 24.281 25.127 24.691 23.192 23.270 22.356 17.693 12.048 3.489 0.000 0.000 0.000 0.000 0.000 0.000 0.000 0.000 0.000 0.000 0.000 0.000 0.000 0.000 0.000 0.000 0.000 0.000 0.000 0.000 0.000 0.000 0.000 0.000 0.000 0.000 0.000 0.000
3.883 13.368 16.618 20.322 23.014 24.790 27.622 26.606 21.718 24.530 21.170 18.443 13.234 7.862 0.411 0.000 0.000 0.000 0.000 0.000 0.000 0.000 0.000 0.000 0.000 0.000 0.000 0.000 0.000 0.000 0.000 0.000 0.000 0.000 0.000 0.000 0.000 0.000 0.000 0.000 0.000 0.000
4.098 12.833 16.479 20.062 22.230 23.712 26.202 25.922 24.377 23.260 21.131 18.729 14.407 10.878 4.602 0.121 0.000 0.000 0.000 0.000 0.000 0.000 0.000 0.000 0.000 0.000 0.000 0.000 0.000 0.000 0.000 0.000 0.000 0.000 0.000 0.000 0.000 0.000 0.000 0.000 0.000 0.000
4.017 11.553 15.470 18.168 21.936 23.830 25.291 24.928 23.469 22.610 21.156 19.102 15.499 12.039 8.784 3.758 0.633 0.066 0.000 0.000 0.000 0.000 0.000 0.000 0.000 0.000 0.000 0.000 0.000 0.000 0.000 0.000 0.000 0.000 0.000 0.000 0.000 0.000 0.000 0.000 0.000 0.000
3.935 11.130 14.576 18.432 20.058 22.238 24.642 25.310 24.588 23.261 21.430 19.377 16.491 12.979 11.105 8.543 7.012 3.333 0.025 0.000 0.000 0.000 0.000 0.000 0.000 0.000 0.000 0.000 0.000 0.000 0.000 0.000 0.000 0.000 0.000 0.000 0.000 0.000 0.000 0.000 0.000 0.000
3.585 10.884 13.981 16.901 19.803 21.876 23.414 24.332 25.017 22.814 22.487 19.876 16.857 14.348 11.873 11.090 11.217 9.092 2.362 0.000 0.000 0.000 0.000 0.000 0.000 0.000 0.000 0.000 0.000 0.000 0.000 0.000 0.000 0.000 0.000 0.000 0.000 0.000 0.000 0.000 0.000 0.000
2.832 9.482 13.216 16.929 19.087 21.070 23.921 24.728 26.074 24.237 21.730 20.116 17.878 15.355 12.244 11.858 11.341 11.211 7.586 0.611 0.000 0.000 0.000 0.000 0.000 0.000 0.000 0.000 0.000 0.000 0.000 0.000 0.000 0.000 0.000 0.000 0.000 0.000 0.000 0.000 0.000 0.000
2.027 8.740 12.486 15.896 18.824 21.240 24.104 24.908 25.131 24.572 21.933 19.857 18.528 16.508 13.300 12.174 11.028 11.010 9.129 5.199 0.151 0.000 0.000 0.000 0.000 0.000 0.000 0.000 0.000 0.000 0.000 0.000 0.000 0.000 0.000 0.000 0.000 0.000 0.000 0.000 0.000 0.000
1.116 7.478 10.644 14.010 17.856 21.262 22.611 24.968 24.856 24.840 24.148 22.660 19.390 17.906 13.637 12.807 12.131 11.307 9.670 8.370 3.081 0.005 0.000 0.000 0.000 0.000 0.000 0.000 0.000 0.000 0.000 0.000 0.000 0.000 0.000 0.000 0.000 0.000 0.000 0.000 0.000 0.000
0.486 6.346 9.404 12.875 17.363 20.745 22.173 24.448 25.305 23.789 24.134 24.191 21.212 18.033 15.109 12.970 11.961 10.277 10.454 9.884 6.658 0.975 0.000 0.000 0.000 0.000 0.000 0.000 0.000 0.000 0.000 0.000 0.000 0.000 0.000 0.000 0.000 0.000 0.000 0.000 0.000 0.000
0.372 5.358 8.972 11.909 15.288 18.735 21.753 23.889 26.016 24.537 24.152 25.226 24.447 19.257 15.540 12.876 12.370 11.173 10.766 10.699 8.674 4.493 0.007 0.000 0.000 0.000 0.000 0.000 0.000 0.000 0.000 0.000 0.000 0.000 0.000 0.000 0.000 0.000 0.000 0.000 0.000 0.000
0.200 4.050 7.977 10.339 14.513 17.816 21.297 23.855 25.034 25.646 24.974 24.781 23.035 18.949 14.746 13.156 12.091 11.767 11.626 10.763 9.995 6.791 1.014 0.000 0.000 0.000 0.000 0.000 0.000 0.000 0.000 0.000 0.000 0.000 0.000 0.000 0.000 0.000 0.000 0.000 0.000 0.000
0.106 2.962 7.124 8.697 12.304 16.435 19.543 23.079 25.257 25.961 24.604 24.941 25.220 21.914 16.491 14.564 12.309 12.379 12.047 12.219 10.251 9.109 4.796 0.004 0.000 0.000 0.000 0.000 0.000 0.000 0.000 0.000 0.000 0.000 0.000 0.000 0.000 0.000 0.000 0.000 0.000 0.000
0.037 2.048 6.113 8.143 10.563 14.724 18.903 22.357 24.085 24.632 23.073 25.198 24.018 21.902 19.017 15.235 13.636 12.984 12.659 12.042 11.247 10.554 6.963 0.633 0.000 0.000 0.000 0.000 0.000 0.000 0.000 0.000 0.000 0.000 0.000 0.000 0.000 0.000 0.000 0.000 0.000 0.000
0.008 1.212 5.300 7.589 9.629 14.477 17.784 20.733 23.281 24.389 24.457 25.248 22.726 22.341 18.097 16.360 15.843 13.911 12.416 11.880 11.925 10.993 7.486 3.593 0.005 0.000 0.000 0.000 0.000 0.000 0.000 0.000 0.000 0.000 0.000 0.000 0.000 0.000 0.000 0.000 0.000 0.000
0.000 0.453 4.281 6.790 8.191 10.902 16.427 19.589 23.375 26.986 24.892 23.728 24.472 20.817 18.480 17.507 14.128 12.538 11.346 11.954 12.829 10.517 8.128 6.308 0.663 0.000 0.000 0.000 0.000 0.000 0.000 0.000 0.000 0.000 0.000 0.000 0.000 0.000 0.000 0.000 0.000 0.000
0.000 0.158 3.338 6.175 7.994 10.294 13.929 18.777 24.647 25.489 22.839 25.074 22.884 20.242 19.518 16.453 13.383 12.617 12.013 12.957 11.521 10.440 9.984 8.424 3.073 0.000 0.000 0.000 0.000 0.000 0.000 0.000 0.000 0.000 0.000 0.000 0.000 0.000 0.000 0.000 0.000 0.000
0.000 0.137 2.833 5.932 7.688 9.234 12.435 19.411 22.494 23.721 23.864 23.733 22.575 22.360 20.115 18.234 15.738 13.952 13.281 12.276 11.020 11.890 10.510 8.111 5.488 0.159 0.000 0.000 0.000 0.000 0.000 0.000 0.000 0.000 0.000 0.000 0.000 0.000 0.000 0.000 0.000 0.000
0.000 0.050 1.887 5.139 6.321 8.705 11.569 15.505 20.217 22.778 22.351 23.023 24.238 22.654 19.759 18.464 16.879 16.098 13.036 12.283 11.995 11.464 10.671 8.684 7.157 1.945 0.000 0.000 0.000 0.000 0.000 0.000 0.000 0.000 0.000 0.000 0.000 0.000 0.000 0.000 0.000 0.000
0.000 0.010 1.149 4.363 5.966 7.913 8.461 14.175 18.040 22.230 22.689 23.794 24.641 23.665 21.347 19.314 19.212 16.660 13.898 13.163 11.667 10.799 10.530 9.328 8.245 5.140 0.000 0.000 0.000 0.000 0.000 0.000 0.000 0.000 0.000 0.000 0.000 0.000 0.000 0.000 0.000 0.000
0.000 0.001 0.502 3.614 5.699 6.613 7.621 11.590 17.655 20.864 23.027 22.916 23.917 23.111 19.951 20.437 20.030 15.821 14.725 12.562 9.608 10.322 10.670 10.805 10.255 7.480 0.167 0.000 0.000 0.000 0.000 0.000 0.000 0.000 0.000 0.000 0.000 0.000 0.000 0.000 0.000 0.000
0.000 0.000 0.026 2.252 5.108 5.763 6.928 10.848 17.152 20.802 23.617 24.221 23.478 21.660 19.562 21.042 19.803 17.633 15.803 12.146 9.504 9.779 11.131 11.555 10.886 9.099 2.561 0.000 0.000 0.000 0.000 0.000 0.000 0.000 0.000 0.000 0.000 0.000 0.000 0.000 0.000 0.000
0.000 0.000 0.008 0.838 3.886 4.752 6.737 10.141 15.886 20.251 22.081 22.363 22.081 20.810 21.189 22.506 19.866 17.457 14.927 11.231 9.770 10.347 11.191 11.284 10.992 9.766 5.435 0.000 0.000 0.000 0.000 0.000 0.000 0.000 0.000 0.000 0.000 0.000 0.000 0.000 0.000 0.000
0.000 0.000 0.000 0.373 2.344 4.690 6.826 8.776 12.528 19.149 21.262 20.604 22.279 20.522 22.621 21.385 19.678 18.301 15.896 13.134 10.380 10.352 10.782 11.251 11.681 11.231 6.369 0.000 0.000 0.000 0.000 0.000 0.000 0.000 0.000 0.000 0.000 0.000 0.000 0.000 0.000 0.000
0.000 0.000 0.000 0.048 1.894 4.665 6.717 8.153 11.289 16.431 19.357 21.014 20.936 22.158 22.140 22.412 20.018 19.323 16.376 12.664 10.010 9.317 9.254 10.671 11.184 10.780 5.660 0.023 0.000 0.000 0.000 0.000 0.000 0.000 0.000 0.000 0.000 0.000 0.000 0.000 0.000 0.000
0.000 0.000 0.000 0.006 0.765 4.020 6.119 7.608 8.803 14.651 18.386 21.002 21.998 21.033 22.771 21.679 20.212 18.759 15.373 12.439 9.560 8.663 8.842 9.933 10.310 9.541 6.846 1.193 0.000 0.000 0.000 0.000 0.000 0.000 0.000 0.000 0.000 0.000 0.000 0.000 0.000 0.000
0.000 0.000 0.000 0.000 0.164 2.337 5.462 6.184 7.274 11.129 17.582 19.793 20.604 20.976 20.795 20.429 19.831 16.664 13.900 11.726 10.190 8.596 8.718 8.687 9.599 10.090 8.078 3.273 0.000 0.000 0.000 0.000 0.000 0.000 0.000 0.000 0.000 0.000 0.000 0.000 0.000 0.000
0.000 0.000 0.000 0.000 0.032 1.241 4.316 5.729 6.708 8.943 14.298 17.185 18.798 20.178 19.925 18.561 18.405 15.418 14.040 13.890 10.803 9.059 8.575 7.583 8.913 10.497 7.579 4.116 0.000 0.000 0.000 0.000 0.000 0.000 0.000 0.000 0.000 0.000 0.000 0.000 0.000 0.000
0.000 0.000 0.000 0.000 0.002 0.395 3.409 5.150 5.790 7.188 12.428 16.393 18.505 18.778 18.875 19.121 18.204 16.069 15.169 13.995 11.204 9.979 8.416 7.853 9.101 10.045 8.007 4.843 0.000 0.000 0.000 0.000 0.000 0.000 0.000 0.000 0.000 0.000 0.000 0.000 0.000 0.000
0.000 0.000 0.000 0.000 0.000 0.084 2.396 4.670 5.337 6.154 8.831 14.641 16.784 16.593 17.361 17.343 17.099 16.241 16.717 14.068 12.539 10.198 9.268 8.750 8.676 10.434 8.533 5.421 0.118 0.000 0.000 0.000 0.000 0.000 0.000 0.000 0.000 0.000 0.000 0.000 0.000 0.000
0.000 0.000 0.000 0.000 0.000 0.032 1.311 4.025 5.098 5.548 7.746 12.219 14.950 16.660 17.198 16.424 16.929 16.782 15.260 15.198 13.354 10.945 9.627 7.763 7.792 10.212 8.824 6.064 1.573 0.000 0.000 0.000 0.000 0.000 0.000 0.000 0.000 0.000 0.000 0.000 0.000 0.000
0.000 0.000 0.000 0.000 0.000 0.008 0.634 3.291 4.689 5.170 6.234 9.856 13.889 15.565 15.524 15.628 16.916 17.062 14.471 14.959 13.015 11.901 8.682 7.122 6.576 9.776 9.071 6.518 2.855 0.000 0.000 0.000 0.000 0.000 0.000 0.000 0.000 0.000 0.000 0.000 0.000 0.000
0.000 0.000 0.000 0.000 0.000 0.002 0.216 2.022 3.898 4.749 5.339 8.297 13.153 14.663 15.115 15.830 16.067 16.286 14.938 15.484 13.851 11.382 8.347 6.698 7.137 9.985 9.472 6.868 3.762 0.191 0.000 0.000 0.000 0.000 0.000 0.000 0.000 0.000 0.000 0.000 0.000 0.000
0.000 0.000 0.000 0.000 0.000 0.000 0.211 1.509 3.519 4.593 5.528 7.118 11.111 14.526 15.433 16.664 16.637 14.937 15.713 14.137 12.547 10.908 8.923 7.554 8.045 10.019 9.650 7.261 4.271 1.830 0.001 0.000 0.000 0.000 0.000 0.000 0.000 0.000 0.000 0.000 0.000 0.000
0.000 0.000 0.000 0.000 0.000 0.000 0.001 0.554 3.007 4.316 5.362 6.764 9.876 13.022 14.808 16.722 15.920 15.784 15.241 13.928 11.874 10.595 9.402 8.429 8.260 9.768 9.707 7.230 4.370 3.255 0.235 0.000 0.000 0.000 0.000 0.000 0.000 0.000 0.000 0.000 0.000 0.000
0.000 0.000 0.000 0.000 0.000 0.000 0.000 0.144 2.014 4.088 4.399 6.114 8.255 13.035 14.401 13.957 14.683 14.499 13.590 12.558 10.510 10.655 9.659 8.827 7.585 9.805 9.610 7.179 4.483 3.756 1.791 0.002 0.000 0.000 0.000 0.000 0.000 0.000 0.000 0.000 0.000 0.000
0.000 0.000 0.000 0.000 0.000 0.000 0.000 0.020 0.972 3.364 4.120 5.631 7.079 9.587 12.633 13.041 13.323 13.284 12.247 11.151 10.720 11.089 10.636 9.464 8.434 9.015 8.717 7.241 4.593 3.836 2.909 0.281 0.000 0.000 0.000 0.000 0.000 0.000 0.000 0.000 0.000 0.000
0.000 0.000 0.000 0.000 0.000 0.000 0.000 0.000 0.285 2.862 4.426 5.183 5.674 7.777 11.541 9.830 11.652 10.988 11.170 10.485 11.430 11.636 10.706 9.500 8.647 8.578 8.602 7.400 4.318 3.627 3.296 1.738 0.068 0.000 0.000 0.000 0.000 0.000 0.000 0.000 0.000 0.000
0.000 0.000 0.000 0.000 0.000 0.000 0.000 0.001 0.529 2.387 3.918 4.277 4.862 6.122 9.300 10.347 10.358 10.548 10.726 11.140 11.283 10.766 9.035 10.635 8.647 8.419 8.214 7.050 4.141 3.709 3.484 2.668 1.143 0.001 0.000 0.000 0.000 0.000 0.000 0.000 0.000 0.000
0.000 0.000 0.000 0.000 0.000 0.000 0.000 0.000 0.116 1.377 2.815 3.800 3.850 4.384 7.623 7.440 8.993 10.497 10.912 11.256 10.211 9.346 9.490 9.555 6.527 7.136 7.884 6.808 4.650 3.948 3.580 3.159 2.597 0.143 0.000 0.000 0.000 0.000 0.000 0.000 0.000 0.000
0.000 0.000 0.000 0.000 0.000 0.000 0.000 0.000 0.011 0.462 1.688 3.082 3.484 3.451 6.495 8.305 9.567 10.409 10.436 10.181 9.160 8.800 9.067 8.160 6.321 5.840 7.422 6.603 5.017 3.940 3.612 3.418 2.775 1.075 0.000 0.000 0.000 0.000 0.000 0.000 0.000 0.000
0.000 0.000 0.000 0.000 0.000 0.000 0.000 0.000 0.000 0.005 0.212 1.473 2.430 2.681 4.367 7.750 8.458 9.268 10.046 9.057 8.180 7.792 8.536 8.016 6.813 6.222 6.190 6.337 4.885 3.864 3.544 3.216 3.017 2.574 0.076 0.000 0.000 0.000 0.000 0.000 0.000 0.000
0.000 0.000 0.000 0.000 0.000 0.000 0.000 0.000 0.000 0.000 0.001 0.649 2.434 3.335 4.456 6.263 7.035 8.024 8.308 8.351 8.099 8.480 8.932 8.845 7.478 5.891 5.287 5.339 4.637 3.792 3.427 3.191 2.983 2.609 0.796 0.006 0.000 0.000 0.000 0.000 0.000 0.000
0.000 0.000 0.000 0.000 0.000 0.000 0.000 0.000 0.000 0.000 0.000 0.171 2.062 3.438 3.870 5.261 5.935 6.860 7.932 7.891 8.552 8.313 8.890 7.960 5.983 4.912 4.114 4.492 4.492 3.784 3.366 3.070 2.611 2.196 1.813 0.090 0.000 0.000 0.000 0.000 0.000 0.000
0.000 0.000 0.000 0.000 0.000 0.000 0.000 0.000 0.000 0.000 0.000 0.012 0.523 2.381 2.838 2.768 4.953 5.997 6.848 7.070 7.208 7.661 8.101 6.059 4.340 3.964 2.769 3.203 3.588 3.595 3.131 2.660 2.223 2.461 2.685 0.273 0.000 0.000 0.000 0.000 0.000 0.000
0.000 0.000 0.000 0.000 0.000 0.000 0.000 0.000 0.000 0.000 0.000 0.000 0.009 0.569 2.781 3.757 4.638 5.753 6.094 5.854 6.159 6.486 6.009 4.331 3.074 2.414 0.819 1.936 3.104 3.353 2.786 2.202 1.820 2.170 2.408 0.885 0.000 0.000 0.000 0.000 0.000 0.000
0.000 0.000 0.000 0.000 0.000 0.000 0.000 0.000 0.000 0.000 0.000 0.000 0.000 0.469 2.079 3.809 4.493 5.552 5.312 4.835 5.327 5.729 5.594 3.600 2.453 0.052 1.288 1.995 2.764 2.586 2.385 1.430 0.083 1.287 1.208 1.232 0.012 0.000 0.000 0.000 0.000 0.000
0.000 0.000 0.000 0.000 0.000 0.000 0.000 0.000 0.000 0.000 0.000 0.000 0.000 0.001 1.459 3.104 4.412 4.610 4.011 3.982 4.472 4.861 3.728 1.908 0.002 0.025 1.777 1.877 2.506 2.650 2.023 0.101 0.088 0.079 1.234 1.396 0.329 0.000 0.000 0.000 0.000 0.000
0.000 0.000 0.000 0.000 0.000 0.000 0.000 0.000 0.000 0.000 0.000 0.000 0.000 0.000 0.059 1.853 2.822 3.241 2.782 4.059 4.744 4.173 1.786 0.329 0.000 0.870 0.897 1.713 2.399 2.308 1.223 0.378 0.069 0.083 1.607 1.520 0.625 0.002 0.000 0.000 0.000 0.000
0.000 0.000 0.000 0.000 0.000 0.000 0.000 0.000 0.000 0.000 0.000 0.000 0.000 0.000 0.000 0.632 1.963 2.755 3.738 4.649 4.722 3.367 1.878 0.576 0.879 0.969 1.080 2.229 2.417 2.037 1.630 1.400 0.077 0.059 1.629 1.582 0.860 0.099 0.000 0.000 0.000 0.000
0.000 0.000 0.000 0.000 0.000 0.000 0.000 0.000 0.000 0.000 0.000 0.000 0.000 0.000 0.000 0.016 1.248 2.237 2.873 3.803 3.394 2.767 2.193 1.253 1.980 1.200 2.419 2.413 2.695 2.215 2.115 1.032 0.056 0.335 1.817 1.852 1.419 0.473 0.002 0.000 0.000 0.000
0.000 0.000 0.000 0.000 0.000 0.000 0.000 0.000 0.000 0.000 0.000 0.000 0.000 0.000 0.000 0.002 0.134 1.522 2.465 3.169 3.114 2.841 2.684 1.867 1.159 1.801 2.776 2.481 2.707 2.078 2.065 0.517 0.040 1.159 2.037 1.798 1.747 0.864 0.107 0.000 0.000 0.000
0.000 0.000 0.000 0.000 0.000 0.000 0.000 0.000 0.000 0.000 0.000 0.000 0.000 0.000 0.000 0.001 0.046 1.355 2.469 2.611 2.093 2.345 1.975 2.414 0.723 2.781 2.549 2.323 2.568 2.424 2.392 1.167 0.706 1.675 1.775 1.683 1.830 1.392 0.388 0.038 0.000 0.000
0.000 0.000 0.000 0.000 0.000 0.000 0.000 0.000 0.000 0.000 0.000 0.000 0.000 0.000 0.000 0.000 0.029 0.539 1.507 2.198 2.258 2.072 2.212 2.676 2.268 2.370 1.914 1.909 2.628 2.689 2.091 1.282 1.375 2.229 2.163 2.065 1.712 1.771 1.250 0.639 0.073 0.000
0.000 0.000 0.000 0.000 0.000 0.000 0.000 0.000 0.000 0.000 0.000 0.000 0.000 0.000 0.000 0.000 0.000 0.044 0.388 1.689 2.224 2.177 2.302 2.349 2.324 1.614 0.834 2.016 2.701 2.070 1.142 1.310 2.018 2.761 2.655 2.227 1.764 2.092 1.969 1.428 0.650 0.011
0.000 0.000 0.000 0.000 0.000 0.000 0.000 0.000 0.000 0.000 0.000 0.000 0.000 0.000 0.000 0.000 0.000 0.000 0.034 0.675 2.014 2.151 2.275 2.228 2.370 0.025 0.029 1.622 1.729 1.777 0.890 1.504 2.295 2.931 2.827 1.870 1.858 2.249 2.190 1.947 1.160 0.282
0.000 0.000 0.000 0.000 0.000 0.000 0.000 0.000 0.000 0.000 0.000 0.000 0.000 0.000 0.000 0.000 0.000 0.000 0.000 0.052 1.467 2.259 2.215 1.640 0.793 0.093 0.000 1.430 1.224 1.032 0.643 1.611 2.252 3.059 2.183 0.794 1.486 1.909 2.340 2.217 1.617 0.883
0.000 0.000 0.000 0.000 0.000 0.000 0.000 0.000 0.000 0.000 0.000 0.000 0.000 0.000 0.000 0.000 0.000 0.000 0.000 0.001 0.647 1.941 2.077 1.499 0.048 0.015 0.106 1.273 0.180 0.541 1.205 2.066 2.128 2.539 1.773 1.768 1.416 1.896 2.588 2.291 1.927 1.389
0.000 0.000 0.000 0.000 0.000 0.000 0.000 0.000 0.000 0.000 0.000 0.000 0.000 0.000 0.000 0.000 0.000 0.000 0.000 0.000 0.028 0.869 1.820 1.650 0.826 0.103 0.509 0.511 1.344 1.382 1.764 2.177 2.191 2.961 2.734 2.363 1.740 2.036 2.323 2.153 2.157 1.752
0.000 0.000 0.000 0.000 0.000 0.000 0.000 0.000 0.000 0.000 0.000 0.000 0.000 0.000 0.000 0.000 0.000 0.000 0.000 0.000 0.000 0.095 1.400 1.478 1.292 1.232 1.829 1.769 1.622 1.724 1.759 1.431 2.316 3.253 3.222 2.483 1.413 1.341 1.510 2.316 2.298 1.938
0.000 0.000 0.000 0.000 0.000 0.000 0.000 0.000 0.000 0.000 0.000 0.000 0.000 0.000 0.000 0.000 0.000 0.000 0.000 0.000 0.000 0.016 1.135 1.504 1.256 0.952 2.099 2.539 1.714 1.442 1.041 1.817 2.756 3.630 3.304 2.253 1.167 0.596 1.468 2.291 2.244 1.932
0.000 0.000 0.000 0.000 0.000 0.000 0.000 0.000 0.000 0.000 0.000 0.000 0.000 0.000 0.000 0.000 0.000 0.000 0.000 0.000 0.000 0.001 0.406 1.493 1.523 2.073 1.816 2.823 1.882 1.313 1.476 2.475 3.087 3.248 3.075 2.259 0.208 0.085 0.954 1.840 2.040 1.802
0.000 0.000 0.000 0.000 0.000 0.000 0.000 0.000 0.000 0.000 0.000 0.000 0.000 0.000 0.000 0.000 0.000 0.000 0.000 0.000 0.000 0.000 0.100 1.360 1.957 1.948 2.322 2.460 2.177 0.960 1.031 2.363 2.986 2.979 2.917 1.642 0.082 0.087 0.085 1.143 1.773 1.516
0.000 0.000 0.000 0.000 0.000 0.000 0.000 0.000 0.000 0.000 0.000 0.000 0.000 0.000 0.000 0.000 0.000 0.000 0.000 0.000 0.000 0.000 0.146 0.733 1.662 1.424 2.095 0.810 1.723 0.073 1.190 2.613 3.333 3.320 2.704 1.676 0.073 0.086 0.089 0.095 1.093 1.649
0.000 0.000 0.000 0.000 0.000 0.000 0.000 0.000 0.000 0.000 0.000 0.000 0.000 0.000 0.000 0.000 0.000 0.000 0.000 0.000 0.000 0.000 0.001 0.379 0.064 1.793 1.518 0.048 0.055 0.113 1.964 3.333 3.587 3.572 2.825 2.431 0.066 0.051 0.048 0.080 0.087 1.368
0.000 0.000 0.000 0.000 0.000 0.000 0.000 0.000 0.000 0.000 0.000 0.000 0.000 0.000 0.000 0.000 0.000 0.000 0.000 0.000 0.000 0.000 0.001 0.039 0.858 1.784 1.472 0.062 0.026 0.223 2.792 3.555 3.596 3.631 3.213 2.588 0.094 0.070 0.082 0.054 0.084 1.559
0.000 0.000 0.000 0.000 0.000 0.000 0.000 0.000 0.000 0.000 0.000 0.000 0.000 0.000 0.000 0.000 0.000 0.000 0.000 0.000 0.000 0.000 0.000 0.016 0.751 1.402 1.392 0.099 0.017 2.658 3.471 3.837 3.773 3.992 3.393 1.193 0.095 0.055 0.032 0.097 0.087 1.363
0.000 0.000 0.000 0.000 0.000 0.000 0.000 0.000 0.000 0.000 0.000 0.000 0.000 0.000 0.000 0.000 0.000 0.000 0.000 0.000 0.000 0.000 0.000 0.001 0.412 0.626 1.260 0.523 0.270 4.104 4.334 4.579 4.656 4.217 3.163 1.405 1.620 0.059 0.059 0.035 0.089 0.063
0.000 0.000 0.000 0.000 0.000 0.000 0.000 0.000 0.000 0.000 0.000 0.000 0.000 0.000 0.000 0.000 0.000 0.000 0.000 0.000 0.000 0.000 0.000 0.000 0.036 0.585 0.477 0.098 2.043 3.843 4.979 4.858 5.006 4.150 3.570 2.796 1.924 0.488 0.050 0.059 0.091 0.056
0.000 0.000 0.000 0.000 0.000 0.000 0.000 0.000 0.000 0.000 0.000 0.000 0.000 0.000 0.000 0.000 0.000 0.000 0.000 0.000 0.000 0.000 0.000 0.000 0.000 0.297 0.460 0.749 2.379 3.115 4.079 4.355 4.211 4.162 3.612 3.104 2.497 1.542 0.234 0.037 0.013 0.083
0.000 0.000 0.000 0.000 0.000 0.000 0.000 0.000 0.000 0.000 0.000 0.000 0.000 0.000 0.000 0.000 0.000 0.000 0.000 0.000 0.000 0.000 0.000 0.000 0.000 0.020 0.079 1.869 2.300 2.398 3.289 3.348 3.853 4.475 4.287 3.954 3.081 2.159 1.493 0.100 0.081 0.030
0.000 0.000 0.000 0.000 0.000 0.000 0.000 0.000 0.000 0.000 0.000 0.000 0.000 0.000 0.000 0.000 0.000 0.000 0.000 0.000 0.000 0.000 0.000 0.000 0.000 0.036 1.234 1.984 2.044 1.986 2.422 2.627 3.218 4.618 4.648 4.490 3.652 2.440 2.216 1.284 0.692 0.029
0.000 0.000 0.000 0.000 0.000 0.000 0.000 0.000 0.000 0.000 0.000 0.000 0.000 0.000 0.000 0.000 0.000 0.000 0.000 0.000 0.000 0.000 0.000 0.000 0.000 0.087 1.038 1.539 1.649 1.683 2.041 1.927 2.363 3.928 4.239 4.370 4.060 3.179 2.353 1.432 0.362 0.023
0.000 0.000 0.000 0.000 0.000 0.000 0.000 0.000 0.000 0.000 0.000 0.000 0.000 0.000 0.000 0.000 0.000 0.000 0.000 0.000 0.000 0.000 0.000 0.000 0.000 0.000 0.041 0.565 1.351 1.591 1.745 1.821 2.075 3.566 3.902 4.115 4.063 3.617 2.578 1.748 0.695 0.072
0.000 0.000 0.000 0.000 0.000 0.000 0.000 0.000 0.000 0.000 0.000 0.000 0.000 0.000 0.000 0.000 0.000 0.000 0.000 0.000 0.000 0.000 0.000 0.000 0.000 0.000 0.000 0.032 0.999 1.343 1.225 1.637 2.952 3.556 3.984 3.975 3.906 3.941 2.885 2.039 1.443 1.243
0.000 0.000 0.000 0.000 0.000 0.000 0.000 0.000 0.000 0.000 0.000 0.000 0.000 0.000 0.000 0.000 0.000 0.000 0.000 0.000 0.000 0.000 0.000 0.000 0.000 0.000 0.000 0.000 0.187 0.884 0.370 1.940 3.339 3.684 3.799 3.958 3.909 4.057 3.019 2.207 1.869 2.010
0.000 0.000 0.000 0.000 0.000 0.000 0.000 0.000 0.000 0.000 0.000 0.000 0.000 0.000 0.000 0.000 0.000 0.000 0.000 0.000 0.000 0.000 0.000 0.000 0.000 0.000 0.000 0.000 0.004 0.976 1.383 2.080 3.045 3.475 3.722 4.040 4.048 3.895 3.214 2.339 2.097 1.557
0.000 0.000 0.000 0.000 0.000 0.000 0.000 0.000 0.000 0.000 0.000 0.000 0.000 0.000 0.000 0.000 0.000 0.000 0.000 0.000 0.000 0.000 0.000 0.000 0.000 0.000 0.000 0.000 0.000 0.769 1.529 2.015 2.387 3.150 3.724 4.228 4.498 4.069 3.436 2.547 2.088 0.327
0.000 0.000 0.000 0.000 0.000 0.000 0.000 0.000 0.000 0.000 0.000 0.000 0.000 0.000 0.000 0.000 0.000 0.000 0.000 0.000 0.000 0.000 0.000 0.000 0.000 0.000 0.000 0.000 0.000 0.301 1.673 1.944 1.993 2.722 3.707 4.433 4.990 4.526 3.735 2.997 2.092 0.482
0.000 0.000 0.000 0.000 0.000 0.000 0.000 0.000 0.000 0.000 0.000 0.000 0.000 0.000 0.000 0.000 0.000 0.000 0.000 0.000 0.000 0.000 0.000 0.000 0.000 0.000 0.000 0.000 0.000 0.041 1.235 1.782 1.867 2.468 2.671 3.895 5.196 4.926 4.345 3.605 2.807 1.877
0.000 0.000 0.000 0.000 0.000 0.000 0.000 0.000 0.000 0.000 0.000 0.000 0.000 0.000 0.000 0.000 0.000 0.000 0.000 0.000 0.000 0.000 0.000 0.000 0.000 0.000 0.000 0.000 0.000 0.053 0.714 1.479 1.782 2.427 2.246 3.764 5.308 5.290 4.825 3.741 3.090 2.419
0.000 0.000 0.000 0.000 0.000 0.000 0.000 0.000 0.000 0.000 0.000 0.000 0.000 0.000 0.000 0.000 0.000 0.000 0.000 0.000 0.000 0.000 0.000 0.000 0.000 0.000 0.000 0.000 0.000 0.000 0.192 1.166 1.593 2.320 2.175 3.282 4.830 5.123 4.650 3.340 2.639 2.528
0.000 0.000 0.000 0.000 0.000 0.000 0.000 0.000 0.000 0.000 0.000 0.000 0.000 0.000 0.000 0.000 0.000 0.000 0.000 0.000 0.000 0.000 0.000 0.000 0.000 0.000 0.000 0.000 0.000 0.000 0.001 0.651 1.389 1.859 2.213 2.845 4.123 5.011 4.502 3.100 2.313 2.473
0.000 0.000 0.000 0.000 0.000 0.000 0.000 0.000 0.000 0.000 0.000 0.000 0.000 0.000 0.000 0.000 0.000 0.000 0.000 0.000 0.000 0.000 0.000 0.000 0.000 0.000 0.000 0.000 0.000 0.000 0.000 0.036 1.067 1.786 2.174 2.422 3.463 4.916 4.256 3.172 2.685 2.388
0.000 0.000 0.000 0.000 0.000 0.000 0.000 0.000 0.000 0.000 0.000 0.000 0.000 0.000 0.000 0.000 0.000 0.000 0.000 0.000 0.000 0.000 0.000 0.000 0.000 0.000 0.000 0.000 0.000 0.000 0.000 0.000 0.471 2.037 2.189 2.274 3.141 4.363 4.081 3.367 2.752 2.431
0.000 0.000 0.000 0.000 0.000 0.000 0.000 0.000 0.000 0.000 0.000 0.000 0.000 0.000 0.000 0.000 0.000 0.000 0.000 0.000 0.000 0.000 0.000 0.000 0.000 0.000 0.000 0.000 0.000 0.000 0.000 0.000 0.227 1.948 2.275 2.472 2.986 3.705 3.944 3.116 2.406 2.706
0.000 0.000 0.000 0.000 0.000 0.000 0.000 0.000 0.000 0.000 0.000 0.000 0.000 0.000 0.000 0.000 0.000 0.000 0.000 0.000 0.000 0.000 0.000 0.000 0.000 0.000 0.000 0.000 0.000 0.000 0.000 0.000 0.155 1.873 2.148 2.361 3.004 3.273 3.226 2.788 2.192 1.977
0.000 0.000 0.000 0.000 0.000 0.000 0.000 0.000 0.000 0.000 0.000 0.000 0.000 0.000 0.000 0.000 0.000 0.000 0.000 0.000 0.000 0.000 0.000 0.000 0.000 0.000 0.000 0.000 0.000 0.000 0.000 0.000 0.196 1.565 2.020 2.376 2.804 2.755 2.649 2.507 1.543 0.545
0.000 0.000 0.000 0.000 0.000 0.000 0.000 0.000 0.000 0.000 0.000 0.000 0.000 0.000 0.000 0.000 0.000 0.000 0.000 0.000 0.000 0.000 0.000 0.000 0.000 0.000 0.000 0.000 0.000 0.000 0.000 0.000 0.190 1.481 1.671 2.291 2.344 2.019 2.317 1.615 0.250 0.444
0.000 0.000 0.000 0.000 0.000 0.000 0.000 0.000 0.000 0.000 0.000 0.000 0.000 0.000 0.000 0.000 0.000 0.000 0.000 0.000 0.000 0.000 0.000 0.000 0.000 0.000 0.000 0.000 0.000 0.000 0.000 0.000 0.150 1.439 1.638 2.004 1.917 1.623 1.734 1.523 0.094 0.099
