ncols        36
nrows        70
xllcorner    409672.8
yllcorner    6870774.1
cellsize     5.00
NODATA_value -9999
0.000 0.000 0.000 0.000 0.000 0.000 0.000 0.000 0.000 0.000 0.000 0.000 0.000 0.000 0.000 0.000 0.000 0.000 0.000 0.000 0.000 0.000 0.000 0.000 0.000 0.000 0.000 0.000 0.000 0.000 0.000 0.000 0.000 0.000 0.000 0.000
0.000 0.000 0.003 1.340 8.310 15.121 15.163 15.807 13.456 6.934 1.954 0.159 0.002 0.000 0.000 0.000 0.000 0.000 0.000 0.000 0.000 0.000 0.000 0.000 0.000 0.000 0.000 0.000 0.000 0.000 0.000 0.000 0.000 0.000 0.000 0.000
0.000 0.002 1.907 14.754 15.587 16.152 16.185 16.963 15.611 15.532 16.397 9.769 3.677 0.685 0.002 0.000 0.000 0.000 0.000 0.000 0.000 0.000 0.000 0.000 0.000 0.000 0.000 0.000 0.000 0.000 0.000 0.000 0.000 0.000 0.000 0.000
0.000 1.172 14.698 15.564 16.245 17.434 17.808 17.411 17.857 17.187 16.729 15.730 14.001 10.390 2.797 0.000 0.000 0.000 0.000 0.000 0.000 0.000 0.000 0.000 0.000 0.000 0.000 0.000 0.000 0.000 0.000 0.000 0.000 0.000 0.000 0.000
0.016 5.110 15.124 15.812 16.775 18.621 19.132 17.576 18.879 17.895 18.767 15.598 13.770 12.064 11.845 0.452 0.000 0.000 0.000 0.000 0.000 0.000 0.000 0.000 0.000 0.000 0.000 0.000 0.000 0.000 0.000 0.000 0.000 0.000 0.000 0.000
0.331 12.515 15.284 16.370 17.663 18.924 19.564 18.615 20.280 19.490 18.233 15.384 13.904 13.192 12.302 7.398 0.000 0.000 0.000 0.000 0.000 0.000 0.000 0.000 0.000 0.000 0.000 0.000 0.000 0.000 0.000 0.000 0.000 0.000 0.000 0.000
1.859 15.112 15.930 17.217 18.895 20.001 19.250 20.425 19.433 18.610 17.969 16.105 15.150 14.892 13.272 11.524 0.181 0.000 0.000 0.000 0.000 0.000 0.000 0.000 0.000 0.000 0.000 0.000 0.000 0.000 0.000 0.000 0.000 0.000 0.000 0.000
3.992 15.132 15.463 17.712 19.887 19.638 20.653 20.803 19.680 18.058 17.511 16.865 16.605 15.863 13.623 11.979 4.173 0.000 0.000 0.000 0.000 0.000 0.000 0.000 0.000 0.000 0.000 0.000 0.000 0.000 0.000 0.000 0.000 0.000 0.000 0.000
5.693 15.007 16.750 17.824 18.304 19.177 19.889 19.740 18.608 16.535 17.445 16.789 17.133 15.217 14.860 12.616 8.045 0.013 0.000 0.000 0.000 0.000 0.000 0.000 0.000 0.000 0.000 0.000 0.000 0.000 0.000 0.000 0.000 0.000 0.000 0.000
5.967 15.378 15.779 17.360 18.146 18.184 18.922 18.689 17.667 16.765 17.938 18.003 17.307 16.575 14.693 12.436 9.686 1.350 0.000 0.000 0.000 0.000 0.000 0.000 0.000 0.000 0.000 0.000 0.000 0.000 0.000 0.000 0.000 0.000 0.000 0.000
5.542 14.304 16.085 17.142 15.537 17.679 17.222 17.789 16.823 18.296 19.125 18.419 17.205 16.446 14.568 12.997 10.364 4.718 0.066 0.000 0.000 0.000 0.000 0.000 0.000 0.000 0.000 0.000 0.000 0.000 0.000 0.000 0.000 0.000 0.000 0.000
4.681 14.380 15.275 16.120 16.460 16.490 16.761 17.312 17.988 18.937 18.780 16.521 19.792 16.983 14.375 12.906 10.526 6.437 1.847 0.004 0.000 0.000 0.000 0.000 0.000 0.000 0.000 0.000 0.000 0.000 0.000 0.000 0.000 0.000 0.000 0.000
2.885 12.936 14.258 14.612 14.636 15.431 17.038 17.822 18.997 18.166 17.449 17.545 18.889 15.479 14.358 12.659 10.741 7.611 4.749 0.703 0.000 0.000 0.000 0.000 0.000 0.000 0.000 0.000 0.000 0.000 0.000 0.000 0.000 0.000 0.000 0.000
1.280 11.638 13.754 14.930 15.084 16.960 17.729 17.545 18.206 17.084 17.026 17.564 17.287 15.094 13.522 13.424 10.829 8.447 6.352 3.398 0.238 0.000 0.000 0.000 0.000 0.000 0.000 0.000 0.000 0.000 0.000 0.000 0.000 0.000 0.000 0.000
0.365 7.593 11.253 12.869 15.727 16.575 17.056 17.901 16.930 15.804 15.262 16.572 16.566 15.004 14.504 13.397 11.516 9.028 7.036 5.132 2.256 0.040 0.000 0.000 0.000 0.000 0.000 0.000 0.000 0.000 0.000 0.000 0.000 0.000 0.000 0.000
0.059 4.405 10.951 12.868 14.118 15.483 16.491 16.057 16.159 15.101 16.002 17.018 18.244 17.119 14.771 13.560 11.261 9.753 7.342 5.995 4.172 1.238 0.000 0.000 0.000 0.000 0.000 0.000 0.000 0.000 0.000 0.000 0.000 0.000 0.000 0.000
0.002 1.408 9.611 12.668 14.171 14.459 15.493 16.418 15.834 16.518 16.164 17.456 18.049 15.885 13.988 13.006 11.443 10.542 7.735 6.501 5.166 2.888 0.191 0.000 0.000 0.000 0.000 0.000 0.000 0.000 0.000 0.000 0.000 0.000 0.000 0.000
0.000 0.086 4.404 9.807 11.512 13.416 14.385 15.567 15.743 15.463 15.829 17.641 16.402 14.907 13.606 12.913 11.473 10.506 8.405 6.561 5.141 3.471 1.719 0.012 0.000 0.000 0.000 0.000 0.000 0.000 0.000 0.000 0.000 0.000 0.000 0.000
0.000 0.001 0.789 8.187 10.873 13.062 14.092 15.023 15.003 14.872 15.131 15.215 14.393 13.313 13.338 11.534 11.019 10.648 9.446 6.932 4.962 3.799 2.698 0.362 0.000 0.000 0.000 0.000 0.000 0.000 0.000 0.000 0.000 0.000 0.000 0.000
0.000 0.000 0.073 3.961 9.995 11.827 13.976 14.470 14.010 14.385 14.746 15.493 13.894 13.436 11.830 11.611 11.401 11.099 9.631 7.189 5.069 3.157 2.791 1.106 0.023 0.000 0.000 0.000 0.000 0.000 0.000 0.000 0.000 0.000 0.000 0.000
0.000 0.000 0.000 0.854 7.143 11.427 13.395 13.947 13.343 13.632 13.898 14.396 13.126 12.051 11.519 12.277 11.642 11.319 10.142 8.448 5.132 3.528 2.750 2.108 0.596 0.000 0.000 0.000 0.000 0.000 0.000 0.000 0.000 0.000 0.000 0.000
0.000 0.000 0.000 0.014 2.450 8.091 10.850 11.408 12.457 13.311 13.983 12.198 11.977 11.489 11.893 12.503 11.576 11.589 10.662 8.790 6.416 4.156 2.932 3.201 1.706 0.034 0.000 0.000 0.000 0.000 0.000 0.000 0.000 0.000 0.000 0.000
0.000 0.000 0.000 0.000 0.362 4.537 8.099 11.080 13.288 14.404 13.246 12.555 11.838 11.823 11.974 11.553 12.007 11.727 10.800 9.179 7.632 4.801 3.455 3.537 2.735 0.569 0.000 0.000 0.000 0.000 0.000 0.000 0.000 0.000 0.000 0.000
0.000 0.000 0.000 0.000 0.010 1.647 6.251 9.213 11.911 12.182 12.152 11.556 11.790 11.968 11.984 12.260 12.176 12.050 11.258 10.035 8.512 5.572 3.953 3.949 3.434 1.832 0.050 0.000 0.000 0.000 0.000 0.000 0.000 0.000 0.000 0.000
0.000 0.000 0.000 0.000 0.000 0.136 3.121 6.356 9.368 12.109 11.648 12.210 11.504 12.518 11.274 12.447 12.084 12.144 11.295 10.405 8.812 6.560 4.916 4.501 3.652 3.070 0.688 0.001 0.000 0.000 0.000 0.000 0.000 0.000 0.000 0.000
0.000 0.000 0.000 0.000 0.000 0.007 1.142 5.024 7.041 9.295 11.311 10.957 11.272 10.759 12.069 12.361 11.983 12.042 11.329 10.970 9.416 7.751 5.911 4.804 3.828 3.396 1.984 0.137 0.000 0.000 0.000 0.000 0.000 0.000 0.000 0.000
0.000 0.000 0.000 0.000 0.000 0.000 0.094 1.879 4.857 6.720 9.582 10.703 11.254 11.182 11.645 11.846 11.547 11.796 11.715 11.239 9.836 8.526 7.207 5.467 4.459 3.551 3.027 1.323 0.096 0.000 0.000 0.000 0.000 0.000 0.000 0.000
0.000 0.000 0.000 0.000 0.000 0.000 0.001 0.192 2.827 5.352 7.396 9.911 10.302 10.727 11.271 11.170 11.124 11.945 11.565 10.851 9.970 9.249 8.345 6.425 5.018 3.830 3.510 2.914 1.186 0.034 0.000 0.000 0.000 0.000 0.000 0.000
0.000 0.000 0.000 0.000 0.000 0.000 0.000 0.005 0.671 3.977 5.531 8.687 9.858 10.113 10.049 10.438 11.310 11.549 11.013 10.624 10.256 9.703 9.243 7.488 5.357 4.182 3.858 3.548 2.581 0.644 0.005 0.000 0.000 0.000 0.000 0.000
0.000 0.000 0.000 0.000 0.000 0.000 0.000 0.000 0.022 2.154 4.622 5.704 8.749 9.277 9.291 9.736 10.522 10.972 11.391 10.286 10.378 9.955 9.645 8.665 5.622 4.441 3.736 3.835 3.529 1.909 0.317 0.001 0.000 0.000 0.000 0.000
0.000 0.000 0.000 0.000 0.000 0.000 0.000 0.000 0.000 0.453 3.259 3.893 6.546 7.933 9.127 9.786 10.886 10.224 10.252 10.516 10.513 10.110 9.688 8.069 7.030 4.978 3.999 4.198 3.807 2.960 1.483 0.130 0.000 0.000 0.000 0.000
0.000 0.000 0.000 0.000 0.000 0.000 0.000 0.000 0.000 0.011 1.086 3.207 3.630 7.074 8.367 9.316 9.991 10.290 10.692 10.407 10.954 10.021 10.014 9.192 8.023 5.908 4.494 4.050 3.539 3.576 2.596 0.943 0.001 0.000 0.000 0.000
0.000 0.000 0.000 0.000 0.000 0.000 0.000 0.000 0.000 0.000 0.096 2.303 2.787 6.156 7.974 9.235 9.703 10.337 10.392 10.769 10.439 10.136 10.061 9.745 8.660 6.614 4.690 3.591 3.776 3.841 3.190 1.976 0.096 0.096 0.000 0.000
0.000 0.000 0.000 0.000 0.000 0.000 0.000 0.000 0.000 0.000 0.016 1.643 2.631 3.816 7.139 9.029 9.839 9.870 10.508 9.994 10.113 10.168 10.515 9.766 8.724 6.946 5.135 3.972 3.862 3.699 3.247 2.685 1.947 0.930 0.020 0.000
0.000 0.000 0.000 0.000 0.000 0.000 0.000 0.000 0.000 0.000 0.000 0.537 2.507 3.071 5.862 7.951 9.257 9.591 9.684 10.122 10.394 10.405 10.474 9.556 8.846 7.097 5.238 4.317 3.637 3.448 3.057 2.997 2.898 2.125 0.447 0.003
0.000 0.000 0.000 0.000 0.000 0.000 0.000 0.000 0.000 0.000 0.000 0.100 2.139 3.385 4.579 6.814 8.658 8.974 9.746 9.636 10.369 10.328 10.018 9.743 8.399 6.851 5.746 4.832 3.586 3.294 2.784 3.058 3.260 2.878 1.765 0.359
0.000 0.000 0.000 0.000 0.000 0.000 0.000 0.000 0.000 0.000 0.000 0.060 1.012 2.858 2.937 5.012 6.725 8.280 8.364 9.340 9.840 10.362 10.168 9.671 8.476 7.233 6.222 5.195 3.851 3.089 3.004 3.424 3.385 3.232 2.653 1.632
0.000 0.000 0.000 0.000 0.000 0.000 0.000 0.000 0.000 0.000 0.000 0.000 0.344 0.326 3.025 3.147 4.412 6.768 8.132 9.214 10.153 10.342 10.318 9.599 8.858 7.485 6.458 5.443 4.437 3.107 2.985 3.547 3.581 3.400 3.030 2.328
0.000 0.000 0.000 0.000 0.000 0.000 0.000 0.000 0.000 0.000 0.000 0.000 0.034 1.355 2.907 2.356 2.329 5.628 7.761 9.147 9.973 10.249 10.130 9.648 9.316 7.438 6.709 5.920 4.731 3.528 3.454 3.712 3.685 3.462 3.076 2.888
0.000 0.000 0.000 0.000 0.000 0.000 0.000 0.000 0.000 0.000 0.000 0.000 0.007 0.797 2.230 2.200 1.184 3.826 7.381 9.079 9.662 9.743 10.190 9.840 9.138 7.434 7.104 6.202 5.180 4.453 3.812 3.866 3.817 3.522 3.098 3.120
0.000 0.000 0.000 0.000 0.000 0.000 0.000 0.000 0.000 0.000 0.000 0.000 0.000 0.261 1.127 1.991 1.960 3.089 7.550 8.548 9.718 9.991 10.220 9.656 8.262 8.211 7.295 6.404 5.681 4.790 3.950 3.727 3.880 3.668 3.501 3.333
0.000 0.000 0.000 0.000 0.000 0.000 0.000 0.000 0.000 0.000 0.000 0.000 0.000 0.016 0.734 1.290 1.848 3.959 6.288 8.625 9.426 10.495 9.966 9.710 9.247 8.466 7.515 6.951 6.105 5.101 4.504 4.032 4.163 4.296 3.756 3.586
0.000 0.000 0.000 0.000 0.000 0.000 0.000 0.000 0.000 0.000 0.000 0.000 0.000 0.000 0.209 1.019 1.944 3.926 5.113 7.289 8.799 9.356 9.676 9.440 9.001 8.711 7.915 7.210 6.670 5.625 4.951 4.734 4.405 4.476 4.200 3.776
0.000 0.000 0.000 0.000 0.000 0.000 0.000 0.000 0.000 0.000 0.000 0.000 0.000 0.000 0.011 0.495 3.005 3.930 4.150 5.729 7.238 8.729 9.353 9.487 9.325 8.722 8.384 7.816 7.063 6.373 5.617 5.259 5.139 5.075 4.485 3.775
0.000 0.000 0.000 0.000 0.000 0.000 0.000 0.000 0.000 0.000 0.000 0.000 0.000 0.000 0.014 1.384 3.073 3.404 3.305 4.533 6.291 7.887 9.423 9.680 9.635 8.962 8.224 8.279 7.847 7.163 6.059 5.739 5.561 5.515 5.134 4.354
0.000 0.000 0.000 0.000 0.000 0.000 0.000 0.000 0.000 0.000 0.000 0.000 0.000 0.000 0.010 0.747 2.019 2.575 2.611 3.382 4.823 6.892 8.548 9.230 9.422 9.102 8.470 8.477 8.132 7.582 6.609 6.307 6.788 6.321 5.692 4.918
0.000 0.000 0.000 0.000 0.000 0.000 0.000 0.000 0.000 0.000 0.000 0.000 0.000 0.000 0.000 0.011 0.485 1.945 2.474 2.645 3.930 5.648 7.787 8.566 9.034 9.007 8.587 8.526 8.346 7.871 7.457 7.387 7.937 7.250 6.307 5.181
0.000 0.000 0.000 0.000 0.000 0.000 0.000 0.000 0.000 0.000 0.000 0.000 0.000 0.000 0.000 0.000 0.021 1.243 2.070 1.941 2.806 5.326 7.069 8.335 8.742 8.750 8.612 8.630 8.555 8.264 7.952 8.551 9.041 7.834 7.059 5.173
0.000 0.000 0.000 0.000 0.000 0.000 0.000 0.000 0.000 0.000 0.000 0.000 0.000 0.000 0.000 0.000 0.000 0.158 1.303 1.229 2.667 4.772 6.546 7.816 8.434 8.584 8.642 8.396 8.533 8.570 8.623 8.854 9.565 8.508 7.146 4.122
0.000 0.000 0.000 0.000 0.000 0.000 0.000 0.000 0.000 0.000 0.000 0.000 0.000 0.000 0.000 0.000 0.000 0.004 1.246 2.137 2.924 3.934 5.448 7.156 8.252 8.440 8.419 8.275 8.467 8.644 8.725 8.721 9.762 9.197 6.970 4.125
0.000 0.000 0.000 0.000 0.000 0.000 0.000 0.000 0.000 0.000 0.000 0.000 0.000 0.000 0.000 0.000 0.000 0.000 0.793 2.243 3.044 3.252 4.301 6.401 7.880 8.453 8.200 8.140 8.319 8.654 8.556 9.100 10.238 9.772 7.317 4.519
0.000 0.000 0.000 0.000 0.000 0.000 0.000 0.000 0.000 0.000 0.000 0.000 0.000 0.000 0.000 0.000 0.000 0.000 0.206 2.248 2.967 3.096 3.672 5.377 7.777 8.691 8.393 7.994 8.310 8.369 8.428 9.511 10.320 9.366 7.518 5.060
0.000 0.000 0.000 0.000 0.000 0.000 0.000 0.000 0.000 0.000 0.000 0.000 0.000 0.000 0.000 0.000 0.000 0.000 0.018 1.336 2.617 2.895 3.550 3.830 6.835 8.549 8.411 8.116 8.378 8.427 8.811 10.040 10.331 9.250 7.916 5.516
0.000 0.000 0.000 0.000 0.000 0.000 0.000 0.000 0.000 0.000 0.000 0.000 0.000 0.000 0.000 0.000 0.000 0.000 0.010 0.554 1.984 2.760 3.496 3.252 5.878 8.549 8.671 8.190 8.335 8.345 8.837 10.066 9.886 9.525 8.181 5.458
0.000 0.000 0.000 0.000 0.000 0.000 0.000 0.000 0.000 0.000 0.000 0.000 0.000 0.000 0.000 0.000 0.000 0.000 0.000 0.091 1.344 2.381 3.372 3.177 4.534 7.864 8.410 7.813 7.560 7.863 8.606 9.852 10.109 9.328 7.390 5.170
0.000 0.000 0.000 0.000 0.000 0.000 0.000 0.000 0.000 0.000 0.000 0.000 0.000 0.000 0.000 0.000 0.000 0.000 0.000 0.000 0.551 1.916 2.809 3.173 3.861 7.170 8.143 7.558 6.894 7.173 8.182 9.215 9.302 7.973 6.392 4.931
0.000 0.000 0.000 0.000 0.000 0.000 0.000 0.000 0.000 0.000 0.000 0.000 0.000 0.000 0.000 0.000 0.000 0.000 0.000 0.000 0.019 1.287 2.660 3.135 3.414 6.009 8.034 7.286 6.536 6.919 7.649 8.318 8.370 7.213 6.219 4.070
0.000 0.000 0.000 0.000 0.000 0.000 0.000 0.000 0.000 0.000 0.000 0.000 0.000 0.000 0.000 0.000 0.000 0.000 0.000 0.000 0.000 0.384 2.976 3.110 3.212 5.192 7.513 7.097 6.511 6.586 7.083 8.103 8.113 6.753 5.568 3.819
0.000 0.000 0.000 0.000 0.000 0.000 0.000 0.000 0.000 0.000 0.000 0.000 0.000 0.000 0.000 0.000 0.000 0.000 0.000 0.000 0.000 0.149 2.808 3.226 3.411 4.576 6.950 7.067 6.228 5.877 6.753 7.151 6.544 5.625 5.241 4.246
0.000 0.000 0.000 0.000 0.000 0.000 0.000 0.000 0.000 0.000 0.000 0.000 0.000 0.000 0.000 0.000 0.000 0.000 0.000 0.000 0.000 0.092 2.675 3.023 3.314 4.376 6.505 6.895 5.847 5.210 5.827 5.290 4.935 4.991 4.902 4.318
0.000 0.000 0.000 0.000 0.000 0.000 0.000 0.000 0.000 0.000 0.000 0.000 0.000 0.000 0.000 0.000 0.000 0.000 0.000 0.000 0.000 0.123 2.251 2.837 3.347 4.120 5.634 6.416 5.791 4.358 4.598 4.710 4.794 4.905 4.746 4.602
0.000 0.000 0.000 0.000 0.000 0.000 0.000 0.000 0.000 0.000 0.000 0.000 0.000 0.000 0.000 0.000 0.000 0.000 0.000 0.000 0.000 0.121 2.123 2.418 3.350 3.830 4.541 6.210 5.215 3.668 4.231 4.623 4.911 4.836 5.205 5.363
0.000 0.000 0.000 0.000 0.000 0.000 0.000 0.000 0.000 0.000 0.000 0.000 0.000 0.000 0.000 0.000 0.000 0.000 0.000 0.000 0.000 0.099 2.085 2.409 3.193 3.535 3.932 5.787 5.140 3.390 4.115 4.448 5.054 5.480 5.850 4.829
0.000 0.000 0.000 0.000 0.000 0.000 0.000 0.000 0.000 0.000 0.000 0.000 0.000 0.000 0.000 0.000 0.000 0.000 0.000 0.000 0.000 0.120 1.993 2.430 3.096 3.569 3.972 5.499 5.040 3.418 3.930 4.861 5.795 6.109 5.501 4.285
0.000 0.000 0.000 0.000 0.000 0.000 0.000 0.000 0.000 0.000 0.000 0.000 0.000 0.000 0.000 0.000 0.000 0.000 0.000 0.000 0.000 0.172 2.077 2.352 3.080 3.351 3.738 4.946 4.570 3.829 4.583 5.788 5.905 5.641 5.170 4.613
0.000 0.000 0.000 0.000 0.000 0.000 0.000 0.000 0.000 0.000 0.000 0.000 0.000 0.000 0.000 0.000 0.000 0.000 0.000 0.000 0.000 0.125 2.090 2.412 3.118 3.398 3.328 4.065 4.645 4.224 4.626 5.528 5.477 5.352 5.401 4.813
0.000 0.000 0.000 0.000 0.000 0.000 0.000 0.000 0.000 0.000 0.000 0.000 0.000 0.000 0.000 0.000 0.000 0.000 0.000 0.000 0.000 0.110 2.112 2.499 2.971 3.270 2.935 3.472 4.749 4.334 4.689 4.909 4.759 5.324 5.110 4.607
0.000 0.000 0.000 0.000 0.000 0.000 0.000 0.000 0.000 0.000 0.000 0.000 0.000 0.000 0.000 0.000 0.000 0.000 0.000 0.000 0.000 0.112 2.015 2.329 2.869 3.001 2.801 2.996 4.904 4.336 4.430 4.402 4.761 4.996 4.880 4.243
0.000 0.000 0.000 0.000 0.000 0.000 0.000 0.000 0.000 0.000 0.000 0.000 0.000 0.000 0.000 0.000 0.000 0.000 0.000 0.000 0.000 0.080 2.149 2.361 2.859 2.623 2.489 2.362 4.194 3.574 3.868 4.048 4.351 4.622 4.835 4.479
0.000 0.000 0.000 0.000 0.000 0.000 0.000 0.000 0.000 0.000 0.000 0.000 0.000 0.000 0.000 0.000 0.000 0.000 0.000 0.000 0.000 0.046 2.009 2.461 2.418 2.208 2.093 2.366 2.622 2.903 3.147 3.215 4.061 4.513 4.736 4.394
