ncols        61
nrows        150
xllcorner    409507.8
yllcorner    6870879.1
cellsize     5.00
NODATA_value -9999
0.000 0.000 0.000 0.000 0.000 0.000 0.000 0.000 0.000 0.000 0.000 0.000 0.000 0.000 0.000 0.000 0.000 0.000 0.000 0.000 0.000 0.000 0.000 0.000 0.000 0.000 0.000 0.000 0.000 0.000 0.000 0.000 0.000 0.000 0.000 0.000 0.000 0.000 0.000 0.000 0.000 0.000 0.000 0.000 0.000 0.000 0.000 0.000 0.000 0.000 0.000 0.000 0.000 0.000 0.000 0.000 0.000 0.000 0.000 0.000 0.000
0.000 0.007 1.861 16.703 18.775 20.412 12.504 1.207 0.000 0.000 0.000 0.000 0.000 0.000 0.000 0.000 0.000 0.000 0.000 0.000 0.000 0.000 0.000 0.000 0.000 0.000 0.000 0.000 0.000 0.000 0.000 0.000 0.000 0.000 0.000 0.000 0.000 0.000 0.000 0.000 0.000 0.000 0.000 0.000 0.000 0.000 0.000 0.000 0.000 0.000 0.000 0.000 0.000 0.000 0.000 0.000 0.000 0.000 0.000 0.000 0.000
0.000 0.971 17.266 17.399 19.001 20.025 17.859 14.179 1.098 0.000 0.000 0.000 0.000 0.000 0.000 0.000 0.000 0.000 0.000 0.000 0.000 0.000 0.000 0.000 0.000 0.000 0.000 0.000 0.000 0.000 0.000 0.000 0.000 0.000 0.000 0.000 0.000 0.000 0.000 0.000 0.000 0.000 0.000 0.000 0.000 0.000 0.000 0.000 0.000 0.000 0.000 0.000 0.000 0.000 0.000 0.000 0.000 0.000 0.000 0.000 0.000
0.005 4.911 17.949 17.708 19.008 20.074 20.411 17.785 12.919 0.290 0.000 0.000 0.000 0.000 0.000 0.000 0.000 0.000 0.000 0.000 0.000 0.000 0.000 0.000 0.000 0.000 0.000 0.000 0.000 0.000 0.000 0.000 0.000 0.000 0.000 0.000 0.000 0.000 0.000 0.000 0.000 0.000 0.000 0.000 0.000 0.000 0.000 0.000 0.000 0.000 0.000 0.000 0.000 0.000 0.000 0.000 0.000 0.000 0.000 0.000 0.000
0.255 13.625 19.662 19.843 19.732 21.336 21.814 18.945 17.812 7.691 0.024 0.000 0.000 0.000 0.000 0.000 0.000 0.000 0.000 0.000 0.000 0.000 0.000 0.000 0.000 0.000 0.000 0.000 0.000 0.000 0.000 0.000 0.000 0.000 0.000 0.000 0.000 0.000 0.000 0.000 0.000 0.000 0.000 0.000 0.000 0.000 0.000 0.000 0.000 0.000 0.000 0.000 0.000 0.000 0.000 0.000 0.000 0.000 0.000 0.000 0.000
1.573 19.691 20.079 21.406 21.002 22.557 23.630 21.389 20.067 15.699 3.210 0.000 0.000 0.000 0.000 0.000 0.000 0.000 0.000 0.000 0.000 0.000 0.000 0.000 0.000 0.000 0.000 0.000 0.000 0.000 0.000 0.000 0.000 0.000 0.000 0.000 0.000 0.000 0.000 0.000 0.000 0.000 0.000 0.000 0.000 0.000 0.000 0.000 0.000 0.000 0.000 0.000 0.000 0.000 0.000 0.000 0.000 0.000 0.000 0.000 0.000
3.358 19.222 20.899 21.803 21.651 22.393 23.229 22.807 21.494 17.331 11.322 0.507 0.000 0.000 0.000 0.000 0.000 0.000 0.000 0.000 0.000 0.000 0.000 0.000 0.000 0.000 0.000 0.000 0.000 0.000 0.000 0.000 0.000 0.000 0.000 0.000 0.000 0.000 0.000 0.000 0.000 0.000 0.000 0.000 0.000 0.000 0.000 0.000 0.000 0.000 0.000 0.000 0.000 0.000 0.000 0.000 0.000 0.000 0.000 0.000 0.000
5.589 19.384 23.104 23.366 20.992 21.186 22.177 24.117 22.622 18.449 15.476 6.228 0.085 0.000 0.000 0.000 0.000 0.000 0.000 0.000 0.000 0.000 0.000 0.000 0.000 0.000 0.000 0.000 0.000 0.000 0.000 0.000 0.000 0.000 0.000 0.000 0.000 0.000 0.000 0.000 0.000 0.000 0.000 0.000 0.000 0.000 0.000 0.000 0.000 0.000 0.000 0.000 0.000 0.000 0.000 0.000 0.000 0.000 0.000 0.000 0.000
9.002 20.876 22.780 23.593 22.450 22.015 22.610 23.855 23.297 19.472 15.142 11.707 3.653 0.130 0.000 0.000 0.000 0.000 0.000 0.000 0.000 0.000 0.000 0.000 0.000 0.000 0.000 0.000 0.000 0.000 0.000 0.000 0.000 0.000 0.000 0.000 0.000 0.000 0.000 0.000 0.000 0.000 0.000 0.000 0.000 0.000 0.000 0.000 0.000 0.000 0.000 0.000 0.000 0.000 0.000 0.000 0.000 0.000 0.000 0.000 0.000
11.259 21.659 23.620 23.758 21.845 22.663 24.793 24.222 23.305 19.025 16.188 13.954 9.709 4.195 0.359 0.001 0.000 0.000 0.000 0.000 0.000 0.000 0.000 0.000 0.000 0.000 0.000 0.000 0.000 0.000 0.000 0.000 0.000 0.000 0.000 0.000 0.000 0.000 0.000 0.000 0.000 0.000 0.000 0.000 0.000 0.000 0.000 0.000 0.000 0.000 0.000 0.000 0.000 0.000 0.000 0.000 0.000 0.000 0.000 0.000 0.000
10.425 21.138 25.083 26.033 24.761 26.343 25.837 23.275 22.733 17.893 17.219 15.243 12.377 10.819 5.423 0.714 0.006 0.000 0.000 0.000 0.000 0.000 0.000 0.000 0.000 0.000 0.000 0.000 0.000 0.000 0.000 0.000 0.000 0.000 0.000 0.000 0.000 0.000 0.000 0.000 0.000 0.000 0.000 0.000 0.000 0.000 0.000 0.000 0.000 0.000 0.000 0.000 0.000 0.000 0.000 0.000 0.000 0.000 0.000 0.000 0.000
8.596 19.166 24.109 26.433 27.639 27.387 24.275 24.220 21.220 18.052 18.097 19.193 14.846 14.071 10.682 6.417 1.317 0.034 0.000 0.000 0.000 0.000 0.000 0.000 0.000 0.000 0.000 0.000 0.000 0.000 0.000 0.000 0.000 0.000 0.000 0.000 0.000 0.000 0.000 0.000 0.000 0.000 0.000 0.000 0.000 0.000 0.000 0.000 0.000 0.000 0.000 0.000 0.000 0.000 0.000 0.000 0.000 0.000 0.000 0.000 0.000
6.476 18.181 22.278 25.118 26.018 27.053 25.473 21.595 20.327 18.773 19.369 20.218 16.475 14.195 12.816 10.692 7.300 2.192 0.057 0.000 0.000 0.000 0.000 0.000 0.000 0.000 0.000 0.000 0.000 0.000 0.000 0.000 0.000 0.000 0.000 0.000 0.000 0.000 0.000 0.000 0.000 0.000 0.000 0.000 0.000 0.000 0.000 0.000 0.000 0.000 0.000 0.000 0.000 0.000 0.000 0.000 0.000 0.000 0.000 0.000 0.000
4.157 16.412 22.556 25.117 25.282 26.358 25.057 20.373 20.407 18.996 19.595 20.092 19.167 15.215 13.663 12.413 10.106 7.540 2.470 0.001 0.000 0.000 0.000 0.000 0.000 0.000 0.000 0.000 0.000 0.000 0.000 0.000 0.000 0.000 0.000 0.000 0.000 0.000 0.000 0.000 0.000 0.000 0.000 0.000 0.000 0.000 0.000 0.000 0.000 0.000 0.000 0.000 0.000 0.000 0.000 0.000 0.000 0.000 0.000 0.000 0.000
2.286 13.893 20.500 23.892 23.931 25.989 24.736 23.443 19.856 17.309 16.375 19.110 20.687 17.737 13.830 12.717 11.253 10.464 6.518 0.514 0.000 0.000 0.000 0.000 0.000 0.000 0.000 0.000 0.000 0.000 0.000 0.000 0.000 0.000 0.000 0.000 0.000 0.000 0.000 0.000 0.000 0.000 0.000 0.000 0.000 0.000 0.000 0.000 0.000 0.000 0.000 0.000 0.000 0.000 0.000 0.000 0.000 0.000 0.000 0.000 0.000
1.300 12.148 18.769 23.458 25.179 26.226 28.062 25.174 21.423 17.474 14.975 19.573 20.670 19.634 14.770 13.227 12.443 10.855 8.708 3.768 0.000 0.000 0.000 0.000 0.000 0.000 0.000 0.000 0.000 0.000 0.000 0.000 0.000 0.000 0.000 0.000 0.000 0.000 0.000 0.000 0.000 0.000 0.000 0.000 0.000 0.000 0.000 0.000 0.000 0.000 0.000 0.000 0.000 0.000 0.000 0.000 0.000 0.000 0.000 0.000 0.000
0.896 10.596 18.854 22.612 25.376 26.532 28.883 27.958 25.356 24.260 25.344 18.309 22.697 19.353 16.363 15.873 13.262 10.041 9.714 5.259 0.227 0.000 0.000 0.000 0.000 0.000 0.000 0.000 0.000 0.000 0.000 0.000 0.000 0.000 0.000 0.000 0.000 0.000 0.000 0.000 0.000 0.000 0.000 0.000 0.000 0.000 0.000 0.000 0.000 0.000 0.000 0.000 0.000 0.000 0.000 0.000 0.000 0.000 0.000 0.000 0.000
0.657 9.380 17.271 22.794 24.812 27.725 27.763 27.547 26.347 26.532 23.691 24.959 18.187 19.741 18.366 15.275 13.690 11.716 9.624 6.862 2.878 0.000 0.000 0.000 0.000 0.000 0.000 0.000 0.000 0.000 0.000 0.000 0.000 0.000 0.000 0.000 0.000 0.000 0.000 0.000 0.000 0.000 0.000 0.000 0.000 0.000 0.000 0.000 0.000 0.000 0.000 0.000 0.000 0.000 0.000 0.000 0.000 0.000 0.000 0.000 0.000
0.460 7.935 16.246 21.920 26.124 25.676 26.408 27.065 26.034 24.672 25.312 23.881 19.423 18.744 19.353 15.443 14.821 11.620 9.168 8.037 5.291 0.017 0.000 0.000 0.000 0.000 0.000 0.000 0.000 0.000 0.000 0.000 0.000 0.000 0.000 0.000 0.000 0.000 0.000 0.000 0.000 0.000 0.000 0.000 0.000 0.000 0.000 0.000 0.000 0.000 0.000 0.000 0.000 0.000 0.000 0.000 0.000 0.000 0.000 0.000 0.000
0.251 6.153 14.362 21.327 24.222 25.818 24.729 26.311 24.504 23.570 24.846 24.631 23.161 14.893 16.649 16.624 14.700 12.433 10.249 9.246 6.394 1.438 0.000 0.000 0.000 0.000 0.000 0.000 0.000 0.000 0.000 0.000 0.000 0.000 0.000 0.000 0.000 0.000 0.000 0.000 0.000 0.000 0.000 0.000 0.000 0.000 0.000 0.000 0.000 0.000 0.000 0.000 0.000 0.000 0.000 0.000 0.000 0.000 0.000 0.000 0.000
0.091 4.004 12.709 18.844 23.331 25.976 26.538 25.101 25.100 25.821 23.330 24.108 21.902 19.039 14.644 16.914 16.091 14.983 12.276 9.485 6.785 4.602 0.000 0.000 0.000 0.000 0.000 0.000 0.000 0.000 0.000 0.000 0.000 0.000 0.000 0.000 0.000 0.000 0.000 0.000 0.000 0.000 0.000 0.000 0.000 0.000 0.000 0.000 0.000 0.000 0.000 0.000 0.000 0.000 0.000 0.000 0.000 0.000 0.000 0.000 0.000
0.017 2.282 10.032 16.828 21.080 24.818 26.396 26.804 25.455 25.699 24.716 23.839 20.934 22.857 19.307 20.217 19.993 14.799 12.388 9.290 6.774 5.698 0.002 0.000 0.000 0.000 0.000 0.000 0.000 0.000 0.000 0.000 0.000 0.000 0.000 0.000 0.000 0.000 0.000 0.000 0.000 0.000 0.000 0.000 0.000 0.000 0.000 0.000 0.000 0.000 0.000 0.000 0.000 0.000 0.000 0.000 0.000 0.000 0.000 0.000 0.000
0.002 1.106 8.839 15.296 20.383 24.515 26.033 25.417 26.633 25.861 23.774 22.774 21.729 23.363 22.832 18.348 20.214 15.399 12.589 9.438 7.561 6.351 0.624 0.000 0.000 0.000 0.000 0.000 0.000 0.000 0.000 0.000 0.000 0.000 0.000 0.000 0.000 0.000 0.000 0.000 0.000 0.000 0.000 0.000 0.000 0.000 0.000 0.000 0.000 0.000 0.000 0.000 0.000 0.000 0.000 0.000 0.000 0.000 0.000 0.000 0.000
0.000 0.426 6.665 13.865 20.365 22.433 26.378 24.620 25.239 24.395 22.091 22.626 22.024 22.947 21.229 19.005 18.799 16.390 13.683 10.313 8.002 6.464 3.272 0.000 0.000 0.000 0.000 0.000 0.000 0.000 0.000 0.000 0.000 0.000 0.000 0.000 0.000 0.000 0.000 0.000 0.000 0.000 0.000 0.000 0.000 0.000 0.000 0.000 0.000 0.000 0.000 0.000 0.000 0.000 0.000 0.000 0.000 0.000 0.000 0.000 0.000
0.000 0.108 3.828 11.610 17.601 22.422 24.757 25.146 25.148 25.120 22.696 21.987 25.340 23.430 21.062 22.230 17.402 18.016 13.272 10.941 8.282 6.496 4.970 0.000 0.000 0.000 0.000 0.000 0.000 0.000 0.000 0.000 0.000 0.000 0.000 0.000 0.000 0.000 0.000 0.000 0.000 0.000 0.000 0.000 0.000 0.000 0.000 0.000 0.000 0.000 0.000 0.000 0.000 0.000 0.000 0.000 0.000 0.000 0.000 0.000 0.000
0.000 0.016 1.700 9.417 16.325 19.606 22.663 24.654 24.914 24.052 24.615 25.348 24.621 23.346 22.529 19.743 19.880 17.911 13.103 11.556 8.877 7.325 6.062 0.006 0.000 0.000 0.000 0.000 0.000 0.000 0.000 0.000 0.000 0.000 0.000 0.000 0.000 0.000 0.000 0.000 0.000 0.000 0.000 0.000 0.000 0.000 0.000 0.000 0.000 0.000 0.000 0.000 0.000 0.000 0.000 0.000 0.000 0.000 0.000 0.000 0.000
0.000 0.001 0.539 6.567 13.729 18.737 20.878 22.753 23.570 22.883 23.321 25.847 24.664 22.084 20.235 22.214 22.973 18.011 13.863 12.128 9.416 8.068 6.300 0.666 0.000 0.000 0.000 0.000 0.000 0.000 0.000 0.000 0.000 0.000 0.000 0.000 0.000 0.000 0.000 0.000 0.000 0.000 0.000 0.000 0.000 0.000 0.000 0.000 0.000 0.000 0.000 0.000 0.000 0.000 0.000 0.000 0.000 0.000 0.000 0.000 0.000
0.000 0.000 0.009 4.129 11.564 16.176 19.687 21.676 22.231 21.403 22.257 25.917 22.374 22.112 22.801 22.494 21.614 17.155 15.154 13.420 10.676 9.033 6.444 3.096 0.000 0.000 0.000 0.000 0.000 0.000 0.000 0.000 0.000 0.000 0.000 0.000 0.000 0.000 0.000 0.000 0.000 0.000 0.000 0.000 0.000 0.000 0.000 0.000 0.000 0.000 0.000 0.000 0.000 0.000 0.000 0.000 0.000 0.000 0.000 0.000 0.000
0.000 0.000 0.000 1.695 10.791 15.047 18.775 21.105 21.510 21.873 23.471 24.545 24.334 23.472 20.346 20.693 20.133 17.421 16.992 14.265 11.493 9.631 7.103 4.677 0.005 0.000 0.000 0.000 0.000 0.000 0.000 0.000 0.000 0.000 0.000 0.000 0.000 0.000 0.000 0.000 0.000 0.000 0.000 0.000 0.000 0.000 0.000 0.000 0.000 0.000 0.000 0.000 0.000 0.000 0.000 0.000 0.000 0.000 0.000 0.000 0.000
0.000 0.000 0.000 0.327 8.345 12.477 16.804 19.251 22.377 22.710 23.356 22.910 23.518 21.007 18.268 19.204 21.457 18.560 16.841 14.276 12.171 10.396 6.958 5.062 0.374 0.000 0.000 0.000 0.000 0.000 0.000 0.000 0.000 0.000 0.000 0.000 0.000 0.000 0.000 0.000 0.000 0.000 0.000 0.000 0.000 0.000 0.000 0.000 0.000 0.000 0.000 0.000 0.000 0.000 0.000 0.000 0.000 0.000 0.000 0.000 0.000
0.000 0.000 0.000 0.195 6.109 10.624 15.113 17.660 20.414 22.351 23.451 23.832 22.437 19.461 20.375 20.946 22.685 19.246 17.934 15.231 13.562 10.698 7.470 5.199 1.879 0.005 0.000 0.000 0.000 0.000 0.000 0.000 0.000 0.000 0.000 0.000 0.000 0.000 0.000 0.000 0.000 0.000 0.000 0.000 0.000 0.000 0.000 0.000 0.000 0.000 0.000 0.000 0.000 0.000 0.000 0.000 0.000 0.000 0.000 0.000 0.000
0.000 0.000 0.000 0.110 4.771 9.307 13.062 16.966 19.720 19.840 22.723 22.242 20.521 19.207 19.528 20.565 22.150 19.985 18.111 17.160 14.591 11.520 7.108 5.080 4.422 0.670 0.000 0.000 0.000 0.000 0.000 0.000 0.000 0.000 0.000 0.000 0.000 0.000 0.000 0.000 0.000 0.000 0.000 0.000 0.000 0.000 0.000 0.000 0.000 0.000 0.000 0.000 0.000 0.000 0.000 0.000 0.000 0.000 0.000 0.000 0.000
0.000 0.000 0.000 0.016 2.924 7.801 11.552 15.920 19.165 20.868 21.203 20.374 19.625 20.049 21.492 22.977 21.132 20.964 18.602 16.256 14.327 10.599 6.645 6.353 5.770 2.974 0.000 0.000 0.000 0.000 0.000 0.000 0.000 0.000 0.000 0.000 0.000 0.000 0.000 0.000 0.000 0.000 0.000 0.000 0.000 0.000 0.000 0.000 0.000 0.000 0.000 0.000 0.000 0.000 0.000 0.000 0.000 0.000 0.000 0.000 0.000
0.000 0.000 0.000 0.001 1.649 6.199 9.985 13.649 17.068 19.499 19.458 20.511 19.070 21.236 19.760 21.962 21.404 20.618 19.707 18.166 14.165 10.026 7.743 6.986 5.762 4.016 0.067 0.000 0.000 0.000 0.000 0.000 0.000 0.000 0.000 0.000 0.000 0.000 0.000 0.000 0.000 0.000 0.000 0.000 0.000 0.000 0.000 0.000 0.000 0.000 0.000 0.000 0.000 0.000 0.000 0.000 0.000 0.000 0.000 0.000 0.000
0.000 0.000 0.000 0.000 0.306 4.431 8.793 12.055 15.864 17.355 19.141 19.378 21.068 20.038 21.320 20.117 21.296 21.475 21.489 16.771 13.726 10.622 8.338 7.396 6.058 4.461 1.235 0.000 0.000 0.000 0.000 0.000 0.000 0.000 0.000 0.000 0.000 0.000 0.000 0.000 0.000 0.000 0.000 0.000 0.000 0.000 0.000 0.000 0.000 0.000 0.000 0.000 0.000 0.000 0.000 0.000 0.000 0.000 0.000 0.000 0.000
0.000 0.000 0.000 0.000 0.022 1.834 6.116 9.799 13.196 15.964 18.542 19.710 20.756 21.349 21.750 18.399 20.634 21.372 20.990 15.712 13.418 11.849 9.906 7.722 6.503 4.349 2.911 0.001 0.000 0.000 0.000 0.000 0.000 0.000 0.000 0.000 0.000 0.000 0.000 0.000 0.000 0.000 0.000 0.000 0.000 0.000 0.000 0.000 0.000 0.000 0.000 0.000 0.000 0.000 0.000 0.000 0.000 0.000 0.000 0.000 0.000
0.000 0.000 0.000 0.000 0.002 0.604 4.021 8.229 12.053 16.319 18.338 21.104 20.618 22.299 21.274 21.746 22.449 21.975 20.672 16.351 15.082 14.384 11.236 7.626 7.093 4.830 4.302 0.319 0.000 0.000 0.000 0.000 0.000 0.000 0.000 0.000 0.000 0.000 0.000 0.000 0.000 0.000 0.000 0.000 0.000 0.000 0.000 0.000 0.000 0.000 0.000 0.000 0.000 0.000 0.000 0.000 0.000 0.000 0.000 0.000 0.000
0.000 0.000 0.000 0.000 0.000 0.104 1.937 6.393 10.134 13.159 16.886 19.565 21.137 22.573 20.865 19.233 21.673 22.844 20.178 17.320 17.014 15.513 10.685 8.918 7.363 6.102 5.453 2.270 0.000 0.000 0.000 0.000 0.000 0.000 0.000 0.000 0.000 0.000 0.000 0.000 0.000 0.000 0.000 0.000 0.000 0.000 0.000 0.000 0.000 0.000 0.000 0.000 0.000 0.000 0.000 0.000 0.000 0.000 0.000 0.000 0.000
0.000 0.000 0.000 0.000 0.000 0.006 0.727 4.185 7.980 11.879 15.800 17.683 20.358 20.368 19.689 20.244 19.800 22.176 20.443 19.171 18.453 16.501 12.824 10.682 7.332 7.219 5.982 3.461 0.000 0.000 0.000 0.000 0.000 0.000 0.000 0.000 0.000 0.000 0.000 0.000 0.000 0.000 0.000 0.000 0.000 0.000 0.000 0.000 0.000 0.000 0.000 0.000 0.000 0.000 0.000 0.000 0.000 0.000 0.000 0.000 0.000
0.000 0.000 0.000 0.000 0.000 0.000 0.069 1.413 5.579 8.829 12.092 17.286 18.037 18.379 19.245 20.413 22.615 22.449 20.948 19.906 19.367 18.130 14.529 10.510 8.422 7.971 6.263 4.298 0.047 0.000 0.000 0.000 0.000 0.000 0.000 0.000 0.000 0.000 0.000 0.000 0.000 0.000 0.000 0.000 0.000 0.000 0.000 0.000 0.000 0.000 0.000 0.000 0.000 0.000 0.000 0.000 0.000 0.000 0.000 0.000 0.000
0.000 0.000 0.000 0.000 0.000 0.000 0.002 0.291 2.553 6.938 10.685 13.939 16.978 18.985 19.945 21.508 19.630 20.582 20.908 19.285 19.249 18.031 13.654 10.508 10.729 8.410 6.583 5.139 1.172 0.000 0.000 0.000 0.000 0.000 0.000 0.000 0.000 0.000 0.000 0.000 0.000 0.000 0.000 0.000 0.000 0.000 0.000 0.000 0.000 0.000 0.000 0.000 0.000 0.000 0.000 0.000 0.000 0.000 0.000 0.000 0.000
0.000 0.000 0.000 0.000 0.000 0.000 0.000 0.018 0.865 4.430 8.122 12.382 15.320 17.353 18.769 18.621 16.762 21.220 19.188 18.666 19.659 18.885 14.566 13.790 11.605 8.050 6.332 6.052 3.438 0.000 0.000 0.000 0.000 0.000 0.000 0.000 0.000 0.000 0.000 0.000 0.000 0.000 0.000 0.000 0.000 0.000 0.000 0.000 0.000 0.000 0.000 0.000 0.000 0.000 0.000 0.000 0.000 0.000 0.000 0.000 0.000
0.000 0.000 0.000 0.000 0.000 0.000 0.000 0.000 0.049 1.369 4.874 8.142 12.311 16.438 17.823 16.485 18.265 21.846 21.080 19.345 20.221 18.154 15.437 15.668 10.527 7.509 7.327 6.556 4.574 0.104 0.000 0.000 0.000 0.000 0.000 0.000 0.000 0.000 0.000 0.000 0.000 0.000 0.000 0.000 0.000 0.000 0.000 0.000 0.000 0.000 0.000 0.000 0.000 0.000 0.000 0.000 0.000 0.000 0.000 0.000 0.000
0.000 0.000 0.000 0.000 0.000 0.000 0.000 0.000 0.000 0.118 2.486 5.599 9.137 12.791 15.368 18.231 19.664 19.222 20.559 20.416 19.370 18.009 16.569 15.057 10.959 8.705 8.318 6.604 4.866 1.079 0.001 0.000 0.000 0.000 0.000 0.000 0.000 0.000 0.000 0.000 0.000 0.000 0.000 0.000 0.000 0.000 0.000 0.000 0.000 0.000 0.000 0.000 0.000 0.000 0.000 0.000 0.000 0.000 0.000 0.000 0.000
0.000 0.000 0.000 0.000 0.000 0.000 0.000 0.000 0.000 0.000 0.304 3.160 6.404 9.749 13.604 16.422 17.982 18.523 20.333 19.574 17.859 17.555 17.352 16.342 13.178 10.723 8.336 6.740 4.765 3.198 0.360 0.000 0.000 0.000 0.000 0.000 0.000 0.000 0.000 0.000 0.000 0.000 0.000 0.000 0.000 0.000 0.000 0.000 0.000 0.000 0.000 0.000 0.000 0.000 0.000 0.000 0.000 0.000 0.000 0.000 0.000
0.000 0.000 0.000 0.000 0.000 0.000 0.000 0.000 0.000 0.000 0.007 1.009 3.881 6.923 10.828 14.031 15.961 17.378 18.545 19.641 21.025 17.486 18.716 18.036 15.670 11.093 8.268 6.232 4.878 4.604 2.300 0.000 0.000 0.000 0.000 0.000 0.000 0.000 0.000 0.000 0.000 0.000 0.000 0.000 0.000 0.000 0.000 0.000 0.000 0.000 0.000 0.000 0.000 0.000 0.000 0.000 0.000 0.000 0.000 0.000 0.000
0.000 0.000 0.000 0.000 0.000 0.000 0.000 0.000 0.000 0.000 0.000 0.101 2.489 5.333 8.645 12.769 14.963 16.805 18.350 20.209 19.891 17.641 19.327 19.531 15.745 11.943 8.371 6.216 5.760 5.365 3.529 0.004 0.000 0.000 0.000 0.000 0.000 0.000 0.000 0.000 0.000 0.000 0.000 0.000 0.000 0.000 0.000 0.000 0.000 0.000 0.000 0.000 0.000 0.000 0.000 0.000 0.000 0.000 0.000 0.000 0.000
0.000 0.000 0.000 0.000 0.000 0.000 0.000 0.000 0.000 0.000 0.000 0.009 0.937 4.009 6.661 10.687 13.787 17.999 19.507 19.374 19.288 18.842 20.391 18.609 15.099 12.230 8.937 7.069 6.374 5.525 3.872 0.384 0.000 0.000 0.000 0.000 0.000 0.000 0.000 0.000 0.000 0.000 0.000 0.000 0.000 0.000 0.000 0.000 0.000 0.000 0.000 0.000 0.000 0.000 0.000 0.000 0.000 0.000 0.000 0.000 0.000
0.000 0.000 0.000 0.000 0.000 0.000 0.000 0.000 0.000 0.000 0.000 0.000 0.195 2.480 5.543 9.354 12.924 15.418 18.172 17.982 19.319 18.955 16.931 17.972 15.077 13.289 10.292 7.548 7.043 6.026 4.645 2.228 0.000 0.000 0.000 0.000 0.000 0.000 0.000 0.000 0.000 0.000 0.000 0.000 0.000 0.000 0.000 0.000 0.000 0.000 0.000 0.000 0.000 0.000 0.000 0.000 0.000 0.000 0.000 0.000 0.000
0.000 0.000 0.000 0.000 0.000 0.000 0.000 0.000 0.000 0.000 0.000 0.000 0.011 1.179 4.160 8.036 11.660 14.637 16.263 18.108 18.560 17.845 17.907 16.893 16.384 13.871 11.038 8.712 7.771 6.967 5.779 3.312 0.000 0.000 0.000 0.000 0.000 0.000 0.000 0.000 0.000 0.000 0.000 0.000 0.000 0.000 0.000 0.000 0.000 0.000 0.000 0.000 0.000 0.000 0.000 0.000 0.000 0.000 0.000 0.000 0.000
0.000 0.000 0.000 0.000 0.000 0.000 0.000 0.000 0.000 0.000 0.000 0.000 0.001 0.272 2.494 6.447 10.394 12.834 15.863 18.961 19.192 18.689 18.172 15.822 15.186 14.831 13.801 9.217 8.155 7.652 6.493 4.198 0.000 0.000 0.000 0.000 0.000 0.000 0.000 0.000 0.000 0.000 0.000 0.000 0.000 0.000 0.000 0.000 0.000 0.000 0.000 0.000 0.000 0.000 0.000 0.000 0.000 0.000 0.000 0.000 0.000
0.000 0.000 0.000 0.000 0.000 0.000 0.000 0.000 0.000 0.000 0.000 0.000 0.000 0.039 1.133 4.678 9.282 11.890 14.646 17.932 20.644 21.937 18.128 15.271 14.198 15.408 12.615 10.059 8.703 8.350 7.101 5.218 0.046 0.000 0.000 0.000 0.000 0.000 0.000 0.000 0.000 0.000 0.000 0.000 0.000 0.000 0.000 0.000 0.000 0.000 0.000 0.000 0.000 0.000 0.000 0.000 0.000 0.000 0.000 0.000 0.000
0.000 0.000 0.000 0.000 0.000 0.000 0.000 0.000 0.000 0.000 0.000 0.000 0.000 0.000 0.158 2.268 8.128 10.360 13.223 16.484 20.079 22.301 21.940 19.207 17.841 15.776 12.690 12.425 8.981 8.541 8.266 6.117 1.179 0.000 0.000 0.000 0.000 0.000 0.000 0.000 0.000 0.000 0.000 0.000 0.000 0.000 0.000 0.000 0.000 0.000 0.000 0.000 0.000 0.000 0.000 0.000 0.000 0.000 0.000 0.000 0.000
0.000 0.000 0.000 0.000 0.000 0.000 0.000 0.000 0.000 0.000 0.000 0.000 0.000 0.000 0.010 1.239 7.077 10.106 11.973 15.374 18.854 20.913 21.643 21.388 21.634 19.471 16.269 12.493 9.906 9.495 8.361 7.241 3.154 0.000 0.000 0.000 0.000 0.000 0.000 0.000 0.000 0.000 0.000 0.000 0.000 0.000 0.000 0.000 0.000 0.000 0.000 0.000 0.000 0.000 0.000 0.000 0.000 0.000 0.000 0.000 0.000
0.000 0.000 0.000 0.000 0.000 0.000 0.000 0.000 0.000 0.000 0.000 0.000 0.000 0.000 0.004 0.855 5.609 8.993 11.119 13.912 16.685 18.751 21.425 22.751 21.499 19.595 17.931 14.053 10.365 9.717 7.974 7.860 4.578 0.000 0.000 0.000 0.000 0.000 0.000 0.000 0.000 0.000 0.000 0.000 0.000 0.000 0.000 0.000 0.000 0.000 0.000 0.000 0.000 0.000 0.000 0.000 0.000 0.000 0.000 0.000 0.000
0.000 0.000 0.000 0.000 0.000 0.000 0.000 0.000 0.000 0.000 0.000 0.000 0.000 0.000 0.001 0.479 4.514 7.927 10.030 12.521 15.511 18.006 20.323 21.391 20.708 19.901 18.767 14.873 11.236 9.036 8.631 8.086 6.687 0.000 0.000 0.000 0.000 0.000 0.000 0.000 0.000 0.000 0.000 0.000 0.000 0.000 0.000 0.000 0.000 0.000 0.000 0.000 0.000 0.000 0.000 0.000 0.000 0.000 0.000 0.000 0.000
0.000 0.000 0.000 0.000 0.000 0.000 0.000 0.000 0.000 0.000 0.000 0.000 0.000 0.000 0.000 0.060 3.394 6.957 9.220 10.735 13.487 17.303 19.768 19.892 20.563 21.458 19.366 16.804 13.255 9.544 7.269 8.134 8.245 0.000 0.000 0.000 0.000 0.000 0.000 0.000 0.000 0.000 0.000 0.000 0.000 0.000 0.000 0.000 0.000 0.000 0.000 0.000 0.000 0.000 0.000 0.000 0.000 0.000 0.000 0.000 0.000
0.000 0.000 0.000 0.000 0.000 0.000 0.000 0.000 0.000 0.000 0.000 0.000 0.000 0.000 0.000 0.012 1.493 5.939 8.170 9.486 12.429 16.157 18.441 20.071 19.297 19.924 17.926 17.585 12.498 8.902 9.331 9.765 8.010 0.005 0.000 0.000 0.000 0.000 0.000 0.000 0.000 0.000 0.000 0.000 0.000 0.000 0.000 0.000 0.000 0.000 0.000 0.000 0.000 0.000 0.000 0.000 0.000 0.000 0.000 0.000 0.000
0.000 0.000 0.000 0.000 0.000 0.000 0.000 0.000 0.000 0.000 0.000 0.000 0.000 0.000 0.000 0.000 0.163 4.476 7.438 8.317 11.054 14.646 18.179 18.499 19.574 20.255 19.216 17.143 12.857 9.116 9.010 9.337 7.804 0.686 0.000 0.000 0.000 0.000 0.000 0.000 0.000 0.000 0.000 0.000 0.000 0.000 0.000 0.000 0.000 0.000 0.000 0.000 0.000 0.000 0.000 0.000 0.000 0.000 0.000 0.000 0.000
0.000 0.000 0.000 0.000 0.000 0.000 0.000 0.000 0.000 0.000 0.000 0.000 0.000 0.000 0.000 0.000 0.000 2.508 6.770 7.979 9.744 12.612 15.432 17.275 19.232 18.195 18.242 16.428 13.633 8.971 7.602 8.737 7.979 3.449 0.000 0.000 0.000 0.000 0.000 0.000 0.000 0.000 0.000 0.000 0.000 0.000 0.000 0.000 0.000 0.000 0.000 0.000 0.000 0.000 0.000 0.000 0.000 0.000 0.000 0.000 0.000
0.000 0.000 0.000 0.000 0.000 0.000 0.000 0.000 0.000 0.000 0.000 0.000 0.000 0.000 0.000 0.000 0.002 1.403 5.872 7.393 8.098 10.074 12.985 17.571 17.114 19.111 18.523 16.180 13.579 9.064 8.445 8.179 7.810 5.037 0.129 0.000 0.000 0.000 0.000 0.000 0.000 0.000 0.000 0.000 0.000 0.000 0.000 0.000 0.000 0.000 0.000 0.000 0.000 0.000 0.000 0.000 0.000 0.000 0.000 0.000 0.000
0.000 0.000 0.000 0.000 0.000 0.000 0.000 0.000 0.000 0.000 0.000 0.000 0.000 0.000 0.000 0.000 0.003 0.517 4.742 7.008 7.369 8.704 11.841 15.538 17.152 17.351 18.056 16.672 12.166 9.543 8.574 7.833 8.003 5.523 1.981 0.077 0.000 0.000 0.000 0.000 0.000 0.000 0.000 0.000 0.000 0.000 0.000 0.000 0.000 0.000 0.000 0.000 0.000 0.000 0.000 0.000 0.000 0.000 0.000 0.000 0.000
0.000 0.000 0.000 0.000 0.000 0.000 0.000 0.000 0.000 0.000 0.000 0.000 0.000 0.000 0.000 0.000 0.000 0.083 2.814 6.347 6.438 6.817 9.180 12.567 15.634 16.907 17.490 15.200 12.249 10.254 10.286 7.668 7.931 6.001 4.150 1.632 0.011 0.000 0.000 0.000 0.000 0.000 0.000 0.000 0.000 0.000 0.000 0.000 0.000 0.000 0.000 0.000 0.000 0.000 0.000 0.000 0.000 0.000 0.000 0.000 0.000
0.000 0.000 0.000 0.000 0.000 0.000 0.000 0.000 0.000 0.000 0.000 0.000 0.000 0.000 0.000 0.000 0.000 0.006 0.652 5.687 6.350 6.243 7.555 10.757 14.610 16.434 16.257 14.290 11.152 12.280 10.359 7.866 8.304 6.007 5.291 3.907 0.694 0.000 0.000 0.000 0.000 0.000 0.000 0.000 0.000 0.000 0.000 0.000 0.000 0.000 0.000 0.000 0.000 0.000 0.000 0.000 0.000 0.000 0.000 0.000 0.000
0.000 0.000 0.000 0.000 0.000 0.000 0.000 0.000 0.000 0.000 0.000 0.000 0.000 0.000 0.000 0.000 0.000 0.000 0.002 4.492 6.035 5.911 6.392 8.259 12.056 13.786 14.661 12.797 12.101 14.109 11.303 8.509 6.912 5.844 6.695 5.563 2.783 0.000 0.000 0.000 0.000 0.000 0.000 0.000 0.000 0.000 0.000 0.000 0.000 0.000 0.000 0.000 0.000 0.000 0.000 0.000 0.000 0.000 0.000 0.000 0.000
0.000 0.000 0.000 0.000 0.000 0.000 0.000 0.000 0.000 0.000 0.000 0.000 0.000 0.000 0.000 0.000 0.000 0.000 0.002 3.406 5.527 6.017 5.428 5.780 9.019 13.190 13.393 13.123 14.927 14.912 12.354 8.926 6.895 6.657 7.490 5.969 4.251 0.016 0.000 0.000 0.000 0.000 0.000 0.000 0.000 0.000 0.000 0.000 0.000 0.000 0.000 0.000 0.000 0.000 0.000 0.000 0.000 0.000 0.000 0.000 0.000
0.000 0.000 0.000 0.000 0.000 0.000 0.000 0.000 0.000 0.000 0.000 0.000 0.000 0.000 0.000 0.000 0.000 0.000 0.003 2.633 4.684 5.617 5.070 5.151 7.326 12.792 14.121 14.806 15.256 15.454 12.647 8.736 7.167 7.393 7.008 6.216 4.601 0.315 0.000 0.000 0.000 0.000 0.000 0.000 0.000 0.000 0.000 0.000 0.000 0.000 0.000 0.000 0.000 0.000 0.000 0.000 0.000 0.000 0.000 0.000 0.000
0.000 0.000 0.000 0.000 0.000 0.000 0.000 0.000 0.000 0.000 0.000 0.000 0.000 0.000 0.000 0.000 0.000 0.000 0.053 1.611 3.814 4.888 4.923 4.583 4.822 10.872 13.220 14.217 13.584 15.206 11.738 9.388 7.775 7.151 6.478 6.583 4.695 2.032 0.000 0.000 0.000 0.000 0.000 0.000 0.000 0.000 0.000 0.000 0.000 0.000 0.000 0.000 0.000 0.000 0.000 0.000 0.000 0.000 0.000 0.000 0.000
0.000 0.000 0.000 0.000 0.000 0.000 0.000 0.000 0.000 0.000 0.000 0.000 0.000 0.000 0.000 0.000 0.000 0.000 0.025 1.054 2.912 4.026 4.204 4.518 3.962 7.903 12.456 13.516 13.242 14.550 12.570 10.467 7.922 6.422 7.452 6.712 5.967 3.792 0.053 0.000 0.000 0.000 0.000 0.000 0.000 0.000 0.000 0.000 0.000 0.000 0.000 0.000 0.000 0.000 0.000 0.000 0.000 0.000 0.000 0.000 0.000
0.000 0.000 0.000 0.000 0.000 0.000 0.000 0.000 0.000 0.000 0.000 0.000 0.000 0.000 0.000 0.000 0.000 0.000 0.000 0.000 2.050 3.337 4.500 4.619 3.820 4.585 11.574 12.190 13.575 13.964 13.332 11.569 8.309 7.325 8.586 8.038 6.986 4.677 1.312 0.000 0.000 0.000 0.000 0.000 0.000 0.000 0.000 0.000 0.000 0.000 0.000 0.000 0.000 0.000 0.000 0.000 0.000 0.000 0.000 0.000 0.000
0.000 0.000 0.000 0.000 0.000 0.000 0.000 0.000 0.000 0.000 0.000 0.000 0.000 0.000 0.000 0.000 0.000 0.000 0.000 0.000 1.541 3.532 4.276 4.243 3.860 3.046 10.240 11.440 12.883 14.331 14.152 12.598 8.729 7.985 8.562 7.848 7.302 5.802 2.793 0.084 0.000 0.000 0.000 0.000 0.000 0.000 0.000 0.000 0.000 0.000 0.000 0.000 0.000 0.000 0.000 0.000 0.000 0.000 0.000 0.000 0.000
0.000 0.000 0.000 0.000 0.000 0.000 0.000 0.000 0.000 0.000 0.000 0.000 0.000 0.000 0.000 0.000 0.000 0.000 0.000 0.000 0.471 3.090 3.642 4.162 4.045 3.888 8.782 11.462 12.883 14.937 14.833 13.604 9.676 8.491 8.464 7.918 7.597 6.033 3.975 1.185 0.001 0.000 0.000 0.000 0.000 0.000 0.000 0.000 0.000 0.000 0.000 0.000 0.000 0.000 0.000 0.000 0.000 0.000 0.000 0.000 0.000
0.000 0.000 0.000 0.000 0.000 0.000 0.000 0.000 0.000 0.000 0.000 0.000 0.000 0.000 0.000 0.000 0.000 0.000 0.000 0.000 0.117 2.294 3.430 4.088 4.206 4.634 8.598 11.899 13.478 14.818 15.898 14.307 11.700 8.725 7.876 7.211 6.761 6.117 4.791 2.305 0.186 0.004 0.000 0.000 0.000 0.000 0.000 0.000 0.000 0.000 0.000 0.000 0.000 0.000 0.000 0.000 0.000 0.000 0.000 0.000 0.000
0.000 0.000 0.000 0.000 0.000 0.000 0.000 0.000 0.000 0.000 0.000 0.000 0.000 0.000 0.000 0.000 0.000 0.000 0.000 0.000 0.146 1.565 3.055 3.893 3.989 4.601 8.801 12.041 14.795 16.988 16.810 14.894 12.689 7.487 6.840 7.052 7.059 7.309 5.188 3.012 1.802 0.653 0.000 0.000 0.000 0.000 0.000 0.000 0.000 0.000 0.000 0.000 0.000 0.000 0.000 0.000 0.000 0.000 0.000 0.000 0.000
0.000 0.000 0.000 0.000 0.000 0.000 0.000 0.000 0.000 0.000 0.000 0.000 0.000 0.000 0.000 0.000 0.000 0.000 0.000 0.000 0.003 1.334 3.082 3.609 3.640 4.414 7.028 11.025 13.658 15.086 15.139 14.631 13.057 7.529 6.710 6.749 7.771 7.476 4.922 4.100 3.550 3.201 0.152 0.000 0.000 0.000 0.000 0.000 0.000 0.000 0.000 0.000 0.000 0.000 0.000 0.000 0.000 0.000 0.000 0.000 0.000
0.000 0.000 0.000 0.000 0.000 0.000 0.000 0.000 0.000 0.000 0.000 0.000 0.000 0.000 0.000 0.000 0.000 0.000 0.000 0.000 0.047 0.857 2.925 3.147 3.688 4.618 6.540 9.637 14.154 14.805 13.124 15.573 12.278 8.405 6.670 7.258 7.738 6.629 5.613 5.946 4.685 4.786 1.189 0.000 0.000 0.000 0.000 0.000 0.000 0.000 0.000 0.000 0.000 0.000 0.000 0.000 0.000 0.000 0.000 0.000 0.000
0.000 0.000 0.000 0.000 0.000 0.000 0.000 0.000 0.000 0.000 0.000 0.000 0.000 0.000 0.000 0.000 0.000 0.000 0.000 0.000 0.000 0.285 1.963 2.630 3.586 3.963 5.534 6.981 10.744 13.430 14.020 14.071 12.509 9.246 6.427 7.201 7.190 7.468 7.475 7.664 4.962 3.959 1.442 0.001 0.000 0.000 0.000 0.000 0.000 0.000 0.000 0.000 0.000 0.000 0.000 0.000 0.000 0.000 0.000 0.000 0.000
0.000 0.000 0.000 0.000 0.000 0.000 0.000 0.000 0.000 0.000 0.000 0.000 0.000 0.000 0.000 0.000 0.000 0.000 0.000 0.000 0.000 0.053 1.503 2.439 3.206 3.430 4.490 5.308 6.778 10.851 12.309 13.324 12.860 10.126 6.658 6.765 7.407 7.919 8.364 8.238 5.232 2.072 3.197 0.257 0.000 0.000 0.000 0.000 0.000 0.000 0.000 0.000 0.000 0.000 0.000 0.000 0.000 0.000 0.000 0.000 0.000
0.000 0.000 0.000 0.000 0.000 0.000 0.000 0.000 0.000 0.000 0.000 0.000 0.000 0.000 0.000 0.000 0.000 0.000 0.000 0.000 0.000 0.089 1.767 3.362 3.320 3.500 3.380 3.753 4.424 9.295 12.429 13.596 13.336 10.766 7.533 6.581 7.454 7.547 8.649 7.015 5.411 1.938 3.856 1.249 0.000 0.000 0.000 0.000 0.000 0.000 0.000 0.000 0.000 0.000 0.000 0.000 0.000 0.000 0.000 0.000 0.000
0.000 0.000 0.000 0.000 0.000 0.000 0.000 0.000 0.000 0.000 0.000 0.000 0.000 0.000 0.000 0.000 0.000 0.000 0.000 0.000 0.000 0.302 2.458 3.369 3.574 3.475 3.649 3.823 4.083 5.656 11.824 13.339 14.161 11.340 8.386 6.998 7.142 8.094 9.319 7.479 6.244 4.068 3.926 1.926 0.004 0.000 0.000 0.000 0.000 0.000 0.000 0.000 0.000 0.000 0.000 0.000 0.000 0.000 0.000 0.000 0.000
0.000 0.000 0.000 0.000 0.000 0.000 0.000 0.000 0.000 0.000 0.000 0.000 0.000 0.000 0.000 0.000 0.000 0.000 0.000 0.000 0.001 1.056 2.725 3.071 3.714 3.683 3.904 4.240 4.522 4.737 11.118 14.127 13.306 11.868 9.650 7.664 6.749 7.652 7.823 8.459 6.745 5.044 3.926 2.934 0.299 0.000 0.000 0.000 0.000 0.000 0.000 0.000 0.000 0.000 0.000 0.000 0.000 0.000 0.000 0.000 0.000
0.000 0.000 0.000 0.000 0.000 0.000 0.000 0.000 0.000 0.000 0.000 0.000 0.000 0.000 0.000 0.000 0.000 0.000 0.000 0.000 0.000 0.311 2.603 3.406 3.573 3.147 4.026 4.897 4.442 5.040 9.106 14.488 14.074 12.050 10.612 8.866 7.083 7.316 7.326 8.207 6.378 5.907 4.470 3.626 1.679 0.007 0.000 0.000 0.000 0.000 0.000 0.000 0.000 0.000 0.000 0.000 0.000 0.000 0.000 0.000 0.000
0.000 0.000 0.000 0.000 0.000 0.000 0.000 0.000 0.000 0.000 0.000 0.000 0.000 0.000 0.000 0.000 0.000 0.000 0.000 0.000 0.000 0.279 2.636 3.339 3.207 2.818 3.845 5.084 4.216 5.092 8.465 14.504 16.150 14.450 11.567 10.057 7.341 7.381 7.881 7.997 6.871 6.229 4.936 4.067 2.972 0.415 0.000 0.000 0.000 0.000 0.000 0.000 0.000 0.000 0.000 0.000 0.000 0.000 0.000 0.000 0.000
0.000 0.000 0.000 0.000 0.000 0.000 0.000 0.000 0.000 0.000 0.000 0.000 0.000 0.000 0.000 0.000 0.000 0.000 0.000 0.000 0.000 0.024 2.270 3.406 3.556 3.528 3.732 4.666 4.554 5.055 8.367 13.440 16.281 15.915 13.230 10.693 8.343 7.174 7.263 6.812 7.275 6.928 5.649 4.779 3.417 1.218 0.000 0.000 0.000 0.000 0.000 0.000 0.000 0.000 0.000 0.000 0.000 0.000 0.000 0.000 0.000
0.000 0.000 0.000 0.000 0.000 0.000 0.000 0.000 0.000 0.000 0.000 0.000 0.000 0.000 0.000 0.000 0.000 0.000 0.000 0.000 0.000 0.117 1.892 3.159 3.587 3.825 3.545 4.055 4.755 5.294 8.298 13.425 16.307 16.777 15.530 11.260 8.319 6.841 7.170 7.277 7.512 7.548 6.551 5.312 3.800 2.716 0.198 0.000 0.000 0.000 0.000 0.000 0.000 0.000 0.000 0.000 0.000 0.000 0.000 0.000 0.000
0.000 0.000 0.000 0.000 0.000 0.000 0.000 0.000 0.000 0.000 0.000 0.000 0.000 0.000 0.000 0.000 0.000 0.000 0.000 0.000 0.000 0.050 1.859 2.746 3.399 3.414 3.476 4.012 4.696 5.597 7.758 12.988 16.812 16.567 14.477 10.931 7.398 7.126 6.977 7.487 8.060 7.744 7.426 5.814 5.202 4.006 1.770 0.000 0.000 0.000 0.000 0.000 0.000 0.000 0.000 0.000 0.000 0.000 0.000 0.000 0.000
0.000 0.000 0.000 0.000 0.000 0.000 0.000 0.000 0.000 0.000 0.000 0.000 0.000 0.000 0.000 0.000 0.000 0.000 0.000 0.000 0.002 0.315 1.856 2.893 3.142 3.004 3.134 3.758 4.546 5.605 7.315 11.325 16.387 16.710 16.069 13.210 8.574 7.759 7.194 7.842 8.282 8.749 7.597 7.295 6.283 4.532 3.022 0.049 0.000 0.000 0.000 0.000 0.000 0.000 0.000 0.000 0.000 0.000 0.000 0.000 0.000
0.000 0.000 0.000 0.000 0.000 0.000 0.000 0.000 0.000 0.000 0.000 0.000 0.000 0.000 0.000 0.000 0.000 0.000 0.000 0.000 0.001 0.151 1.712 2.930 2.891 3.095 3.257 3.893 4.717 5.414 6.594 9.420 14.373 16.618 15.390 12.962 9.738 7.859 7.887 8.267 8.595 8.485 8.270 8.235 6.392 4.680 3.903 0.959 0.000 0.000 0.000 0.000 0.000 0.000 0.000 0.000 0.000 0.000 0.000 0.000 0.000
0.000 0.000 0.000 0.000 0.000 0.000 0.000 0.000 0.000 0.000 0.000 0.000 0.000 0.000 0.000 0.000 0.000 0.000 0.000 0.000 0.000 0.076 1.267 3.089 2.967 3.092 3.221 3.756 4.521 5.133 6.460 8.616 14.616 16.404 14.560 13.167 8.572 8.195 8.493 8.292 8.101 8.216 8.737 8.265 5.938 5.501 4.459 2.237 0.024 0.000 0.000 0.000 0.000 0.000 0.000 0.000 0.000 0.000 0.000 0.000 0.000
0.000 0.000 0.000 0.000 0.000 0.000 0.000 0.000 0.000 0.000 0.000 0.000 0.000 0.000 0.000 0.000 0.000 0.000 0.000 0.000 0.000 0.000 0.157 2.545 3.091 2.958 3.032 3.426 4.145 5.097 6.758 8.695 14.411 14.629 15.542 12.263 8.830 8.191 6.778 6.772 7.167 8.354 9.179 7.548 6.230 6.198 4.974 2.914 0.933 0.012 0.000 0.000 0.000 0.000 0.000 0.000 0.000 0.000 0.000 0.000 0.000
0.000 0.000 0.000 0.000 0.000 0.000 0.000 0.000 0.000 0.000 0.000 0.000 0.000 0.000 0.000 0.000 0.000 0.000 0.000 0.000 0.000 0.000 0.295 1.752 3.131 3.084 3.272 3.705 3.731 5.616 6.617 7.960 11.885 15.185 13.922 12.002 9.482 6.983 6.085 6.637 7.642 8.878 7.964 7.522 7.605 6.974 4.973 4.197 2.765 0.769 0.000 0.000 0.000 0.000 0.000 0.000 0.000 0.000 0.000 0.000 0.000
0.000 0.000 0.000 0.000 0.000 0.000 0.000 0.000 0.000 0.000 0.000 0.000 0.000 0.000 0.000 0.000 0.000 0.000 0.000 0.000 0.000 0.000 0.429 2.156 3.383 3.501 3.155 3.338 4.586 5.212 6.250 7.007 12.001 14.298 14.067 13.580 10.149 7.976 7.215 7.347 8.143 8.188 7.733 8.491 7.627 6.142 5.535 4.760 3.747 3.130 0.000 0.000 0.000 0.000 0.000 0.000 0.000 0.000 0.000 0.000 0.000
0.000 0.000 0.000 0.000 0.000 0.000 0.000 0.000 0.000 0.000 0.000 0.000 0.000 0.000 0.000 0.000 0.000 0.000 0.000 0.000 0.000 0.002 0.687 2.315 3.395 3.709 2.752 3.461 4.133 2.639 4.800 6.897 10.417 13.700 15.057 13.914 10.495 8.277 7.867 8.126 7.622 8.201 8.442 7.957 7.404 6.119 5.776 4.660 4.893 4.004 0.000 0.000 0.000 0.000 0.000 0.000 0.000 0.000 0.000 0.000 0.000
0.000 0.000 0.000 0.000 0.000 0.000 0.000 0.000 0.000 0.000 0.000 0.000 0.000 0.000 0.000 0.000 0.000 0.000 0.000 0.000 0.000 0.001 0.145 1.364 2.941 3.825 2.996 2.976 3.041 2.463 4.276 6.755 10.002 13.853 15.088 14.372 11.455 8.706 8.805 8.060 7.723 8.400 7.889 7.325 7.171 6.342 6.098 5.901 5.595 4.596 0.000 0.000 0.000 0.000 0.000 0.000 0.000 0.000 0.000 0.000 0.000
0.000 0.000 0.000 0.000 0.000 0.000 0.000 0.000 0.000 0.000 0.000 0.000 0.000 0.000 0.000 0.000 0.000 0.000 0.000 0.000 0.000 0.000 0.055 0.800 2.597 3.943 3.317 2.752 2.804 2.889 4.978 6.761 9.727 13.055 14.445 13.867 10.280 9.214 8.893 7.277 7.699 7.505 6.072 6.845 7.269 7.379 7.021 6.299 5.464 5.189 0.009 0.000 0.000 0.000 0.000 0.000 0.000 0.000 0.000 0.000 0.000
0.000 0.000 0.000 0.000 0.000 0.000 0.000 0.000 0.000 0.000 0.000 0.000 0.000 0.000 0.000 0.000 0.000 0.000 0.000 0.000 0.000 0.000 0.000 0.076 1.184 3.716 3.436 2.605 2.584 3.744 5.276 7.074 9.585 12.813 14.267 12.697 10.489 9.714 8.682 7.964 7.728 6.893 6.098 6.632 7.683 7.791 7.095 6.308 5.850 5.278 0.418 0.000 0.000 0.000 0.000 0.000 0.000 0.000 0.000 0.000 0.000
0.000 0.000 0.000 0.000 0.000 0.000 0.000 0.000 0.000 0.000 0.000 0.000 0.000 0.000 0.000 0.000 0.000 0.000 0.000 0.000 0.000 0.000 0.000 0.000 1.437 2.756 3.196 2.055 2.803 3.688 4.878 6.707 8.853 10.894 13.423 12.484 11.817 10.534 8.685 7.776 7.061 6.370 6.364 7.107 7.820 7.595 7.147 6.383 5.887 5.168 1.293 0.000 0.000 0.000 0.000 0.000 0.000 0.000 0.000 0.000 0.000
0.000 0.000 0.000 0.000 0.000 0.000 0.000 0.000 0.000 0.000 0.000 0.000 0.000 0.000 0.000 0.000 0.000 0.000 0.000 0.000 0.000 0.000 0.000 0.000 0.001 2.352 2.432 2.388 3.144 3.418 4.363 6.019 8.331 9.593 13.180 12.542 12.764 10.165 8.796 8.191 7.534 7.231 6.461 6.879 7.394 7.613 7.605 7.082 5.327 4.366 1.251 0.000 0.000 0.000 0.000 0.000 0.000 0.000 0.000 0.000 0.000
0.000 0.000 0.000 0.000 0.000 0.000 0.000 0.000 0.000 0.000 0.000 0.000 0.000 0.000 0.000 0.000 0.000 0.000 0.000 0.000 0.000 0.000 0.000 0.000 0.000 1.151 2.610 2.830 3.157 3.415 3.773 5.395 7.310 9.505 11.350 13.217 12.685 10.842 9.109 8.573 7.393 6.445 5.684 5.837 6.187 7.252 7.156 6.404 3.520 3.178 0.616 0.000 0.000 0.000 0.000 0.000 0.000 0.000 0.000 0.000 0.000
0.000 0.000 0.000 0.000 0.000 0.000 0.000 0.000 0.000 0.000 0.000 0.000 0.000 0.000 0.000 0.000 0.000 0.000 0.000 0.000 0.000 0.000 0.000 0.000 0.000 0.848 2.284 2.929 3.183 3.258 3.215 4.951 7.064 9.200 11.018 12.289 12.974 10.652 9.271 8.194 6.262 5.631 4.905 4.987 5.681 6.564 6.321 5.412 4.243 3.735 1.769 0.000 0.000 0.000 0.000 0.000 0.000 0.000 0.000 0.000 0.000
0.000 0.000 0.000 0.000 0.000 0.000 0.000 0.000 0.000 0.000 0.000 0.000 0.000 0.000 0.000 0.000 0.000 0.000 0.000 0.000 0.000 0.000 0.000 0.000 0.004 0.477 1.699 2.503 3.068 2.828 3.103 4.233 6.469 8.293 9.611 11.799 11.653 10.295 8.979 6.826 4.842 5.025 4.860 4.546 5.217 5.409 5.640 5.873 5.153 3.910 3.381 0.001 0.000 0.000 0.000 0.000 0.000 0.000 0.000 0.000 0.000
0.000 0.000 0.000 0.000 0.000 0.000 0.000 0.000 0.000 0.000 0.000 0.000 0.000 0.000 0.000 0.000 0.000 0.000 0.000 0.000 0.000 0.000 0.000 0.000 0.000 0.070 0.969 1.948 2.682 2.680 2.900 3.480 5.321 6.847 8.373 10.429 11.003 9.589 8.127 6.004 5.309 5.877 4.705 4.521 4.650 4.307 5.376 5.953 4.687 4.016 3.610 0.084 0.000 0.000 0.000 0.000 0.000 0.000 0.000 0.000 0.000
0.000 0.000 0.000 0.000 0.000 0.000 0.000 0.000 0.000 0.000 0.000 0.000 0.000 0.000 0.000 0.000 0.000 0.000 0.000 0.000 0.000 0.000 0.000 0.000 0.000 0.003 0.288 1.326 2.455 2.518 2.631 3.146 4.458 6.301 7.728 8.963 10.041 9.664 8.161 6.605 6.331 5.727 4.925 4.702 4.335 4.551 5.526 5.444 4.855 4.155 3.093 0.955 0.000 0.000 0.000 0.000 0.000 0.000 0.000 0.000 0.000
0.000 0.000 0.000 0.000 0.000 0.000 0.000 0.000 0.000 0.000 0.000 0.000 0.000 0.000 0.000 0.000 0.000 0.000 0.000 0.000 0.000 0.000 0.000 0.000 0.000 0.000 0.009 0.687 2.139 2.366 2.470 2.970 3.455 5.127 6.313 7.118 8.817 8.757 7.856 7.006 6.946 5.887 5.623 4.745 4.638 4.623 4.743 5.443 4.983 4.133 3.052 2.464 0.001 0.000 0.000 0.000 0.000 0.000 0.000 0.000 0.000
0.000 0.000 0.000 0.000 0.000 0.000 0.000 0.000 0.000 0.000 0.000 0.000 0.000 0.000 0.000 0.000 0.000 0.000 0.000 0.000 0.000 0.000 0.000 0.000 0.000 0.000 0.002 0.583 1.753 2.172 2.436 2.737 3.141 4.017 5.235 6.688 8.111 8.188 8.075 7.365 6.216 6.380 5.697 4.981 4.467 3.840 3.603 4.888 4.915 4.349 2.888 2.631 0.026 0.000 0.000 0.000 0.000 0.000 0.000 0.000 0.000
0.000 0.000 0.000 0.000 0.000 0.000 0.000 0.000 0.000 0.000 0.000 0.000 0.000 0.000 0.000 0.000 0.000 0.000 0.000 0.000 0.000 0.000 0.000 0.000 0.000 0.000 0.003 0.349 1.316 1.978 2.240 2.536 2.527 3.266 4.605 5.728 6.606 7.869 8.506 7.372 6.083 6.420 5.584 4.995 3.425 2.941 2.394 4.429 4.956 4.575 2.658 2.246 0.390 0.000 0.000 0.000 0.000 0.000 0.000 0.000 0.000
0.000 0.000 0.000 0.000 0.000 0.000 0.000 0.000 0.000 0.000 0.000 0.000 0.000 0.000 0.000 0.000 0.000 0.000 0.000 0.000 0.000 0.000 0.000 0.000 0.000 0.000 0.000 0.307 0.927 1.531 1.952 2.324 2.174 2.798 3.969 5.342 6.317 7.934 8.785 6.958 6.645 6.787 5.722 4.140 2.837 2.354 3.166 4.542 5.180 4.749 3.083 2.414 1.739 0.124 0.000 0.000 0.000 0.000 0.000 0.000 0.000
0.000 0.000 0.000 0.000 0.000 0.000 0.000 0.000 0.000 0.000 0.000 0.000 0.000 0.000 0.000 0.000 0.000 0.000 0.000 0.000 0.000 0.000 0.000 0.000 0.000 0.000 0.000 0.023 0.980 1.320 1.863 2.188 2.503 2.662 3.666 5.265 6.323 8.327 9.055 6.678 7.000 6.228 4.952 3.614 3.081 3.025 3.744 4.437 5.273 4.903 3.261 2.730 2.398 1.530 0.032 0.000 0.000 0.000 0.000 0.000 0.000
0.000 0.000 0.000 0.000 0.000 0.000 0.000 0.000 0.000 0.000 0.000 0.000 0.000 0.000 0.000 0.000 0.000 0.000 0.000 0.000 0.000 0.000 0.000 0.000 0.000 0.000 0.000 0.000 0.007 0.871 1.743 2.081 2.391 2.601 3.356 5.042 6.053 7.938 8.587 7.279 6.511 6.024 4.238 3.267 2.985 3.287 3.450 4.305 5.328 4.695 3.157 2.917 2.787 2.677 0.708 0.002 0.000 0.000 0.000 0.000 0.000
0.000 0.000 0.000 0.000 0.000 0.000 0.000 0.000 0.000 0.000 0.000 0.000 0.000 0.000 0.000 0.000 0.000 0.000 0.000 0.000 0.000 0.000 0.000 0.000 0.000 0.000 0.000 0.000 0.000 0.415 1.473 2.046 1.937 2.470 3.111 4.698 5.501 6.453 7.716 6.628 5.457 4.916 3.605 3.519 3.165 3.178 2.982 4.083 5.022 4.483 3.124 2.882 2.761 2.690 1.563 0.171 0.000 0.000 0.000 0.000 0.000
0.000 0.000 0.000 0.000 0.000 0.000 0.000 0.000 0.000 0.000 0.000 0.000 0.000 0.000 0.000 0.000 0.000 0.000 0.000 0.000 0.000 0.000 0.000 0.000 0.000 0.000 0.000 0.000 0.000 0.140 1.227 1.761 1.892 2.386 2.753 3.769 4.739 5.208 6.690 5.562 4.512 3.781 4.357 4.260 3.827 3.288 3.400 3.540 4.292 4.448 3.106 2.712 2.599 2.461 1.953 0.999 0.054 0.000 0.000 0.000 0.000
0.000 0.000 0.000 0.000 0.000 0.000 0.000 0.000 0.000 0.000 0.000 0.000 0.000 0.000 0.000 0.000 0.000 0.000 0.000 0.000 0.000 0.000 0.000 0.000 0.000 0.000 0.000 0.000 0.000 0.000 0.973 1.655 2.066 2.223 2.445 3.116 3.846 3.588 5.149 4.236 3.796 3.830 4.940 4.742 3.586 3.427 3.651 3.629 4.155 4.442 2.789 2.419 2.460 2.457 2.339 2.316 1.243 0.000 0.000 0.000 0.000
0.000 0.000 0.000 0.000 0.000 0.000 0.000 0.000 0.000 0.000 0.000 0.000 0.000 0.000 0.000 0.000 0.000 0.000 0.000 0.000 0.000 0.000 0.000 0.000 0.000 0.000 0.000 0.000 0.000 0.003 1.024 1.606 1.874 1.953 2.128 2.633 2.738 3.251 4.011 4.053 3.856 4.726 4.796 4.002 3.089 3.872 3.184 3.814 3.906 4.035 2.546 2.357 2.357 2.311 2.493 2.863 2.619 0.010 0.000 0.000 0.000
0.000 0.000 0.000 0.000 0.000 0.000 0.000 0.000 0.000 0.000 0.000 0.000 0.000 0.000 0.000 0.000 0.000 0.000 0.000 0.000 0.000 0.000 0.000 0.000 0.000 0.000 0.000 0.000 0.000 0.011 0.622 1.270 1.582 1.881 1.868 2.065 2.538 1.301 3.618 4.282 4.299 4.697 3.941 2.959 3.612 3.419 1.110 2.958 4.008 3.749 2.840 2.391 2.273 2.268 2.448 2.393 2.737 0.180 0.000 0.000 0.000
0.000 0.000 0.000 0.000 0.000 0.000 0.000 0.000 0.000 0.000 0.000 0.000 0.000 0.000 0.000 0.000 0.000 0.000 0.000 0.000 0.000 0.000 0.000 0.000 0.000 0.000 0.000 0.000 0.000 0.004 0.264 0.851 1.229 1.668 1.734 1.641 1.923 3.424 4.180 4.261 4.286 3.874 2.908 1.884 3.038 2.551 0.420 1.529 3.801 3.700 3.019 2.325 2.165 2.180 2.120 1.737 2.512 0.074 0.000 0.000 0.000
0.000 0.000 0.000 0.000 0.000 0.000 0.000 0.000 0.000 0.000 0.000 0.000 0.000 0.000 0.000 0.000 0.000 0.000 0.000 0.000 0.000 0.000 0.000 0.000 0.000 0.000 0.000 0.000 0.000 0.000 0.001 0.070 0.379 1.022 1.352 1.339 0.099 3.027 3.293 3.502 3.759 3.017 2.168 1.137 2.799 2.941 2.794 2.685 3.131 3.535 2.840 2.224 2.046 1.921 1.973 2.151 2.180 0.597 0.000 0.000 0.000
0.000 0.000 0.000 0.000 0.000 0.000 0.000 0.000 0.000 0.000 0.000 0.000 0.000 0.000 0.000 0.000 0.000 0.000 0.000 0.000 0.000 0.000 0.000 0.000 0.000 0.000 0.000 0.000 0.000 0.000 0.000 0.000 0.003 0.624 1.371 1.651 2.010 2.622 2.203 2.539 2.873 2.668 3.186 3.011 3.505 3.810 3.568 2.816 2.632 2.905 2.679 2.133 1.937 1.839 1.815 1.840 1.717 0.943 0.000 0.000 0.000
0.000 0.000 0.000 0.000 0.000 0.000 0.000 0.000 0.000 0.000 0.000 0.000 0.000 0.000 0.000 0.000 0.000 0.000 0.000 0.000 0.000 0.000 0.000 0.000 0.000 0.000 0.000 0.000 0.000 0.000 0.000 0.000 0.000 0.252 1.251 1.684 1.702 1.425 1.288 1.365 2.677 2.655 3.582 3.273 3.837 3.598 2.971 2.504 2.048 2.432 2.559 2.112 1.856 1.735 1.606 1.535 1.861 1.450 0.000 0.000 0.000
0.000 0.000 0.000 0.000 0.000 0.000 0.000 0.000 0.000 0.000 0.000 0.000 0.000 0.000 0.000 0.000 0.000 0.000 0.000 0.000 0.000 0.000 0.000 0.000 0.000 0.000 0.000 0.000 0.000 0.000 0.000 0.000 0.000 0.052 0.551 1.362 1.503 0.001 0.093 1.080 2.085 2.210 2.609 3.119 3.495 2.672 1.852 1.991 0.946 1.258 1.644 1.984 1.739 1.538 1.402 1.652 2.301 1.764 0.016 0.000 0.000
0.000 0.000 0.000 0.000 0.000 0.000 0.000 0.000 0.000 0.000 0.000 0.000 0.000 0.000 0.000 0.000 0.000 0.000 0.000 0.000 0.000 0.000 0.000 0.000 0.000 0.000 0.000 0.000 0.000 0.000 0.000 0.000 0.000 0.000 0.020 0.348 1.476 1.703 0.071 1.782 1.906 1.149 1.816 2.615 2.615 1.795 1.146 0.418 0.095 0.077 0.717 1.823 1.550 1.334 1.181 1.483 1.990 1.702 0.242 0.000 0.000
0.000 0.000 0.000 0.000 0.000 0.000 0.000 0.000 0.000 0.000 0.000 0.000 0.000 0.000 0.000 0.000 0.000 0.000 0.000 0.000 0.000 0.000 0.000 0.000 0.000 0.000 0.000 0.000 0.000 0.000 0.000 0.000 0.000 0.000 0.000 0.553 1.242 1.867 2.130 2.373 1.696 0.175 1.074 2.283 2.512 1.567 0.652 0.073 0.021 0.074 0.144 0.893 1.388 0.918 0.076 0.847 0.979 1.340 0.907 0.000 0.000
0.000 0.000 0.000 0.000 0.000 0.000 0.000 0.000 0.000 0.000 0.000 0.000 0.000 0.000 0.000 0.000 0.000 0.000 0.000 0.000 0.000 0.000 0.000 0.000 0.000 0.000 0.000 0.000 0.000 0.000 0.000 0.000 0.000 0.000 0.000 0.002 1.009 1.674 2.269 2.203 0.098 0.024 0.247 2.304 1.426 0.069 0.009 0.022 0.068 0.083 0.099 0.720 1.066 0.049 0.085 0.094 0.754 1.248 1.207 0.017 0.000
0.000 0.000 0.000 0.000 0.000 0.000 0.000 0.000 0.000 0.000 0.000 0.000 0.000 0.000 0.000 0.000 0.000 0.000 0.000 0.000 0.000 0.000 0.000 0.000 0.000 0.000 0.000 0.000 0.000 0.000 0.000 0.000 0.000 0.000 0.000 0.000 0.112 1.199 1.554 1.681 0.205 0.203 2.133 2.008 0.051 0.007 0.049 0.031 0.084 0.086 0.059 0.097 0.079 0.097 0.075 0.089 0.959 1.182 0.821 0.280 0.000
0.000 0.000 0.000 0.000 0.000 0.000 0.000 0.000 0.000 0.000 0.000 0.000 0.000 0.000 0.000 0.000 0.000 0.000 0.000 0.000 0.000 0.000 0.000 0.000 0.000 0.000 0.000 0.000 0.000 0.000 0.000 0.000 0.000 0.000 0.000 0.000 0.000 0.566 1.190 1.504 1.926 2.270 2.167 0.999 0.044 0.033 0.075 0.086 0.009 0.044 0.045 0.063 0.071 0.511 0.088 0.095 0.852 1.018 0.794 0.546 0.004
0.000 0.000 0.000 0.000 0.000 0.000 0.000 0.000 0.000 0.000 0.000 0.000 0.000 0.000 0.000 0.000 0.000 0.000 0.000 0.000 0.000 0.000 0.000 0.000 0.000 0.000 0.000 0.000 0.000 0.000 0.000 0.000 0.000 0.000 0.000 0.000 0.000 0.016 0.872 1.266 1.486 1.970 1.649 0.171 0.055 0.020 0.063 0.041 0.069 0.067 0.065 0.081 0.080 0.091 0.096 0.271 1.002 1.186 1.037 0.640 0.131
0.000 0.000 0.000 0.000 0.000 0.000 0.000 0.000 0.000 0.000 0.000 0.000 0.000 0.000 0.000 0.000 0.000 0.000 0.000 0.000 0.000 0.000 0.000 0.000 0.000 0.000 0.000 0.000 0.000 0.000 0.000 0.000 0.000 0.000 0.000 0.000 0.000 0.010 0.100 0.960 1.407 1.679 1.616 1.118 0.200 0.098 0.021 0.010 0.072 0.072 0.087 0.069 0.090 0.079 0.036 0.193 1.206 1.061 1.137 0.769 0.416
0.000 0.000 0.000 0.000 0.000 0.000 0.000 0.000 0.000 0.000 0.000 0.000 0.000 0.000 0.000 0.000 0.000 0.000 0.000 0.000 0.000 0.000 0.000 0.000 0.000 0.000 0.000 0.000 0.000 0.000 0.000 0.000 0.000 0.000 0.000 0.000 0.000 0.013 0.053 1.022 1.432 1.461 1.210 1.226 0.183 0.093 0.042 0.083 0.092 0.088 0.041 0.047 0.199 0.090 0.298 0.099 0.645 0.820 1.164 0.961 0.445
0.000 0.000 0.000 0.000 0.000 0.000 0.000 0.000 0.000 0.000 0.000 0.000 0.000 0.000 0.000 0.000 0.000 0.000 0.000 0.000 0.000 0.000 0.000 0.000 0.000 0.000 0.000 0.000 0.000 0.000 0.000 0.000 0.000 0.000 0.000 0.000 0.000 0.001 0.159 0.629 1.065 1.305 1.323 1.117 0.264 0.090 0.065 0.093 0.076 0.066 0.070 0.216 0.150 0.085 0.271 0.992 1.145 1.240 0.961 1.149 0.945
0.000 0.000 0.000 0.000 0.000 0.000 0.000 0.000 0.000 0.000 0.000 0.000 0.000 0.000 0.000 0.000 0.000 0.000 0.000 0.000 0.000 0.000 0.000 0.000 0.000 0.000 0.000 0.000 0.000 0.000 0.000 0.000 0.000 0.000 0.000 0.000 0.000 0.000 0.007 0.173 0.434 1.108 1.310 1.283 1.193 0.095 0.246 0.075 0.090 0.097 0.532 0.085 0.095 0.063 0.256 1.561 1.653 1.411 0.937 1.342 1.269
0.000 0.000 0.000 0.000 0.000 0.000 0.000 0.000 0.000 0.000 0.000 0.000 0.000 0.000 0.000 0.000 0.000 0.000 0.000 0.000 0.000 0.000 0.000 0.000 0.000 0.000 0.000 0.000 0.000 0.000 0.000 0.000 0.000 0.000 0.000 0.000 0.000 0.000 0.000 0.002 0.082 0.580 1.233 1.274 1.314 1.204 0.793 0.036 0.021 0.034 0.076 0.089 0.082 0.082 0.121 1.578 1.831 1.115 1.037 1.432 1.351
0.000 0.000 0.000 0.000 0.000 0.000 0.000 0.000 0.000 0.000 0.000 0.000 0.000 0.000 0.000 0.000 0.000 0.000 0.000 0.000 0.000 0.000 0.000 0.000 0.000 0.000 0.000 0.000 0.000 0.000 0.000 0.000 0.000 0.000 0.000 0.000 0.000 0.000 0.000 0.000 0.000 0.090 1.017 1.343 1.310 1.041 0.089 0.085 0.068 0.067 0.075 0.078 0.022 0.042 0.245 1.609 1.046 0.206 0.399 1.136 1.420
0.000 0.000 0.000 0.000 0.000 0.000 0.000 0.000 0.000 0.000 0.000 0.000 0.000 0.000 0.000 0.000 0.000 0.000 0.000 0.000 0.000 0.000 0.000 0.000 0.000 0.000 0.000 0.000 0.000 0.000 0.000 0.000 0.000 0.000 0.000 0.000 0.000 0.000 0.000 0.000 0.000 0.003 0.606 1.231 1.275 0.980 0.044 0.024 0.052 0.084 0.065 0.083 0.064 0.084 0.097 0.285 0.120 0.504 0.104 1.102 1.555
0.000 0.000 0.000 0.000 0.000 0.000 0.000 0.000 0.000 0.000 0.000 0.000 0.000 0.000 0.000 0.000 0.000 0.000 0.000 0.000 0.000 0.000 0.000 0.000 0.000 0.000 0.000 0.000 0.000 0.000 0.000 0.000 0.000 0.000 0.000 0.000 0.000 0.000 0.000 0.000 0.000 0.000 0.050 0.682 1.153 1.090 0.140 0.074 0.031 0.060 0.085 0.086 0.086 0.077 0.057 0.141 1.288 1.376 0.951 1.308 1.418
0.000 0.000 0.000 0.000 0.000 0.000 0.000 0.000 0.000 0.000 0.000 0.000 0.000 0.000 0.000 0.000 0.000 0.000 0.000 0.000 0.000 0.000 0.000 0.000 0.000 0.000 0.000 0.000 0.000 0.000 0.000 0.000 0.000 0.000 0.000 0.000 0.000 0.000 0.000 0.000 0.000 0.000 0.000 0.094 0.937 0.983 0.815 0.064 0.062 0.080 0.044 0.087 0.086 0.089 0.342 0.254 1.705 1.501 0.731 0.750 0.781
0.000 0.000 0.000 0.000 0.000 0.000 0.000 0.000 0.000 0.000 0.000 0.000 0.000 0.000 0.000 0.000 0.000 0.000 0.000 0.000 0.000 0.000 0.000 0.000 0.000 0.000 0.000 0.000 0.000 0.000 0.000 0.000 0.000 0.000 0.000 0.000 0.000 0.000 0.000 0.000 0.000 0.000 0.000 0.016 0.816 0.992 0.729 0.157 0.093 0.309 0.095 0.046 0.027 0.098 0.100 1.112 1.397 1.285 0.733 0.139 0.782
0.000 0.000 0.000 0.000 0.000 0.000 0.000 0.000 0.000 0.000 0.000 0.000 0.000 0.000 0.000 0.000 0.000 0.000 0.000 0.000 0.000 0.000 0.000 0.000 0.000 0.000 0.000 0.000 0.000 0.000 0.000 0.000 0.000 0.000 0.000 0.000 0.000 0.000 0.000 0.000 0.000 0.000 0.000 0.002 0.323 0.985 1.008 1.183 0.102 1.134 0.073 0.056 0.080 0.092 0.074 0.168 1.124 1.215 0.094 0.257 0.178
0.000 0.000 0.000 0.000 0.000 0.000 0.000 0.000 0.000 0.000 0.000 0.000 0.000 0.000 0.000 0.000 0.000 0.000 0.000 0.000 0.000 0.000 0.000 0.000 0.000 0.000 0.000 0.000 0.000 0.000 0.000 0.000 0.000 0.000 0.000 0.000 0.000 0.000 0.000 0.000 0.000 0.000 0.000 0.001 0.099 0.924 1.314 1.162 1.347 1.300 0.663 0.048 0.086 0.095 0.044 0.307 0.876 0.093 0.081 0.087 0.087
0.000 0.000 0.000 0.000 0.000 0.000 0.000 0.000 0.000 0.000 0.000 0.000 0.000 0.000 0.000 0.000 0.000 0.000 0.000 0.000 0.000 0.000 0.000 0.000 0.000 0.000 0.000 0.000 0.000 0.000 0.000 0.000 0.000 0.000 0.000 0.000 0.000 0.000 0.000 0.000 0.000 0.000 0.000 0.000 0.223 0.552 1.043 0.900 1.327 0.099 0.099 0.029 0.014 0.065 0.080 0.222 0.226 0.095 0.073 0.080 0.083
0.000 0.000 0.000 0.000 0.000 0.000 0.000 0.000 0.000 0.000 0.000 0.000 0.000 0.000 0.000 0.000 0.000 0.000 0.000 0.000 0.000 0.000 0.000 0.000 0.000 0.000 0.000 0.000 0.000 0.000 0.000 0.000 0.000 0.000 0.000 0.000 0.000 0.000 0.000 0.000 0.000 0.000 0.000 0.000 0.001 0.365 0.094 1.182 1.009 0.066 0.070 0.088 0.040 0.073 0.082 0.557 0.102 0.545 0.065 0.054 0.053
0.000 0.000 0.000 0.000 0.000 0.000 0.000 0.000 0.000 0.000 0.000 0.000 0.000 0.000 0.000 0.000 0.000 0.000 0.000 0.000 0.000 0.000 0.000 0.000 0.000 0.000 0.000 0.000 0.000 0.000 0.000 0.000 0.000 0.000 0.000 0.000 0.000 0.000 0.000 0.000 0.000 0.000 0.000 0.000 0.001 0.045 0.577 1.173 1.006 0.086 0.081 0.029 0.052 0.060 0.084 0.347 0.776 1.192 0.057 0.069 0.074
0.000 0.000 0.000 0.000 0.000 0.000 0.000 0.000 0.000 0.000 0.000 0.000 0.000 0.000 0.000 0.000 0.000 0.000 0.000 0.000 0.000 0.000 0.000 0.000 0.000 0.000 0.000 0.000 0.000 0.000 0.000 0.000 0.000 0.000 0.000 0.000 0.000 0.000 0.000 0.000 0.000 0.000 0.000 0.000 0.000 0.029 0.641 0.938 0.958 0.087 0.063 0.273 0.120 0.245 0.327 1.376 1.166 0.039 0.305 0.073 0.038
0.000 0.000 0.000 0.000 0.000 0.000 0.000 0.000 0.000 0.000 0.000 0.000 0.000 0.000 0.000 0.000 0.000 0.000 0.000 0.000 0.000 0.000 0.000 0.000 0.000 0.000 0.000 0.000 0.000 0.000 0.000 0.000 0.000 0.000 0.000 0.000 0.000 0.000 0.000 0.000 0.000 0.000 0.000 0.000 0.000 0.001 0.441 0.347 0.876 0.092 0.236 2.352 2.106 2.053 2.437 1.707 0.098 0.094 0.070 0.065 0.058
0.000 0.000 0.000 0.000 0.000 0.000 0.000 0.000 0.000 0.000 0.000 0.000 0.000 0.000 0.000 0.000 0.000 0.000 0.000 0.000 0.000 0.000 0.000 0.000 0.000 0.000 0.000 0.000 0.000 0.000 0.000 0.000 0.000 0.000 0.000 0.000 0.000 0.000 0.000 0.000 0.000 0.000 0.000 0.000 0.000 0.000 0.061 0.477 0.098 0.090 1.173 2.232 3.070 2.681 2.568 1.217 0.166 0.083 0.096 0.057 0.051
0.000 0.000 0.000 0.000 0.000 0.000 0.000 0.000 0.000 0.000 0.000 0.000 0.000 0.000 0.000 0.000 0.000 0.000 0.000 0.000 0.000 0.000 0.000 0.000 0.000 0.000 0.000 0.000 0.000 0.000 0.000 0.000 0.000 0.000 0.000 0.000 0.000 0.000 0.000 0.000 0.000 0.000 0.000 0.000 0.000 0.000 0.001 0.322 0.097 0.096 1.531 1.892 2.519 2.236 1.662 1.138 0.150 0.206 0.090 0.066 0.053
0.000 0.000 0.000 0.000 0.000 0.000 0.000 0.000 0.000 0.000 0.000 0.000 0.000 0.000 0.000 0.000 0.000 0.000 0.000 0.000 0.000 0.000 0.000 0.000 0.000 0.000 0.000 0.000 0.000 0.000 0.000 0.000 0.000 0.000 0.000 0.000 0.000 0.000 0.000 0.000 0.000 0.000 0.000 0.000 0.000 0.000 0.000 0.033 0.087 1.249 1.419 1.447 1.970 1.445 1.443 1.929 1.402 1.005 0.093 0.066 0.078
0.000 0.000 0.000 0.000 0.000 0.000 0.000 0.000 0.000 0.000 0.000 0.000 0.000 0.000 0.000 0.000 0.000 0.000 0.000 0.000 0.000 0.000 0.000 0.000 0.000 0.000 0.000 0.000 0.000 0.000 0.000 0.000 0.000 0.000 0.000 0.000 0.000 0.000 0.000 0.000 0.000 0.000 0.000 0.000 0.000 0.000 0.000 0.087 0.946 1.309 1.296 1.271 1.354 0.528 0.923 2.061 1.998 1.834 0.119 0.147 0.096
0.000 0.000 0.000 0.000 0.000 0.000 0.000 0.000 0.000 0.000 0.000 0.000 0.000 0.000 0.000 0.000 0.000 0.000 0.000 0.000 0.000 0.000 0.000 0.000 0.000 0.000 0.000 0.000 0.000 0.000 0.000 0.000 0.000 0.000 0.000 0.000 0.000 0.000 0.000 0.000 0.000 0.000 0.000 0.000 0.000 0.000 0.000 0.203 0.873 1.109 1.096 1.120 1.232 0.247 0.265 1.100 1.387 1.525 1.058 0.094 0.085
0.000 0.000 0.000 0.000 0.000 0.000 0.000 0.000 0.000 0.000 0.000 0.000 0.000 0.000 0.000 0.000 0.000 0.000 0.000 0.000 0.000 0.000 0.000 0.000 0.000 0.000 0.000 0.000 0.000 0.000 0.000 0.000 0.000 0.000 0.000 0.000 0.000 0.000 0.000 0.000 0.000 0.000 0.000 0.000 0.000 0.000 0.000 0.002 0.092 0.525 0.950 1.065 1.179 0.281 0.334 0.377 0.797 1.001 0.907 0.133 0.096
0.000 0.000 0.000 0.000 0.000 0.000 0.000 0.000 0.000 0.000 0.000 0.000 0.000 0.000 0.000 0.000 0.000 0.000 0.000 0.000 0.000 0.000 0.000 0.000 0.000 0.000 0.000 0.000 0.000 0.000 0.000 0.000 0.000 0.000 0.000 0.000 0.000 0.000 0.000 0.000 0.000 0.000 0.000 0.000 0.000 0.000 0.000 0.000 0.001 0.046 0.775 0.918 0.853 0.214 0.780 0.901 0.990 0.491 0.179 0.968 0.691
0.000 0.000 0.000 0.000 0.000 0.000 0.000 0.000 0.000 0.000 0.000 0.000 0.000 0.000 0.000 0.000 0.000 0.000 0.000 0.000 0.000 0.000 0.000 0.000 0.000 0.000 0.000 0.000 0.000 0.000 0.000 0.000 0.000 0.000 0.000 0.000 0.000 0.000 0.000 0.000 0.000 0.000 0.000 0.000 0.000 0.000 0.000 0.000 0.000 0.001 0.204 0.638 0.097 1.083 1.878 1.528 0.606 0.309 0.079 1.042 0.597
