ncols        58
nrows        140
xllcorner    409522.8
yllcorner    6870874.1
cellsize     5.00
NODATA_value -9999
0.000 0.000 0.000 0.000 0.000 0.000 0.000 0.000 0.000 0.000 0.000 0.000 0.000 0.000 0.000 0.000 0.000 0.000 0.000 0.000 0.000 0.000 0.000 0.000 0.000 0.000 0.000 0.000 0.000 0.000 0.000 0.000 0.000 0.000 0.000 0.000 0.000 0.000 0.000 0.000 0.000 0.000 0.000 0.000 0.000 0.000 0.000 0.000 0.000 0.000 0.000 0.000 0.000 0.000 0.000 0.000 0.000 0.000
0.000 0.000 0.000 0.215 4.395 16.983 17.261 17.669 11.850 2.001 0.025 0.000 0.000 0.000 0.000 0.000 0.000 0.000 0.000 0.000 0.000 0.000 0.000 0.000 0.000 0.000 0.000 0.000 0.000 0.000 0.000 0.000 0.000 0.000 0.000 0.000 0.000 0.000 0.000 0.000 0.000 0.000 0.000 0.000 0.000 0.000 0.000 0.000 0.000 0.000 0.000 0.000 0.000 0.000 0.000 0.000 0.000 0.000
0.000 0.001 0.900 10.431 18.661 18.229 17.863 18.104 17.693 19.139 6.042 0.893 0.023 0.000 0.000 0.000 0.000 0.000 0.000 0.000 0.000 0.000 0.000 0.000 0.000 0.000 0.000 0.000 0.000 0.000 0.000 0.000 0.000 0.000 0.000 0.000 0.000 0.000 0.000 0.000 0.000 0.000 0.000 0.000 0.000 0.000 0.000 0.000 0.000 0.000 0.000 0.000 0.000 0.000 0.000 0.000 0.000 0.000
0.000 1.668 16.910 18.349 19.503 18.723 17.380 16.376 18.601 19.725 19.766 12.548 4.539 0.271 0.001 0.000 0.000 0.000 0.000 0.000 0.000 0.000 0.000 0.000 0.000 0.000 0.000 0.000 0.000 0.000 0.000 0.000 0.000 0.000 0.000 0.000 0.000 0.000 0.000 0.000 0.000 0.000 0.000 0.000 0.000 0.000 0.000 0.000 0.000 0.000 0.000 0.000 0.000 0.000 0.000 0.000 0.000 0.000
0.125 8.710 19.930 20.543 20.472 20.551 18.447 16.090 18.964 20.745 20.951 16.958 16.509 8.209 1.437 0.002 0.000 0.000 0.000 0.000 0.000 0.000 0.000 0.000 0.000 0.000 0.000 0.000 0.000 0.000 0.000 0.000 0.000 0.000 0.000 0.000 0.000 0.000 0.000 0.000 0.000 0.000 0.000 0.000 0.000 0.000 0.000 0.000 0.000 0.000 0.000 0.000 0.000 0.000 0.000 0.000 0.000 0.000
1.531 20.132 21.284 23.041 22.616 22.408 23.372 24.673 18.752 22.814 20.926 19.501 20.035 17.468 10.680 1.845 0.000 0.000 0.000 0.000 0.000 0.000 0.000 0.000 0.000 0.000 0.000 0.000 0.000 0.000 0.000 0.000 0.000 0.000 0.000 0.000 0.000 0.000 0.000 0.000 0.000 0.000 0.000 0.000 0.000 0.000 0.000 0.000 0.000 0.000 0.000 0.000 0.000 0.000 0.000 0.000 0.000 0.000
3.848 19.672 22.861 23.954 24.093 23.936 24.847 23.449 25.198 18.996 21.505 21.773 19.138 18.500 16.107 10.030 0.519 0.000 0.000 0.000 0.000 0.000 0.000 0.000 0.000 0.000 0.000 0.000 0.000 0.000 0.000 0.000 0.000 0.000 0.000 0.000 0.000 0.000 0.000 0.000 0.000 0.000 0.000 0.000 0.000 0.000 0.000 0.000 0.000 0.000 0.000 0.000 0.000 0.000 0.000 0.000 0.000 0.000
6.203 20.428 22.044 24.165 24.935 24.697 24.002 24.783 24.476 20.767 20.544 22.642 19.454 19.330 16.272 13.082 6.385 0.000 0.000 0.000 0.000 0.000 0.000 0.000 0.000 0.000 0.000 0.000 0.000 0.000 0.000 0.000 0.000 0.000 0.000 0.000 0.000 0.000 0.000 0.000 0.000 0.000 0.000 0.000 0.000 0.000 0.000 0.000 0.000 0.000 0.000 0.000 0.000 0.000 0.000 0.000 0.000 0.000
9.274 20.274 22.440 23.326 25.159 23.871 23.482 24.986 25.184 24.767 16.678 19.159 20.795 19.217 17.198 14.243 11.245 0.536 0.000 0.000 0.000 0.000 0.000 0.000 0.000 0.000 0.000 0.000 0.000 0.000 0.000 0.000 0.000 0.000 0.000 0.000 0.000 0.000 0.000 0.000 0.000 0.000 0.000 0.000 0.000 0.000 0.000 0.000 0.000 0.000 0.000 0.000 0.000 0.000 0.000 0.000 0.000 0.000
11.469 20.814 23.142 24.893 24.480 24.766 25.779 23.836 24.799 23.503 21.285 16.994 20.527 20.600 20.300 17.038 13.045 5.167 0.000 0.000 0.000 0.000 0.000 0.000 0.000 0.000 0.000 0.000 0.000 0.000 0.000 0.000 0.000 0.000 0.000 0.000 0.000 0.000 0.000 0.000 0.000 0.000 0.000 0.000 0.000 0.000 0.000 0.000 0.000 0.000 0.000 0.000 0.000 0.000 0.000 0.000 0.000 0.000
11.168 19.966 23.168 25.266 26.165 25.276 25.958 25.401 24.566 22.212 25.390 22.378 24.570 25.522 19.523 17.117 12.907 8.276 0.180 0.000 0.000 0.000 0.000 0.000 0.000 0.000 0.000 0.000 0.000 0.000 0.000 0.000 0.000 0.000 0.000 0.000 0.000 0.000 0.000 0.000 0.000 0.000 0.000 0.000 0.000 0.000 0.000 0.000 0.000 0.000 0.000 0.000 0.000 0.000 0.000 0.000 0.000 0.000
10.602 19.747 23.666 25.350 25.233 26.669 26.284 24.617 23.728 22.931 25.700 26.289 22.042 25.233 20.158 17.000 13.257 10.493 3.363 0.000 0.000 0.000 0.000 0.000 0.000 0.000 0.000 0.000 0.000 0.000 0.000 0.000 0.000 0.000 0.000 0.000 0.000 0.000 0.000 0.000 0.000 0.000 0.000 0.000 0.000 0.000 0.000 0.000 0.000 0.000 0.000 0.000 0.000 0.000 0.000 0.000 0.000 0.000
8.243 19.905 22.265 26.186 24.603 25.590 25.001 22.973 23.809 23.281 24.997 24.307 22.715 23.334 21.108 18.428 14.216 11.452 6.522 0.000 0.000 0.000 0.000 0.000 0.000 0.000 0.000 0.000 0.000 0.000 0.000 0.000 0.000 0.000 0.000 0.000 0.000 0.000 0.000 0.000 0.000 0.000 0.000 0.000 0.000 0.000 0.000 0.000 0.000 0.000 0.000 0.000 0.000 0.000 0.000 0.000 0.000 0.000
5.298 18.147 22.576 25.181 25.378 25.599 25.808 23.551 23.097 26.914 25.379 23.846 26.564 21.572 22.902 17.812 15.111 12.137 8.098 0.383 0.000 0.000 0.000 0.000 0.000 0.000 0.000 0.000 0.000 0.000 0.000 0.000 0.000 0.000 0.000 0.000 0.000 0.000 0.000 0.000 0.000 0.000 0.000 0.000 0.000 0.000 0.000 0.000 0.000 0.000 0.000 0.000 0.000 0.000 0.000 0.000 0.000 0.000
3.345 18.171 20.282 23.573 25.377 25.546 24.829 25.621 26.565 26.151 25.313 25.328 23.421 24.256 22.707 17.440 15.898 13.032 9.863 3.777 0.000 0.000 0.000 0.000 0.000 0.000 0.000 0.000 0.000 0.000 0.000 0.000 0.000 0.000 0.000 0.000 0.000 0.000 0.000 0.000 0.000 0.000 0.000 0.000 0.000 0.000 0.000 0.000 0.000 0.000 0.000 0.000 0.000 0.000 0.000 0.000 0.000 0.000
1.766 15.013 19.858 22.064 23.851 24.514 23.747 24.419 27.151 26.204 23.852 22.593 25.997 27.792 22.476 18.083 16.407 13.570 10.658 6.036 0.000 0.000 0.000 0.000 0.000 0.000 0.000 0.000 0.000 0.000 0.000 0.000 0.000 0.000 0.000 0.000 0.000 0.000 0.000 0.000 0.000 0.000 0.000 0.000 0.000 0.000 0.000 0.000 0.000 0.000 0.000 0.000 0.000 0.000 0.000 0.000 0.000 0.000
0.633 11.393 17.859 21.181 23.045 23.397 22.396 23.340 27.314 23.840 23.885 25.330 26.005 25.790 21.422 19.368 17.821 15.122 11.865 7.141 0.047 0.000 0.000 0.000 0.000 0.000 0.000 0.000 0.000 0.000 0.000 0.000 0.000 0.000 0.000 0.000 0.000 0.000 0.000 0.000 0.000 0.000 0.000 0.000 0.000 0.000 0.000 0.000 0.000 0.000 0.000 0.000 0.000 0.000 0.000 0.000 0.000 0.000
0.173 8.134 17.147 20.522 22.730 22.827 22.990 24.637 25.937 25.948 25.341 22.559 23.656 23.845 21.267 21.453 18.656 16.063 12.864 8.697 1.741 0.000 0.000 0.000 0.000 0.000 0.000 0.000 0.000 0.000 0.000 0.000 0.000 0.000 0.000 0.000 0.000 0.000 0.000 0.000 0.000 0.000 0.000 0.000 0.000 0.000 0.000 0.000 0.000 0.000 0.000 0.000 0.000 0.000 0.000 0.000 0.000 0.000
0.035 4.951 15.318 18.779 21.007 24.003 24.038 24.610 24.242 25.064 22.777 20.253 21.850 24.964 22.376 20.825 18.223 16.665 14.163 8.754 4.412 0.000 0.000 0.000 0.000 0.000 0.000 0.000 0.000 0.000 0.000 0.000 0.000 0.000 0.000 0.000 0.000 0.000 0.000 0.000 0.000 0.000 0.000 0.000 0.000 0.000 0.000 0.000 0.000 0.000 0.000 0.000 0.000 0.000 0.000 0.000 0.000 0.000
0.008 2.733 12.627 17.468 19.571 22.182 23.895 24.863 25.263 23.863 21.094 22.408 23.625 26.057 22.896 21.922 18.976 18.199 14.335 9.459 5.430 0.276 0.000 0.000 0.000 0.000 0.000 0.000 0.000 0.000 0.000 0.000 0.000 0.000 0.000 0.000 0.000 0.000 0.000 0.000 0.000 0.000 0.000 0.000 0.000 0.000 0.000 0.000 0.000 0.000 0.000 0.000 0.000 0.000 0.000 0.000 0.000 0.000
0.001 1.195 9.972 15.869 19.153 21.730 21.450 24.315 23.662 21.879 20.656 21.288 22.759 25.235 23.497 21.742 21.083 19.021 15.432 9.359 5.984 2.955 0.000 0.000 0.000 0.000 0.000 0.000 0.000 0.000 0.000 0.000 0.000 0.000 0.000 0.000 0.000 0.000 0.000 0.000 0.000 0.000 0.000 0.000 0.000 0.000 0.000 0.000 0.000 0.000 0.000 0.000 0.000 0.000 0.000 0.000 0.000 0.000
0.000 0.352 6.703 14.156 18.429 21.385 22.749 22.820 21.829 21.020 21.402 23.283 25.365 23.875 24.345 22.088 19.843 18.554 14.285 9.289 7.686 5.477 0.210 0.000 0.000 0.000 0.000 0.000 0.000 0.000 0.000 0.000 0.000 0.000 0.000 0.000 0.000 0.000 0.000 0.000 0.000 0.000 0.000 0.000 0.000 0.000 0.000 0.000 0.000 0.000 0.000 0.000 0.000 0.000 0.000 0.000 0.000 0.000
0.000 0.059 3.562 11.523 16.421 19.296 21.474 21.132 22.031 20.357 22.680 21.225 24.024 23.946 23.606 22.975 21.898 18.163 13.650 10.810 8.702 6.494 2.262 0.000 0.000 0.000 0.000 0.000 0.000 0.000 0.000 0.000 0.000 0.000 0.000 0.000 0.000 0.000 0.000 0.000 0.000 0.000 0.000 0.000 0.000 0.000 0.000 0.000 0.000 0.000 0.000 0.000 0.000 0.000 0.000 0.000 0.000 0.000
0.000 0.002 1.175 8.763 14.496 18.088 19.470 20.949 20.965 22.599 21.456 22.835 21.931 23.498 24.361 24.785 20.196 17.321 14.198 11.495 9.371 7.301 4.052 0.028 0.000 0.000 0.000 0.000 0.000 0.000 0.000 0.000 0.000 0.000 0.000 0.000 0.000 0.000 0.000 0.000 0.000 0.000 0.000 0.000 0.000 0.000 0.000 0.000 0.000 0.000 0.000 0.000 0.000 0.000 0.000 0.000 0.000 0.000
0.000 0.000 0.218 4.873 11.553 15.403 17.941 20.434 21.343 22.327 22.829 23.317 19.883 22.562 23.919 24.003 18.986 16.923 15.398 13.257 9.929 7.986 4.724 1.126 0.000 0.000 0.000 0.000 0.000 0.000 0.000 0.000 0.000 0.000 0.000 0.000 0.000 0.000 0.000 0.000 0.000 0.000 0.000 0.000 0.000 0.000 0.000 0.000 0.000 0.000 0.000 0.000 0.000 0.000 0.000 0.000 0.000 0.000
0.000 0.000 0.026 2.113 9.033 14.177 18.474 20.334 23.030 22.221 23.916 22.866 23.515 24.530 24.331 23.429 19.320 18.504 18.352 14.756 9.946 8.817 5.632 3.608 0.000 0.000 0.000 0.000 0.000 0.000 0.000 0.000 0.000 0.000 0.000 0.000 0.000 0.000 0.000 0.000 0.000 0.000 0.000 0.000 0.000 0.000 0.000 0.000 0.000 0.000 0.000 0.000 0.000 0.000 0.000 0.000 0.000 0.000
0.000 0.000 0.001 0.506 5.720 11.707 15.334 18.849 21.536 22.900 24.266 22.459 20.769 23.652 25.101 22.722 20.025 20.447 19.476 13.893 11.445 9.080 7.055 5.336 0.123 0.000 0.000 0.000 0.000 0.000 0.000 0.000 0.000 0.000 0.000 0.000 0.000 0.000 0.000 0.000 0.000 0.000 0.000 0.000 0.000 0.000 0.000 0.000 0.000 0.000 0.000 0.000 0.000 0.000 0.000 0.000 0.000 0.000
0.000 0.000 0.000 0.053 2.402 8.498 13.613 17.771 19.556 22.252 22.017 21.305 21.916 21.432 24.171 22.667 21.820 21.786 20.251 16.242 13.905 9.057 8.479 6.482 1.745 0.000 0.000 0.000 0.000 0.000 0.000 0.000 0.000 0.000 0.000 0.000 0.000 0.000 0.000 0.000 0.000 0.000 0.000 0.000 0.000 0.000 0.000 0.000 0.000 0.000 0.000 0.000 0.000 0.000 0.000 0.000 0.000 0.000
0.000 0.000 0.000 0.000 0.280 4.456 9.749 13.747 19.299 19.859 19.989 20.826 22.040 24.570 24.383 23.009 22.353 22.449 21.870 18.337 13.931 10.320 9.480 7.041 3.677 0.000 0.000 0.000 0.000 0.000 0.000 0.000 0.000 0.000 0.000 0.000 0.000 0.000 0.000 0.000 0.000 0.000 0.000 0.000 0.000 0.000 0.000 0.000 0.000 0.000 0.000 0.000 0.000 0.000 0.000 0.000 0.000 0.000
0.000 0.000 0.000 0.000 0.016 1.270 6.880 11.996 15.909 18.805 20.761 21.673 23.319 21.390 22.347 22.756 21.376 21.932 21.254 17.113 13.969 13.388 10.139 7.470 4.833 0.013 0.000 0.000 0.000 0.000 0.000 0.000 0.000 0.000 0.000 0.000 0.000 0.000 0.000 0.000 0.000 0.000 0.000 0.000 0.000 0.000 0.000 0.000 0.000 0.000 0.000 0.000 0.000 0.000 0.000 0.000 0.000 0.000
0.000 0.000 0.000 0.000 0.000 0.145 3.094 8.478 13.877 17.141 19.094 20.459 20.284 18.351 23.043 20.823 20.557 21.993 21.751 17.848 18.041 14.856 9.986 7.317 6.378 0.939 0.000 0.000 0.000 0.000 0.000 0.000 0.000 0.000 0.000 0.000 0.000 0.000 0.000 0.000 0.000 0.000 0.000 0.000 0.000 0.000 0.000 0.000 0.000 0.000 0.000 0.000 0.000 0.000 0.000 0.000 0.000 0.000
0.000 0.000 0.000 0.000 0.000 0.001 0.377 3.973 8.758 13.801 18.274 19.589 18.134 19.849 23.747 22.882 21.135 22.330 20.679 18.312 19.571 14.583 9.494 8.584 7.295 3.517 0.000 0.000 0.000 0.000 0.000 0.000 0.000 0.000 0.000 0.000 0.000 0.000 0.000 0.000 0.000 0.000 0.000 0.000 0.000 0.000 0.000 0.000 0.000 0.000 0.000 0.000 0.000 0.000 0.000 0.000 0.000 0.000
0.000 0.000 0.000 0.000 0.000 0.000 0.006 0.998 5.079 9.952 14.319 17.072 20.142 21.505 21.082 22.345 22.221 21.086 20.117 19.279 18.561 14.701 10.808 9.836 7.444 4.511 0.056 0.000 0.000 0.000 0.000 0.000 0.000 0.000 0.000 0.000 0.000 0.000 0.000 0.000 0.000 0.000 0.000 0.000 0.000 0.000 0.000 0.000 0.000 0.000 0.000 0.000 0.000 0.000 0.000 0.000 0.000 0.000
0.000 0.000 0.000 0.000 0.000 0.000 0.000 0.029 1.659 6.320 10.912 15.267 18.259 19.855 20.394 22.108 21.334 19.304 19.431 19.650 19.474 16.992 13.613 10.014 7.789 4.970 1.504 0.001 0.000 0.000 0.000 0.000 0.000 0.000 0.000 0.000 0.000 0.000 0.000 0.000 0.000 0.000 0.000 0.000 0.000 0.000 0.000 0.000 0.000 0.000 0.000 0.000 0.000 0.000 0.000 0.000 0.000 0.000
0.000 0.000 0.000 0.000 0.000 0.000 0.000 0.000 0.209 2.953 7.619 12.270 15.668 17.870 19.217 20.322 21.344 22.704 19.211 20.797 20.841 19.380 14.504 10.187 7.382 5.421 3.943 0.264 0.000 0.000 0.000 0.000 0.000 0.000 0.000 0.000 0.000 0.000 0.000 0.000 0.000 0.000 0.000 0.000 0.000 0.000 0.000 0.000 0.000 0.000 0.000 0.000 0.000 0.000 0.000 0.000 0.000 0.000
0.000 0.000 0.000 0.000 0.000 0.000 0.000 0.000 0.008 1.176 5.317 9.992 14.327 16.817 18.674 20.099 22.046 21.507 19.207 21.039 21.999 18.880 15.831 10.571 7.353 6.398 5.442 2.192 0.000 0.000 0.000 0.000 0.000 0.000 0.000 0.000 0.000 0.000 0.000 0.000 0.000 0.000 0.000 0.000 0.000 0.000 0.000 0.000 0.000 0.000 0.000 0.000 0.000 0.000 0.000 0.000 0.000 0.000
0.000 0.000 0.000 0.000 0.000 0.000 0.000 0.000 0.000 0.227 3.269 7.616 12.138 15.438 20.194 21.624 21.356 20.977 20.367 22.029 20.534 17.624 15.488 11.333 8.288 7.104 5.860 3.441 0.004 0.000 0.000 0.000 0.000 0.000 0.000 0.000 0.000 0.000 0.000 0.000 0.000 0.000 0.000 0.000 0.000 0.000 0.000 0.000 0.000 0.000 0.000 0.000 0.000 0.000 0.000 0.000 0.000 0.000
0.000 0.000 0.000 0.000 0.000 0.000 0.000 0.000 0.000 0.027 1.565 6.030 10.664 14.436 17.463 20.315 19.967 21.156 20.506 18.300 19.637 17.212 15.955 13.123 8.821 7.791 6.426 4.705 0.555 0.000 0.000 0.000 0.000 0.000 0.000 0.000 0.000 0.000 0.000 0.000 0.000 0.000 0.000 0.000 0.000 0.000 0.000 0.000 0.000 0.000 0.000 0.000 0.000 0.000 0.000 0.000 0.000 0.000
0.000 0.000 0.000 0.000 0.000 0.000 0.000 0.000 0.000 0.001 0.497 4.110 9.105 12.971 16.677 18.533 20.212 20.438 19.480 19.356 18.345 18.395 16.216 13.800 10.275 8.510 7.390 6.017 2.595 0.000 0.000 0.000 0.000 0.000 0.000 0.000 0.000 0.000 0.000 0.000 0.000 0.000 0.000 0.000 0.000 0.000 0.000 0.000 0.000 0.000 0.000 0.000 0.000 0.000 0.000 0.000 0.000 0.000
0.000 0.000 0.000 0.000 0.000 0.000 0.000 0.000 0.000 0.000 0.068 2.009 7.211 11.453 14.498 18.042 21.266 21.203 20.299 19.632 17.187 16.804 16.900 16.299 11.162 8.835 7.891 6.552 3.942 0.000 0.000 0.000 0.000 0.000 0.000 0.000 0.000 0.000 0.000 0.000 0.000 0.000 0.000 0.000 0.000 0.000 0.000 0.000 0.000 0.000 0.000 0.000 0.000 0.000 0.000 0.000 0.000 0.000
0.000 0.000 0.000 0.000 0.000 0.000 0.000 0.000 0.000 0.000 0.005 0.654 4.994 10.050 13.281 16.565 20.093 22.792 23.955 19.616 16.574 15.642 17.291 14.780 12.459 9.421 8.363 6.948 4.938 0.000 0.000 0.000 0.000 0.000 0.000 0.000 0.000 0.000 0.000 0.000 0.000 0.000 0.000 0.000 0.000 0.000 0.000 0.000 0.000 0.000 0.000 0.000 0.000 0.000 0.000 0.000 0.000 0.000
0.000 0.000 0.000 0.000 0.000 0.000 0.000 0.000 0.000 0.000 0.000 0.050 2.096 8.535 11.371 14.836 18.410 22.150 24.303 23.742 20.702 19.377 17.486 14.572 15.032 9.927 8.463 7.931 5.729 0.030 0.000 0.000 0.000 0.000 0.000 0.000 0.000 0.000 0.000 0.000 0.000 0.000 0.000 0.000 0.000 0.000 0.000 0.000 0.000 0.000 0.000 0.000 0.000 0.000 0.000 0.000 0.000 0.000
0.000 0.000 0.000 0.000 0.000 0.000 0.000 0.000 0.000 0.000 0.000 0.002 0.752 7.097 10.857 13.317 17.146 20.827 22.746 23.407 22.952 23.401 21.384 18.482 14.801 11.237 9.560 7.999 6.791 0.975 0.000 0.000 0.000 0.000 0.000 0.000 0.000 0.000 0.000 0.000 0.000 0.000 0.000 0.000 0.000 0.000 0.000 0.000 0.000 0.000 0.000 0.000 0.000 0.000 0.000 0.000 0.000 0.000
0.000 0.000 0.000 0.000 0.000 0.000 0.000 0.000 0.000 0.000 0.000 0.000 0.338 5.124 9.510 12.306 15.654 18.502 20.488 23.163 24.404 23.184 21.294 19.984 16.576 12.166 10.012 7.652 7.318 3.028 0.000 0.000 0.000 0.000 0.000 0.000 0.000 0.000 0.000 0.000 0.000 0.000 0.000 0.000 0.000 0.000 0.000 0.000 0.000 0.000 0.000 0.000 0.000 0.000 0.000 0.000 0.000 0.000
0.000 0.000 0.000 0.000 0.000 0.000 0.000 0.000 0.000 0.000 0.000 0.000 0.116 3.439 8.123 10.953 14.002 17.331 19.732 21.988 23.019 22.275 21.494 20.608 17.170 13.635 9.639 8.346 7.630 5.343 0.000 0.000 0.000 0.000 0.000 0.000 0.000 0.000 0.000 0.000 0.000 0.000 0.000 0.000 0.000 0.000 0.000 0.000 0.000 0.000 0.000 0.000 0.000 0.000 0.000 0.000 0.000 0.000
0.000 0.000 0.000 0.000 0.000 0.000 0.000 0.000 0.000 0.000 0.000 0.000 0.010 2.016 6.754 9.903 11.991 15.257 19.025 21.461 21.381 22.067 23.128 21.120 19.137 15.916 10.863 7.317 8.217 7.519 0.000 0.000 0.000 0.000 0.000 0.000 0.000 0.000 0.000 0.000 0.000 0.000 0.000 0.000 0.000 0.000 0.000 0.000 0.000 0.000 0.000 0.000 0.000 0.000 0.000 0.000 0.000 0.000
0.000 0.000 0.000 0.000 0.000 0.000 0.000 0.000 0.000 0.000 0.000 0.000 0.001 0.533 5.205 8.565 10.483 13.840 17.893 20.044 21.629 20.661 21.385 19.507 19.767 14.748 10.480 9.403 10.242 7.897 0.000 0.000 0.000 0.000 0.000 0.000 0.000 0.000 0.000 0.000 0.000 0.000 0.000 0.000 0.000 0.000 0.000 0.000 0.000 0.000 0.000 0.000 0.000 0.000 0.000 0.000 0.000 0.000
0.000 0.000 0.000 0.000 0.000 0.000 0.000 0.000 0.000 0.000 0.000 0.000 0.000 0.037 3.193 7.510 9.012 12.226 16.347 19.907 19.980 20.941 21.717 20.867 19.045 15.042 11.075 9.709 10.121 8.247 0.000 0.000 0.000 0.000 0.000 0.000 0.000 0.000 0.000 0.000 0.000 0.000 0.000 0.000 0.000 0.000 0.000 0.000 0.000 0.000 0.000 0.000 0.000 0.000 0.000 0.000 0.000 0.000
0.000 0.000 0.000 0.000 0.000 0.000 0.000 0.000 0.000 0.000 0.000 0.000 0.000 0.000 1.190 6.527 8.440 10.669 14.146 17.298 18.726 20.624 19.588 19.715 18.196 15.815 11.373 8.833 9.608 8.027 0.288 0.000 0.000 0.000 0.000 0.000 0.000 0.000 0.000 0.000 0.000 0.000 0.000 0.000 0.000 0.000 0.000 0.000 0.000 0.000 0.000 0.000 0.000 0.000 0.000 0.000 0.000 0.000
0.000 0.000 0.000 0.000 0.000 0.000 0.000 0.000 0.000 0.000 0.000 0.000 0.000 0.000 0.514 5.339 7.646 8.760 11.239 14.842 19.303 18.457 20.615 20.038 17.784 15.612 11.209 10.221 9.121 7.739 2.735 0.000 0.000 0.000 0.000 0.000 0.000 0.000 0.000 0.000 0.000 0.000 0.000 0.000 0.000 0.000 0.000 0.000 0.000 0.000 0.000 0.000 0.000 0.000 0.000 0.000 0.000 0.000
0.000 0.000 0.000 0.000 0.000 0.000 0.000 0.000 0.000 0.000 0.000 0.000 0.000 0.000 0.137 3.819 7.089 7.906 9.601 13.397 17.329 18.579 18.729 19.577 18.351 14.175 11.727 10.461 8.913 8.050 4.634 0.033 0.000 0.000 0.000 0.000 0.000 0.000 0.000 0.000 0.000 0.000 0.000 0.000 0.000 0.000 0.000 0.000 0.000 0.000 0.000 0.000 0.000 0.000 0.000 0.000 0.000 0.000
0.000 0.000 0.000 0.000 0.000 0.000 0.000 0.000 0.000 0.000 0.000 0.000 0.000 0.000 0.016 1.894 6.264 6.849 7.442 10.344 14.500 17.072 18.274 19.069 16.796 14.142 12.353 12.671 9.025 8.162 6.099 1.565 0.053 0.000 0.000 0.000 0.000 0.000 0.000 0.000 0.000 0.000 0.000 0.000 0.000 0.000 0.000 0.000 0.000 0.000 0.000 0.000 0.000 0.000 0.000 0.000 0.000 0.000
0.000 0.000 0.000 0.000 0.000 0.000 0.000 0.000 0.000 0.000 0.000 0.000 0.000 0.000 0.001 0.389 5.421 6.711 6.818 8.390 12.282 16.270 17.834 17.834 15.825 13.080 14.553 12.980 9.374 8.564 6.327 4.548 1.706 0.009 0.000 0.000 0.000 0.000 0.000 0.000 0.000 0.000 0.000 0.000 0.000 0.000 0.000 0.000 0.000 0.000 0.000 0.000 0.000 0.000 0.000 0.000 0.000 0.000
0.000 0.000 0.000 0.000 0.000 0.000 0.000 0.000 0.000 0.000 0.000 0.000 0.000 0.000 0.000 0.001 3.927 6.330 6.405 7.096 9.577 14.267 15.235 16.163 14.385 13.764 16.406 13.717 10.126 7.266 5.896 6.536 4.787 0.798 0.000 0.000 0.000 0.000 0.000 0.000 0.000 0.000 0.000 0.000 0.000 0.000 0.000 0.000 0.000 0.000 0.000 0.000 0.000 0.000 0.000 0.000 0.000 0.000
0.000 0.000 0.000 0.000 0.000 0.000 0.000 0.000 0.000 0.000 0.000 0.000 0.000 0.000 0.000 0.001 2.667 5.757 6.474 5.982 6.601 10.778 14.684 14.805 14.550 16.795 17.057 14.392 10.643 7.303 6.777 7.586 5.886 3.298 0.000 0.000 0.000 0.000 0.000 0.000 0.000 0.000 0.000 0.000 0.000 0.000 0.000 0.000 0.000 0.000 0.000 0.000 0.000 0.000 0.000 0.000 0.000 0.000
0.000 0.000 0.000 0.000 0.000 0.000 0.000 0.000 0.000 0.000 0.000 0.000 0.000 0.000 0.000 0.001 1.849 4.773 6.018 5.524 5.736 8.930 14.470 15.569 16.384 17.159 17.515 14.457 10.252 7.668 7.591 7.236 6.310 4.428 0.052 0.000 0.000 0.000 0.000 0.000 0.000 0.000 0.000 0.000 0.000 0.000 0.000 0.000 0.000 0.000 0.000 0.000 0.000 0.000 0.000 0.000 0.000 0.000
0.000 0.000 0.000 0.000 0.000 0.000 0.000 0.000 0.000 0.000 0.000 0.000 0.000 0.000 0.000 0.009 0.951 3.736 5.207 5.360 5.022 5.769 13.246 14.545 15.784 15.196 17.087 13.556 10.970 8.452 7.447 6.786 6.849 4.915 1.269 0.000 0.000 0.000 0.000 0.000 0.000 0.000 0.000 0.000 0.000 0.000 0.000 0.000 0.000 0.000 0.000 0.000 0.000 0.000 0.000 0.000 0.000 0.000
0.000 0.000 0.000 0.000 0.000 0.000 0.000 0.000 0.000 0.000 0.000 0.000 0.000 0.000 0.000 0.003 0.521 2.647 4.276 4.586 4.889 4.295 9.854 13.678 15.094 14.734 16.183 14.289 12.108 8.777 6.765 7.785 6.968 6.057 3.349 0.001 0.000 0.000 0.000 0.000 0.000 0.000 0.000 0.000 0.000 0.000 0.000 0.000 0.000 0.000 0.000 0.000 0.000 0.000 0.000 0.000 0.000 0.000
0.000 0.000 0.000 0.000 0.000 0.000 0.000 0.000 0.000 0.000 0.000 0.000 0.000 0.000 0.000 0.000 0.000 1.631 3.515 4.880 4.981 4.141 6.187 12.674 13.629 15.089 15.407 14.927 13.224 9.379 7.707 8.939 8.317 7.152 4.630 0.322 0.000 0.000 0.000 0.000 0.000 0.000 0.000 0.000 0.000 0.000 0.000 0.000 0.000 0.000 0.000 0.000 0.000 0.000 0.000 0.000 0.000 0.000
0.000 0.000 0.000 0.000 0.000 0.000 0.000 0.000 0.000 0.000 0.000 0.000 0.000 0.000 0.000 0.000 0.000 1.229 3.657 4.658 4.567 4.182 3.440 11.193 12.685 14.240 15.671 15.649 14.219 10.080 8.393 8.914 8.139 7.519 5.923 2.049 0.001 0.000 0.000 0.000 0.000 0.000 0.000 0.000 0.000 0.000 0.000 0.000 0.000 0.000 0.000 0.000 0.000 0.000 0.000 0.000 0.000 0.000
0.000 0.000 0.000 0.000 0.000 0.000 0.000 0.000 0.000 0.000 0.000 0.000 0.000 0.000 0.000 0.000 0.000 0.303 3.104 3.966 4.456 4.380 4.246 9.404 12.536 14.084 16.229 16.233 15.188 11.079 8.958 8.811 8.214 7.844 6.142 3.662 0.270 0.000 0.000 0.000 0.000 0.000 0.000 0.000 0.000 0.000 0.000 0.000 0.000 0.000 0.000 0.000 0.000 0.000 0.000 0.000 0.000 0.000
0.000 0.000 0.000 0.000 0.000 0.000 0.000 0.000 0.000 0.000 0.000 0.000 0.000 0.000 0.000 0.000 0.000 0.065 2.207 3.743 4.366 4.542 4.994 8.876 12.824 14.653 15.948 17.215 15.806 13.087 9.398 8.261 7.491 7.060 6.287 4.772 1.598 0.008 0.000 0.000 0.000 0.000 0.000 0.000 0.000 0.000 0.000 0.000 0.000 0.000 0.000 0.000 0.000 0.000 0.000 0.000 0.000 0.000
0.000 0.000 0.000 0.000 0.000 0.000 0.000 0.000 0.000 0.000 0.000 0.000 0.000 0.000 0.000 0.000 0.000 0.084 1.502 3.343 4.150 4.336 4.968 8.869 12.778 16.029 18.341 18.227 16.423 14.122 8.339 7.176 7.368 7.366 7.528 5.252 2.627 0.569 0.000 0.000 0.000 0.000 0.000 0.000 0.000 0.000 0.000 0.000 0.000 0.000 0.000 0.000 0.000 0.000 0.000 0.000 0.000 0.000
0.000 0.000 0.000 0.000 0.000 0.000 0.000 0.000 0.000 0.000 0.000 0.000 0.000 0.000 0.000 0.000 0.000 0.002 1.309 3.352 3.864 3.971 4.752 7.109 11.453 14.727 16.321 16.459 16.096 14.480 8.575 7.099 7.084 8.118 7.769 5.074 3.893 2.268 0.182 0.001 0.000 0.000 0.000 0.000 0.000 0.000 0.000 0.000 0.000 0.000 0.000 0.000 0.000 0.000 0.000 0.000 0.000 0.000
0.000 0.000 0.000 0.000 0.000 0.000 0.000 0.000 0.000 0.000 0.000 0.000 0.000 0.000 0.000 0.000 0.000 0.029 0.811 3.177 3.407 4.010 4.983 6.878 9.779 15.208 16.326 14.516 17.119 13.586 9.633 7.134 7.660 8.093 6.952 5.869 6.034 3.819 2.258 0.137 0.000 0.000 0.000 0.000 0.000 0.000 0.000 0.000 0.000 0.000 0.000 0.000 0.000 0.000 0.000 0.000 0.000 0.000
0.000 0.000 0.000 0.000 0.000 0.000 0.000 0.000 0.000 0.000 0.000 0.000 0.000 0.000 0.000 0.000 0.000 0.000 0.243 2.183 2.927 3.925 4.360 6.078 7.301 11.142 14.930 15.744 15.627 13.803 10.622 7.070 7.576 7.560 7.839 7.824 8.034 4.871 3.272 0.911 0.000 0.000 0.000 0.000 0.000 0.000 0.000 0.000 0.000 0.000 0.000 0.000 0.000 0.000 0.000 0.000 0.000 0.000
0.000 0.000 0.000 0.000 0.000 0.000 0.000 0.000 0.000 0.000 0.000 0.000 0.000 0.000 0.000 0.000 0.000 0.000 0.053 1.735 2.754 3.561 3.802 5.107 5.974 6.894 12.065 13.968 14.839 14.134 11.357 7.517 7.200 7.807 8.365 8.774 8.623 5.479 1.975 2.806 0.015 0.000 0.000 0.000 0.000 0.000 0.000 0.000 0.000 0.000 0.000 0.000 0.000 0.000 0.000 0.000 0.000 0.000
0.000 0.000 0.000 0.000 0.000 0.000 0.000 0.000 0.000 0.000 0.000 0.000 0.000 0.000 0.000 0.000 0.000 0.000 0.096 1.965 3.629 3.652 3.880 3.970 4.484 5.167 10.038 14.274 15.237 14.621 12.010 8.576 7.142 7.896 8.053 9.110 7.388 5.683 1.975 3.796 0.496 0.000 0.000 0.000 0.000 0.000 0.000 0.000 0.000 0.000 0.000 0.000 0.000 0.000 0.000 0.000 0.000 0.000
0.000 0.000 0.000 0.000 0.000 0.000 0.000 0.000 0.000 0.000 0.000 0.000 0.000 0.000 0.000 0.000 0.000 0.000 0.382 2.591 3.655 3.900 3.834 4.176 4.536 4.809 6.475 13.980 15.016 15.542 12.635 9.598 7.694 7.627 8.585 9.881 8.007 6.600 4.268 4.002 1.636 0.000 0.000 0.000 0.000 0.000 0.000 0.000 0.000 0.000 0.000 0.000 0.000 0.000 0.000 0.000 0.000 0.000
0.000 0.000 0.000 0.000 0.000 0.000 0.000 0.000 0.000 0.000 0.000 0.000 0.000 0.000 0.000 0.000 0.000 0.000 0.974 2.803 3.335 4.036 4.059 4.382 4.875 5.249 5.893 13.949 16.027 14.732 13.175 10.695 8.484 7.286 8.167 8.378 9.011 7.214 5.334 4.008 2.748 0.048 0.000 0.000 0.000 0.000 0.000 0.000 0.000 0.000 0.000 0.000 0.000 0.000 0.000 0.000 0.000 0.000
0.000 0.000 0.000 0.000 0.000 0.000 0.000 0.000 0.000 0.000 0.000 0.000 0.000 0.000 0.000 0.000 0.000 0.000 0.262 2.615 3.647 3.902 3.531 4.503 5.493 5.215 6.167 12.683 16.477 15.436 13.216 11.673 9.795 7.699 7.867 7.853 8.741 6.897 6.296 4.683 3.664 1.030 0.000 0.000 0.000 0.000 0.000 0.000 0.000 0.000 0.000 0.000 0.000 0.000 0.000 0.000 0.000 0.000
0.000 0.000 0.000 0.000 0.000 0.000 0.000 0.000 0.000 0.000 0.000 0.000 0.000 0.000 0.000 0.000 0.000 0.000 0.227 2.519 3.552 3.526 3.217 4.309 5.668 4.986 6.228 11.987 16.604 17.557 15.711 12.693 11.188 7.984 7.984 8.491 8.649 7.526 6.698 5.256 4.161 2.634 0.041 0.000 0.000 0.000 0.000 0.000 0.000 0.000 0.000 0.000 0.000 0.000 0.000 0.000 0.000 0.000
0.000 0.000 0.000 0.000 0.000 0.000 0.000 0.000 0.000 0.000 0.000 0.000 0.000 0.000 0.000 0.000 0.000 0.000 0.011 2.092 3.585 3.863 3.903 4.200 5.250 5.328 6.209 11.490 15.564 17.688 17.213 14.427 11.666 9.081 7.786 7.911 7.462 7.990 7.476 6.063 4.967 3.299 0.629 0.000 0.000 0.000 0.000 0.000 0.000 0.000 0.000 0.000 0.000 0.000 0.000 0.000 0.000 0.000
0.000 0.000 0.000 0.000 0.000 0.000 0.000 0.000 0.000 0.000 0.000 0.000 0.000 0.000 0.000 0.000 0.000 0.000 0.075 1.799 3.332 3.903 4.205 3.965 4.597 5.518 6.466 10.753 15.797 17.737 18.124 16.933 12.468 9.203 7.443 7.862 8.028 8.230 8.183 7.061 5.624 3.833 2.325 0.011 0.000 0.000 0.000 0.000 0.000 0.000 0.000 0.000 0.000 0.000 0.000 0.000 0.000 0.000
0.000 0.000 0.000 0.000 0.000 0.000 0.000 0.000 0.000 0.000 0.000 0.000 0.000 0.000 0.000 0.000 0.000 0.000 0.031 1.740 2.880 3.693 3.767 3.897 4.541 5.451 6.752 9.708 15.825 18.327 17.897 15.886 12.127 8.308 7.697 7.602 8.172 8.788 8.386 8.044 6.214 5.357 3.843 0.681 0.000 0.000 0.000 0.000 0.000 0.000 0.000 0.000 0.000 0.000 0.000 0.000 0.000 0.000
0.000 0.000 0.000 0.000 0.000 0.000 0.000 0.000 0.000 0.000 0.000 0.000 0.000 0.000 0.000 0.000 0.000 0.000 0.195 1.727 2.983 3.422 3.318 3.524 4.272 5.226 6.622 9.001 14.818 17.954 18.065 17.614 14.595 9.539 8.416 7.778 8.517 8.989 9.501 8.260 7.838 6.578 4.499 2.407 0.000 0.000 0.000 0.000 0.000 0.000 0.000 0.000 0.000 0.000 0.000 0.000 0.000 0.000
0.000 0.000 0.000 0.000 0.000 0.000 0.000 0.000 0.000 0.000 0.000 0.000 0.000 0.000 0.000 0.000 0.000 0.000 0.081 1.520 2.981 3.150 3.407 3.642 4.365 5.356 6.327 7.975 12.456 16.151 18.059 16.903 14.436 11.063 8.607 8.507 8.913 9.337 9.272 9.011 8.924 6.832 4.755 3.580 0.135 0.000 0.000 0.000 0.000 0.000 0.000 0.000 0.000 0.000 0.000 0.000 0.000 0.000
0.000 0.000 0.000 0.000 0.000 0.000 0.000 0.000 0.000 0.000 0.000 0.000 0.000 0.000 0.000 0.000 0.000 0.000 0.035 1.053 3.103 3.211 3.395 3.615 4.262 5.116 5.941 7.619 10.696 16.688 17.932 15.970 14.818 10.193 9.102 9.281 9.000 8.860 9.028 9.550 9.066 6.500 5.756 4.354 1.252 0.000 0.000 0.000 0.000 0.000 0.000 0.000 0.000 0.000 0.000 0.000 0.000 0.000
0.000 0.000 0.000 0.000 0.000 0.000 0.000 0.000 0.000 0.000 0.000 0.000 0.000 0.000 0.000 0.000 0.000 0.000 0.000 0.096 2.522 3.318 3.240 3.396 3.863 4.718 5.841 7.775 10.445 16.735 16.296 17.103 13.864 10.552 9.338 7.610 7.463 7.869 9.134 10.115 8.389 6.909 6.678 5.072 2.351 0.043 0.000 0.000 0.000 0.000 0.000 0.000 0.000 0.000 0.000 0.000 0.000 0.000
0.000 0.000 0.000 0.000 0.000 0.000 0.000 0.000 0.000 0.000 0.000 0.000 0.000 0.000 0.000 0.000 0.000 0.000 0.000 0.169 1.725 3.359 3.351 3.657 4.164 4.263 6.322 7.662 9.764 14.347 17.051 15.553 13.494 11.385 8.160 6.879 7.349 8.331 9.709 8.854 8.326 8.404 7.744 5.283 3.881 1.006 0.002 0.000 0.000 0.000 0.000 0.000 0.000 0.000 0.000 0.000 0.000 0.000
0.000 0.000 0.000 0.000 0.000 0.000 0.000 0.000 0.000 0.000 0.000 0.000 0.000 0.000 0.000 0.000 0.000 0.000 0.000 0.277 2.154 3.614 3.774 3.532 3.769 5.180 5.888 7.277 8.683 14.755 16.143 15.656 15.225 12.199 9.391 8.212 8.140 8.922 8.960 8.507 9.386 8.498 6.975 6.117 4.853 2.758 0.488 0.000 0.000 0.000 0.000 0.000 0.000 0.000 0.000 0.000 0.000 0.000
0.000 0.000 0.000 0.000 0.000 0.000 0.000 0.000 0.000 0.000 0.000 0.000 0.000 0.000 0.000 0.000 0.000 0.000 0.001 0.448 2.276 3.623 3.975 3.065 3.897 4.685 3.032 5.732 8.591 12.960 15.584 16.797 15.622 12.535 9.874 9.020 9.110 8.379 8.934 9.230 8.826 8.274 7.007 6.593 5.139 4.695 2.719 0.000 0.000 0.000 0.000 0.000 0.000 0.000 0.000 0.000 0.000 0.000
0.000 0.000 0.000 0.000 0.000 0.000 0.000 0.000 0.000 0.000 0.000 0.000 0.000 0.000 0.000 0.000 0.000 0.000 0.000 0.072 1.195 3.107 4.097 3.298 3.352 3.385 2.949 5.220 8.547 12.853 15.886 16.933 16.292 13.765 10.587 10.257 9.189 8.552 9.159 8.688 8.126 7.975 7.202 6.966 6.564 5.871 4.156 0.000 0.000 0.000 0.000 0.000 0.000 0.000 0.000 0.000 0.000 0.000
0.000 0.000 0.000 0.000 0.000 0.000 0.000 0.000 0.000 0.000 0.000 0.000 0.000 0.000 0.000 0.000 0.000 0.000 0.000 0.023 0.642 2.685 4.209 3.627 3.096 3.129 3.372 5.885 8.298 12.416 15.198 16.303 15.891 12.460 11.533 10.626 8.414 8.631 8.190 6.711 7.618 8.010 8.217 7.998 7.105 5.843 5.004 0.000 0.000 0.000 0.000 0.000 0.000 0.000 0.000 0.000 0.000 0.000
0.000 0.000 0.000 0.000 0.000 0.000 0.000 0.000 0.000 0.000 0.000 0.000 0.000 0.000 0.000 0.000 0.000 0.000 0.000 0.000 0.025 0.798 3.956 3.728 2.898 2.893 4.260 6.160 8.448 11.788 15.772 16.094 14.588 12.685 12.490 10.608 9.355 8.813 7.588 6.669 7.300 8.386 8.570 7.974 7.180 6.373 5.284 0.058 0.000 0.000 0.000 0.000 0.000 0.000 0.000 0.000 0.000 0.000
0.000 0.000 0.000 0.000 0.000 0.000 0.000 0.000 0.000 0.000 0.000 0.000 0.000 0.000 0.000 0.000 0.000 0.000 0.000 0.000 0.000 1.248 2.864 3.443 2.295 3.139 4.213 5.723 7.973 10.660 13.655 15.208 14.292 14.170 13.991 10.925 9.327 8.116 6.982 6.904 7.746 8.475 8.231 7.847 7.153 6.554 5.279 0.629 0.000 0.000 0.000 0.000 0.000 0.000 0.000 0.000 0.000 0.000
0.000 0.000 0.000 0.000 0.000 0.000 0.000 0.000 0.000 0.000 0.000 0.000 0.000 0.000 0.000 0.000 0.000 0.000 0.000 0.000 0.000 0.001 2.388 2.581 2.644 3.498 3.887 5.069 7.195 9.970 12.041 15.151 14.297 15.282 13.664 11.346 10.018 8.700 7.955 7.012 7.475 8.017 8.195 8.252 7.848 6.085 4.534 1.000 0.000 0.000 0.000 0.000 0.000 0.000 0.000 0.000 0.000 0.000
0.000 0.000 0.000 0.000 0.000 0.000 0.000 0.000 0.000 0.000 0.000 0.000 0.000 0.000 0.000 0.000 0.000 0.000 0.000 0.000 0.000 0.000 0.991 2.745 3.105 3.515 3.857 4.386 6.343 8.711 11.777 13.423 15.199 15.149 14.628 12.092 10.797 8.727 7.188 6.216 6.327 6.690 7.788 7.716 7.020 4.124 3.443 0.506 0.000 0.000 0.000 0.000 0.000 0.000 0.000 0.000 0.000 0.000
0.000 0.000 0.000 0.000 0.000 0.000 0.000 0.000 0.000 0.000 0.000 0.000 0.000 0.000 0.000 0.000 0.000 0.000 0.000 0.000 0.000 0.000 0.653 2.333 3.191 3.517 3.669 3.677 5.781 8.255 11.008 13.632 14.225 15.539 14.371 12.765 10.782 7.784 6.475 5.441 5.436 6.132 7.077 6.852 5.920 4.676 4.058 1.373 0.000 0.000 0.000 0.000 0.000 0.000 0.000 0.000 0.000 0.000
0.000 0.000 0.000 0.000 0.000 0.000 0.000 0.000 0.000 0.000 0.000 0.000 0.000 0.000 0.000 0.000 0.000 0.000 0.000 0.000 0.000 0.001 0.311 1.638 2.683 3.376 3.164 3.491 4.873 7.524 9.905 12.218 13.838 13.894 13.648 12.749 9.713 6.534 5.910 5.468 5.014 5.656 5.879 6.184 6.414 5.654 4.213 3.178 0.000 0.000 0.000 0.000 0.000 0.000 0.000 0.000 0.000 0.000
0.000 0.000 0.000 0.000 0.000 0.000 0.000 0.000 0.000 0.000 0.000 0.000 0.000 0.000 0.000 0.000 0.000 0.000 0.000 0.000 0.000 0.000 0.037 0.838 2.026 2.924 2.994 3.256 3.965 6.084 8.063 10.469 12.912 13.114 12.154 11.570 8.923 7.065 6.981 5.398 5.060 5.126 4.742 5.866 6.560 5.232 4.341 3.535 0.004 0.000 0.000 0.000 0.000 0.000 0.000 0.000 0.000 0.000
0.000 0.000 0.000 0.000 0.000 0.000 0.000 0.000 0.000 0.000 0.000 0.000 0.000 0.000 0.000 0.000 0.000 0.000 0.000 0.000 0.000 0.000 0.001 0.202 1.288 2.650 2.804 2.943 3.526 5.134 7.274 9.278 11.504 12.155 12.482 11.549 9.626 8.188 6.927 5.663 5.341 4.845 4.981 6.002 6.038 5.435 4.542 3.160 0.405 0.000 0.000 0.000 0.000 0.000 0.000 0.000 0.000 0.000
0.000 0.000 0.000 0.000 0.000 0.000 0.000 0.000 0.000 0.000 0.000 0.000 0.000 0.000 0.000 0.000 0.000 0.000 0.000 0.000 0.000 0.000 0.000 0.005 0.577 2.269 2.629 2.761 3.323 3.901 5.904 7.555 9.151 10.836 11.160 10.958 10.025 9.227 7.144 6.438 5.390 5.217 5.156 5.189 6.029 5.591 4.561 3.199 2.138 0.000 0.000 0.000 0.000 0.000 0.000 0.000 0.000 0.000
0.000 0.000 0.000 0.000 0.000 0.000 0.000 0.000 0.000 0.000 0.000 0.000 0.000 0.000 0.000 0.000 0.000 0.000 0.000 0.000 0.000 0.000 0.000 0.001 0.473 1.802 2.402 2.712 3.057 3.528 4.606 6.204 8.255 10.260 10.502 10.981 10.511 8.833 7.819 6.577 5.639 5.040 4.286 4.011 5.464 5.523 4.785 3.048 2.570 0.004 0.000 0.000 0.000 0.000 0.000 0.000 0.000 0.000
0.000 0.000 0.000 0.000 0.000 0.000 0.000 0.000 0.000 0.000 0.000 0.000 0.000 0.000 0.000 0.000 0.000 0.000 0.000 0.000 0.000 0.000 0.000 0.001 0.252 1.304 2.169 2.487 2.827 2.822 3.741 5.378 6.955 8.706 10.031 11.101 10.614 8.463 7.829 6.386 5.660 3.894 3.342 2.794 4.964 5.535 5.037 2.833 2.280 0.273 0.000 0.000 0.000 0.000 0.000 0.000 0.000 0.000
0.000 0.000 0.000 0.000 0.000 0.000 0.000 0.000 0.000 0.000 0.000 0.000 0.000 0.000 0.000 0.000 0.000 0.000 0.000 0.000 0.000 0.000 0.000 0.000 0.206 0.875 1.641 2.147 2.584 2.427 3.197 4.701 6.304 7.867 10.098 10.835 9.996 8.465 8.213 6.550 4.707 3.273 2.761 3.595 5.045 5.744 5.216 3.294 2.521 1.554 0.029 0.000 0.000 0.000 0.000 0.000 0.000 0.000
0.000 0.000 0.000 0.000 0.000 0.000 0.000 0.000 0.000 0.000 0.000 0.000 0.000 0.000 0.000 0.000 0.000 0.000 0.000 0.000 0.000 0.000 0.000 0.000 0.016 0.941 1.389 2.029 2.434 2.797 3.022 4.269 6.127 7.676 10.022 11.304 8.998 8.548 7.601 5.671 4.131 3.519 3.467 4.226 4.923 5.814 5.379 3.500 2.902 2.378 0.956 0.000 0.000 0.000 0.000 0.000 0.000 0.000
0.000 0.000 0.000 0.000 0.000 0.000 0.000 0.000 0.000 0.000 0.000 0.000 0.000 0.000 0.000 0.000 0.000 0.000 0.000 0.000 0.000 0.000 0.000 0.000 0.000 0.006 0.865 1.870 2.308 2.674 2.956 3.925 5.736 7.143 9.381 10.751 9.083 7.944 7.440 5.048 3.756 3.444 3.768 3.929 4.753 5.832 5.160 3.404 3.129 2.889 2.471 0.131 0.000 0.000 0.000 0.000 0.000 0.000
0.000 0.000 0.000 0.000 0.000 0.000 0.000 0.000 0.000 0.000 0.000 0.000 0.000 0.000 0.000 0.000 0.000 0.000 0.000 0.000 0.000 0.000 0.000 0.000 0.000 0.000 0.381 1.526 2.264 2.160 2.798 3.569 5.384 6.440 7.492 9.675 8.255 6.723 6.402 4.442 3.976 3.614 3.646 3.396 4.522 5.507 4.936 3.378 3.109 2.922 2.660 0.963 0.017 0.000 0.000 0.000 0.000 0.000
0.000 0.000 0.000 0.000 0.000 0.000 0.000 0.000 0.000 0.000 0.000 0.000 0.000 0.000 0.000 0.000 0.000 0.000 0.000 0.000 0.000 0.000 0.000 0.000 0.000 0.000 0.112 1.190 1.935 2.106 2.691 3.141 4.280 5.451 6.144 8.452 7.167 5.694 5.323 5.003 4.699 4.307 3.761 3.865 3.909 4.700 4.876 3.367 2.937 2.788 2.542 1.761 0.524 0.000 0.000 0.000 0.000 0.000
0.000 0.000 0.000 0.000 0.000 0.000 0.000 0.000 0.000 0.000 0.000 0.000 0.000 0.000 0.000 0.000 0.000 0.000 0.000 0.000 0.000 0.000 0.000 0.000 0.000 0.000 0.000 0.913 1.802 2.304 2.498 2.761 3.551 4.366 4.068 6.606 5.318 4.852 4.815 5.539 5.194 4.039 3.888 4.092 3.962 4.521 4.849 3.040 2.630 2.665 2.610 2.356 2.075 0.088 0.000 0.000 0.000 0.000
0.000 0.000 0.000 0.000 0.000 0.000 0.000 0.000 0.000 0.000 0.000 0.000 0.000 0.000 0.000 0.000 0.000 0.000 0.000 0.000 0.000 0.000 0.000 0.000 0.000 0.000 0.002 1.021 1.736 2.084 2.176 2.391 2.988 3.101 3.863 5.235 4.978 4.616 5.363 5.410 4.433 3.430 4.384 3.557 4.156 4.230 4.397 2.796 2.572 2.567 2.492 2.632 2.874 1.244 0.002 0.000 0.000 0.000
0.000 0.000 0.000 0.000 0.000 0.000 0.000 0.000 0.000 0.000 0.000 0.000 0.000 0.000 0.000 0.000 0.000 0.000 0.000 0.000 0.000 0.000 0.000 0.000 0.000 0.000 0.007 0.562 1.339 1.730 2.077 2.075 2.312 2.880 2.035 4.480 4.820 4.860 5.292 4.618 3.402 3.954 3.793 1.423 3.194 4.296 4.073 3.127 2.624 2.487 2.465 2.637 2.510 2.366 0.056 0.000 0.000 0.000
0.000 0.000 0.000 0.000 0.000 0.000 0.000 0.000 0.000 0.000 0.000 0.000 0.000 0.000 0.000 0.000 0.000 0.000 0.000 0.000 0.000 0.000 0.000 0.000 0.000 0.000 0.002 0.208 0.858 1.307 1.824 1.916 1.808 2.151 3.836 4.866 4.720 4.750 4.426 3.700 2.478 3.350 2.830 1.004 1.708 4.049 3.984 3.328 2.559 2.381 2.386 2.286 1.813 2.475 0.008 0.000 0.000 0.000
0.000 0.000 0.000 0.000 0.000 0.000 0.000 0.000 0.000 0.000 0.000 0.000 0.000 0.000 0.000 0.000 0.000 0.000 0.000 0.000 0.000 0.000 0.000 0.000 0.000 0.000 0.000 0.000 0.053 0.365 1.084 1.473 1.456 0.107 3.411 3.936 3.904 4.212 3.511 2.905 1.865 3.086 3.163 2.925 2.792 3.282 3.782 3.133 2.453 2.256 2.109 2.146 2.300 2.205 0.247 0.000 0.000 0.000
0.000 0.000 0.000 0.000 0.000 0.000 0.000 0.000 0.000 0.000 0.000 0.000 0.000 0.000 0.000 0.000 0.000 0.000 0.000 0.000 0.000 0.000 0.000 0.000 0.000 0.000 0.000 0.000 0.000 0.002 0.637 1.493 1.821 2.240 2.892 2.835 2.935 3.231 3.082 3.577 3.342 3.824 4.100 3.725 2.884 2.727 3.070 2.934 2.356 2.137 2.021 1.977 1.985 1.748 0.728 0.000 0.000 0.000
0.000 0.000 0.000 0.000 0.000 0.000 0.000 0.000 0.000 0.000 0.000 0.000 0.000 0.000 0.000 0.000 0.000 0.000 0.000 0.000 0.000 0.000 0.000 0.000 0.000 0.000 0.000 0.000 0.000 0.000 0.243 1.351 1.860 1.892 1.572 1.939 1.864 3.007 2.968 3.916 3.580 4.183 3.850 3.056 2.532 2.119 2.550 2.770 2.329 2.049 1.903 1.736 1.641 1.932 1.360 0.000 0.000 0.000
0.000 0.000 0.000 0.000 0.000 0.000 0.000 0.000 0.000 0.000 0.000 0.000 0.000 0.000 0.000 0.000 0.000 0.000 0.000 0.000 0.000 0.000 0.000 0.000 0.000 0.000 0.000 0.000 0.000 0.000 0.044 0.559 1.480 1.650 0.069 0.539 1.544 2.369 2.463 2.882 3.382 3.792 2.817 1.893 2.028 0.992 1.356 1.759 2.175 1.911 1.674 1.503 1.766 2.414 1.774 0.002 0.000 0.000
0.000 0.000 0.000 0.000 0.000 0.000 0.000 0.000 0.000 0.000 0.000 0.000 0.000 0.000 0.000 0.000 0.000 0.000 0.000 0.000 0.000 0.000 0.000 0.000 0.000 0.000 0.000 0.000 0.000 0.000 0.000 0.018 0.374 1.620 1.907 0.700 2.059 2.138 1.402 2.044 2.803 2.779 1.863 1.195 0.447 0.096 0.067 0.796 1.969 1.690 1.437 1.260 1.573 2.083 1.735 0.110 0.000 0.000
0.000 0.000 0.000 0.000 0.000 0.000 0.000 0.000 0.000 0.000 0.000 0.000 0.000 0.000 0.000 0.000 0.000 0.000 0.000 0.000 0.000 0.000 0.000 0.000 0.000 0.000 0.000 0.000 0.000 0.000 0.000 0.000 0.557 1.344 2.087 2.373 2.618 1.867 0.592 1.261 2.410 2.686 1.627 0.718 0.074 0.020 0.072 0.306 0.971 1.484 0.979 0.074 0.903 1.017 1.362 0.744 0.000 0.000
0.000 0.000 0.000 0.000 0.000 0.000 0.000 0.000 0.000 0.000 0.000 0.000 0.000 0.000 0.000 0.000 0.000 0.000 0.000 0.000 0.000 0.000 0.000 0.000 0.000 0.000 0.000 0.000 0.000 0.000 0.000 0.000 0.002 1.073 1.842 2.530 2.403 0.239 0.377 0.137 2.377 1.504 0.075 0.008 0.022 0.067 0.083 0.089 0.765 1.131 0.047 0.085 0.087 0.818 1.288 1.184 0.005 0.000
0.000 0.000 0.000 0.000 0.000 0.000 0.000 0.000 0.000 0.000 0.000 0.000 0.000 0.000 0.000 0.000 0.000 0.000 0.000 0.000 0.000 0.000 0.000 0.000 0.000 0.000 0.000 0.000 0.000 0.000 0.000 0.000 0.000 0.103 1.286 1.698 1.830 0.068 0.634 2.214 2.073 0.052 0.006 0.049 0.028 0.085 0.088 0.059 0.096 0.077 0.087 0.073 0.061 1.040 1.237 0.823 0.178 0.000
0.000 0.000 0.000 0.000 0.000 0.000 0.000 0.000 0.000 0.000 0.000 0.000 0.000 0.000 0.000 0.000 0.000 0.000 0.000 0.000 0.000 0.000 0.000 0.000 0.000 0.000 0.000 0.000 0.000 0.000 0.000 0.000 0.000 0.000 0.582 1.283 1.645 2.123 2.477 2.285 1.040 0.044 0.033 0.075 0.088 0.008 0.043 0.044 0.061 0.092 0.570 0.082 0.090 0.949 1.091 0.812 0.490 0.001
0.000 0.000 0.000 0.000 0.000 0.000 0.000 0.000 0.000 0.000 0.000 0.000 0.000 0.000 0.000 0.000 0.000 0.000 0.000 0.000 0.000 0.000 0.000 0.000 0.000 0.000 0.000 0.000 0.000 0.000 0.000 0.000 0.000 0.000 0.016 0.923 1.375 1.636 2.168 1.761 0.236 0.098 0.017 0.064 0.041 0.069 0.067 0.064 0.082 0.077 0.083 0.092 0.301 1.099 1.270 1.093 0.637 0.085
0.000 0.000 0.000 0.000 0.000 0.000 0.000 0.000 0.000 0.000 0.000 0.000 0.000 0.000 0.000 0.000 0.000 0.000 0.000 0.000 0.000 0.000 0.000 0.000 0.000 0.000 0.000 0.000 0.000 0.000 0.000 0.000 0.000 0.000 0.008 0.106 1.027 1.531 1.846 1.763 1.162 0.181 0.099 0.021 0.009 0.071 0.071 0.089 0.070 0.088 0.080 0.020 0.229 1.300 1.148 1.215 0.790 0.375
0.000 0.000 0.000 0.000 0.000 0.000 0.000 0.000 0.000 0.000 0.000 0.000 0.000 0.000 0.000 0.000 0.000 0.000 0.000 0.000 0.000 0.000 0.000 0.000 0.000 0.000 0.000 0.000 0.000 0.000 0.000 0.000 0.000 0.000 0.010 0.052 1.077 1.556 1.594 1.307 1.331 0.141 0.094 0.041 0.079 0.093 0.090 0.040 0.040 0.202 0.082 0.171 0.232 0.783 0.922 1.248 1.021 0.449
0.000 0.000 0.000 0.000 0.000 0.000 0.000 0.000 0.000 0.000 0.000 0.000 0.000 0.000 0.000 0.000 0.000 0.000 0.000 0.000 0.000 0.000 0.000 0.000 0.000 0.000 0.000 0.000 0.000 0.000 0.000 0.000 0.000 0.000 0.000 0.134 0.634 1.129 1.414 1.436 1.209 0.401 0.090 0.061 0.307 0.075 0.065 0.047 0.342 0.103 0.081 0.275 1.118 1.246 1.327 1.050 1.232 1.000
0.000 0.000 0.000 0.000 0.000 0.000 0.000 0.000 0.000 0.000 0.000 0.000 0.000 0.000 0.000 0.000 0.000 0.000 0.000 0.000 0.000 0.000 0.000 0.000 0.000 0.000 0.000 0.000 0.000 0.000 0.000 0.000 0.000 0.000 0.000 0.005 0.149 0.435 1.186 1.421 1.390 1.290 0.089 0.088 0.079 0.092 0.092 0.606 0.085 0.096 0.059 0.104 1.679 1.750 1.493 1.033 1.446 1.370
0.000 0.000 0.000 0.000 0.000 0.000 0.000 0.000 0.000 0.000 0.000 0.000 0.000 0.000 0.000 0.000 0.000 0.000 0.000 0.000 0.000 0.000 0.000 0.000 0.000 0.000 0.000 0.000 0.000 0.000 0.000 0.000 0.000 0.000 0.000 0.000 0.001 0.073 0.598 1.331 1.380 1.426 1.291 0.842 0.034 0.019 0.033 0.076 0.090 0.084 0.080 0.211 1.689 1.924 1.186 1.129 1.545 1.467
0.000 0.000 0.000 0.000 0.000 0.000 0.000 0.000 0.000 0.000 0.000 0.000 0.000 0.000 0.000 0.000 0.000 0.000 0.000 0.000 0.000 0.000 0.000 0.000 0.000 0.000 0.000 0.000 0.000 0.000 0.000 0.000 0.000 0.000 0.000 0.000 0.000 0.000 0.083 1.081 1.455 1.420 1.112 0.090 0.087 0.068 0.066 0.076 0.078 0.021 0.037 0.213 1.688 1.127 0.252 0.528 1.227 1.545
0.000 0.000 0.000 0.000 0.000 0.000 0.000 0.000 0.000 0.000 0.000 0.000 0.000 0.000 0.000 0.000 0.000 0.000 0.000 0.000 0.000 0.000 0.000 0.000 0.000 0.000 0.000 0.000 0.000 0.000 0.000 0.000 0.000 0.000 0.000 0.000 0.000 0.000 0.002 0.622 1.322 1.375 1.045 0.042 0.022 0.052 0.086 0.064 0.083 0.063 0.084 0.095 0.251 0.315 0.638 0.306 1.189 1.697
0.000 0.000 0.000 0.000 0.000 0.000 0.000 0.000 0.000 0.000 0.000 0.000 0.000 0.000 0.000 0.000 0.000 0.000 0.000 0.000 0.000 0.000 0.000 0.000 0.000 0.000 0.000 0.000 0.000 0.000 0.000 0.000 0.000 0.000 0.000 0.000 0.000 0.000 0.000 0.046 0.711 1.239 1.165 0.228 0.075 0.030 0.059 0.086 0.086 0.086 0.077 0.097 0.072 1.407 1.467 1.019 1.392 1.536
0.000 0.000 0.000 0.000 0.000 0.000 0.000 0.000 0.000 0.000 0.000 0.000 0.000 0.000 0.000 0.000 0.000 0.000 0.000 0.000 0.000 0.000 0.000 0.000 0.000 0.000 0.000 0.000 0.000 0.000 0.000 0.000 0.000 0.000 0.000 0.000 0.000 0.000 0.000 0.000 0.094 0.999 1.048 0.874 0.055 0.062 0.077 0.041 0.089 0.089 0.085 0.143 0.470 1.819 1.588 0.777 0.806 0.845
0.000 0.000 0.000 0.000 0.000 0.000 0.000 0.000 0.000 0.000 0.000 0.000 0.000 0.000 0.000 0.000 0.000 0.000 0.000 0.000 0.000 0.000 0.000 0.000 0.000 0.000 0.000 0.000 0.000 0.000 0.000 0.000 0.000 0.000 0.000 0.000 0.000 0.000 0.000 0.000 0.016 0.862 1.060 0.812 0.216 0.085 0.104 0.096 0.046 0.024 0.096 0.097 1.264 1.493 1.352 0.760 0.188 0.844
0.000 0.000 0.000 0.000 0.000 0.000 0.000 0.000 0.000 0.000 0.000 0.000 0.000 0.000 0.000 0.000 0.000 0.000 0.000 0.000 0.000 0.000 0.000 0.000 0.000 0.000 0.000 0.000 0.000 0.000 0.000 0.000 0.000 0.000 0.000 0.000 0.000 0.000 0.000 0.000 0.002 0.335 1.053 1.077 1.265 0.098 1.200 0.091 0.055 0.080 0.095 0.066 0.476 1.210 1.278 0.083 0.303 0.277
0.000 0.000 0.000 0.000 0.000 0.000 0.000 0.000 0.000 0.000 0.000 0.000 0.000 0.000 0.000 0.000 0.000 0.000 0.000 0.000 0.000 0.000 0.000 0.000 0.000 0.000 0.000 0.000 0.000 0.000 0.000 0.000 0.000 0.000 0.000 0.000 0.000 0.000 0.000 0.000 0.001 0.099 0.983 1.388 1.252 1.448 1.395 0.722 0.048 0.086 0.096 0.097 0.338 0.985 0.087 0.081 0.087 0.090
0.000 0.000 0.000 0.000 0.000 0.000 0.000 0.000 0.000 0.000 0.000 0.000 0.000 0.000 0.000 0.000 0.000 0.000 0.000 0.000 0.000 0.000 0.000 0.000 0.000 0.000 0.000 0.000 0.000 0.000 0.000 0.000 0.000 0.000 0.000 0.000 0.000 0.000 0.000 0.000 0.000 0.213 0.578 1.125 0.965 1.422 0.179 0.095 0.027 0.013 0.065 0.060 0.686 0.301 0.098 0.073 0.082 0.084
0.000 0.000 0.000 0.000 0.000 0.000 0.000 0.000 0.000 0.000 0.000 0.000 0.000 0.000 0.000 0.000 0.000 0.000 0.000 0.000 0.000 0.000 0.000 0.000 0.000 0.000 0.000 0.000 0.000 0.000 0.000 0.000 0.000 0.000 0.000 0.000 0.000 0.000 0.000 0.000 0.000 0.001 0.370 0.092 1.262 1.076 0.062 0.070 0.090 0.039 0.072 0.083 0.977 0.087 0.607 0.066 0.054 0.052
0.000 0.000 0.000 0.000 0.000 0.000 0.000 0.000 0.000 0.000 0.000 0.000 0.000 0.000 0.000 0.000 0.000 0.000 0.000 0.000 0.000 0.000 0.000 0.000 0.000 0.000 0.000 0.000 0.000 0.000 0.000 0.000 0.000 0.000 0.000 0.000 0.000 0.000 0.000 0.000 0.000 0.001 0.044 0.615 1.253 1.071 0.086 0.086 0.023 0.097 0.095 0.096 0.891 1.040 1.207 0.051 0.069 0.076
0.000 0.000 0.000 0.000 0.000 0.000 0.000 0.000 0.000 0.000 0.000 0.000 0.000 0.000 0.000 0.000 0.000 0.000 0.000 0.000 0.000 0.000 0.000 0.000 0.000 0.000 0.000 0.000 0.000 0.000 0.000 0.000 0.000 0.000 0.000 0.000 0.000 0.000 0.000 0.000 0.000 0.000 0.027 0.662 1.000 1.017 0.087 0.054 0.242 0.263 0.351 0.389 1.657 1.344 0.097 0.305 0.071 0.037
0.000 0.000 0.000 0.000 0.000 0.000 0.000 0.000 0.000 0.000 0.000 0.000 0.000 0.000 0.000 0.000 0.000 0.000 0.000 0.000 0.000 0.000 0.000 0.000 0.000 0.000 0.000 0.000 0.000 0.000 0.000 0.000 0.000 0.000 0.000 0.000 0.000 0.000 0.000 0.000 0.000 0.000 0.001 0.444 0.384 0.928 0.093 0.265 2.575 2.435 2.442 2.637 1.901 0.367 0.094 0.069 0.066 0.058
0.000 0.000 0.000 0.000 0.000 0.000 0.000 0.000 0.000 0.000 0.000 0.000 0.000 0.000 0.000 0.000 0.000 0.000 0.000 0.000 0.000 0.000 0.000 0.000 0.000 0.000 0.000 0.000 0.000 0.000 0.000 0.000 0.000 0.000 0.000 0.000 0.000 0.000 0.000 0.000 0.000 0.000 0.000 0.057 0.494 0.098 0.084 1.293 2.456 3.332 3.109 2.879 1.490 0.353 0.062 0.097 0.057 0.051
0.000 0.000 0.000 0.000 0.000 0.000 0.000 0.000 0.000 0.000 0.000 0.000 0.000 0.000 0.000 0.000 0.000 0.000 0.000 0.000 0.000 0.000 0.000 0.000 0.000 0.000 0.000 0.000 0.000 0.000 0.000 0.000 0.000 0.000 0.000 0.000 0.000 0.000 0.000 0.000 0.000 0.000 0.000 0.001 0.322 0.155 0.152 1.647 2.062 2.729 2.452 1.968 1.539 0.361 0.178 0.080 0.066 0.053
0.000 0.000 0.000 0.000 0.000 0.000 0.000 0.000 0.000 0.000 0.000 0.000 0.000 0.000 0.000 0.000 0.000 0.000 0.000 0.000 0.000 0.000 0.000 0.000 0.000 0.000 0.000 0.000 0.000 0.000 0.000 0.000 0.000 0.000 0.000 0.000 0.000 0.000 0.000 0.000 0.000 0.000 0.000 0.000 0.031 0.085 1.329 1.532 1.568 2.133 1.613 1.748 2.246 1.792 1.404 0.105 0.056 0.078
0.000 0.000 0.000 0.000 0.000 0.000 0.000 0.000 0.000 0.000 0.000 0.000 0.000 0.000 0.000 0.000 0.000 0.000 0.000 0.000 0.000 0.000 0.000 0.000 0.000 0.000 0.000 0.000 0.000 0.000 0.000 0.000 0.000 0.000 0.000 0.000 0.000 0.000 0.000 0.000 0.000 0.000 0.000 0.000 0.075 0.994 1.401 1.393 1.365 1.454 0.725 1.209 2.383 2.398 2.095 0.753 0.286 0.094
0.000 0.000 0.000 0.000 0.000 0.000 0.000 0.000 0.000 0.000 0.000 0.000 0.000 0.000 0.000 0.000 0.000 0.000 0.000 0.000 0.000 0.000 0.000 0.000 0.000 0.000 0.000 0.000 0.000 0.000 0.000 0.000 0.000 0.000 0.000 0.000 0.000 0.000 0.000 0.000 0.000 0.000 0.000 0.000 0.185 0.909 1.174 1.170 1.197 1.324 0.207 0.224 1.542 1.774 1.877 1.459 0.105 0.099
0.000 0.000 0.000 0.000 0.000 0.000 0.000 0.000 0.000 0.000 0.000 0.000 0.000 0.000 0.000 0.000 0.000 0.000 0.000 0.000 0.000 0.000 0.000 0.000 0.000 0.000 0.000 0.000 0.000 0.000 0.000 0.000 0.000 0.000 0.000 0.000 0.000 0.000 0.000 0.000 0.000 0.000 0.000 0.000 0.001 0.083 0.536 1.006 1.137 1.255 0.255 0.365 0.983 1.344 1.444 1.309 0.713 0.350
0.000 0.000 0.000 0.000 0.000 0.000 0.000 0.000 0.000 0.000 0.000 0.000 0.000 0.000 0.000 0.000 0.000 0.000 0.000 0.000 0.000 0.000 0.000 0.000 0.000 0.000 0.000 0.000 0.000 0.000 0.000 0.000 0.000 0.000 0.000 0.000 0.000 0.000 0.000 0.000 0.000 0.000 0.000 0.000 0.000 0.001 0.044 0.809 0.976 0.902 0.258 1.160 1.371 1.529 1.079 0.773 1.230 0.829
0.000 0.000 0.000 0.000 0.000 0.000 0.000 0.000 0.000 0.000 0.000 0.000 0.000 0.000 0.000 0.000 0.000 0.000 0.000 0.000 0.000 0.000 0.000 0.000 0.000 0.000 0.000 0.000 0.000 0.000 0.000 0.000 0.000 0.000 0.000 0.000 0.000 0.000 0.000 0.000 0.000 0.000 0.000 0.000 0.000 0.000 0.001 0.203 0.672 0.094 1.230 2.147 1.905 1.134 0.937 0.320 1.225 0.763
0.000 0.000 0.000 0.000 0.000 0.000 0.000 0.000 0.000 0.000 0.000 0.000 0.000 0.000 0.000 0.000 0.000 0.000 0.000 0.000 0.000 0.000 0.000 0.000 0.000 0.000 0.000 0.000 0.000 0.000 0.000 0.000 0.000 0.000 0.000 0.000 0.000 0.000 0.000 0.000 0.000 0.000 0.000 0.000 0.000 0.000 0.000 0.004 0.784 1.002 1.548 2.118 1.942 1.162 0.622 0.097 0.295 0.823
