ncols        37
nrows        80
xllcorner    409647.8
yllcorner    6870789.1
cellsize     5.00
NODATA_value -9999
0.000 0.000 0.000 0.042 1.396 7.064 7.832 4.547 0.484 0.002 0.000 0.000 0.000 0.000 0.000 0.000 0.000 0.000 0.000 0.000 0.000 0.000 0.000 0.000 0.000 0.000 0.000 0.000 0.000 0.000 0.000 0.000 0.000 0.000 0.000 0.000 0.000
0.000 0.000 0.469 6.421 18.077 17.736 18.975 17.686 15.678 5.252 0.182 0.000 0.000 0.000 0.000 0.000 0.000 0.000 0.000 0.000 0.000 0.000 0.000 0.000 0.000 0.000 0.000 0.000 0.000 0.000 0.000 0.000 0.000 0.000 0.000 0.000 0.000
0.000 0.230 6.552 18.612 18.198 19.518 19.510 18.572 18.487 17.782 10.603 0.848 0.001 0.000 0.000 0.000 0.000 0.000 0.000 0.000 0.000 0.000 0.000 0.000 0.000 0.000 0.000 0.000 0.000 0.000 0.000 0.000 0.000 0.000 0.000 0.000 0.000
0.009 2.751 17.613 18.845 19.761 20.167 20.604 21.019 20.091 19.129 17.535 13.809 2.381 0.010 0.000 0.000 0.000 0.000 0.000 0.000 0.000 0.000 0.000 0.000 0.000 0.000 0.000 0.000 0.000 0.000 0.000 0.000 0.000 0.000 0.000 0.000 0.000
0.526 16.997 18.204 19.587 20.141 21.128 22.699 22.174 20.796 20.388 19.437 18.822 15.098 4.069 0.031 0.000 0.000 0.000 0.000 0.000 0.000 0.000 0.000 0.000 0.000 0.000 0.000 0.000 0.000 0.000 0.000 0.000 0.000 0.000 0.000 0.000 0.000
2.625 17.074 18.373 20.729 21.192 22.631 23.998 23.953 22.679 21.640 22.484 19.972 17.382 15.718 5.064 0.234 0.001 0.000 0.000 0.000 0.000 0.000 0.000 0.000 0.000 0.000 0.000 0.000 0.000 0.000 0.000 0.000 0.000 0.000 0.000 0.000 0.000
4.638 16.769 19.493 21.184 22.397 22.781 24.360 24.145 21.995 23.406 23.814 19.893 19.135 16.164 13.719 7.770 1.899 0.107 0.000 0.000 0.000 0.000 0.000 0.000 0.000 0.000 0.000 0.000 0.000 0.000 0.000 0.000 0.000 0.000 0.000 0.000 0.000
6.734 17.672 20.665 22.249 24.063 24.325 24.056 23.189 21.866 24.405 24.022 22.320 20.587 16.135 13.662 14.010 12.209 6.178 0.472 0.000 0.000 0.000 0.000 0.000 0.000 0.000 0.000 0.000 0.000 0.000 0.000 0.000 0.000 0.000 0.000 0.000 0.000
7.067 18.564 21.587 22.904 23.680 23.481 23.138 22.435 23.762 26.134 24.121 22.158 20.078 16.049 15.023 14.992 14.890 13.470 7.847 0.065 0.000 0.000 0.000 0.000 0.000 0.000 0.000 0.000 0.000 0.000 0.000 0.000 0.000 0.000 0.000 0.000 0.000
5.407 18.206 21.016 23.417 23.363 22.412 23.874 22.170 25.534 25.097 23.867 23.081 21.181 18.805 16.742 16.266 15.035 14.034 13.032 3.922 0.000 0.000 0.000 0.000 0.000 0.000 0.000 0.000 0.000 0.000 0.000 0.000 0.000 0.000 0.000 0.000 0.000
3.610 18.400 21.655 21.922 22.473 23.285 23.215 24.319 25.166 26.337 24.221 24.254 21.647 18.138 17.000 16.208 14.493 14.588 13.186 10.049 0.000 0.000 0.000 0.000 0.000 0.000 0.000 0.000 0.000 0.000 0.000 0.000 0.000 0.000 0.000 0.000 0.000
1.566 15.768 19.804 21.918 22.215 23.917 24.620 23.584 26.183 25.541 24.511 23.399 20.279 17.567 16.371 16.012 15.017 14.980 13.193 11.000 0.049 0.000 0.000 0.000 0.000 0.000 0.000 0.000 0.000 0.000 0.000 0.000 0.000 0.000 0.000 0.000 0.000
0.638 11.921 17.819 20.906 22.707 23.323 23.556 23.865 24.354 24.341 24.226 21.019 18.814 16.842 16.948 16.095 15.673 14.535 13.067 11.259 2.601 0.000 0.000 0.000 0.000 0.000 0.000 0.000 0.000 0.000 0.000 0.000 0.000 0.000 0.000 0.000 0.000
0.269 8.878 17.690 20.187 20.752 21.653 22.285 23.454 23.517 22.442 22.895 19.732 18.516 19.676 17.173 16.585 15.856 13.685 12.890 11.960 6.478 0.000 0.000 0.000 0.000 0.000 0.000 0.000 0.000 0.000 0.000 0.000 0.000 0.000 0.000 0.000 0.000
0.080 5.817 15.536 18.945 21.185 21.765 22.702 22.204 22.477 23.147 22.556 20.338 19.580 19.476 16.938 17.885 15.314 13.859 14.179 11.759 7.943 0.000 0.000 0.000 0.000 0.000 0.000 0.000 0.000 0.000 0.000 0.000 0.000 0.000 0.000 0.000 0.000
0.022 3.633 14.029 17.972 19.078 21.416 21.418 20.346 20.991 21.491 21.494 20.452 21.499 19.105 18.299 17.517 16.344 15.818 14.168 12.273 8.980 0.074 0.000 0.000 0.000 0.000 0.000 0.000 0.000 0.000 0.000 0.000 0.000 0.000 0.000 0.000 0.000
0.005 2.094 11.775 16.556 19.778 20.082 20.048 20.843 20.884 20.408 21.354 21.264 20.002 20.466 19.156 18.025 16.916 14.377 13.402 12.079 9.392 2.214 0.000 0.000 0.000 0.000 0.000 0.000 0.000 0.000 0.000 0.000 0.000 0.000 0.000 0.000 0.000
0.001 0.993 9.582 15.025 18.039 19.183 19.661 20.025 19.415 19.418 21.468 21.723 18.825 20.059 18.228 19.092 15.323 13.523 11.769 11.692 9.400 4.981 0.000 0.000 0.000 0.000 0.000 0.000 0.000 0.000 0.000 0.000 0.000 0.000 0.000 0.000 0.000
0.000 0.367 7.058 13.104 15.883 18.788 19.954 19.131 18.903 19.685 20.494 20.829 19.429 20.812 19.304 17.450 13.968 12.428 12.161 12.095 9.971 6.069 0.000 0.000 0.000 0.000 0.000 0.000 0.000 0.000 0.000 0.000 0.000 0.000 0.000 0.000 0.000
0.000 0.163 5.068 11.870 15.305 17.505 18.623 19.477 19.428 20.755 21.467 19.597 20.859 19.145 17.614 16.448 14.205 13.183 13.300 12.283 10.353 7.017 0.248 0.000 0.000 0.000 0.000 0.000 0.000 0.000 0.000 0.000 0.000 0.000 0.000 0.000 0.000
0.000 0.034 3.067 10.028 15.041 17.519 19.692 18.037 19.144 21.152 20.639 20.867 20.657 19.031 16.699 15.641 14.570 14.107 13.710 12.023 10.639 7.438 2.391 0.000 0.000 0.000 0.000 0.000 0.000 0.000 0.000 0.000 0.000 0.000 0.000 0.000 0.000
0.000 0.003 1.242 7.908 12.342 16.151 18.039 19.592 19.205 18.364 19.465 19.411 18.855 17.463 14.875 15.361 14.341 14.210 12.443 12.497 10.772 7.496 4.094 0.082 0.000 0.000 0.000 0.000 0.000 0.000 0.000 0.000 0.000 0.000 0.000 0.000 0.000
0.000 0.000 0.307 5.363 9.717 14.403 17.722 17.207 17.767 17.691 18.104 18.009 17.361 16.020 14.985 15.713 15.307 14.275 13.391 11.861 10.078 7.653 4.910 1.513 0.002 0.000 0.000 0.000 0.000 0.000 0.000 0.000 0.000 0.000 0.000 0.000 0.000
0.000 0.000 0.048 3.233 8.580 12.377 15.032 16.776 17.199 14.304 16.788 15.831 16.050 14.933 16.141 16.616 15.453 14.123 13.164 11.503 10.257 8.055 5.152 3.164 0.429 0.000 0.000 0.000 0.000 0.000 0.000 0.000 0.000 0.000 0.000 0.000 0.000
0.000 0.000 0.010 1.266 6.531 9.850 14.280 15.255 15.297 15.303 15.314 15.227 15.403 15.866 16.358 15.966 13.533 15.959 13.296 11.328 10.056 8.005 5.180 4.065 2.376 0.052 0.000 0.000 0.000 0.000 0.000 0.000 0.000 0.000 0.000 0.000 0.000
0.000 0.000 0.000 0.279 3.568 7.586 11.107 13.325 13.253 12.748 13.733 15.279 15.757 16.461 15.329 14.340 14.230 14.925 11.369 10.740 9.835 8.067 5.766 4.873 3.608 1.220 0.007 0.000 0.000 0.000 0.000 0.000 0.000 0.000 0.000 0.000 0.000
0.000 0.000 0.000 0.018 1.064 5.377 8.580 12.126 13.387 13.408 15.025 15.648 15.331 15.396 14.172 13.843 13.953 13.141 11.009 9.775 9.992 8.096 6.293 5.155 4.271 3.062 0.542 0.000 0.000 0.000 0.000 0.000 0.000 0.000 0.000 0.000 0.000
0.000 0.000 0.000 0.000 0.061 1.938 5.688 8.947 10.589 13.545 14.183 14.643 15.391 14.043 12.877 12.253 13.069 12.596 11.078 10.336 9.486 8.316 6.404 5.213 4.579 3.636 2.374 0.019 0.000 0.000 0.000 0.000 0.000 0.000 0.000 0.000 0.000
0.000 0.000 0.000 0.000 0.000 0.549 4.670 7.963 10.528 11.657 12.691 13.559 13.235 13.157 12.333 12.890 13.442 13.722 12.321 10.321 9.223 7.810 6.452 5.228 4.638 4.034 3.278 0.686 0.003 0.000 0.000 0.000 0.000 0.000 0.000 0.000 0.000
0.000 0.000 0.000 0.000 0.000 0.101 3.051 6.962 9.856 11.432 11.441 12.343 13.212 12.738 13.288 12.876 13.673 13.159 11.023 9.526 8.555 7.662 6.863 5.352 4.718 4.140 3.123 1.905 0.105 0.000 0.000 0.000 0.000 0.000 0.000 0.000 0.000
0.000 0.000 0.000 0.000 0.000 0.002 0.387 3.842 6.470 8.102 10.132 11.099 12.121 12.250 12.035 12.350 13.472 11.533 9.873 8.942 8.124 7.311 6.714 5.475 4.514 3.735 2.920 2.684 0.790 0.001 0.000 0.000 0.000 0.000 0.000 0.000 0.000
0.000 0.000 0.000 0.000 0.000 0.000 0.004 0.854 5.369 7.591 9.443 10.567 11.324 11.229 11.181 11.311 10.989 9.658 8.566 8.213 7.039 6.817 6.666 5.750 4.399 3.302 2.669 2.600 1.737 0.016 0.000 0.000 0.000 0.000 0.000 0.000 0.000
0.000 0.000 0.000 0.000 0.000 0.000 0.000 0.268 3.303 6.500 8.184 10.042 10.454 10.117 10.479 10.738 10.922 9.112 8.285 7.021 7.209 7.103 6.909 5.812 4.254 2.828 1.500 1.975 1.275 0.373 0.000 0.000 0.000 0.000 0.000 0.000 0.000
0.000 0.000 0.000 0.000 0.000 0.000 0.000 0.000 1.637 4.948 7.088 8.821 9.355 9.225 9.555 9.817 9.684 8.206 7.163 6.963 7.650 7.261 7.055 6.189 4.608 2.301 1.615 1.319 1.690 1.194 0.010 0.000 0.000 0.000 0.000 0.000 0.000
0.000 0.000 0.000 0.000 0.000 0.000 0.000 0.000 0.031 2.495 4.870 5.921 6.964 8.404 9.263 9.407 7.662 7.266 6.931 7.331 7.614 7.248 7.261 6.505 4.877 3.061 1.860 1.302 2.319 1.694 0.211 0.000 0.000 0.000 0.000 0.000 0.000
0.000 0.000 0.000 0.000 0.000 0.000 0.000 0.000 0.000 0.589 3.074 4.644 6.254 8.693 9.647 8.695 7.885 7.234 7.311 7.367 7.181 7.607 7.403 6.622 5.372 4.003 2.026 1.701 2.486 2.159 0.782 0.005 0.000 0.000 0.000 0.000 0.000
0.000 0.000 0.000 0.000 0.000 0.000 0.000 0.000 0.000 0.016 1.603 3.750 5.064 6.443 7.556 7.750 7.354 7.268 7.532 7.418 7.849 7.751 7.687 6.984 6.078 4.565 2.122 1.973 2.754 2.572 1.679 0.194 0.000 0.000 0.000 0.000 0.000
0.000 0.000 0.000 0.000 0.000 0.000 0.000 0.000 0.000 0.001 0.153 2.280 3.889 5.304 6.177 7.382 7.774 7.218 7.578 7.146 7.989 7.720 7.761 7.027 6.365 4.823 3.111 2.804 3.089 2.646 2.387 0.830 0.014 0.000 0.000 0.000 0.000
0.000 0.000 0.000 0.000 0.000 0.000 0.000 0.000 0.000 0.000 0.030 1.450 3.666 4.157 4.131 6.532 6.828 7.149 6.518 7.717 7.836 7.624 7.679 7.168 6.810 5.443 4.131 3.367 3.070 2.652 2.553 1.731 0.256 0.003 0.000 0.000 0.000
0.000 0.000 0.000 0.000 0.000 0.000 0.000 0.000 0.000 0.000 0.002 0.288 1.810 3.226 3.612 4.606 6.668 7.181 7.005 7.263 7.335 7.278 7.566 7.453 6.890 5.789 4.801 4.038 3.515 3.110 2.561 2.369 1.350 0.317 0.002 0.000 0.000
0.000 0.000 0.000 0.000 0.000 0.000 0.000 0.000 0.000 0.000 0.000 0.008 0.286 2.230 3.311 3.775 5.729 6.483 6.677 6.735 6.680 7.059 7.649 7.216 6.495 5.950 5.488 4.797 4.121 3.410 2.714 2.774 2.480 1.432 0.206 0.000 0.000
0.000 0.000 0.000 0.000 0.000 0.000 0.000 0.000 0.000 0.000 0.000 0.000 0.014 0.691 2.851 3.266 4.150 5.994 6.184 5.736 6.088 7.088 7.167 6.851 6.357 6.210 5.933 5.475 4.550 3.329 2.897 3.007 2.873 2.338 1.005 0.052 0.000
0.000 0.000 0.000 0.000 0.000 0.000 0.000 0.000 0.000 0.000 0.000 0.000 0.000 0.033 1.831 3.282 3.336 3.553 5.412 5.365 5.691 6.615 6.754 6.931 6.183 6.354 6.136 6.053 4.682 2.956 2.804 2.753 3.088 2.896 1.837 0.628 0.009
0.000 0.000 0.000 0.000 0.000 0.000 0.000 0.000 0.000 0.000 0.000 0.000 0.000 0.001 0.566 2.613 2.900 2.375 4.291 5.349 5.932 6.788 6.203 6.269 6.478 6.588 6.250 5.999 4.758 3.846 2.967 2.850 3.388 3.061 2.476 1.517 0.321
0.000 0.000 0.000 0.000 0.000 0.000 0.000 0.000 0.000 0.000 0.000 0.000 0.000 0.000 0.017 0.993 2.480 2.235 3.664 4.944 5.789 6.186 6.496 6.707 6.579 6.894 6.283 6.401 5.818 4.675 3.429 3.084 3.130 2.853 2.888 2.221 1.036
0.000 0.000 0.000 0.000 0.000 0.000 0.000 0.000 0.000 0.000 0.000 0.000 0.000 0.000 0.000 0.095 1.832 1.994 2.453 4.961 6.024 6.291 6.559 6.615 6.788 6.478 6.417 6.562 6.336 5.321 3.540 2.723 2.461 3.055 3.101 2.594 1.714
0.000 0.000 0.000 0.000 0.000 0.000 0.000 0.000 0.000 0.000 0.000 0.000 0.000 0.000 0.000 0.016 1.397 2.009 2.043 4.388 5.957 6.543 6.273 6.573 6.211 6.423 6.601 6.932 6.270 5.298 3.711 2.419 2.567 3.059 3.006 2.620 2.168
0.000 0.000 0.000 0.000 0.000 0.000 0.000 0.000 0.000 0.000 0.000 0.000 0.000 0.000 0.000 0.001 0.474 1.977 2.082 3.691 5.140 6.241 6.053 6.024 6.391 6.761 6.855 6.799 6.082 5.279 3.459 2.117 2.390 2.648 2.747 2.451 2.392
0.000 0.000 0.000 0.000 0.000 0.000 0.000 0.000 0.000 0.000 0.000 0.000 0.000 0.000 0.000 0.000 0.100 1.751 2.639 3.135 4.313 5.732 5.627 5.820 6.021 6.740 6.812 6.529 6.152 4.776 3.214 2.488 2.198 2.180 2.483 2.136 2.414
0.000 0.000 0.000 0.000 0.000 0.000 0.000 0.000 0.000 0.000 0.000 0.000 0.000 0.000 0.000 0.000 0.092 0.879 2.235 2.103 3.407 3.618 4.867 4.709 5.886 6.544 6.991 6.782 6.144 4.947 3.637 2.852 2.101 1.753 1.959 2.320 2.705
0.000 0.000 0.000 0.000 0.000 0.000 0.000 0.000 0.000 0.000 0.000 0.000 0.000 0.000 0.000 0.000 0.000 0.365 0.061 2.386 2.166 1.379 3.585 4.737 6.006 6.929 7.098 7.002 6.221 5.416 3.856 2.940 2.188 1.865 1.355 2.145 2.774
0.000 0.000 0.000 0.000 0.000 0.000 0.000 0.000 0.000 0.000 0.000 0.000 0.000 0.000 0.000 0.000 0.000 0.036 1.112 2.354 1.877 0.015 2.862 4.681 6.173 6.907 7.066 6.973 6.444 5.820 3.842 3.250 2.585 1.610 1.225 2.477 2.877
0.000 0.000 0.000 0.000 0.000 0.000 0.000 0.000 0.000 0.000 0.000 0.000 0.000 0.000 0.000 0.000 0.000 0.010 0.790 1.826 1.798 0.096 0.104 5.011 6.317 6.821 6.881 7.190 6.710 5.543 4.098 3.705 2.772 2.052 2.078 2.498 2.905
0.000 0.000 0.000 0.000 0.000 0.000 0.000 0.000 0.000 0.000 0.000 0.000 0.000 0.000 0.000 0.000 0.000 0.000 0.335 0.882 1.615 1.175 0.923 5.665 6.322 7.097 7.355 7.332 6.630 5.298 5.111 3.953 3.092 2.592 2.002 1.895 2.442
0.000 0.000 0.000 0.000 0.000 0.000 0.000 0.000 0.000 0.000 0.000 0.000 0.000 0.000 0.000 0.000 0.000 0.000 0.023 0.665 0.865 1.011 2.890 5.076 6.593 7.038 7.746 7.190 6.850 6.302 5.513 4.450 3.723 2.994 2.222 2.185 2.198
0.000 0.000 0.000 0.000 0.000 0.000 0.000 0.000 0.000 0.000 0.000 0.000 0.000 0.000 0.000 0.000 0.000 0.000 0.000 0.251 0.718 1.317 3.137 4.121 5.555 6.463 6.827 7.043 6.743 6.319 5.921 5.109 4.298 3.657 2.717 2.395 2.230
0.000 0.000 0.000 0.000 0.000 0.000 0.000 0.000 0.000 0.000 0.000 0.000 0.000 0.000 0.000 0.000 0.000 0.000 0.000 0.015 0.101 2.446 3.134 3.290 4.572 5.270 6.358 6.978 7.018 6.823 6.172 5.685 5.137 4.349 3.719 2.835 1.987
0.000 0.000 0.000 0.000 0.000 0.000 0.000 0.000 0.000 0.000 0.000 0.000 0.000 0.000 0.000 0.000 0.000 0.000 0.000 0.021 1.360 2.566 2.746 2.648 3.613 4.552 5.714 7.077 7.256 7.202 6.544 5.774 5.755 5.304 4.592 3.144 1.776
0.000 0.000 0.000 0.000 0.000 0.000 0.000 0.000 0.000 0.000 0.000 0.000 0.000 0.000 0.000 0.000 0.000 0.000 0.000 0.031 0.959 1.827 2.137 2.170 2.828 3.607 4.945 6.362 6.854 7.040 6.787 6.211 6.045 5.653 4.982 3.756 1.980
0.000 0.000 0.000 0.000 0.000 0.000 0.000 0.000 0.000 0.000 0.000 0.000 0.000 0.000 0.000 0.000 0.000 0.000 0.000 0.000 0.020 0.535 1.673 2.052 2.214 3.195 4.246 5.855 6.369 6.726 6.739 6.463 6.227 5.932 5.276 4.496 2.755
0.000 0.000 0.000 0.000 0.000 0.000 0.000 0.000 0.000 0.000 0.000 0.000 0.000 0.000 0.000 0.000 0.000 0.000 0.000 0.000 0.000 0.025 1.146 1.719 1.580 2.432 4.500 5.532 6.289 6.500 6.523 6.596 6.414 6.155 5.667 4.896 3.482
0.000 0.000 0.000 0.000 0.000 0.000 0.000 0.000 0.000 0.000 0.000 0.000 0.000 0.000 0.000 0.000 0.000 0.000 0.000 0.000 0.000 0.000 0.171 1.100 0.823 2.360 4.366 5.409 5.963 6.314 6.402 6.641 6.313 6.164 5.873 5.337 3.415
0.000 0.000 0.000 0.000 0.000 0.000 0.000 0.000 0.000 0.000 0.000 0.000 0.000 0.000 0.000 0.000 0.000 0.000 0.000 0.000 0.000 0.000 0.004 1.130 1.771 2.510 3.651 4.781 5.635 6.241 6.335 6.423 6.306 6.132 5.848 4.988 3.204
0.000 0.000 0.000 0.000 0.000 0.000 0.000 0.000 0.000 0.000 0.000 0.000 0.000 0.000 0.000 0.000 0.000 0.000 0.000 0.000 0.000 0.000 0.000 0.801 1.913 2.558 2.861 3.959 5.322 6.132 6.483 6.317 6.281 6.065 5.701 4.118 3.404
0.000 0.000 0.000 0.000 0.000 0.000 0.000 0.000 0.000 0.000 0.000 0.000 0.000 0.000 0.000 0.000 0.000 0.000 0.000 0.000 0.000 0.000 0.000 0.249 2.005 2.492 2.578 3.308 4.861 6.227 6.786 6.560 6.305 6.162 5.377 3.674 3.705
0.000 0.000 0.000 0.000 0.000 0.000 0.000 0.000 0.000 0.000 0.000 0.000 0.000 0.000 0.000 0.000 0.000 0.000 0.000 0.000 0.000 0.000 0.000 0.027 1.326 2.240 2.415 3.083 3.493 5.635 6.788 6.698 6.594 6.344 5.486 3.975 4.126
0.000 0.000 0.000 0.000 0.000 0.000 0.000 0.000 0.000 0.000 0.000 0.000 0.000 0.000 0.000 0.000 0.000 0.000 0.000 0.000 0.000 0.000 0.000 0.022 0.652 1.773 2.304 3.033 2.789 5.070 6.844 6.954 6.737 6.289 5.436 4.174 4.181
0.000 0.000 0.000 0.000 0.000 0.000 0.000 0.000 0.000 0.000 0.000 0.000 0.000 0.000 0.000 0.000 0.000 0.000 0.000 0.000 0.000 0.000 0.000 0.000 0.131 1.294 2.019 2.904 2.715 4.169 6.327 6.716 6.426 5.655 4.900 4.167 4.157
0.000 0.000 0.000 0.000 0.000 0.000 0.000 0.000 0.000 0.000 0.000 0.000 0.000 0.000 0.000 0.000 0.000 0.000 0.000 0.000 0.000 0.000 0.000 0.000 0.001 0.620 1.687 2.365 2.736 3.374 5.788 6.513 6.213 5.263 4.425 4.036 3.949
0.000 0.000 0.000 0.000 0.000 0.000 0.000 0.000 0.000 0.000 0.000 0.000 0.000 0.000 0.000 0.000 0.000 0.000 0.000 0.000 0.000 0.000 0.000 0.000 0.000 0.025 1.205 2.258 2.699 2.933 4.926 6.412 5.964 5.220 4.542 3.870 3.665
0.000 0.000 0.000 0.000 0.000 0.000 0.000 0.000 0.000 0.000 0.000 0.000 0.000 0.000 0.000 0.000 0.000 0.000 0.000 0.000 0.000 0.000 0.000 0.000 0.000 0.000 0.429 2.561 2.704 2.773 4.318 5.914 5.802 5.402 4.506 3.838 4.128
0.000 0.000 0.000 0.000 0.000 0.000 0.000 0.000 0.000 0.000 0.000 0.000 0.000 0.000 0.000 0.000 0.000 0.000 0.000 0.000 0.000 0.000 0.000 0.000 0.000 0.000 0.180 2.431 2.810 2.993 3.924 5.415 5.764 5.201 4.074 4.050 4.017
0.000 0.000 0.000 0.000 0.000 0.000 0.000 0.000 0.000 0.000 0.000 0.000 0.000 0.000 0.000 0.000 0.000 0.000 0.000 0.000 0.000 0.000 0.000 0.000 0.000 0.000 0.115 2.324 2.641 2.905 3.819 4.940 5.459 4.886 3.672 3.380 2.501
0.000 0.000 0.000 0.000 0.000 0.000 0.000 0.000 0.000 0.000 0.000 0.000 0.000 0.000 0.000 0.000 0.000 0.000 0.000 0.000 0.000 0.000 0.000 0.000 0.000 0.000 0.151 1.941 2.477 2.955 3.579 4.111 4.824 4.788 2.955 2.581 2.192
0.000 0.000 0.000 0.000 0.000 0.000 0.000 0.000 0.000 0.000 0.000 0.000 0.000 0.000 0.000 0.000 0.000 0.000 0.000 0.000 0.000 0.000 0.000 0.000 0.000 0.000 0.147 1.834 2.087 2.950 3.239 3.337 4.229 4.098 2.230 2.460 2.258
0.000 0.000 0.000 0.000 0.000 0.000 0.000 0.000 0.000 0.000 0.000 0.000 0.000 0.000 0.000 0.000 0.000 0.000 0.000 0.000 0.000 0.000 0.000 0.000 0.000 0.000 0.117 1.798 2.092 2.779 2.956 2.965 3.237 3.973 1.880 2.294 2.000
0.000 0.000 0.000 0.000 0.000 0.000 0.000 0.000 0.000 0.000 0.000 0.000 0.000 0.000 0.000 0.000 0.000 0.000 0.000 0.000 0.000 0.000 0.000 0.000 0.000 0.000 0.143 1.724 2.111 2.648 2.966 3.173 2.861 3.737 1.829 2.082 2.795
0.000 0.000 0.000 0.000 0.000 0.000 0.000 0.000 0.000 0.000 0.000 0.000 0.000 0.000 0.000 0.000 0.000 0.000 0.000 0.000 0.000 0.000 0.000 0.000 0.000 0.000 0.206 1.799 2.028 2.579 2.714 2.912 2.799 2.754 2.367 2.975 3.825
0.000 0.000 0.000 0.000 0.000 0.000 0.000 0.000 0.000 0.000 0.000 0.000 0.000 0.000 0.000 0.000 0.000 0.000 0.000 0.000 0.000 0.000 0.000 0.000 0.000 0.000 0.155 1.814 2.060 2.519 2.686 2.410 2.294 2.056 2.625 3.048 3.626
0.000 0.000 0.000 0.000 0.000 0.000 0.000 0.000 0.000 0.000 0.000 0.000 0.000 0.000 0.000 0.000 0.000 0.000 0.000 0.000 0.000 0.000 0.000 0.000 0.000 0.000 0.135 1.824 2.074 2.190 2.431 1.892 1.884 1.671 1.888 3.114 3.078
