ncols        51
nrows        124
xllcorner    409557.8
yllcorner    6870864.1
cellsize     5.00
NODATA_value -9999
0.000 0.000 0.000 0.000 0.189 3.338 9.969 13.012 13.316 8.890 2.284 0.032 0.000 0.000 0.000 0.000 0.000 0.000 0.000 0.000 0.000 0.000 0.000 0.000 0.000 0.000 0.000 0.000 0.000 0.000 0.000 0.000 0.000 0.000 0.000 0.000 0.000 0.000 0.000 0.000 0.000 0.000 0.000 0.000 0.000 0.000 0.000 0.000 0.000 0.000 0.000
0.000 0.000 0.000 1.328 10.231 19.400 20.198 19.285 19.108 18.110 19.284 7.071 0.028 0.000 0.000 0.000 0.000 0.000 0.000 0.000 0.000 0.000 0.000 0.000 0.000 0.000 0.000 0.000 0.000 0.000 0.000 0.000 0.000 0.000 0.000 0.000 0.000 0.000 0.000 0.000 0.000 0.000 0.000 0.000 0.000 0.000 0.000 0.000 0.000 0.000 0.000
0.000 0.000 0.825 12.170 17.702 19.667 21.364 21.039 20.757 20.724 19.549 18.028 4.702 0.000 0.000 0.000 0.000 0.000 0.000 0.000 0.000 0.000 0.000 0.000 0.000 0.000 0.000 0.000 0.000 0.000 0.000 0.000 0.000 0.000 0.000 0.000 0.000 0.000 0.000 0.000 0.000 0.000 0.000 0.000 0.000 0.000 0.000 0.000 0.000 0.000 0.000
0.000 0.064 6.396 17.998 19.664 21.857 21.900 22.864 22.026 21.068 20.702 17.203 13.689 1.069 0.000 0.000 0.000 0.000 0.000 0.000 0.000 0.000 0.000 0.000 0.000 0.000 0.000 0.000 0.000 0.000 0.000 0.000 0.000 0.000 0.000 0.000 0.000 0.000 0.000 0.000 0.000 0.000 0.000 0.000 0.000 0.000 0.000 0.000 0.000 0.000 0.000
0.000 1.980 18.159 19.161 19.619 22.307 22.936 23.362 23.606 23.379 20.909 17.748 14.948 10.158 0.033 0.000 0.000 0.000 0.000 0.000 0.000 0.000 0.000 0.000 0.000 0.000 0.000 0.000 0.000 0.000 0.000 0.000 0.000 0.000 0.000 0.000 0.000 0.000 0.000 0.000 0.000 0.000 0.000 0.000 0.000 0.000 0.000 0.000 0.000 0.000 0.000
0.000 7.790 18.645 19.484 21.135 21.555 23.169 24.555 25.572 22.353 20.542 18.547 16.349 15.991 3.334 0.000 0.000 0.000 0.000 0.000 0.000 0.000 0.000 0.000 0.000 0.000 0.000 0.000 0.000 0.000 0.000 0.000 0.000 0.000 0.000 0.000 0.000 0.000 0.000 0.000 0.000 0.000 0.000 0.000 0.000 0.000 0.000 0.000 0.000 0.000 0.000
0.000 14.871 19.222 21.038 22.111 20.343 22.935 24.530 25.216 21.522 20.444 19.799 18.437 16.688 11.118 0.057 0.000 0.000 0.000 0.000 0.000 0.000 0.000 0.000 0.000 0.000 0.000 0.000 0.000 0.000 0.000 0.000 0.000 0.000 0.000 0.000 0.000 0.000 0.000 0.000 0.000 0.000 0.000 0.000 0.000 0.000 0.000 0.000 0.000 0.000 0.000
0.000 18.948 19.726 22.209 22.447 23.533 24.755 25.153 24.855 21.855 21.950 23.033 20.142 17.128 15.474 2.985 0.000 0.000 0.000 0.000 0.000 0.000 0.000 0.000 0.000 0.000 0.000 0.000 0.000 0.000 0.000 0.000 0.000 0.000 0.000 0.000 0.000 0.000 0.000 0.000 0.000 0.000 0.000 0.000 0.000 0.000 0.000 0.000 0.000 0.000 0.000
0.000 18.966 20.724 23.041 22.324 21.500 24.415 25.998 24.272 22.448 23.860 24.100 19.141 18.691 16.013 8.886 0.024 0.000 0.000 0.000 0.000 0.000 0.000 0.000 0.000 0.000 0.000 0.000 0.000 0.000 0.000 0.000 0.000 0.000 0.000 0.000 0.000 0.000 0.000 0.000 0.000 0.000 0.000 0.000 0.000 0.000 0.000 0.000 0.000 0.000 0.000
0.000 18.585 20.604 21.757 21.813 22.681 22.597 25.329 24.275 24.166 25.122 24.609 21.494 21.743 16.425 13.244 2.083 0.000 0.000 0.000 0.000 0.000 0.000 0.000 0.000 0.000 0.000 0.000 0.000 0.000 0.000 0.000 0.000 0.000 0.000 0.000 0.000 0.000 0.000 0.000 0.000 0.000 0.000 0.000 0.000 0.000 0.000 0.000 0.000 0.000 0.000
0.000 15.131 19.067 20.374 21.686 23.130 25.790 25.709 24.635 24.607 25.599 26.117 23.699 20.142 18.079 15.721 7.247 0.000 0.000 0.000 0.000 0.000 0.000 0.000 0.000 0.000 0.000 0.000 0.000 0.000 0.000 0.000 0.000 0.000 0.000 0.000 0.000 0.000 0.000 0.000 0.000 0.000 0.000 0.000 0.000 0.000 0.000 0.000 0.000 0.000 0.000
0.000 9.876 18.528 21.191 22.707 24.511 22.983 23.914 24.390 23.479 24.798 25.041 22.146 19.916 22.651 17.191 10.681 0.318 0.000 0.000 0.000 0.000 0.000 0.000 0.000 0.000 0.000 0.000 0.000 0.000 0.000 0.000 0.000 0.000 0.000 0.000 0.000 0.000 0.000 0.000 0.000 0.000 0.000 0.000 0.000 0.000 0.000 0.000 0.000 0.000 0.000
0.000 4.267 18.217 19.966 21.844 21.867 20.208 24.691 22.447 22.610 24.539 25.122 22.541 24.713 23.618 17.762 11.922 3.986 0.000 0.000 0.000 0.000 0.000 0.000 0.000 0.000 0.000 0.000 0.000 0.000 0.000 0.000 0.000 0.000 0.000 0.000 0.000 0.000 0.000 0.000 0.000 0.000 0.000 0.000 0.000 0.000 0.000 0.000 0.000 0.000 0.000
0.000 0.754 11.462 19.561 21.346 19.997 21.672 25.628 24.723 23.140 24.683 23.694 22.338 25.723 21.854 17.499 13.887 7.818 0.000 0.000 0.000 0.000 0.000 0.000 0.000 0.000 0.000 0.000 0.000 0.000 0.000 0.000 0.000 0.000 0.000 0.000 0.000 0.000 0.000 0.000 0.000 0.000 0.000 0.000 0.000 0.000 0.000 0.000 0.000 0.000 0.000
0.000 0.022 3.555 16.102 19.458 22.426 23.588 23.224 24.333 24.271 23.134 22.788 23.016 23.844 21.456 18.795 16.610 10.434 0.116 0.000 0.000 0.000 0.000 0.000 0.000 0.000 0.000 0.000 0.000 0.000 0.000 0.000 0.000 0.000 0.000 0.000 0.000 0.000 0.000 0.000 0.000 0.000 0.000 0.000 0.000 0.000 0.000 0.000 0.000 0.000 0.000
0.000 0.000 0.375 8.670 17.801 20.976 22.315 22.774 24.239 23.464 21.143 21.878 22.796 24.125 23.342 22.858 17.841 12.351 2.260 0.000 0.000 0.000 0.000 0.000 0.000 0.000 0.000 0.000 0.000 0.000 0.000 0.000 0.000 0.000 0.000 0.000 0.000 0.000 0.000 0.000 0.000 0.000 0.000 0.000 0.000 0.000 0.000 0.000 0.000 0.000 0.000
0.000 0.000 0.007 2.248 13.703 18.553 20.768 21.777 22.671 23.558 24.836 21.628 23.679 24.997 25.548 22.528 18.094 12.368 5.396 0.003 0.000 0.000 0.000 0.000 0.000 0.000 0.000 0.000 0.000 0.000 0.000 0.000 0.000 0.000 0.000 0.000 0.000 0.000 0.000 0.000 0.000 0.000 0.000 0.000 0.000 0.000 0.000 0.000 0.000 0.000 0.000
0.000 0.000 0.000 0.393 8.428 17.127 20.079 21.564 22.611 24.489 23.647 21.464 23.437 25.659 24.120 22.358 18.214 12.993 8.526 0.828 0.000 0.000 0.000 0.000 0.000 0.000 0.000 0.000 0.000 0.000 0.000 0.000 0.000 0.000 0.000 0.000 0.000 0.000 0.000 0.000 0.000 0.000 0.000 0.000 0.000 0.000 0.000 0.000 0.000 0.000 0.000
0.000 0.000 0.000 0.046 4.072 14.567 18.694 23.901 24.936 24.190 23.278 22.557 24.362 23.491 21.929 21.122 18.105 14.523 10.426 4.416 0.006 0.000 0.000 0.000 0.000 0.000 0.000 0.000 0.000 0.000 0.000 0.000 0.000 0.000 0.000 0.000 0.000 0.000 0.000 0.000 0.000 0.000 0.000 0.000 0.000 0.000 0.000 0.000 0.000 0.000 0.000
0.000 0.000 0.000 0.004 1.705 11.668 17.621 21.303 24.015 23.077 23.764 22.729 20.332 22.201 20.835 20.746 19.461 15.164 11.634 7.216 1.029 0.000 0.000 0.000 0.000 0.000 0.000 0.000 0.000 0.000 0.000 0.000 0.000 0.000 0.000 0.000 0.000 0.000 0.000 0.000 0.000 0.000 0.000 0.000 0.000 0.000 0.000 0.000 0.000 0.000 0.000
0.000 0.000 0.000 0.000 0.546 8.291 15.974 20.641 22.658 23.760 23.300 21.909 21.514 20.567 21.745 20.490 19.024 17.081 13.080 9.543 4.808 0.000 0.000 0.000 0.000 0.000 0.000 0.000 0.000 0.000 0.000 0.000 0.000 0.000 0.000 0.000 0.000 0.000 0.000 0.000 0.000 0.000 0.000 0.000 0.000 0.000 0.000 0.000 0.000 0.000 0.000
0.000 0.000 0.000 0.000 0.091 4.624 13.354 17.941 22.216 25.403 24.499 22.758 21.855 19.321 19.485 20.640 21.382 17.979 14.286 10.682 7.058 0.142 0.000 0.000 0.000 0.000 0.000 0.000 0.000 0.000 0.000 0.000 0.000 0.000 0.000 0.000 0.000 0.000 0.000 0.000 0.000 0.000 0.000 0.000 0.000 0.000 0.000 0.000 0.000 0.000 0.000
0.000 0.000 0.000 0.000 0.007 1.759 10.506 16.200 20.414 24.175 26.556 27.224 21.945 18.623 18.039 20.481 18.961 18.304 15.156 11.411 8.444 2.542 0.000 0.000 0.000 0.000 0.000 0.000 0.000 0.000 0.000 0.000 0.000 0.000 0.000 0.000 0.000 0.000 0.000 0.000 0.000 0.000 0.000 0.000 0.000 0.000 0.000 0.000 0.000 0.000 0.000
0.000 0.000 0.000 0.000 0.000 0.272 6.936 13.476 18.189 22.208 25.944 27.704 26.869 23.199 21.941 20.460 18.329 20.920 15.937 11.343 9.757 5.412 0.000 0.000 0.000 0.000 0.000 0.000 0.000 0.000 0.000 0.000 0.000 0.000 0.000 0.000 0.000 0.000 0.000 0.000 0.000 0.000 0.000 0.000 0.000 0.000 0.000 0.000 0.000 0.000 0.000
0.000 0.000 0.000 0.000 0.000 0.026 3.537 11.775 16.190 20.739 24.594 26.126 26.622 25.740 26.476 24.741 22.729 20.283 17.431 13.056 9.783 7.342 0.000 0.000 0.000 0.000 0.000 0.000 0.000 0.000 0.000 0.000 0.000 0.000 0.000 0.000 0.000 0.000 0.000 0.000 0.000 0.000 0.000 0.000 0.000 0.000 0.000 0.000 0.000 0.000 0.000
0.000 0.000 0.000 0.000 0.000 0.002 1.176 8.912 14.804 19.111 22.042 23.773 26.362 27.390 26.268 24.351 23.858 22.010 18.259 14.377 9.743 8.544 0.031 0.000 0.000 0.000 0.000 0.000 0.000 0.000 0.000 0.000 0.000 0.000 0.000 0.000 0.000 0.000 0.000 0.000 0.000 0.000 0.000 0.000 0.000 0.000 0.000 0.000 0.000 0.000 0.000
0.000 0.000 0.000 0.000 0.000 0.000 0.243 5.491 12.352 17.302 20.913 23.062 25.074 25.930 25.235 24.405 24.116 21.898 19.082 14.767 10.905 8.878 1.473 0.000 0.000 0.000 0.000 0.000 0.000 0.000 0.000 0.000 0.000 0.000 0.000 0.000 0.000 0.000 0.000 0.000 0.000 0.000 0.000 0.000 0.000 0.000 0.000 0.000 0.000 0.000 0.000
0.000 0.000 0.000 0.000 0.000 0.000 0.030 2.513 9.758 14.768 18.568 22.399 24.644 24.211 24.933 26.078 24.475 23.950 21.725 16.843 9.782 8.666 5.073 0.000 0.000 0.000 0.000 0.000 0.000 0.000 0.000 0.000 0.000 0.000 0.000 0.000 0.000 0.000 0.000 0.000 0.000 0.000 0.000 0.000 0.000 0.000 0.000 0.000 0.000 0.000 0.000
0.000 0.000 0.000 0.000 0.000 0.000 0.001 0.717 6.571 12.496 17.062 21.323 23.035 24.630 23.306 24.105 22.455 24.135 20.043 16.717 12.220 10.897 6.358 0.000 0.000 0.000 0.000 0.000 0.000 0.000 0.000 0.000 0.000 0.000 0.000 0.000 0.000 0.000 0.000 0.000 0.000 0.000 0.000 0.000 0.000 0.000 0.000 0.000 0.000 0.000 0.000
0.000 0.000 0.000 0.000 0.000 0.000 0.000 0.099 3.633 9.649 14.839 19.792 23.039 22.898 23.622 24.489 23.904 22.753 19.811 17.044 13.738 11.251 7.607 0.000 0.000 0.000 0.000 0.000 0.000 0.000 0.000 0.000 0.000 0.000 0.000 0.000 0.000 0.000 0.000 0.000 0.000 0.000 0.000 0.000 0.000 0.000 0.000 0.000 0.000 0.000 0.000
0.000 0.000 0.000 0.000 0.000 0.000 0.000 0.005 1.444 7.290 12.574 16.924 20.319 21.483 23.384 22.248 22.603 21.657 20.331 16.904 13.807 11.451 8.719 0.000 0.000 0.000 0.000 0.000 0.000 0.000 0.000 0.000 0.000 0.000 0.000 0.000 0.000 0.000 0.000 0.000 0.000 0.000 0.000 0.000 0.000 0.000 0.000 0.000 0.000 0.000 0.000
0.000 0.000 0.000 0.000 0.000 0.000 0.000 0.000 0.411 4.912 9.736 13.313 17.600 22.365 21.161 23.452 23.003 20.840 19.688 16.176 15.877 11.752 9.111 0.000 0.000 0.000 0.000 0.000 0.000 0.000 0.000 0.000 0.000 0.000 0.000 0.000 0.000 0.000 0.000 0.000 0.000 0.000 0.000 0.000 0.000 0.000 0.000 0.000 0.000 0.000 0.000
0.000 0.000 0.000 0.000 0.000 0.000 0.000 0.000 0.088 3.147 8.083 11.231 15.875 20.359 21.499 21.462 22.466 21.478 17.987 16.416 15.775 12.382 9.628 0.002 0.000 0.000 0.000 0.000 0.000 0.000 0.000 0.000 0.000 0.000 0.000 0.000 0.000 0.000 0.000 0.000 0.000 0.000 0.000 0.000 0.000 0.000 0.000 0.000 0.000 0.000 0.000
0.000 0.000 0.000 0.000 0.000 0.000 0.000 0.000 0.021 2.058 6.551 8.529 12.066 17.144 19.839 20.968 21.961 19.866 17.673 16.506 18.329 12.802 9.475 0.537 0.000 0.000 0.000 0.000 0.000 0.000 0.000 0.000 0.000 0.000 0.000 0.000 0.000 0.000 0.000 0.000 0.000 0.000 0.000 0.000 0.000 0.000 0.000 0.000 0.000 0.000 0.000
0.000 0.000 0.000 0.000 0.000 0.000 0.000 0.000 0.006 1.491 6.151 7.803 9.734 14.389 19.044 20.646 20.612 18.784 16.494 18.817 17.758 13.274 9.712 2.864 0.000 0.000 0.000 0.000 0.000 0.000 0.000 0.000 0.000 0.000 0.000 0.000 0.000 0.000 0.000 0.000 0.000 0.000 0.000 0.000 0.000 0.000 0.000 0.000 0.000 0.000 0.000
0.000 0.000 0.000 0.000 0.000 0.000 0.000 0.000 0.000 0.843 5.580 7.237 8.451 11.211 16.851 18.110 18.985 17.391 16.656 20.594 18.102 14.181 8.755 4.323 0.002 0.000 0.000 0.000 0.000 0.000 0.000 0.000 0.000 0.000 0.000 0.000 0.000 0.000 0.000 0.000 0.000 0.000 0.000 0.000 0.000 0.000 0.000 0.000 0.000 0.000 0.000
0.000 0.000 0.000 0.000 0.000 0.000 0.000 0.000 0.000 0.406 4.690 7.200 7.194 7.790 13.140 17.546 17.692 17.273 19.952 20.885 18.399 14.727 9.035 6.579 0.709 0.010 0.000 0.000 0.000 0.000 0.000 0.000 0.000 0.000 0.000 0.000 0.000 0.000 0.000 0.000 0.000 0.000 0.000 0.000 0.000 0.000 0.000 0.000 0.000 0.000 0.000
0.000 0.000 0.000 0.000 0.000 0.000 0.000 0.000 0.000 0.188 3.388 6.617 6.583 6.895 10.303 17.320 18.669 19.448 20.251 21.084 18.066 14.033 9.596 8.117 4.194 1.389 0.086 0.000 0.000 0.000 0.000 0.000 0.000 0.000 0.000 0.000 0.000 0.000 0.000 0.000 0.000 0.000 0.000 0.000 0.000 0.000 0.000 0.000 0.000 0.000 0.000
0.000 0.000 0.000 0.000 0.000 0.000 0.000 0.000 0.000 0.068 2.251 5.638 6.429 6.093 6.900 15.929 17.512 18.858 18.231 20.220 16.993 14.588 10.741 8.196 6.264 5.281 2.375 0.000 0.000 0.000 0.000 0.000 0.000 0.000 0.000 0.000 0.000 0.000 0.000 0.000 0.000 0.000 0.000 0.000 0.000 0.000 0.000 0.000 0.000 0.000 0.000
0.000 0.000 0.000 0.000 0.000 0.000 0.000 0.000 0.000 0.023 1.238 4.507 5.518 5.859 5.465 11.540 16.525 18.173 17.617 19.117 17.457 15.607 11.365 7.482 7.955 6.802 5.660 0.212 0.000 0.000 0.000 0.000 0.000 0.000 0.000 0.000 0.000 0.000 0.000 0.000 0.000 0.000 0.000 0.000 0.000 0.000 0.000 0.000 0.000 0.000 0.000
0.000 0.000 0.000 0.000 0.000 0.000 0.000 0.000 0.000 0.000 0.555 3.630 5.754 5.934 5.249 6.806 15.408 16.655 18.049 18.018 17.802 16.551 12.184 8.494 9.324 8.344 7.153 2.597 0.000 0.000 0.000 0.000 0.000 0.000 0.000 0.000 0.000 0.000 0.000 0.000 0.000 0.000 0.000 0.000 0.000 0.000 0.000 0.000 0.000 0.000 0.000
0.000 0.000 0.000 0.000 0.000 0.000 0.000 0.000 0.000 0.000 0.417 3.504 5.543 5.466 5.188 4.938 13.663 15.415 16.907 18.116 18.314 17.327 13.020 9.383 9.526 8.492 7.660 5.205 0.019 0.000 0.000 0.000 0.000 0.000 0.000 0.000 0.000 0.000 0.000 0.000 0.000 0.000 0.000 0.000 0.000 0.000 0.000 0.000 0.000 0.000 0.000
0.000 0.000 0.000 0.000 0.000 0.000 0.000 0.000 0.000 0.000 0.078 2.654 4.742 5.278 5.354 5.525 11.369 15.049 16.493 18.595 18.716 18.145 13.975 10.298 9.521 8.686 8.150 6.172 1.082 0.000 0.000 0.000 0.000 0.000 0.000 0.000 0.000 0.000 0.000 0.000 0.000 0.000 0.000 0.000 0.000 0.000 0.000 0.000 0.000 0.000 0.000
0.000 0.000 0.000 0.000 0.000 0.000 0.000 0.000 0.000 0.000 0.013 1.631 4.501 5.139 5.517 6.193 10.542 15.189 17.087 18.021 19.550 18.544 16.071 11.423 8.966 7.842 7.362 6.518 3.694 0.052 0.000 0.000 0.000 0.000 0.000 0.000 0.000 0.000 0.000 0.000 0.000 0.000 0.000 0.000 0.000 0.000 0.000 0.000 0.000 0.000 0.000
0.000 0.000 0.000 0.000 0.000 0.000 0.000 0.000 0.000 0.000 0.017 1.146 4.064 4.856 5.398 6.211 10.912 15.039 18.692 20.774 20.778 19.180 17.048 10.814 7.875 7.790 7.685 7.807 5.074 1.105 0.000 0.000 0.000 0.000 0.000 0.000 0.000 0.000 0.000 0.000 0.000 0.000 0.000 0.000 0.000 0.000 0.000 0.000 0.000 0.000 0.000
0.000 0.000 0.000 0.000 0.000 0.000 0.000 0.000 0.000 0.000 0.001 1.105 4.014 4.578 5.005 5.852 9.304 13.466 17.260 18.885 18.853 18.675 17.295 11.429 7.987 7.543 8.491 8.130 5.226 3.221 0.205 0.000 0.000 0.000 0.000 0.000 0.000 0.000 0.000 0.000 0.000 0.000 0.000 0.000 0.000 0.000 0.000 0.000 0.000 0.000 0.000
0.000 0.000 0.000 0.000 0.000 0.000 0.000 0.000 0.000 0.000 0.008 0.659 3.820 4.146 5.015 6.140 9.040 11.769 17.855 19.566 17.018 19.760 16.105 12.457 8.233 8.186 8.535 7.306 6.146 6.079 2.175 0.000 0.000 0.000 0.000 0.000 0.000 0.000 0.000 0.000 0.000 0.000 0.000 0.000 0.000 0.000 0.000 0.000 0.000 0.000 0.000
0.000 0.000 0.000 0.000 0.000 0.000 0.000 0.000 0.000 0.000 0.000 0.165 2.794 3.765 4.961 5.637 8.256 9.425 12.941 18.264 18.740 18.379 16.216 13.112 8.655 8.237 8.046 8.244 8.198 8.352 4.304 0.134 0.001 0.000 0.000 0.000 0.000 0.000 0.000 0.000 0.000 0.000 0.000 0.000 0.000 0.000 0.000 0.000 0.000 0.000 0.000
0.000 0.000 0.000 0.000 0.000 0.000 0.000 0.000 0.000 0.000 0.000 0.052 2.365 3.594 4.570 4.957 7.442 8.649 9.032 15.964 17.330 17.553 16.447 13.763 9.524 8.019 8.372 8.842 9.240 8.987 5.521 0.804 0.435 0.000 0.000 0.000 0.000 0.000 0.000 0.000 0.000 0.000 0.000 0.000 0.000 0.000 0.000 0.000 0.000 0.000 0.000
0.000 0.000 0.000 0.000 0.000 0.000 0.000 0.000 0.000 0.000 0.000 0.100 2.538 4.354 4.521 4.960 6.187 7.176 8.297 15.300 18.015 18.086 16.876 14.343 10.883 8.266 8.502 8.561 9.653 7.773 6.083 1.764 2.449 0.001 0.000 0.000 0.000 0.000 0.000 0.000 0.000 0.000 0.000 0.000 0.000 0.000 0.000 0.000 0.000 0.000 0.000
0.000 0.000 0.000 0.000 0.000 0.000 0.000 0.000 0.000 0.000 0.000 0.477 3.031 4.416 4.708 4.761 5.941 7.049 7.871 13.441 18.151 17.831 17.864 14.979 11.623 9.138 8.368 9.200 10.526 8.438 6.987 4.330 3.581 0.277 0.000 0.000 0.000 0.000 0.000 0.000 0.000 0.000 0.000 0.000 0.000 0.000 0.000 0.000 0.000 0.000 0.000
0.000 0.000 0.000 0.000 0.000 0.000 0.000 0.000 0.000 0.000 0.000 0.713 3.108 4.038 4.817 5.013 5.844 7.023 8.337 13.065 18.687 19.062 17.112 15.510 12.738 10.190 8.183 8.868 9.100 9.554 7.739 5.653 3.955 1.850 0.000 0.000 0.000 0.000 0.000 0.000 0.000 0.000 0.000 0.000 0.000 0.000 0.000 0.000 0.000 0.000 0.000
0.000 0.000 0.000 0.000 0.000 0.000 0.000 0.000 0.000 0.000 0.000 0.172 2.755 4.285 4.714 4.556 5.858 7.370 8.500 12.816 17.634 19.522 17.644 15.331 13.664 11.665 8.802 8.668 8.569 9.323 7.460 6.717 4.786 3.175 0.027 0.000 0.000 0.000 0.000 0.000 0.000 0.000 0.000 0.000 0.000 0.000 0.000 0.000 0.000 0.000 0.000
0.000 0.000 0.000 0.000 0.000 0.000 0.000 0.000 0.000 0.000 0.000 0.125 2.344 4.117 4.310 4.253 5.570 7.420 8.088 12.484 17.089 19.731 19.802 17.947 14.708 12.974 9.208 8.911 9.273 9.346 8.094 7.220 5.556 4.082 0.960 0.000 0.000 0.000 0.000 0.000 0.000 0.000 0.000 0.000 0.000 0.000 0.000 0.000 0.000 0.000 0.000
0.000 0.000 0.000 0.000 0.000 0.000 0.000 0.000 0.000 0.000 0.000 0.003 1.617 4.062 4.585 4.811 5.443 6.980 8.090 11.821 17.033 18.659 19.889 19.480 16.539 13.469 10.554 8.807 8.789 8.179 8.651 8.112 6.503 5.070 2.462 0.004 0.000 0.000 0.000 0.000 0.000 0.000 0.000 0.000 0.000 0.000 0.000 0.000 0.000 0.000 0.000
0.000 0.000 0.000 0.000 0.000 0.000 0.000 0.000 0.000 0.000 0.000 0.026 1.499 3.774 4.625 5.096 5.054 6.160 7.988 10.989 17.033 19.131 19.928 20.446 19.331 14.522 11.054 8.534 8.846 8.856 8.954 8.941 7.617 5.878 3.454 0.546 0.000 0.000 0.000 0.000 0.000 0.000 0.000 0.000 0.000 0.000 0.000 0.000 0.000 0.000 0.000
0.000 0.000 0.000 0.000 0.000 0.000 0.000 0.000 0.000 0.000 0.000 0.009 1.351 3.200 4.363 4.619 4.963 5.989 7.728 10.581 15.830 19.651 20.599 20.162 18.236 14.325 10.060 8.809 8.570 9.180 9.685 9.180 8.745 6.641 5.353 2.710 0.002 0.000 0.000 0.000 0.000 0.000 0.000 0.000 0.000 0.000 0.000 0.000 0.000 0.000 0.000
0.000 0.000 0.000 0.000 0.000 0.000 0.000 0.000 0.000 0.000 0.000 0.052 1.321 3.137 4.056 4.082 4.491 5.605 7.153 9.892 15.142 19.327 20.239 20.340 20.149 17.058 11.692 9.731 8.728 9.490 10.004 10.455 9.037 8.435 6.780 3.939 0.345 0.000 0.000 0.000 0.000 0.000 0.000 0.000 0.000 0.000 0.000 0.000 0.000 0.000 0.000
0.000 0.000 0.000 0.000 0.000 0.000 0.000 0.000 0.000 0.000 0.000 0.016 0.984 2.952 3.720 4.146 4.557 5.517 7.048 9.190 13.633 17.586 18.573 20.421 19.323 16.885 13.658 10.145 9.592 9.868 10.375 10.343 9.894 9.696 7.260 4.600 2.217 0.000 0.000 0.000 0.000 0.000 0.000 0.000 0.000 0.000 0.000 0.000 0.000 0.000 0.000
0.000 0.000 0.000 0.000 0.000 0.000 0.000 0.000 0.000 0.000 0.000 0.005 0.551 2.864 3.707 4.098 4.542 5.488 6.630 8.325 12.422 16.941 19.409 20.368 18.168 17.384 12.580 11.016 10.762 10.088 9.902 10.135 10.535 9.986 7.100 5.826 3.666 0.026 0.000 0.000 0.000 0.000 0.000 0.000 0.000 0.000 0.000 0.000 0.000 0.000 0.000
0.000 0.000 0.000 0.000 0.000 0.000 0.000 0.000 0.000 0.000 0.000 0.000 0.038 2.100 3.713 3.873 4.231 4.887 6.142 7.825 11.351 17.765 19.629 18.836 19.500 16.203 13.087 11.856 9.251 8.581 8.845 10.163 11.303 9.418 7.687 7.081 4.853 0.727 0.000 0.000 0.000 0.000 0.000 0.000 0.000 0.000 0.000 0.000 0.000 0.000 0.000
0.000 0.000 0.000 0.000 0.000 0.000 0.000 0.000 0.000 0.000 0.000 0.000 0.039 1.355 3.695 3.903 4.519 5.218 5.549 7.964 10.993 16.508 17.488 19.822 17.990 15.721 14.078 10.861 8.432 8.552 9.326 10.826 10.122 9.424 9.386 8.529 5.373 2.738 0.002 0.000 0.000 0.000 0.000 0.000 0.000 0.000 0.000 0.000 0.000 0.000 0.000
0.000 0.000 0.000 0.000 0.000 0.000 0.000 0.000 0.000 0.000 0.000 0.000 0.080 1.807 3.915 4.271 4.387 4.768 6.517 7.522 10.499 14.511 18.158 18.799 17.987 17.608 14.908 12.410 10.112 9.540 10.131 10.055 9.650 10.631 9.701 7.955 6.527 4.144 0.309 0.000 0.000 0.000 0.000 0.000 0.000 0.000 0.000 0.000 0.000 0.000 0.000
0.000 0.000 0.000 0.000 0.000 0.000 0.000 0.000 0.000 0.000 0.000 0.000 0.109 1.783 3.866 4.377 3.767 4.893 5.924 4.240 8.826 13.845 16.413 18.232 19.320 18.011 15.079 12.977 11.180 10.891 9.628 10.021 10.340 10.122 9.661 8.265 7.477 5.094 2.331 0.000 0.000 0.000 0.000 0.000 0.000 0.000 0.000 0.000 0.000 0.000 0.000
0.000 0.000 0.000 0.000 0.000 0.000 0.000 0.000 0.000 0.000 0.000 0.000 0.010 0.690 3.233 4.451 3.939 4.237 4.135 4.322 7.913 13.259 16.470 18.729 19.576 18.858 16.494 13.900 12.959 11.243 9.993 10.351 9.852 9.391 9.494 8.701 8.267 7.031 4.398 0.033 0.000 0.000 0.000 0.000 0.000 0.000 0.000 0.000 0.000 0.000 0.000
0.000 0.000 0.000 0.000 0.000 0.000 0.000 0.000 0.000 0.000 0.000 0.000 0.002 0.299 2.676 4.514 4.244 3.877 3.854 4.592 8.148 12.167 16.372 18.009 18.936 18.471 15.258 15.076 13.830 10.471 10.304 9.326 7.689 8.883 9.480 9.942 9.834 8.367 5.768 1.479 0.000 0.000 0.000 0.000 0.000 0.000 0.000 0.000 0.000 0.000 0.000
0.000 0.000 0.000 0.000 0.000 0.000 0.000 0.000 0.000 0.000 0.000 0.000 0.000 0.003 0.301 4.159 4.268 3.547 3.602 5.464 8.231 11.509 16.270 18.889 18.658 17.116 15.290 15.966 14.211 11.853 10.782 8.755 7.572 8.438 9.858 10.444 10.081 9.053 7.093 4.097 0.000 0.000 0.000 0.000 0.000 0.000 0.000 0.000 0.000 0.000 0.000
0.000 0.000 0.000 0.000 0.000 0.000 0.000 0.000 0.000 0.000 0.000 0.000 0.000 0.000 0.655 2.811 3.849 2.831 3.897 5.410 7.655 10.773 14.780 16.950 17.617 16.660 16.826 17.415 14.642 12.052 10.078 8.031 7.789 8.843 9.901 10.026 9.988 9.279 7.781 4.886 0.067 0.000 0.000 0.000 0.000 0.000 0.000 0.000 0.000 0.000 0.000
0.000 0.000 0.000 0.000 0.000 0.000 0.000 0.000 0.000 0.000 0.000 0.000 0.000 0.000 0.000 2.206 2.778 3.179 4.265 4.939 6.653 9.823 13.832 15.080 17.664 16.579 18.059 16.677 14.939 13.140 10.950 9.257 7.956 8.512 9.376 9.920 10.491 10.396 7.897 4.363 0.433 0.000 0.000 0.000 0.000 0.000 0.000 0.000 0.000 0.000 0.000
0.000 0.000 0.000 0.000 0.000 0.000 0.000 0.000 0.000 0.000 0.000 0.000 0.000 0.000 0.000 0.621 2.874 3.639 4.287 4.834 5.809 8.456 11.907 15.041 16.091 17.758 17.834 17.666 15.526 14.553 11.435 8.635 7.181 7.221 7.784 9.340 9.822 9.692 6.264 3.401 0.351 0.000 0.000 0.000 0.000 0.000 0.000 0.000 0.000 0.000 0.000
0.000 0.000 0.000 0.000 0.000 0.000 0.000 0.000 0.000 0.000 0.000 0.000 0.000 0.000 0.000 0.300 2.211 3.662 4.212 4.575 4.733 7.618 10.711 14.665 16.580 16.733 18.350 17.237 15.864 14.481 10.965 8.214 6.445 6.286 7.057 8.435 8.807 8.607 6.704 4.243 0.008 0.000 0.000 0.000 0.000 0.000 0.000 0.000 0.000 0.000 0.000
0.000 0.000 0.000 0.000 0.000 0.000 0.000 0.000 0.000 0.000 0.000 0.000 0.000 0.000 0.000 0.092 1.295 2.941 4.000 3.887 4.338 6.277 9.754 13.332 15.196 16.465 16.446 16.363 15.639 12.834 9.773 7.809 6.624 5.919 6.513 6.976 7.945 8.983 7.876 4.706 0.812 0.000 0.000 0.000 0.000 0.000 0.000 0.000 0.000 0.000 0.000
0.000 0.000 0.000 0.000 0.000 0.000 0.000 0.000 0.000 0.000 0.000 0.000 0.000 0.000 0.000 0.007 0.508 2.075 3.397 3.667 4.037 5.025 7.722 10.684 13.453 15.659 15.637 14.600 14.204 11.628 10.285 9.416 6.745 6.092 6.022 5.624 7.214 9.141 7.608 4.982 2.606 0.000 0.000 0.000 0.000 0.000 0.000 0.000 0.000 0.000 0.000
0.000 0.000 0.000 0.000 0.000 0.000 0.000 0.000 0.000 0.000 0.000 0.000 0.000 0.000 0.000 0.000 0.083 1.129 3.005 3.409 3.619 4.325 6.606 9.220 12.485 14.369 14.689 15.049 14.143 12.359 11.510 9.763 7.158 6.570 5.785 5.773 7.072 8.421 7.809 5.254 2.831 0.000 0.000 0.000 0.000 0.000 0.000 0.000 0.000 0.000 0.000
0.000 0.000 0.000 0.000 0.000 0.000 0.000 0.000 0.000 0.000 0.000 0.000 0.000 0.000 0.000 0.000 0.002 0.382 2.472 3.181 3.390 4.051 4.853 7.554 10.335 11.889 13.330 13.557 13.369 12.679 12.786 10.257 8.194 6.676 6.285 6.106 6.040 8.415 8.069 5.368 3.154 0.197 0.000 0.000 0.000 0.000 0.000 0.000 0.000 0.000 0.000
0.000 0.000 0.000 0.000 0.000 0.000 0.000 0.000 0.000 0.000 0.000 0.000 0.000 0.000 0.000 0.000 0.000 0.276 1.819 2.876 3.311 3.717 4.346 5.913 8.246 11.451 12.989 12.851 13.308 13.182 11.664 11.263 8.683 7.046 6.172 5.146 4.840 7.742 8.098 5.666 3.222 1.493 0.000 0.000 0.000 0.000 0.000 0.000 0.000 0.000 0.000
0.000 0.000 0.000 0.000 0.000 0.000 0.000 0.000 0.000 0.000 0.000 0.000 0.000 0.000 0.000 0.000 0.000 0.119 1.202 2.550 3.036 3.437 3.464 4.839 7.136 9.972 11.508 12.315 13.345 13.433 11.237 11.264 8.679 7.269 4.986 4.240 3.670 6.949 8.118 5.985 3.140 2.086 0.009 0.000 0.000 0.000 0.000 0.000 0.000 0.000 0.000
0.000 0.000 0.000 0.000 0.000 0.000 0.000 0.000 0.000 0.000 0.000 0.000 0.000 0.000 0.000 0.000 0.000 0.074 0.697 1.839 2.586 3.135 2.987 4.150 6.396 8.656 11.038 12.569 12.804 12.855 11.762 11.753 9.374 6.384 4.418 3.754 4.547 6.635 8.223 6.181 3.640 2.576 0.567 0.000 0.000 0.000 0.000 0.000 0.000 0.000 0.000
0.000 0.000 0.000 0.000 0.000 0.000 0.000 0.000 0.000 0.000 0.000 0.000 0.000 0.000 0.000 0.000 0.000 0.006 0.770 1.501 2.410 2.965 3.429 3.847 5.635 8.143 10.872 13.240 13.249 11.667 12.341 10.815 8.804 5.980 4.744 4.550 5.293 6.360 7.682 6.376 3.895 3.127 1.942 0.027 0.000 0.000 0.000 0.000 0.000 0.000 0.000
0.000 0.000 0.000 0.000 0.000 0.000 0.000 0.000 0.000 0.000 0.000 0.000 0.000 0.000 0.000 0.000 0.000 0.000 0.004 0.820 2.169 2.800 3.296 3.773 5.233 7.272 9.531 13.068 12.613 12.275 11.831 10.646 8.299 5.799 4.836 5.001 5.110 6.020 7.286 6.155 3.822 3.452 2.832 0.916 0.000 0.000 0.000 0.000 0.000 0.000 0.000
0.000 0.000 0.000 0.000 0.000 0.000 0.000 0.000 0.000 0.000 0.000 0.000 0.000 0.000 0.000 0.000 0.000 0.000 0.000 0.308 1.660 2.731 2.661 3.545 4.607 6.901 8.629 10.787 11.426 11.087 10.366 9.441 7.481 6.089 5.021 4.950 4.539 5.766 6.909 5.920 3.813 3.484 3.098 2.186 0.068 0.000 0.000 0.000 0.000 0.000 0.000
0.000 0.000 0.000 0.000 0.000 0.000 0.000 0.000 0.000 0.000 0.000 0.000 0.000 0.000 0.000 0.000 0.000 0.000 0.000 0.071 1.110 2.305 2.582 3.381 4.021 5.376 7.093 9.764 10.149 9.834 9.180 8.251 7.989 6.746 5.721 5.086 5.101 5.009 5.963 5.816 3.821 3.329 3.078 2.500 0.836 0.006 0.000 0.000 0.000 0.000 0.000
0.000 0.000 0.000 0.000 0.000 0.000 0.000 0.000 0.000 0.000 0.000 0.000 0.000 0.000 0.000 0.000 0.000 0.000 0.000 0.000 0.717 2.103 2.832 3.124 3.456 4.462 5.461 6.446 8.358 7.902 8.266 7.900 8.648 7.397 5.462 5.116 5.197 4.853 5.615 5.776 3.493 3.012 3.010 2.773 2.018 0.573 0.000 0.000 0.000 0.000 0.000
0.000 0.000 0.000 0.000 0.000 0.000 0.000 0.000 0.000 0.000 0.000 0.000 0.000 0.000 0.000 0.000 0.000 0.000 0.000 0.002 0.957 1.980 2.549 2.676 2.979 3.728 3.900 6.188 7.055 7.613 7.983 8.598 8.473 7.085 4.554 5.692 4.560 4.983 5.151 5.267 3.265 2.970 2.938 2.753 2.672 2.301 0.003 0.000 0.000 0.000 0.000
0.000 0.000 0.000 0.000 0.000 0.000 0.000 0.000 0.000 0.000 0.000 0.000 0.000 0.000 0.000 0.000 0.000 0.000 0.000 0.002 0.420 1.440 2.038 2.506 2.529 2.840 3.589 3.957 6.058 7.613 8.146 8.573 7.452 5.824 5.019 4.825 2.429 3.860 5.026 4.842 3.663 3.065 2.882 2.801 2.907 2.503 0.315 0.000 0.000 0.000 0.000
0.000 0.000 0.000 0.000 0.000 0.000 0.000 0.000 0.000 0.000 0.000 0.000 0.000 0.000 0.000 0.000 0.000 0.000 0.000 0.000 0.113 0.819 1.453 2.155 2.313 2.167 2.740 4.963 6.582 7.350 7.695 7.483 6.388 5.090 4.547 3.829 2.283 2.368 4.667 4.603 3.913 3.008 2.795 2.775 2.575 1.866 1.544 0.000 0.000 0.000 0.000
0.000 0.000 0.000 0.000 0.000 0.000 0.000 0.000 0.000 0.000 0.000 0.000 0.000 0.000 0.000 0.000 0.000 0.000 0.000 0.000 0.000 0.028 0.326 1.204 1.726 1.702 0.723 4.356 5.479 6.187 7.064 6.426 5.567 4.252 4.218 3.986 3.468 3.194 3.696 4.305 3.702 2.902 2.671 2.481 2.480 2.537 2.028 0.028 0.000 0.000 0.000
0.000 0.000 0.000 0.000 0.000 0.000 0.000 0.000 0.000 0.000 0.000 0.000 0.000 0.000 0.000 0.000 0.000 0.000 0.000 0.000 0.000 0.000 0.002 0.653 1.746 2.192 2.729 3.464 4.128 4.968 5.564 5.742 5.842 4.752 4.781 4.897 4.230 3.192 3.026 3.449 3.437 2.801 2.540 2.391 2.309 2.256 1.733 0.290 0.000 0.000 0.000
0.000 0.000 0.000 0.000 0.000 0.000 0.000 0.000 0.000 0.000 0.000 0.000 0.000 0.000 0.000 0.000 0.000 0.000 0.000 0.000 0.000 0.000 0.000 0.222 1.553 2.248 2.309 2.076 3.111 3.816 4.918 5.244 6.100 4.629 5.054 4.544 3.400 2.733 2.348 2.836 3.203 2.766 2.446 2.254 2.005 1.843 2.004 0.885 0.000 0.000 0.000
0.000 0.000 0.000 0.000 0.000 0.000 0.000 0.000 0.000 0.000 0.000 0.000 0.000 0.000 0.000 0.000 0.000 0.000 0.000 0.000 0.000 0.000 0.000 0.030 0.563 1.727 1.960 0.000 2.108 3.236 4.092 4.340 4.678 4.220 4.575 3.332 2.175 2.217 1.215 1.629 2.083 2.567 2.269 1.959 1.709 1.993 2.580 1.572 0.000 0.000 0.000
0.000 0.000 0.000 0.000 0.000 0.000 0.000 0.000 0.000 0.000 0.000 0.000 0.000 0.000 0.000 0.000 0.000 0.000 0.000 0.000 0.000 0.000 0.000 0.000 0.015 0.429 1.926 2.398 2.047 3.116 3.397 2.932 3.534 3.441 3.302 2.260 1.433 0.677 0.097 0.037 1.124 2.285 1.986 1.651 1.419 1.756 2.239 1.725 0.012 0.000 0.000
0.000 0.000 0.000 0.000 0.000 0.000 0.000 0.000 0.000 0.000 0.000 0.000 0.000 0.000 0.000 0.000 0.000 0.000 0.000 0.000 0.000 0.000 0.000 0.000 0.000 0.550 1.552 2.570 2.950 3.299 2.608 1.796 2.530 2.892 3.143 1.860 0.958 0.076 0.018 0.067 0.491 1.213 1.695 1.098 0.098 1.013 1.086 1.384 0.355 0.000 0.000
0.000 0.000 0.000 0.000 0.000 0.000 0.000 0.000 0.000 0.000 0.000 0.000 0.000 0.000 0.000 0.000 0.000 0.000 0.000 0.000 0.000 0.000 0.000 0.000 0.000 0.001 1.197 2.194 3.079 2.892 1.009 0.295 1.670 2.695 1.750 0.112 0.006 0.022 0.063 0.078 0.079 0.936 1.278 0.045 0.086 0.070 0.943 1.344 1.020 0.000 0.000
0.000 0.000 0.000 0.000 0.000 0.000 0.000 0.000 0.000 0.000 0.000 0.000 0.000 0.000 0.000 0.000 0.000 0.000 0.000 0.000 0.000 0.000 0.000 0.000 0.000 0.000 0.088 1.456 1.999 2.162 0.344 1.497 2.577 2.387 0.052 0.004 0.047 0.022 0.086 0.089 0.059 0.210 0.076 0.060 0.072 0.093 1.204 1.336 0.804 0.058 0.000
0.000 0.000 0.000 0.000 0.000 0.000 0.000 0.000 0.000 0.000 0.000 0.000 0.000 0.000 0.000 0.000 0.000 0.000 0.000 0.000 0.000 0.000 0.000 0.000 0.000 0.000 0.000 0.607 1.472 1.945 2.561 2.982 2.658 1.291 0.042 0.032 0.075 0.090 0.005 0.042 0.043 0.059 0.069 0.702 0.080 0.083 1.146 1.235 0.839 0.353 0.000
0.000 0.000 0.000 0.000 0.000 0.000 0.000 0.000 0.000 0.000 0.000 0.000 0.000 0.000 0.000 0.000 0.000 0.000 0.000 0.000 0.000 0.000 0.000 0.000 0.000 0.000 0.000 0.016 1.022 1.604 1.962 2.609 2.035 0.227 0.088 0.013 0.068 0.040 0.069 0.066 0.061 0.083 0.099 0.094 0.077 0.286 1.300 1.438 1.198 0.613 0.032
0.000 0.000 0.000 0.000 0.000 0.000 0.000 0.000 0.000 0.000 0.000 0.000 0.000 0.000 0.000 0.000 0.000 0.000 0.000 0.000 0.000 0.000 0.000 0.000 0.000 0.000 0.000 0.006 0.116 1.165 1.789 2.201 2.086 1.338 0.364 0.100 0.019 0.003 0.070 0.069 0.093 0.069 0.093 0.072 0.095 0.194 1.500 1.329 1.371 0.824 0.281
0.000 0.000 0.000 0.000 0.000 0.000 0.000 0.000 0.000 0.000 0.000 0.000 0.000 0.000 0.000 0.000 0.000 0.000 0.000 0.000 0.000 0.000 0.000 0.000 0.000 0.000 0.000 0.005 0.051 1.175 1.810 1.872 1.508 1.536 0.093 0.161 0.039 0.459 0.094 0.094 0.037 0.059 0.590 0.061 0.325 0.732 1.064 1.134 1.417 1.138 0.445
0.000 0.000 0.000 0.000 0.000 0.000 0.000 0.000 0.000 0.000 0.000 0.000 0.000 0.000 0.000 0.000 0.000 0.000 0.000 0.000 0.000 0.000 0.000 0.000 0.000 0.000 0.000 0.000 0.091 0.630 1.250 1.636 1.667 1.407 0.738 0.152 0.093 0.812 0.072 0.059 0.083 0.840 0.437 0.071 0.222 1.411 1.478 1.513 1.237 1.398 1.098
0.000 0.000 0.000 0.000 0.000 0.000 0.000 0.000 0.000 0.000 0.000 0.000 0.000 0.000 0.000 0.000 0.000 0.000 0.000 0.000 0.000 0.000 0.000 0.000 0.000 0.000 0.000 0.000 0.002 0.108 0.430 1.338 1.648 1.609 1.502 0.327 0.571 0.088 0.093 0.095 1.043 0.084 0.098 0.050 0.367 1.954 1.968 1.660 1.237 1.649 1.568
0.000 0.000 0.000 0.000 0.000 0.000 0.000 0.000 0.000 0.000 0.000 0.000 0.000 0.000 0.000 0.000 0.000 0.000 0.000 0.000 0.000 0.000 0.000 0.000 0.000 0.000 0.000 0.000 0.000 0.001 0.059 0.629 1.529 1.598 1.657 1.479 0.974 0.031 0.016 0.030 0.076 0.093 0.086 0.078 0.089 1.993 2.135 1.331 1.326 1.765 1.696
0.000 0.000 0.000 0.000 0.000 0.000 0.000 0.000 0.000 0.000 0.000 0.000 0.000 0.000 0.000 0.000 0.000 0.000 0.000 0.000 0.000 0.000 0.000 0.000 0.000 0.000 0.000 0.000 0.000 0.000 0.000 0.072 1.203 1.683 1.645 1.256 0.091 0.089 0.069 0.064 0.078 0.079 0.019 0.026 0.324 1.961 1.330 0.310 0.798 1.421 1.796
0.000 0.000 0.000 0.000 0.000 0.000 0.000 0.000 0.000 0.000 0.000 0.000 0.000 0.000 0.000 0.000 0.000 0.000 0.000 0.000 0.000 0.000 0.000 0.000 0.000 0.000 0.000 0.000 0.000 0.000 0.000 0.002 0.643 1.505 1.579 1.174 0.031 0.020 0.052 0.091 0.062 0.083 0.061 0.084 0.085 0.538 0.229 0.926 0.643 1.382 1.982
0.000 0.000 0.000 0.000 0.000 0.000 0.000 0.000 0.000 0.000 0.000 0.000 0.000 0.000 0.000 0.000 0.000 0.000 0.000 0.000 0.000 0.000 0.000 0.000 0.000 0.000 0.000 0.000 0.000 0.000 0.000 0.000 0.039 0.764 1.411 1.310 0.387 0.074 0.028 0.059 0.088 0.086 0.086 0.076 0.033 0.984 1.688 1.672 1.182 1.569 1.773
0.000 0.000 0.000 0.000 0.000 0.000 0.000 0.000 0.000 0.000 0.000 0.000 0.000 0.000 0.000 0.000 0.000 0.000 0.000 0.000 0.000 0.000 0.000 0.000 0.000 0.000 0.000 0.000 0.000 0.000 0.000 0.000 0.000 0.094 1.121 1.177 0.986 0.084 0.057 0.059 0.036 0.090 0.094 0.074 0.144 1.378 2.095 1.785 0.891 0.925 0.996
0.000 0.000 0.000 0.000 0.000 0.000 0.000 0.000 0.000 0.000 0.000 0.000 0.000 0.000 0.000 0.000 0.000 0.000 0.000 0.000 0.000 0.000 0.000 0.000 0.000 0.000 0.000 0.000 0.000 0.000 0.000 0.000 0.000 0.016 0.948 1.193 0.961 0.331 0.086 0.703 0.098 0.046 0.018 0.099 0.032 1.810 1.781 1.521 0.823 0.147 0.985
0.000 0.000 0.000 0.000 0.000 0.000 0.000 0.000 0.000 0.000 0.000 0.000 0.000 0.000 0.000 0.000 0.000 0.000 0.000 0.000 0.000 0.000 0.000 0.000 0.000 0.000 0.000 0.000 0.000 0.000 0.000 0.000 0.000 0.001 0.358 1.185 1.211 1.441 0.077 1.361 0.079 0.054 0.080 0.100 0.536 1.229 1.511 1.435 0.087 0.344 0.460
0.000 0.000 0.000 0.000 0.000 0.000 0.000 0.000 0.000 0.000 0.000 0.000 0.000 0.000 0.000 0.000 0.000 0.000 0.000 0.000 0.000 0.000 0.000 0.000 0.000 0.000 0.000 0.000 0.000 0.000 0.000 0.000 0.000 0.000 0.099 1.099 1.545 1.438 1.662 1.610 0.952 0.049 0.087 0.098 0.073 0.815 1.360 0.076 0.082 0.087 0.095
0.000 0.000 0.000 0.000 0.000 0.000 0.000 0.000 0.000 0.000 0.000 0.000 0.000 0.000 0.000 0.000 0.000 0.000 0.000 0.000 0.000 0.000 0.000 0.000 0.000 0.000 0.000 0.000 0.000 0.000 0.000 0.000 0.000 0.000 0.192 0.627 1.288 1.094 1.612 0.357 0.356 0.022 0.011 0.044 0.781 1.504 1.091 0.084 0.073 0.083 0.086
0.000 0.000 0.000 0.000 0.000 0.000 0.000 0.000 0.000 0.000 0.000 0.000 0.000 0.000 0.000 0.000 0.000 0.000 0.000 0.000 0.000 0.000 0.000 0.000 0.000 0.000 0.000 0.000 0.000 0.000 0.000 0.000 0.000 0.000 0.001 0.377 0.087 1.420 1.208 0.055 0.068 0.093 0.030 0.357 1.252 1.765 0.992 0.782 0.067 0.053 0.051
0.000 0.000 0.000 0.000 0.000 0.000 0.000 0.000 0.000 0.000 0.000 0.000 0.000 0.000 0.000 0.000 0.000 0.000 0.000 0.000 0.000 0.000 0.000 0.000 0.000 0.000 0.000 0.000 0.000 0.000 0.000 0.000 0.000 0.000 0.001 0.042 0.688 1.413 1.195 0.083 0.095 0.007 0.097 0.959 1.126 1.810 1.745 1.262 0.042 0.069 0.078
0.000 0.000 0.000 0.000 0.000 0.000 0.000 0.000 0.000 0.000 0.000 0.000 0.000 0.000 0.000 0.000 0.000 0.000 0.000 0.000 0.000 0.000 0.000 0.000 0.000 0.000 0.000 0.000 0.000 0.000 0.000 0.000 0.000 0.000 0.000 0.023 0.696 1.122 1.131 0.090 0.033 0.141 0.920 1.676 1.671 2.332 2.016 0.086 0.315 0.060 0.036
0.000 0.000 0.000 0.000 0.000 0.000 0.000 0.000 0.000 0.000 0.000 0.000 0.000 0.000 0.000 0.000 0.000 0.000 0.000 0.000 0.000 0.000 0.000 0.000 0.000 0.000 0.000 0.000 0.000 0.000 0.000 0.000 0.000 0.000 0.000 0.001 0.442 0.457 1.030 0.097 0.259 3.008 2.984 3.048 3.119 2.449 1.252 0.095 0.067 0.067 0.059
0.000 0.000 0.000 0.000 0.000 0.000 0.000 0.000 0.000 0.000 0.000 0.000 0.000 0.000 0.000 0.000 0.000 0.000 0.000 0.000 0.000 0.000 0.000 0.000 0.000 0.000 0.000 0.000 0.000 0.000 0.000 0.000 0.000 0.000 0.000 0.000 0.049 0.524 0.215 0.091 1.527 2.880 3.781 3.608 3.376 2.153 1.310 0.080 0.084 0.058 0.051
0.000 0.000 0.000 0.000 0.000 0.000 0.000 0.000 0.000 0.000 0.000 0.000 0.000 0.000 0.000 0.000 0.000 0.000 0.000 0.000 0.000 0.000 0.000 0.000 0.000 0.000 0.000 0.000 0.000 0.000 0.000 0.000 0.000 0.000 0.000 0.000 0.000 0.319 0.268 0.364 1.871 2.388 3.151 3.124 2.537 2.197 1.218 0.517 0.100 0.064 0.052
0.000 0.000 0.000 0.000 0.000 0.000 0.000 0.000 0.000 0.000 0.000 0.000 0.000 0.000 0.000 0.000 0.000 0.000 0.000 0.000 0.000 0.000 0.000 0.000 0.000 0.000 0.000 0.000 0.000 0.000 0.000 0.000 0.000 0.000 0.000 0.000 0.000 0.027 0.080 1.489 1.759 1.810 2.468 2.162 2.342 2.904 2.500 2.072 0.862 0.069 0.077
0.000 0.000 0.000 0.000 0.000 0.000 0.000 0.000 0.000 0.000 0.000 0.000 0.000 0.000 0.000 0.000 0.000 0.000 0.000 0.000 0.000 0.000 0.000 0.000 0.000 0.000 0.000 0.000 0.000 0.000 0.000 0.000 0.000 0.000 0.000 0.000 0.000 0.057 1.079 1.580 1.586 1.551 1.688 1.220 1.818 3.112 3.026 2.780 1.764 0.102 0.084
0.000 0.000 0.000 0.000 0.000 0.000 0.000 0.000 0.000 0.000 0.000 0.000 0.000 0.000 0.000 0.000 0.000 0.000 0.000 0.000 0.000 0.000 0.000 0.000 0.000 0.000 0.000 0.000 0.000 0.000 0.000 0.000 0.000 0.000 0.000 0.000 0.000 0.151 0.967 1.295 1.316 1.345 1.517 0.367 0.105 2.307 2.525 2.622 2.233 1.054 0.305
0.000 0.000 0.000 0.000 0.000 0.000 0.000 0.000 0.000 0.000 0.000 0.000 0.000 0.000 0.000 0.000 0.000 0.000 0.000 0.000 0.000 0.000 0.000 0.000 0.000 0.000 0.000 0.000 0.000 0.000 0.000 0.000 0.000 0.000 0.000 0.000 0.000 0.001 0.067 0.553 1.115 1.276 1.408 0.591 0.218 1.902 2.201 2.327 2.226 1.822 0.850
0.000 0.000 0.000 0.000 0.000 0.000 0.000 0.000 0.000 0.000 0.000 0.000 0.000 0.000 0.000 0.000 0.000 0.000 0.000 0.000 0.000 0.000 0.000 0.000 0.000 0.000 0.000 0.000 0.000 0.000 0.000 0.000 0.000 0.000 0.000 0.000 0.000 0.000 0.001 0.039 0.872 1.088 0.999 0.787 1.773 2.179 2.394 2.150 1.982 2.326 1.201
0.000 0.000 0.000 0.000 0.000 0.000 0.000 0.000 0.000 0.000 0.000 0.000 0.000 0.000 0.000 0.000 0.000 0.000 0.000 0.000 0.000 0.000 0.000 0.000 0.000 0.000 0.000 0.000 0.000 0.000 0.000 0.000 0.000 0.000 0.000 0.000 0.000 0.000 0.000 0.001 0.198 0.738 0.099 1.467 2.542 2.541 2.201 2.163 1.913 2.338 1.167
0.000 0.000 0.000 0.000 0.000 0.000 0.000 0.000 0.000 0.000 0.000 0.000 0.000 0.000 0.000 0.000 0.000 0.000 0.000 0.000 0.000 0.000 0.000 0.000 0.000 0.000 0.000 0.000 0.000 0.000 0.000 0.000 0.000 0.000 0.000 0.000 0.000 0.000 0.000 0.000 0.004 0.847 1.120 1.729 2.445 2.523 2.213 2.228 1.997 1.817 1.237
0.000 0.000 0.000 0.000 0.000 0.000 0.000 0.000 0.000 0.000 0.000 0.000 0.000 0.000 0.000 0.000 0.000 0.000 0.000 0.000 0.000 0.000 0.000 0.000 0.000 0.000 0.000 0.000 0.000 0.000 0.000 0.000 0.000 0.000 0.000 0.000 0.000 0.000 0.000 0.000 0.000 0.714 1.251 1.632 1.971 2.482 2.603 2.523 2.477 1.722 1.144
0.000 0.000 0.000 0.000 0.000 0.000 0.000 0.000 0.000 0.000 0.000 0.000 0.000 0.000 0.000 0.000 0.000 0.000 0.000 0.000 0.000 0.000 0.000 0.000 0.000 0.000 0.000 0.000 0.000 0.000 0.000 0.000 0.000 0.000 0.000 0.000 0.000 0.000 0.000 0.000 0.001 0.330 1.401 1.556 1.585 2.192 2.797 2.412 2.343 1.439 1.220
