ncols        42
nrows        105
xllcorner    409617.8
yllcorner    6870829.1
cellsize     5.00
NODATA_value -9999
0.000 0.000 0.056 1.915 7.674 6.425 0.424 0.000 0.000 0.000 0.000 0.000 0.000 0.000 0.000 0.000 0.000 0.000 0.000 0.000 0.000 0.000 0.000 0.000 0.000 0.000 0.000 0.000 0.000 0.000 0.000 0.000 0.000 0.000 0.000 0.000 0.000 0.000 0.000 0.000 0.000 0.000
0.000 0.048 3.500 20.060 19.600 19.612 14.777 1.009 0.000 0.000 0.000 0.000 0.000 0.000 0.000 0.000 0.000 0.000 0.000 0.000 0.000 0.000 0.000 0.000 0.000 0.000 0.000 0.000 0.000 0.000 0.000 0.000 0.000 0.000 0.000 0.000 0.000 0.000 0.000 0.000 0.000 0.000
0.000 1.454 19.411 20.233 20.321 21.264 18.963 15.196 0.130 0.000 0.000 0.000 0.000 0.000 0.000 0.000 0.000 0.000 0.000 0.000 0.000 0.000 0.000 0.000 0.000 0.000 0.000 0.000 0.000 0.000 0.000 0.000 0.000 0.000 0.000 0.000 0.000 0.000 0.000 0.000 0.000 0.000
0.011 6.429 20.005 21.635 22.150 21.829 20.107 18.106 8.535 0.000 0.000 0.000 0.000 0.000 0.000 0.000 0.000 0.000 0.000 0.000 0.000 0.000 0.000 0.000 0.000 0.000 0.000 0.000 0.000 0.000 0.000 0.000 0.000 0.000 0.000 0.000 0.000 0.000 0.000 0.000 0.000 0.000
0.110 11.982 20.805 21.474 22.431 22.102 21.325 18.976 17.808 1.022 0.000 0.000 0.000 0.000 0.000 0.000 0.000 0.000 0.000 0.000 0.000 0.000 0.000 0.000 0.000 0.000 0.000 0.000 0.000 0.000 0.000 0.000 0.000 0.000 0.000 0.000 0.000 0.000 0.000 0.000 0.000 0.000
0.344 16.514 20.388 22.999 23.400 22.222 21.508 19.182 18.569 11.076 0.000 0.000 0.000 0.000 0.000 0.000 0.000 0.000 0.000 0.000 0.000 0.000 0.000 0.000 0.000 0.000 0.000 0.000 0.000 0.000 0.000 0.000 0.000 0.000 0.000 0.000 0.000 0.000 0.000 0.000 0.000 0.000
0.469 17.615 21.181 22.356 23.700 23.192 20.517 19.829 19.434 16.200 0.000 0.000 0.000 0.000 0.000 0.000 0.000 0.000 0.000 0.000 0.000 0.000 0.000 0.000 0.000 0.000 0.000 0.000 0.000 0.000 0.000 0.000 0.000 0.000 0.000 0.000 0.000 0.000 0.000 0.000 0.000 0.000
0.315 14.294 20.672 22.510 23.881 22.336 20.539 20.111 22.354 16.488 0.624 0.000 0.000 0.000 0.000 0.000 0.000 0.000 0.000 0.000 0.000 0.000 0.000 0.000 0.000 0.000 0.000 0.000 0.000 0.000 0.000 0.000 0.000 0.000 0.000 0.000 0.000 0.000 0.000 0.000 0.000 0.000
0.109 9.752 20.326 22.790 23.309 21.789 19.741 22.562 22.058 17.549 7.729 0.000 0.000 0.000 0.000 0.000 0.000 0.000 0.000 0.000 0.000 0.000 0.000 0.000 0.000 0.000 0.000 0.000 0.000 0.000 0.000 0.000 0.000 0.000 0.000 0.000 0.000 0.000 0.000 0.000 0.000 0.000
0.022 5.462 18.823 21.350 22.432 20.928 19.801 24.364 22.401 19.004 11.731 0.000 0.000 0.000 0.000 0.000 0.000 0.000 0.000 0.000 0.000 0.000 0.000 0.000 0.000 0.000 0.000 0.000 0.000 0.000 0.000 0.000 0.000 0.000 0.000 0.000 0.000 0.000 0.000 0.000 0.000 0.000
0.023 4.808 16.204 21.452 21.772 20.872 23.181 24.598 22.650 19.895 13.382 0.000 0.000 0.000 0.000 0.000 0.000 0.000 0.000 0.000 0.000 0.000 0.000 0.000 0.000 0.000 0.000 0.000 0.000 0.000 0.000 0.000 0.000 0.000 0.000 0.000 0.000 0.000 0.000 0.000 0.000 0.000
0.267 10.694 16.380 21.955 23.378 23.572 23.630 24.785 22.214 19.308 14.154 0.011 0.000 0.000 0.000 0.000 0.000 0.000 0.000 0.000 0.000 0.000 0.000 0.000 0.000 0.000 0.000 0.000 0.000 0.000 0.000 0.000 0.000 0.000 0.000 0.000 0.000 0.000 0.000 0.000 0.000 0.000
1.034 14.352 16.771 21.940 22.867 23.435 22.052 23.720 21.185 19.720 15.948 1.494 0.000 0.000 0.000 0.000 0.000 0.000 0.000 0.000 0.000 0.000 0.000 0.000 0.000 0.000 0.000 0.000 0.000 0.000 0.000 0.000 0.000 0.000 0.000 0.000 0.000 0.000 0.000 0.000 0.000 0.000
1.988 13.750 16.425 20.370 22.650 23.219 21.635 22.667 21.525 20.637 16.829 5.654 0.000 0.000 0.000 0.000 0.000 0.000 0.000 0.000 0.000 0.000 0.000 0.000 0.000 0.000 0.000 0.000 0.000 0.000 0.000 0.000 0.000 0.000 0.000 0.000 0.000 0.000 0.000 0.000 0.000 0.000
2.568 13.518 16.642 19.697 22.546 22.419 22.431 21.687 21.679 21.425 17.742 9.064 0.001 0.000 0.000 0.000 0.000 0.000 0.000 0.000 0.000 0.000 0.000 0.000 0.000 0.000 0.000 0.000 0.000 0.000 0.000 0.000 0.000 0.000 0.000 0.000 0.000 0.000 0.000 0.000 0.000 0.000
3.189 13.033 16.710 18.855 21.573 21.552 21.565 21.833 22.064 21.998 18.428 12.444 0.703 0.000 0.000 0.000 0.000 0.000 0.000 0.000 0.000 0.000 0.000 0.000 0.000 0.000 0.000 0.000 0.000 0.000 0.000 0.000 0.000 0.000 0.000 0.000 0.000 0.000 0.000 0.000 0.000 0.000
4.263 13.025 16.825 19.048 20.381 21.673 21.214 22.446 22.363 22.700 19.070 14.753 5.050 0.000 0.000 0.000 0.000 0.000 0.000 0.000 0.000 0.000 0.000 0.000 0.000 0.000 0.000 0.000 0.000 0.000 0.000 0.000 0.000 0.000 0.000 0.000 0.000 0.000 0.000 0.000 0.000 0.000
5.180 13.174 16.686 19.363 19.992 22.481 22.397 21.753 23.119 22.882 21.192 17.152 8.206 0.087 0.000 0.000 0.000 0.000 0.000 0.000 0.000 0.000 0.000 0.000 0.000 0.000 0.000 0.000 0.000 0.000 0.000 0.000 0.000 0.000 0.000 0.000 0.000 0.000 0.000 0.000 0.000 0.000
5.615 12.870 16.808 19.695 22.335 23.474 25.024 25.458 24.765 23.633 21.994 17.153 10.286 2.487 0.000 0.000 0.000 0.000 0.000 0.000 0.000 0.000 0.000 0.000 0.000 0.000 0.000 0.000 0.000 0.000 0.000 0.000 0.000 0.000 0.000 0.000 0.000 0.000 0.000 0.000 0.000 0.000
5.573 12.697 15.557 18.156 20.830 23.474 24.513 24.250 22.909 22.961 21.988 17.102 11.556 6.281 0.370 0.000 0.000 0.000 0.000 0.000 0.000 0.000 0.000 0.000 0.000 0.000 0.000 0.000 0.000 0.000 0.000 0.000 0.000 0.000 0.000 0.000 0.000 0.000 0.000 0.000 0.000 0.000
5.597 11.835 15.054 18.867 21.799 23.788 26.910 26.133 21.356 24.184 20.755 17.844 12.478 9.438 4.487 0.421 0.008 0.000 0.000 0.000 0.000 0.000 0.000 0.000 0.000 0.000 0.000 0.000 0.000 0.000 0.000 0.000 0.000 0.000 0.000 0.000 0.000 0.000 0.000 0.000 0.000 0.000
5.367 11.136 14.732 18.410 20.855 22.565 25.281 25.405 23.974 22.871 20.700 18.148 13.772 10.957 8.136 5.496 1.988 0.126 0.000 0.000 0.000 0.000 0.000 0.000 0.000 0.000 0.000 0.000 0.000 0.000 0.000 0.000 0.000 0.000 0.000 0.000 0.000 0.000 0.000 0.000 0.000 0.000
4.938 9.762 13.589 16.307 20.352 22.523 24.261 24.316 23.007 22.183 20.717 18.526 14.778 11.452 10.144 9.345 8.329 3.844 0.016 0.000 0.000 0.000 0.000 0.000 0.000 0.000 0.000 0.000 0.000 0.000 0.000 0.000 0.000 0.000 0.000 0.000 0.000 0.000 0.000 0.000 0.000 0.000
4.649 9.236 12.623 16.302 18.294 20.770 23.525 24.648 24.105 22.823 20.989 18.818 15.777 12.396 10.962 10.126 10.842 7.959 1.710 0.000 0.000 0.000 0.000 0.000 0.000 0.000 0.000 0.000 0.000 0.000 0.000 0.000 0.000 0.000 0.000 0.000 0.000 0.000 0.000 0.000 0.000 0.000
4.287 9.129 11.916 14.758 17.905 20.306 22.191 23.551 24.506 22.379 22.033 19.320 16.163 13.619 11.305 11.222 12.275 9.982 6.545 0.251 0.000 0.000 0.000 0.000 0.000 0.000 0.000 0.000 0.000 0.000 0.000 0.000 0.000 0.000 0.000 0.000 0.000 0.000 0.000 0.000 0.000 0.000
3.556 7.980 10.941 14.574 17.102 19.458 22.588 23.840 25.515 23.797 21.268 19.586 17.181 14.613 11.664 11.409 10.875 10.933 8.880 3.526 0.032 0.000 0.000 0.000 0.000 0.000 0.000 0.000 0.000 0.000 0.000 0.000 0.000 0.000 0.000 0.000 0.000 0.000 0.000 0.000 0.000 0.000
2.648 7.553 9.772 13.442 16.692 19.503 22.669 23.919 24.521 24.146 21.503 19.340 17.862 15.767 12.620 11.536 10.416 10.865 8.712 7.009 1.652 0.000 0.000 0.000 0.000 0.000 0.000 0.000 0.000 0.000 0.000 0.000 0.000 0.000 0.000 0.000 0.000 0.000 0.000 0.000 0.000 0.000
1.596 6.676 8.427 11.631 15.637 19.383 21.080 23.874 24.189 24.402 23.723 22.125 18.759 17.142 12.959 12.192 11.637 11.170 9.516 8.405 4.959 0.272 0.000 0.000 0.000 0.000 0.000 0.000 0.000 0.000 0.000 0.000 0.000 0.000 0.000 0.000 0.000 0.000 0.000 0.000 0.000 0.000
0.716 5.905 7.935 10.234 14.962 18.783 20.567 23.274 24.562 23.313 23.706 23.656 20.587 17.331 14.388 12.306 11.470 9.944 10.141 9.361 6.990 2.944 0.000 0.000 0.000 0.000 0.000 0.000 0.000 0.000 0.000 0.000 0.000 0.000 0.000 0.000 0.000 0.000 0.000 0.000 0.000 0.000
0.600 5.187 7.691 9.562 12.891 16.640 20.040 22.635 25.176 24.027 23.711 24.673 23.762 18.543 14.795 12.149 11.760 10.733 10.371 10.164 8.382 5.362 0.171 0.000 0.000 0.000 0.000 0.000 0.000 0.000 0.000 0.000 0.000 0.000 0.000 0.000 0.000 0.000 0.000 0.000 0.000 0.000
0.357 4.057 6.986 8.579 11.438 15.603 19.446 22.469 24.131 25.065 24.511 24.240 22.397 18.273 13.995 12.414 11.429 11.217 11.174 10.354 9.574 6.903 2.629 0.000 0.000 0.000 0.000 0.000 0.000 0.000 0.000 0.000 0.000 0.000 0.000 0.000 0.000 0.000 0.000 0.000 0.000 0.000
0.232 3.213 6.348 7.353 9.555 14.089 17.672 21.592 24.218 25.294 24.133 24.402 24.542 21.198 15.739 13.765 11.616 11.732 11.525 11.744 9.847 8.882 5.747 0.077 0.000 0.000 0.000 0.000 0.000 0.000 0.000 0.000 0.000 0.000 0.000 0.000 0.000 0.000 0.000 0.000 0.000 0.000
0.095 2.410 5.572 7.063 8.710 12.297 16.890 20.752 22.974 23.894 22.577 24.628 23.390 21.174 18.181 14.423 12.870 12.257 12.056 11.564 10.872 10.294 7.189 1.640 0.000 0.000 0.000 0.000 0.000 0.000 0.000 0.000 0.000 0.000 0.000 0.000 0.000 0.000 0.000 0.000 0.000 0.000
0.026 1.624 5.014 6.704 8.253 11.484 15.686 19.099 22.103 23.590 23.884 24.664 22.121 21.625 17.255 15.536 14.742 12.904 11.750 11.387 11.544 10.690 7.298 4.366 0.074 0.000 0.000 0.000 0.000 0.000 0.000 0.000 0.000 0.000 0.000 0.000 0.000 0.000 0.000 0.000 0.000 0.000
0.001 0.692 4.282 6.095 7.236 9.323 14.338 17.889 22.059 25.955 24.290 23.152 23.804 20.156 17.669 16.646 13.354 11.714 10.703 11.460 12.418 10.217 7.984 6.599 1.643 0.000 0.000 0.000 0.000 0.000 0.000 0.000 0.000 0.000 0.000 0.000 0.000 0.000 0.000 0.000 0.000 0.000
0.000 0.275 3.585 5.668 7.223 9.120 11.833 16.973 23.052 24.450 22.217 24.448 22.229 19.605 18.703 15.598 12.617 11.832 11.343 12.349 11.153 10.181 9.834 8.406 3.729 0.005 0.000 0.000 0.000 0.000 0.000 0.000 0.000 0.000 0.000 0.000 0.000 0.000 0.000 0.000 0.000 0.000
0.000 0.286 3.262 5.604 6.983 8.199 10.929 17.039 21.085 22.628 23.183 23.118 21.964 21.687 19.343 17.355 14.892 13.149 12.554 11.774 10.696 11.607 10.343 8.073 5.838 0.541 0.000 0.000 0.000 0.000 0.000 0.000 0.000 0.000 0.000 0.000 0.000 0.000 0.000 0.000 0.000 0.000
0.000 0.136 2.475 5.040 5.787 7.919 10.088 13.298 18.743 21.662 21.628 22.421 23.575 21.996 19.071 17.649 16.053 15.068 12.266 11.824 11.629 11.187 10.474 8.629 7.201 2.648 0.000 0.000 0.000 0.000 0.000 0.000 0.000 0.000 0.000 0.000 0.000 0.000 0.000 0.000 0.000 0.000
0.000 0.031 1.659 4.492 5.570 7.098 7.037 12.123 16.507 21.052 21.914 23.147 23.953 22.982 20.630 18.515 18.329 15.832 13.080 12.663 11.361 10.529 10.345 9.275 8.333 5.701 0.011 0.000 0.000 0.000 0.000 0.000 0.000 0.000 0.000 0.000 0.000 0.000 0.000 0.000 0.000 0.000
0.000 0.005 0.862 3.967 5.486 6.063 6.530 9.967 15.965 19.671 22.169 22.280 23.236 22.448 19.266 19.646 19.171 15.040 13.853 11.932 9.271 10.059 10.489 10.740 10.337 7.950 0.973 0.000 0.000 0.000 0.000 0.000 0.000 0.000 0.000 0.000 0.000 0.000 0.000 0.000 0.000 0.000
0.000 0.000 0.046 2.794 5.054 5.318 6.115 9.487 15.167 19.473 22.636 23.518 22.818 21.013 18.940 20.286 18.973 16.827 14.884 11.706 9.130 9.526 10.938 11.434 10.874 9.176 4.056 0.000 0.000 0.000 0.000 0.000 0.000 0.000 0.000 0.000 0.000 0.000 0.000 0.000 0.000 0.000
0.000 0.000 0.023 1.198 4.020 4.361 6.116 9.053 13.389 18.747 21.068 21.636 21.467 20.223 20.550 21.745 19.092 16.726 14.251 10.738 9.394 10.080 10.970 11.114 10.942 9.807 6.095 0.000 0.000 0.000 0.000 0.000 0.000 0.000 0.000 0.000 0.000 0.000 0.000 0.000 0.000 0.000
0.000 0.000 0.000 0.608 2.525 4.422 6.308 7.947 11.154 17.443 20.207 19.844 21.633 19.969 21.941 20.675 18.974 17.595 15.213 12.527 9.926 10.014 10.525 11.018 11.621 11.302 6.838 0.001 0.000 0.000 0.000 0.000 0.000 0.000 0.000 0.000 0.000 0.000 0.000 0.000 0.000 0.000
0.000 0.000 0.000 0.087 2.198 4.543 6.249 7.477 10.057 14.628 18.217 20.166 20.258 21.530 21.503 21.691 19.345 18.629 15.694 12.037 9.471 8.923 8.974 10.468 11.073 10.792 6.011 0.376 0.000 0.000 0.000 0.000 0.000 0.000 0.000 0.000 0.000 0.000 0.000 0.000 0.000 0.000
0.000 0.000 0.000 0.014 1.026 4.078 5.786 7.002 7.867 12.425 17.144 20.083 21.228 20.424 22.116 21.006 19.557 18.138 14.766 11.799 8.954 8.220 8.499 9.673 10.158 9.514 7.006 2.548 0.000 0.000 0.000 0.000 0.000 0.000 0.000 0.000 0.000 0.000 0.000 0.000 0.000 0.000
0.000 0.000 0.000 0.001 0.270 2.581 5.248 5.736 6.640 9.975 16.066 18.825 19.832 20.336 20.159 19.821 19.192 16.096 13.302 11.162 9.485 8.106 8.299 8.359 9.413 10.040 8.173 3.736 0.001 0.000 0.000 0.000 0.000 0.000 0.000 0.000 0.000 0.000 0.000 0.000 0.000 0.000
0.000 0.000 0.000 0.000 0.060 1.458 4.211 5.340 6.151 8.006 12.717 16.117 18.017 19.538 19.302 17.987 17.771 14.870 13.510 13.257 9.998 8.529 8.102 7.200 8.632 10.431 7.696 4.352 0.000 0.000 0.000 0.000 0.000 0.000 0.000 0.000 0.000 0.000 0.000 0.000 0.000 0.000
0.000 0.000 0.000 0.000 0.004 0.507 3.416 4.837 5.353 6.499 10.758 15.165 17.600 18.151 18.274 18.545 17.593 15.532 14.658 13.395 10.623 9.372 7.929 7.453 8.740 9.964 8.138 5.072 0.005 0.000 0.000 0.000 0.000 0.000 0.000 0.000 0.000 0.000 0.000 0.000 0.000 0.000
0.000 0.000 0.000 0.000 0.000 0.114 2.483 4.418 4.961 5.709 7.703 13.257 15.808 15.923 16.781 16.775 16.541 15.729 16.175 13.511 11.927 9.555 8.697 8.236 8.186 10.333 8.631 5.583 0.564 0.000 0.000 0.000 0.000 0.000 0.000 0.000 0.000 0.000 0.000 0.000 0.000 0.000
0.000 0.000 0.000 0.000 0.000 0.050 1.441 3.851 4.766 5.200 6.780 10.841 13.955 15.924 16.599 15.895 16.388 16.258 14.724 14.624 12.716 10.230 8.927 7.218 7.204 10.088 8.888 6.090 2.316 0.000 0.000 0.000 0.000 0.000 0.000 0.000 0.000 0.000 0.000 0.000 0.000 0.000
0.000 0.000 0.000 0.000 0.000 0.013 0.739 3.206 4.387 4.848 5.483 8.597 12.779 14.800 14.972 15.142 16.379 16.536 13.988 14.417 12.448 11.119 7.890 6.512 5.970 9.629 9.102 6.508 3.009 0.008 0.000 0.000 0.000 0.000 0.000 0.000 0.000 0.000 0.000 0.000 0.000 0.000
0.000 0.000 0.000 0.000 0.000 0.003 0.276 2.035 3.665 4.450 4.780 7.359 11.814 13.890 14.581 15.349 15.565 15.798 14.458 14.925 13.262 10.696 7.460 6.091 6.599 9.807 9.477 6.864 3.833 0.624 0.000 0.000 0.000 0.000 0.000 0.000 0.000 0.000 0.000 0.000 0.000 0.000
0.000 0.000 0.000 0.000 0.000 0.000 0.281 1.544 3.330 4.289 5.092 6.394 9.516 13.667 14.872 16.153 16.097 14.441 15.192 13.629 12.018 10.295 8.069 6.940 7.471 9.811 9.627 7.250 4.288 2.438 0.008 0.000 0.000 0.000 0.000 0.000 0.000 0.000 0.000 0.000 0.000 0.000
0.000 0.000 0.000 0.000 0.000 0.000 0.002 0.605 2.872 4.034 4.954 6.150 8.942 12.071 14.212 16.157 15.388 15.241 14.707 13.416 11.368 10.045 8.770 7.730 7.610 9.541 9.656 7.221 4.336 3.439 0.627 0.000 0.000 0.000 0.000 0.000 0.000 0.000 0.000 0.000 0.000 0.000
0.000 0.000 0.000 0.000 0.000 0.000 0.000 0.166 1.966 3.847 4.057 5.610 7.535 11.390 13.726 13.472 14.151 13.964 13.082 12.069 10.081 10.157 9.074 8.043 7.021 9.534 9.532 7.178 4.416 3.800 2.304 0.016 0.000 0.000 0.000 0.000 0.000 0.000 0.000 0.000 0.000 0.000
0.000 0.000 0.000 0.000 0.000 0.000 0.000 0.025 0.999 3.180 3.832 5.212 6.468 8.603 11.907 12.551 12.802 12.744 11.764 10.698 10.320 10.625 10.078 8.556 7.885 8.725 8.606 7.244 4.501 3.808 3.048 0.614 0.001 0.000 0.000 0.000 0.000 0.000 0.000 0.000 0.000 0.000
0.000 0.000 0.000 0.000 0.000 0.000 0.000 0.000 0.329 2.744 4.150 4.803 5.257 7.076 10.567 9.379 11.121 10.513 10.715 10.079 11.010 11.169 10.194 9.016 8.127 8.283 8.460 7.388 4.212 3.566 3.320 2.130 0.194 0.000 0.000 0.000 0.000 0.000 0.000 0.000 0.000 0.000
0.000 0.000 0.000 0.000 0.000 0.000 0.000 0.001 0.609 2.350 3.685 3.985 4.512 5.615 7.365 9.876 9.840 10.098 10.296 10.728 10.844 10.303 8.629 10.144 8.167 8.129 8.047 7.005 4.026 3.619 3.442 2.776 1.565 0.006 0.000 0.000 0.000 0.000 0.000 0.000 0.000 0.000
0.000 0.000 0.000 0.000 0.000 0.000 0.000 0.000 0.150 1.423 2.697 3.573 3.623 4.082 5.842 6.908 8.527 10.051 10.477 10.812 9.774 8.917 9.087 9.102 6.099 6.832 7.707 6.715 4.519 3.829 3.499 3.150 2.743 0.378 0.000 0.000 0.000 0.000 0.000 0.000 0.000 0.000
0.000 0.000 0.000 0.000 0.000 0.000 0.000 0.000 0.017 0.530 1.670 2.926 3.279 3.156 5.354 7.852 9.060 9.931 10.005 9.738 8.731 8.371 8.668 7.758 5.933 5.501 7.221 6.467 4.867 3.810 3.504 3.348 2.796 1.381 0.001 0.000 0.000 0.000 0.000 0.000 0.000 0.000
0.000 0.000 0.000 0.000 0.000 0.000 0.000 0.000 0.000 0.007 0.229 1.433 2.308 2.426 3.741 7.276 7.944 8.780 9.580 8.635 7.787 7.422 8.188 7.676 6.513 5.933 5.944 6.167 4.718 3.727 3.424 3.124 2.975 2.670 0.199 0.000 0.000 0.000 0.000 0.000 0.000 0.000
0.000 0.000 0.000 0.000 0.000 0.000 0.000 0.000 0.000 0.000 0.001 0.653 2.318 3.120 4.068 5.848 6.535 7.530 7.875 7.947 7.767 8.149 8.618 8.527 7.188 5.632 5.017 5.133 4.457 3.649 3.301 3.083 2.901 2.599 1.061 0.015 0.000 0.000 0.000 0.000 0.000 0.000
0.000 0.000 0.000 0.000 0.000 0.000 0.000 0.000 0.000 0.000 0.000 0.178 1.981 3.225 3.502 4.785 5.459 6.374 7.477 7.482 8.196 7.993 8.589 7.658 5.722 4.715 3.858 4.232 4.278 3.632 3.232 2.954 2.529 2.160 1.904 0.134 0.000 0.000 0.000 0.000 0.000 0.000
0.000 0.000 0.000 0.000 0.000 0.000 0.000 0.000 0.000 0.000 0.000 0.014 0.532 2.274 2.682 2.281 4.507 5.560 6.396 6.633 6.839 7.347 7.791 5.772 4.098 3.866 2.605 2.831 3.317 3.430 3.001 2.554 2.145 2.402 2.705 0.401 0.000 0.000 0.000 0.000 0.000 0.000
0.000 0.000 0.000 0.000 0.000 0.000 0.000 0.000 0.000 0.000 0.000 0.000 0.010 0.547 2.636 3.535 4.266 5.357 5.654 5.382 5.769 6.179 5.743 4.103 2.957 2.293 0.052 1.359 2.774 3.160 2.654 2.112 1.756 2.111 2.401 1.072 0.000 0.000 0.000 0.000 0.000 0.000
0.000 0.000 0.000 0.000 0.000 0.000 0.000 0.000 0.000 0.000 0.000 0.000 0.000 0.486 1.995 3.616 4.243 5.088 4.883 4.359 4.916 5.418 5.364 3.455 2.551 0.076 0.519 1.408 2.365 2.325 2.258 1.365 0.086 1.241 1.193 1.281 0.022 0.000 0.000 0.000 0.000 0.000
0.000 0.000 0.000 0.000 0.000 0.000 0.000 0.000 0.000 0.000 0.000 0.000 0.000 0.001 1.423 2.958 4.206 4.319 3.546 3.505 4.068 4.567 3.415 1.676 0.002 0.000 1.224 1.239 2.039 2.277 1.852 0.042 0.087 0.090 1.190 1.394 0.419 0.000 0.000 0.000 0.000 0.000
0.000 0.000 0.000 0.000 0.000 0.000 0.000 0.000 0.000 0.000 0.000 0.000 0.000 0.000 0.063 1.793 2.684 3.036 2.402 3.717 4.432 3.854 1.309 0.001 0.046 0.011 0.064 1.010 1.883 1.910 0.870 0.102 0.069 0.044 1.544 1.496 0.663 0.003 0.000 0.000 0.000 0.000
0.000 0.000 0.000 0.000 0.000 0.000 0.000 0.000 0.000 0.000 0.000 0.000 0.000 0.000 0.000 0.631 1.883 2.622 3.560 4.383 4.374 2.929 1.307 0.021 0.112 0.087 0.175 1.606 1.882 1.554 1.251 1.238 0.077 0.052 1.554 1.528 0.860 0.124 0.000 0.000 0.000 0.000
0.000 0.000 0.000 0.000 0.000 0.000 0.000 0.000 0.000 0.000 0.000 0.000 0.000 0.000 0.000 0.016 1.214 2.130 2.721 3.607 3.115 2.290 1.676 0.475 1.462 0.337 1.809 1.814 2.182 1.722 1.766 0.749 0.060 0.151 1.736 1.788 1.388 0.500 0.003 0.000 0.000 0.000
0.000 0.000 0.000 0.000 0.000 0.000 0.000 0.000 0.000 0.000 0.000 0.000 0.000 0.000 0.000 0.003 0.132 1.463 2.355 3.010 2.924 2.479 2.197 1.308 0.365 1.159 2.268 1.917 2.190 1.539 1.703 0.040 0.100 0.991 1.950 1.724 1.688 0.861 0.126 0.000 0.000 0.000
0.000 0.000 0.000 0.000 0.000 0.000 0.000 0.000 0.000 0.000 0.000 0.000 0.000 0.000 0.000 0.002 0.047 1.332 2.364 2.490 1.988 2.163 1.477 2.066 0.029 2.373 2.075 1.751 2.035 1.951 2.017 0.687 0.283 1.533 1.664 1.597 1.766 1.355 0.400 0.045 0.001 0.000
0.000 0.000 0.000 0.000 0.000 0.000 0.000 0.000 0.000 0.000 0.000 0.000 0.000 0.000 0.000 0.000 0.035 0.559 1.471 2.110 2.163 1.942 1.913 2.265 1.835 2.054 1.479 1.288 2.150 2.277 1.692 0.760 1.002 2.094 2.054 1.977 1.637 1.715 1.234 0.664 0.095 0.000
0.000 0.000 0.000 0.000 0.000 0.000 0.000 0.000 0.000 0.000 0.000 0.000 0.000 0.000 0.000 0.000 0.000 0.051 0.396 1.636 2.133 2.084 2.138 2.020 2.049 1.363 0.248 1.499 2.289 1.594 0.530 0.750 1.681 2.623 2.544 2.130 1.680 2.028 1.915 1.416 0.693 0.015
0.000 0.000 0.000 0.000 0.000 0.000 0.000 0.000 0.000 0.000 0.000 0.000 0.000 0.000 0.000 0.000 0.000 0.000 0.037 0.670 1.939 2.063 2.170 2.070 2.290 0.026 0.093 1.020 1.214 1.350 0.228 0.944 1.950 2.763 2.707 1.755 1.771 2.178 2.122 1.901 1.160 0.318
0.000 0.000 0.000 0.000 0.000 0.000 0.000 0.000 0.000 0.000 0.000 0.000 0.000 0.000 0.000 0.000 0.000 0.000 0.000 0.054 1.429 2.169 2.125 1.575 0.576 0.093 0.053 0.897 0.764 0.381 0.079 1.039 1.867 2.858 2.011 0.557 1.374 1.833 2.266 2.149 1.586 0.893
0.000 0.000 0.000 0.000 0.000 0.000 0.000 0.000 0.000 0.000 0.000 0.000 0.000 0.000 0.000 0.000 0.000 0.000 0.000 0.001 0.650 1.875 2.000 1.446 0.070 0.015 0.040 0.796 0.041 0.058 0.503 1.572 1.685 2.229 1.542 1.619 1.290 1.815 2.507 2.214 1.870 1.365
0.000 0.000 0.000 0.000 0.000 0.000 0.000 0.000 0.000 0.000 0.000 0.000 0.000 0.000 0.000 0.000 0.000 0.000 0.000 0.000 0.029 0.854 1.758 1.598 0.747 0.055 0.111 0.056 0.709 0.715 1.216 1.687 1.739 2.652 2.528 2.225 1.632 1.960 2.246 2.081 2.082 1.699
0.000 0.000 0.000 0.000 0.000 0.000 0.000 0.000 0.000 0.000 0.000 0.000 0.000 0.000 0.000 0.000 0.000 0.000 0.000 0.000 0.000 0.094 1.359 1.432 1.237 0.811 1.372 1.255 1.059 1.199 1.231 0.760 1.860 2.964 2.986 2.331 1.301 1.264 1.429 2.238 2.215 1.871
0.000 0.000 0.000 0.000 0.000 0.000 0.000 0.000 0.000 0.000 0.000 0.000 0.000 0.000 0.000 0.000 0.000 0.000 0.000 0.000 0.000 0.016 1.108 1.457 1.210 0.593 1.701 2.173 1.242 0.883 0.325 1.235 2.362 3.354 2.935 2.081 1.078 0.503 1.389 2.213 2.165 1.864
0.000 0.000 0.000 0.000 0.000 0.000 0.000 0.000 0.000 0.000 0.000 0.000 0.000 0.000 0.000 0.000 0.000 0.000 0.000 0.000 0.000 0.001 0.399 1.447 1.475 1.957 1.532 2.567 1.512 0.834 0.886 1.997 2.723 2.941 2.848 2.074 0.075 0.094 0.881 1.773 1.970 1.740
0.000 0.000 0.000 0.000 0.000 0.000 0.000 0.000 0.000 0.000 0.000 0.000 0.000 0.000 0.000 0.000 0.000 0.000 0.000 0.000 0.000 0.000 0.100 1.322 1.892 1.861 2.200 2.282 1.989 0.463 0.319 1.842 2.606 2.665 2.684 1.390 0.082 0.087 0.084 1.088 1.713 1.465
0.000 0.000 0.000 0.000 0.000 0.000 0.000 0.000 0.000 0.000 0.000 0.000 0.000 0.000 0.000 0.000 0.000 0.000 0.000 0.000 0.000 0.000 0.152 0.718 1.606 1.370 2.015 0.723 1.480 0.005 0.498 2.155 2.975 3.026 2.446 1.440 0.073 0.086 0.088 0.081 1.042 1.593
0.000 0.000 0.000 0.000 0.000 0.000 0.000 0.000 0.000 0.000 0.000 0.000 0.000 0.000 0.000 0.000 0.000 0.000 0.000 0.000 0.000 0.000 0.001 0.380 0.068 1.737 1.470 0.049 0.055 0.145 1.427 2.953 3.244 3.277 2.561 2.250 0.067 0.052 0.049 0.080 0.058 1.310
0.000 0.000 0.000 0.000 0.000 0.000 0.000 0.000 0.000 0.000 0.000 0.000 0.000 0.000 0.000 0.000 0.000 0.000 0.000 0.000 0.000 0.000 0.001 0.040 0.833 1.728 1.431 0.067 0.032 0.120 2.386 3.204 3.246 3.330 2.959 2.322 0.093 0.070 0.081 0.054 0.098 1.493
0.000 0.000 0.000 0.000 0.000 0.000 0.000 0.000 0.000 0.000 0.000 0.000 0.000 0.000 0.000 0.000 0.000 0.000 0.000 0.000 0.000 0.000 0.000 0.017 0.744 1.360 1.353 0.072 0.069 2.369 3.161 3.531 3.461 3.705 3.147 0.655 0.310 0.054 0.033 0.097 0.340 1.305
0.000 0.000 0.000 0.000 0.000 0.000 0.000 0.000 0.000 0.000 0.000 0.000 0.000 0.000 0.000 0.000 0.000 0.000 0.000 0.000 0.000 0.000 0.000 0.001 0.418 0.601 1.226 0.460 0.247 3.939 4.139 4.337 4.400 3.920 2.831 0.887 1.264 0.068 0.059 0.036 0.089 0.067
0.000 0.000 0.000 0.000 0.000 0.000 0.000 0.000 0.000 0.000 0.000 0.000 0.000 0.000 0.000 0.000 0.000 0.000 0.000 0.000 0.000 0.000 0.000 0.000 0.037 0.577 0.440 0.099 1.967 3.707 4.824 4.655 4.743 3.841 3.228 2.418 1.562 0.114 0.051 0.059 0.090 0.060
0.000 0.000 0.000 0.000 0.000 0.000 0.000 0.000 0.000 0.000 0.000 0.000 0.000 0.000 0.000 0.000 0.000 0.000 0.000 0.000 0.000 0.000 0.000 0.000 0.000 0.301 0.435 0.695 2.304 3.008 3.935 4.154 3.948 3.866 3.275 2.750 2.110 1.150 0.082 0.037 0.014 0.085
0.000 0.000 0.000 0.000 0.000 0.000 0.000 0.000 0.000 0.000 0.000 0.000 0.000 0.000 0.000 0.000 0.000 0.000 0.000 0.000 0.000 0.000 0.000 0.000 0.000 0.021 0.083 1.812 2.218 2.308 3.159 3.153 3.596 4.230 4.013 3.660 2.746 1.725 1.065 0.071 0.095 0.031
0.000 0.000 0.000 0.000 0.000 0.000 0.000 0.000 0.000 0.000 0.000 0.000 0.000 0.000 0.000 0.000 0.000 0.000 0.000 0.000 0.000 0.000 0.000 0.000 0.000 0.038 1.215 1.925 1.975 1.920 2.299 2.410 2.946 4.380 4.393 4.219 3.349 2.029 1.726 0.888 0.322 0.029
0.000 0.000 0.000 0.000 0.000 0.000 0.000 0.000 0.000 0.000 0.000 0.000 0.000 0.000 0.000 0.000 0.000 0.000 0.000 0.000 0.000 0.000 0.000 0.000 0.000 0.095 1.033 1.506 1.600 1.633 1.956 1.716 2.042 3.683 3.979 4.102 3.781 2.842 1.915 1.152 0.071 0.024
0.000 0.000 0.000 0.000 0.000 0.000 0.000 0.000 0.000 0.000 0.000 0.000 0.000 0.000 0.000 0.000 0.000 0.000 0.000 0.000 0.000 0.000 0.000 0.000 0.000 0.000 0.044 0.565 1.317 1.544 1.697 1.646 1.792 3.328 3.652 3.852 3.790 3.323 2.251 1.519 0.324 0.043
0.000 0.000 0.000 0.000 0.000 0.000 0.000 0.000 0.000 0.000 0.000 0.000 0.000 0.000 0.000 0.000 0.000 0.000 0.000 0.000 0.000 0.000 0.000 0.000 0.000 0.000 0.000 0.033 0.982 1.306 1.191 1.522 2.777 3.353 3.753 3.719 3.640 3.683 2.586 1.838 1.233 1.036
0.000 0.000 0.000 0.000 0.000 0.000 0.000 0.000 0.000 0.000 0.000 0.000 0.000 0.000 0.000 0.000 0.000 0.000 0.000 0.000 0.000 0.000 0.000 0.000 0.000 0.000 0.000 0.000 0.189 0.862 0.319 1.875 3.218 3.516 3.579 3.718 3.656 3.811 2.692 2.012 1.706 1.879
0.000 0.000 0.000 0.000 0.000 0.000 0.000 0.000 0.000 0.000 0.000 0.000 0.000 0.000 0.000 0.000 0.000 0.000 0.000 0.000 0.000 0.000 0.000 0.000 0.000 0.000 0.000 0.000 0.004 0.958 1.344 2.032 2.961 3.340 3.532 3.817 3.813 3.646 2.863 2.139 1.944 1.428
0.000 0.000 0.000 0.000 0.000 0.000 0.000 0.000 0.000 0.000 0.000 0.000 0.000 0.000 0.000 0.000 0.000 0.000 0.000 0.000 0.000 0.000 0.000 0.000 0.000 0.000 0.000 0.000 0.000 0.763 1.489 1.959 2.329 3.055 3.580 4.039 4.294 3.836 3.021 2.348 1.920 0.085
0.000 0.000 0.000 0.000 0.000 0.000 0.000 0.000 0.000 0.000 0.000 0.000 0.000 0.000 0.000 0.000 0.000 0.000 0.000 0.000 0.000 0.000 0.000 0.000 0.000 0.000 0.000 0.000 0.000 0.306 1.636 1.887 1.933 2.650 3.593 4.261 4.801 4.306 3.355 2.808 1.913 0.173
0.000 0.000 0.000 0.000 0.000 0.000 0.000 0.000 0.000 0.000 0.000 0.000 0.000 0.000 0.000 0.000 0.000 0.000 0.000 0.000 0.000 0.000 0.000 0.000 0.000 0.000 0.000 0.000 0.000 0.043 1.220 1.733 1.811 2.399 2.585 3.737 5.019 4.733 3.995 3.424 2.670 1.763
0.000 0.000 0.000 0.000 0.000 0.000 0.000 0.000 0.000 0.000 0.000 0.000 0.000 0.000 0.000 0.000 0.000 0.000 0.000 0.000 0.000 0.000 0.000 0.000 0.000 0.000 0.000 0.000 0.000 0.058 0.715 1.445 1.729 2.360 2.188 3.638 5.122 5.108 4.390 3.520 2.961 2.317
0.000 0.000 0.000 0.000 0.000 0.000 0.000 0.000 0.000 0.000 0.000 0.000 0.000 0.000 0.000 0.000 0.000 0.000 0.000 0.000 0.000 0.000 0.000 0.000 0.000 0.000 0.000 0.000 0.000 0.000 0.199 1.148 1.548 2.256 2.117 3.190 4.636 4.951 4.428 3.056 2.486 2.428
0.000 0.000 0.000 0.000 0.000 0.000 0.000 0.000 0.000 0.000 0.000 0.000 0.000 0.000 0.000 0.000 0.000 0.000 0.000 0.000 0.000 0.000 0.000 0.000 0.000 0.000 0.000 0.000 0.000 0.000 0.001 0.650 1.356 1.806 2.156 2.785 3.917 4.840 4.254 2.744 2.135 2.374
0.000 0.000 0.000 0.000 0.000 0.000 0.000 0.000 0.000 0.000 0.000 0.000 0.000 0.000 0.000 0.000 0.000 0.000 0.000 0.000 0.000 0.000 0.000 0.000 0.000 0.000 0.000 0.000 0.000 0.000 0.000 0.038 1.050 1.736 2.117 2.365 3.305 4.725 3.967 2.804 2.522 2.289
0.000 0.000 0.000 0.000 0.000 0.000 0.000 0.000 0.000 0.000 0.000 0.000 0.000 0.000 0.000 0.000 0.000 0.000 0.000 0.000 0.000 0.000 0.000 0.000 0.000 0.000 0.000 0.000 0.000 0.000 0.000 0.000 0.474 1.980 2.131 2.215 2.991 4.109 3.705 3.030 2.580 2.326
0.000 0.000 0.000 0.000 0.000 0.000 0.000 0.000 0.000 0.000 0.000 0.000 0.000 0.000 0.000 0.000 0.000 0.000 0.000 0.000 0.000 0.000 0.000 0.000 0.000 0.000 0.000 0.000 0.000 0.000 0.000 0.000 0.232 1.892 2.207 2.378 2.726 3.168 3.120 2.628 2.120 2.576
