ncols        35
nrows        58
xllcorner    409717.8
yllcorner    6870749.1
cellsize     5.00
NODATA_value -9999
0.000 0.000 0.000 0.000 0.000 0.000 0.000 0.000 0.000 0.000 0.000 0.000 0.000 0.000 0.000 0.000 0.000 0.000 0.000 0.000 0.000 0.000 0.000 0.000 0.000 0.000 0.000 0.000 0.000 0.000 0.000 0.000 0.000 0.000 0.000
0.000 0.000 0.019 1.561 8.691 13.453 13.212 13.159 13.830 11.080 4.726 0.438 0.001 0.000 0.000 0.000 0.000 0.000 0.000 0.000 0.000 0.000 0.000 0.000 0.000 0.000 0.000 0.000 0.000 0.000 0.000 0.000 0.000 0.000 0.000
0.000 0.034 2.475 13.681 13.818 13.608 13.782 13.998 14.187 13.889 13.133 9.080 1.749 0.013 0.000 0.000 0.000 0.000 0.000 0.000 0.000 0.000 0.000 0.000 0.000 0.000 0.000 0.000 0.000 0.000 0.000 0.000 0.000 0.000 0.000
0.002 1.938 13.847 13.834 14.008 14.236 14.959 14.975 15.164 14.912 14.572 12.529 10.516 2.624 0.023 0.000 0.000 0.000 0.000 0.000 0.000 0.000 0.000 0.000 0.000 0.000 0.000 0.000 0.000 0.000 0.000 0.000 0.000 0.000 0.000
0.326 9.952 13.619 14.134 14.411 15.052 15.871 15.528 16.002 15.932 15.298 14.033 12.419 9.995 2.670 0.006 0.000 0.000 0.000 0.000 0.000 0.000 0.000 0.000 0.000 0.000 0.000 0.000 0.000 0.000 0.000 0.000 0.000 0.000 0.000
2.307 13.802 14.163 14.570 15.059 15.661 15.630 16.376 16.585 16.420 15.757 15.595 13.868 11.841 9.371 1.420 0.000 0.000 0.000 0.000 0.000 0.000 0.000 0.000 0.000 0.000 0.000 0.000 0.000 0.000 0.000 0.000 0.000 0.000 0.000
5.206 13.606 14.103 15.046 15.457 16.145 16.575 16.966 17.276 17.197 16.790 16.799 14.815 13.379 11.995 7.035 0.356 0.000 0.000 0.000 0.000 0.000 0.000 0.000 0.000 0.000 0.000 0.000 0.000 0.000 0.000 0.000 0.000 0.000 0.000
7.222 13.472 14.854 15.153 16.287 15.764 17.193 17.265 17.746 17.503 17.215 16.841 15.608 14.772 14.040 10.361 4.156 0.018 0.000 0.000 0.000 0.000 0.000 0.000 0.000 0.000 0.000 0.000 0.000 0.000 0.000 0.000 0.000 0.000 0.000
7.512 13.649 14.414 15.373 15.559 16.953 17.610 17.558 18.015 17.698 18.017 17.268 16.739 15.969 15.409 11.957 8.197 1.424 0.000 0.000 0.000 0.000 0.000 0.000 0.000 0.000 0.000 0.000 0.000 0.000 0.000 0.000 0.000 0.000 0.000
5.966 13.059 14.457 15.690 16.213 17.070 17.611 17.468 17.964 18.466 18.710 17.718 17.127 16.905 16.312 14.032 9.917 5.427 0.306 0.000 0.000 0.000 0.000 0.000 0.000 0.000 0.000 0.000 0.000 0.000 0.000 0.000 0.000 0.000 0.000
3.774 12.668 14.204 15.169 16.142 17.321 17.449 17.241 18.500 18.646 18.501 17.756 17.687 17.786 17.326 15.671 12.088 8.060 3.398 0.060 0.000 0.000 0.000 0.000 0.000 0.000 0.000 0.000 0.000 0.000 0.000 0.000 0.000 0.000 0.000
1.633 12.686 13.919 15.130 15.954 16.390 16.992 18.047 18.632 17.898 18.378 18.201 18.041 18.579 18.095 16.503 13.404 9.575 6.738 1.914 0.012 0.000 0.000 0.000 0.000 0.000 0.000 0.000 0.000 0.000 0.000 0.000 0.000 0.000 0.000
0.362 8.220 13.078 14.762 15.623 15.678 16.411 17.244 18.264 18.884 17.944 18.434 18.418 18.602 18.765 16.557 14.743 11.663 8.079 5.628 0.987 0.003 0.000 0.000 0.000 0.000 0.000 0.000 0.000 0.000 0.000 0.000 0.000 0.000 0.000
0.027 3.603 11.507 13.410 14.546 15.756 16.584 18.407 17.621 17.742 18.473 18.514 18.740 18.851 17.392 17.615 15.673 12.918 9.676 7.407 4.264 0.550 0.001 0.000 0.000 0.000 0.000 0.000 0.000 0.000 0.000 0.000 0.000 0.000 0.000
0.001 0.967 9.475 12.452 13.919 15.110 16.059 17.361 17.679 18.642 18.178 19.539 18.377 19.056 18.729 18.499 16.952 14.416 12.262 7.549 6.585 3.367 0.306 0.000 0.000 0.000 0.000 0.000 0.000 0.000 0.000 0.000 0.000 0.000 0.000
0.000 0.173 5.705 11.336 13.868 14.900 16.037 16.756 18.060 18.107 19.066 18.895 18.577 18.745 19.342 19.199 17.504 15.518 12.698 9.023 7.405 5.668 2.516 0.143 0.000 0.000 0.000 0.000 0.000 0.000 0.000 0.000 0.000 0.000 0.000
0.000 0.014 2.556 9.279 12.278 14.516 16.093 17.104 17.316 18.731 17.881 18.092 18.408 19.396 19.370 19.020 17.555 15.875 13.837 11.625 7.897 6.218 4.743 2.324 0.220 0.000 0.000 0.000 0.000 0.000 0.000 0.000 0.000 0.000 0.000
0.000 0.000 0.654 6.712 11.040 13.097 15.168 16.436 17.070 17.241 18.144 18.407 18.597 19.535 18.698 19.212 18.052 15.738 14.792 12.573 9.085 6.439 5.481 4.700 2.231 0.078 0.000 0.000 0.000 0.000 0.000 0.000 0.000 0.000 0.000
0.000 0.000 0.099 4.081 8.746 13.249 14.134 16.352 16.104 17.609 17.289 18.486 18.367 18.446 18.945 18.274 17.051 15.978 15.454 13.229 11.284 7.220 5.851 5.501 4.498 1.608 0.035 0.000 0.000 0.000 0.000 0.000 0.000 0.000 0.000
0.000 0.000 0.009 1.401 7.118 9.579 13.378 14.634 15.729 15.576 16.655 17.262 18.225 18.309 18.560 17.862 17.313 16.406 15.858 13.954 12.310 8.794 6.897 5.881 5.403 3.901 1.180 0.003 0.000 0.000 0.000 0.000 0.000 0.000 0.000
0.000 0.000 0.000 0.280 3.576 7.365 10.880 12.497 13.904 14.864 16.034 17.459 17.960 18.337 18.047 17.852 17.578 16.600 15.673 14.664 13.100 10.385 7.921 6.487 5.709 4.906 3.207 0.291 0.000 0.000 0.000 0.000 0.000 0.000 0.000
0.000 0.000 0.000 0.029 2.146 5.862 8.751 10.827 13.034 14.077 15.536 16.817 17.665 17.765 17.648 18.202 17.227 16.544 16.036 15.030 13.095 11.917 9.350 7.255 6.078 5.094 4.549 2.619 0.157 0.000 0.000 0.000 0.000 0.000 0.000
0.000 0.000 0.000 0.001 0.682 3.908 6.116 9.213 12.011 13.072 15.254 15.958 16.324 17.484 17.647 17.730 16.438 16.859 16.225 15.065 14.298 12.982 11.359 8.370 6.711 5.273 5.116 4.140 1.831 0.021 0.000 0.000 0.000 0.000 0.000
0.000 0.000 0.000 0.000 0.111 2.022 4.705 7.520 10.069 13.789 14.130 15.681 15.984 17.081 17.224 16.150 17.086 16.920 15.920 15.279 14.697 13.417 11.893 10.114 7.348 5.985 5.407 4.835 3.577 0.826 0.000 0.000 0.000 0.000 0.000
0.000 0.000 0.000 0.000 0.005 0.930 3.794 6.240 10.168 13.199 14.496 15.146 16.576 16.256 16.661 17.168 16.992 16.504 16.470 15.553 14.470 13.918 12.917 10.970 9.029 6.712 5.857 5.103 4.409 2.833 0.118 0.000 0.000 0.000 0.000
0.000 0.000 0.000 0.000 0.000 0.125 2.461 4.835 7.509 11.347 13.348 14.924 15.152 15.575 15.737 15.960 16.949 16.477 15.928 15.945 14.817 13.815 13.729 12.096 10.626 7.739 6.200 5.323 4.849 4.016 1.500 0.001 0.000 0.000 0.000
0.000 0.000 0.000 0.000 0.000 0.007 1.499 5.109 6.848 8.672 12.006 13.221 14.615 14.933 15.267 15.641 16.126 16.952 16.233 15.586 15.009 14.527 13.806 12.912 11.751 9.150 6.451 6.123 5.091 4.294 3.179 0.173 0.000 0.000 0.000
0.000 0.000 0.000 0.000 0.000 0.004 1.036 4.382 5.706 6.479 10.347 12.641 13.908 15.218 15.372 15.616 15.700 15.992 16.396 16.154 15.648 14.516 14.294 13.313 12.291 10.787 7.567 6.715 5.133 4.548 3.969 2.025 0.106 0.000 0.000
0.000 0.000 0.000 0.000 0.000 0.000 0.180 2.126 3.963 4.417 7.935 10.601 13.249 14.462 14.982 15.187 15.300 15.674 16.277 16.034 15.776 14.415 13.821 14.715 13.866 11.961 9.043 6.982 5.496 4.779 4.332 3.881 0.953 0.003 0.000
0.000 0.000 0.000 0.000 0.000 0.000 0.002 0.333 2.725 3.918 5.289 9.539 11.531 13.793 14.280 14.684 14.788 15.235 15.843 15.816 15.423 14.985 14.478 15.491 15.176 13.366 10.349 7.503 6.011 4.834 4.636 4.258 2.570 0.357 0.000
0.000 0.000 0.000 0.000 0.000 0.000 0.000 0.015 1.403 3.261 3.729 7.094 10.950 12.892 14.193 14.403 14.181 14.647 15.609 15.727 15.427 14.844 15.683 16.738 15.722 14.726 12.036 7.767 6.102 5.059 5.110 4.463 3.738 1.841 0.007
0.000 0.000 0.000 0.000 0.000 0.000 0.000 0.000 0.136 2.005 2.834 5.232 8.394 12.389 13.804 14.100 13.791 14.278 14.811 15.259 15.445 15.434 15.762 17.051 16.397 15.313 11.303 8.369 6.788 5.917 5.021 4.472 4.072 3.175 0.457
0.000 0.000 0.000 0.000 0.000 0.000 0.000 0.000 0.004 1.528 3.502 4.649 6.301 10.395 13.091 14.053 13.485 13.622 14.215 14.789 15.173 15.429 15.034 16.670 16.372 14.538 11.154 9.776 8.253 6.182 4.530 4.899 4.283 3.741 2.010
0.000 0.000 0.000 0.000 0.000 0.000 0.000 0.000 0.000 0.675 3.222 4.554 4.875 6.929 12.163 13.652 13.348 12.766 13.626 14.101 14.903 14.904 15.124 16.969 17.069 14.571 11.669 11.070 8.983 5.738 4.780 4.881 4.305 4.268 3.458
0.000 0.000 0.000 0.000 0.000 0.000 0.000 0.000 0.000 0.122 2.712 4.312 4.659 5.127 8.939 14.009 13.600 12.563 12.903 13.613 14.050 14.134 15.292 16.749 16.041 14.185 12.431 11.788 9.692 6.077 5.668 5.131 4.967 4.443 4.099
0.000 0.000 0.000 0.000 0.000 0.000 0.000 0.000 0.000 0.007 1.146 3.577 4.274 4.775 6.032 13.320 13.444 12.188 12.542 13.261 13.602 14.188 15.745 16.650 15.573 14.432 13.033 12.134 9.270 7.479 6.394 5.807 4.881 3.511 4.103
0.000 0.000 0.000 0.000 0.000 0.000 0.000 0.000 0.000 0.001 0.293 2.398 4.007 4.598 5.242 12.710 13.658 12.351 12.327 13.132 13.220 13.905 15.665 15.683 15.772 14.870 13.000 11.880 10.435 8.442 7.262 6.119 4.397 3.918 4.670
0.000 0.000 0.000 0.000 0.000 0.000 0.000 0.000 0.000 0.000 0.031 1.271 3.322 4.554 4.984 11.798 13.218 12.089 11.563 12.023 12.486 13.385 15.257 16.045 15.784 14.132 12.739 12.161 11.068 9.589 8.333 6.479 5.524 5.310 4.827
0.000 0.000 0.000 0.000 0.000 0.000 0.000 0.000 0.000 0.000 0.000 0.336 2.418 4.070 4.761 10.722 13.069 11.851 11.017 10.999 11.383 12.640 14.311 15.034 14.094 12.657 13.137 11.548 11.011 10.643 9.260 7.175 6.142 5.450 4.257
0.000 0.000 0.000 0.000 0.000 0.000 0.000 0.000 0.000 0.000 0.000 0.009 1.353 3.772 4.665 9.531 12.240 11.903 10.494 10.220 10.850 11.862 12.978 13.631 13.004 12.597 12.101 11.828 11.728 11.495 9.861 7.773 6.558 5.502 4.381
0.000 0.000 0.000 0.000 0.000 0.000 0.000 0.000 0.000 0.000 0.000 0.000 0.278 4.007 4.405 8.443 11.986 11.606 10.088 9.933 10.414 11.096 12.731 13.437 12.711 12.120 11.931 12.491 12.557 11.969 10.012 8.873 6.955 5.534 4.562
0.000 0.000 0.000 0.000 0.000 0.000 0.000 0.000 0.000 0.000 0.000 0.000 0.098 3.725 4.472 7.207 11.246 11.241 9.946 9.445 9.566 10.700 12.763 12.227 11.512 11.927 12.708 13.256 13.292 11.834 10.334 9.306 7.402 6.093 5.251
0.000 0.000 0.000 0.000 0.000 0.000 0.000 0.000 0.000 0.000 0.000 0.000 0.059 3.534 4.157 6.420 10.984 11.168 9.814 8.662 8.793 9.718 10.261 10.554 11.313 12.064 12.645 13.482 12.608 11.536 11.008 9.791 8.677 7.134 6.069
0.000 0.000 0.000 0.000 0.000 0.000 0.000 0.000 0.000 0.000 0.000 0.000 0.080 3.087 3.929 5.821 10.222 10.716 9.409 8.462 7.823 8.316 9.373 10.248 11.300 11.790 12.345 13.207 12.142 12.081 11.511 10.785 10.334 8.060 6.409
0.000 0.000 0.000 0.000 0.000 0.000 0.000 0.000 0.000 0.000 0.000 0.000 0.080 2.903 3.469 5.467 9.686 10.367 9.378 7.636 6.856 7.543 8.830 9.935 10.611 11.712 13.401 13.012 12.568 12.310 12.314 11.838 11.330 8.641 6.122
0.000 0.000 0.000 0.000 0.000 0.000 0.000 0.000 0.000 0.000 0.000 0.000 0.070 2.854 3.370 5.013 8.710 9.626 9.119 7.259 6.151 7.115 8.195 9.558 10.648 12.229 12.651 11.968 13.223 13.184 12.665 12.671 11.454 8.991 5.859
0.000 0.000 0.000 0.000 0.000 0.000 0.000 0.000 0.000 0.000 0.000 0.000 0.084 2.699 3.360 4.718 8.539 9.723 8.885 7.095 5.556 6.377 7.669 9.538 11.106 11.544 11.406 12.254 13.179 12.640 12.882 13.802 11.097 8.833 6.455
0.000 0.000 0.000 0.000 0.000 0.000 0.000 0.000 0.000 0.000 0.000 0.000 0.114 2.759 3.237 4.510 7.850 9.238 8.818 6.625 5.530 6.814 8.279 9.124 10.018 10.461 11.110 12.256 12.906 13.160 14.207 13.081 10.920 9.823 6.596
0.000 0.000 0.000 0.000 0.000 0.000 0.000 0.000 0.000 0.000 0.000 0.000 0.077 2.718 3.234 4.411 7.529 8.699 8.346 6.568 5.712 6.665 7.828 8.391 8.993 10.310 10.928 11.884 12.848 13.722 13.532 12.190 11.423 9.628 7.189
0.000 0.000 0.000 0.000 0.000 0.000 0.000 0.000 0.000 0.000 0.000 0.000 0.069 2.710 3.293 4.222 6.286 8.022 7.824 6.520 5.843 6.657 7.073 7.215 8.487 9.309 10.164 11.191 12.502 12.681 12.461 11.790 10.781 9.838 7.688
0.000 0.000 0.000 0.000 0.000 0.000 0.000 0.000 0.000 0.000 0.000 0.000 0.069 2.552 3.116 4.017 5.544 7.779 7.537 6.636 6.212 6.583 6.464 7.054 7.853 8.592 9.152 10.022 11.662 12.068 11.939 11.407 10.855 10.090 7.746
0.000 0.000 0.000 0.000 0.000 0.000 0.000 0.000 0.000 0.000 0.000 0.000 0.048 2.655 3.123 4.011 4.942 7.446 7.012 6.491 6.234 6.238 6.292 6.670 7.358 8.232 8.657 9.783 10.452 11.073 11.307 11.237 10.742 9.688 7.656
0.000 0.000 0.000 0.000 0.000 0.000 0.000 0.000 0.000 0.000 0.000 0.000 0.028 2.466 3.331 3.696 4.572 7.194 7.071 6.090 6.191 6.037 5.753 6.601 7.343 8.309 8.530 8.764 9.259 10.106 10.534 10.744 9.839 8.931 7.311
0.000 0.000 0.000 0.000 0.000 0.000 0.000 0.000 0.000 0.000 0.000 0.000 0.028 2.035 3.064 3.458 4.237 6.980 7.031 6.345 5.724 5.649 6.199 6.725 6.879 7.375 8.040 7.927 8.170 8.488 9.133 9.564 8.924 8.605 6.504
0.000 0.000 0.000 0.000 0.000 0.000 0.000 0.000 0.000 0.000 0.000 0.000 0.017 2.077 3.083 3.253 4.206 6.996 6.509 5.634 5.472 6.262 6.308 6.282 5.969 7.227 7.624 7.251 6.855 7.028 7.866 8.582 8.864 8.288 5.350
0.000 0.000 0.000 0.000 0.000 0.000 0.000 0.000 0.000 0.000 0.000 0.000 0.004 0.826 3.050 3.191 3.886 6.790 6.234 5.392 5.557 5.760 6.074 5.587 5.972 7.221 6.844 6.112 5.845 6.523 6.890 6.958 7.135 6.037 5.027
0.000 0.000 0.000 0.000 0.000 0.000 0.000 0.000 0.000 0.000 0.000 0.000 0.021 0.030 3.003 3.235 3.478 5.954 5.663 4.618 5.449 5.795 5.686 5.397 6.572 6.888 5.668 5.393 5.854 6.009 5.485 5.047 5.005 4.892 4.834
0.000 0.000 0.000 0.000 0.000 0.000 0.000 0.000 0.000 0.000 0.000 0.000 0.103 1.702 2.937 3.097 3.331 4.253 4.658 4.118 5.172 5.287 5.137 6.044 6.782 5.656 4.883 4.971 5.223 4.667 4.397 4.238 4.334 4.340 4.031
