ncols        52
nrows        128
xllcorner    409552.8
yllcorner    6870864.1
cellsize     5.00
NODATA_value -9999
0.000 0.000 0.000 0.000 0.000 0.000 0.000 0.000 0.000 0.000 0.000 0.000 0.000 0.000 0.000 0.000 0.000 0.000 0.000 0.000 0.000 0.000 0.000 0.000 0.000 0.000 0.000 0.000 0.000 0.000 0.000 0.000 0.000 0.000 0.000 0.000 0.000 0.000 0.000 0.000 0.000 0.000 0.000 0.000 0.000 0.000 0.000 0.000 0.000 0.000 0.000 0.000
0.000 0.000 0.000 0.061 1.787 7.809 14.527 18.290 19.127 13.185 4.725 0.143 0.000 0.000 0.000 0.000 0.000 0.000 0.000 0.000 0.000 0.000 0.000 0.000 0.000 0.000 0.000 0.000 0.000 0.000 0.000 0.000 0.000 0.000 0.000 0.000 0.000 0.000 0.000 0.000 0.000 0.000 0.000 0.000 0.000 0.000 0.000 0.000 0.000 0.000 0.000 0.000
0.000 0.000 0.513 7.333 19.647 19.619 21.372 21.527 18.942 18.141 18.380 10.044 0.225 0.000 0.000 0.000 0.000 0.000 0.000 0.000 0.000 0.000 0.000 0.000 0.000 0.000 0.000 0.000 0.000 0.000 0.000 0.000 0.000 0.000 0.000 0.000 0.000 0.000 0.000 0.000 0.000 0.000 0.000 0.000 0.000 0.000 0.000 0.000 0.000 0.000 0.000 0.000
0.000 0.050 5.544 20.101 20.355 19.713 21.187 21.670 20.429 20.654 18.767 17.632 8.876 0.001 0.000 0.000 0.000 0.000 0.000 0.000 0.000 0.000 0.000 0.000 0.000 0.000 0.000 0.000 0.000 0.000 0.000 0.000 0.000 0.000 0.000 0.000 0.000 0.000 0.000 0.000 0.000 0.000 0.000 0.000 0.000 0.000 0.000 0.000 0.000 0.000 0.000 0.000
0.001 1.811 19.730 20.493 20.223 19.290 21.364 23.770 22.230 21.456 19.611 18.614 17.163 1.702 0.000 0.000 0.000 0.000 0.000 0.000 0.000 0.000 0.000 0.000 0.000 0.000 0.000 0.000 0.000 0.000 0.000 0.000 0.000 0.000 0.000 0.000 0.000 0.000 0.000 0.000 0.000 0.000 0.000 0.000 0.000 0.000 0.000 0.000 0.000 0.000 0.000 0.000
0.141 9.303 19.974 20.574 19.924 21.337 23.231 25.480 23.353 23.024 20.937 20.808 16.979 10.605 0.008 0.000 0.000 0.000 0.000 0.000 0.000 0.000 0.000 0.000 0.000 0.000 0.000 0.000 0.000 0.000 0.000 0.000 0.000 0.000 0.000 0.000 0.000 0.000 0.000 0.000 0.000 0.000 0.000 0.000 0.000 0.000 0.000 0.000 0.000 0.000 0.000 0.000
2.084 19.340 19.800 19.928 20.162 21.189 22.982 25.401 24.406 23.406 23.356 22.101 18.638 13.975 1.826 0.000 0.000 0.000 0.000 0.000 0.000 0.000 0.000 0.000 0.000 0.000 0.000 0.000 0.000 0.000 0.000 0.000 0.000 0.000 0.000 0.000 0.000 0.000 0.000 0.000 0.000 0.000 0.000 0.000 0.000 0.000 0.000 0.000 0.000 0.000 0.000 0.000
5.149 18.714 19.348 19.972 21.004 23.162 25.393 24.540 25.493 23.970 22.450 22.187 18.163 12.972 9.144 0.032 0.000 0.000 0.000 0.000 0.000 0.000 0.000 0.000 0.000 0.000 0.000 0.000 0.000 0.000 0.000 0.000 0.000 0.000 0.000 0.000 0.000 0.000 0.000 0.000 0.000 0.000 0.000 0.000 0.000 0.000 0.000 0.000 0.000 0.000 0.000 0.000
8.932 18.150 20.076 19.885 22.302 21.604 24.551 24.862 25.006 24.926 24.653 21.699 18.081 15.368 13.786 2.498 0.000 0.000 0.000 0.000 0.000 0.000 0.000 0.000 0.000 0.000 0.000 0.000 0.000 0.000 0.000 0.000 0.000 0.000 0.000 0.000 0.000 0.000 0.000 0.000 0.000 0.000 0.000 0.000 0.000 0.000 0.000 0.000 0.000 0.000 0.000 0.000
12.045 18.380 19.838 21.802 21.656 23.071 22.790 24.453 25.859 26.767 22.988 20.858 18.581 16.255 15.443 8.314 0.020 0.000 0.000 0.000 0.000 0.000 0.000 0.000 0.000 0.000 0.000 0.000 0.000 0.000 0.000 0.000 0.000 0.000 0.000 0.000 0.000 0.000 0.000 0.000 0.000 0.000 0.000 0.000 0.000 0.000 0.000 0.000 0.000 0.000 0.000 0.000
12.250 18.608 20.390 22.028 23.056 23.741 20.891 23.607 25.367 25.989 21.801 20.469 19.667 18.183 16.530 12.250 1.662 0.000 0.000 0.000 0.000 0.000 0.000 0.000 0.000 0.000 0.000 0.000 0.000 0.000 0.000 0.000 0.000 0.000 0.000 0.000 0.000 0.000 0.000 0.000 0.000 0.000 0.000 0.000 0.000 0.000 0.000 0.000 0.000 0.000 0.000 0.000
10.728 18.851 21.885 22.193 24.193 23.579 24.452 25.619 25.757 25.365 21.967 21.931 22.950 19.818 16.410 14.245 5.883 0.003 0.000 0.000 0.000 0.000 0.000 0.000 0.000 0.000 0.000 0.000 0.000 0.000 0.000 0.000 0.000 0.000 0.000 0.000 0.000 0.000 0.000 0.000 0.000 0.000 0.000 0.000 0.000 0.000 0.000 0.000 0.000 0.000 0.000 0.000
7.978 18.038 21.087 23.054 24.765 23.306 21.873 24.897 26.516 24.603 22.470 23.833 23.963 18.648 17.875 14.794 9.513 0.901 0.000 0.000 0.000 0.000 0.000 0.000 0.000 0.000 0.000 0.000 0.000 0.000 0.000 0.000 0.000 0.000 0.000 0.000 0.000 0.000 0.000 0.000 0.000 0.000 0.000 0.000 0.000 0.000 0.000 0.000 0.000 0.000 0.000 0.000
3.977 18.646 19.587 22.708 22.897 22.431 23.134 22.743 25.606 24.432 24.202 25.066 24.404 20.995 20.922 15.311 12.354 5.072 0.000 0.000 0.000 0.000 0.000 0.000 0.000 0.000 0.000 0.000 0.000 0.000 0.000 0.000 0.000 0.000 0.000 0.000 0.000 0.000 0.000 0.000 0.000 0.000 0.000 0.000 0.000 0.000 0.000 0.000 0.000 0.000 0.000 0.000
1.089 12.985 19.749 20.724 21.152 22.093 23.365 26.090 25.904 24.731 24.605 25.497 25.896 23.197 19.363 16.862 14.102 8.114 0.052 0.000 0.000 0.000 0.000 0.000 0.000 0.000 0.000 0.000 0.000 0.000 0.000 0.000 0.000 0.000 0.000 0.000 0.000 0.000 0.000 0.000 0.000 0.000 0.000 0.000 0.000 0.000 0.000 0.000 0.000 0.000 0.000 0.000
0.128 6.569 17.533 19.982 22.126 23.147 24.794 23.015 23.909 24.386 23.391 24.645 24.786 21.614 19.125 21.304 15.662 10.425 1.938 0.000 0.000 0.000 0.000 0.000 0.000 0.000 0.000 0.000 0.000 0.000 0.000 0.000 0.000 0.000 0.000 0.000 0.000 0.000 0.000 0.000 0.000 0.000 0.000 0.000 0.000 0.000 0.000 0.000 0.000 0.000 0.000 0.000
0.002 1.606 12.785 18.636 20.796 22.159 21.947 20.034 24.700 22.343 22.436 24.359 24.865 22.017 23.891 22.384 16.361 10.580 5.633 0.000 0.000 0.000 0.000 0.000 0.000 0.000 0.000 0.000 0.000 0.000 0.000 0.000 0.000 0.000 0.000 0.000 0.000 0.000 0.000 0.000 0.000 0.000 0.000 0.000 0.000 0.000 0.000 0.000 0.000 0.000 0.000 0.000
0.000 0.098 4.762 15.368 20.504 21.606 19.969 21.545 25.595 24.639 22.951 24.502 23.434 21.858 24.992 20.791 16.102 12.507 8.194 0.008 0.000 0.000 0.000 0.000 0.000 0.000 0.000 0.000 0.000 0.000 0.000 0.000 0.000 0.000 0.000 0.000 0.000 0.000 0.000 0.000 0.000 0.000 0.000 0.000 0.000 0.000 0.000 0.000 0.000 0.000 0.000 0.000
0.000 0.000 0.613 8.227 16.810 19.330 22.452 23.551 23.072 24.190 24.086 22.923 22.506 22.582 23.204 20.490 17.480 15.084 10.022 0.889 0.000 0.000 0.000 0.000 0.000 0.000 0.000 0.000 0.000 0.000 0.000 0.000 0.000 0.000 0.000 0.000 0.000 0.000 0.000 0.000 0.000 0.000 0.000 0.000 0.000 0.000 0.000 0.000 0.000 0.000 0.000 0.000
0.000 0.000 0.010 1.929 11.565 17.588 20.851 22.182 22.560 24.057 23.252 20.901 21.586 22.417 23.548 22.455 21.428 16.092 11.088 3.649 0.000 0.000 0.000 0.000 0.000 0.000 0.000 0.000 0.000 0.000 0.000 0.000 0.000 0.000 0.000 0.000 0.000 0.000 0.000 0.000 0.000 0.000 0.000 0.000 0.000 0.000 0.000 0.000 0.000 0.000 0.000 0.000
0.000 0.000 0.000 0.161 5.164 14.424 18.256 20.534 21.519 22.419 23.296 24.600 21.301 23.333 24.471 24.715 21.333 16.625 11.048 5.871 0.139 0.000 0.000 0.000 0.000 0.000 0.000 0.000 0.000 0.000 0.000 0.000 0.000 0.000 0.000 0.000 0.000 0.000 0.000 0.000 0.000 0.000 0.000 0.000 0.000 0.000 0.000 0.000 0.000 0.000 0.000 0.000
0.000 0.000 0.000 0.006 1.584 10.609 16.886 19.735 21.235 22.311 24.216 23.393 21.144 23.133 25.201 23.383 21.362 16.888 11.463 8.286 2.562 0.000 0.000 0.000 0.000 0.000 0.000 0.000 0.000 0.000 0.000 0.000 0.000 0.000 0.000 0.000 0.000 0.000 0.000 0.000 0.000 0.000 0.000 0.000 0.000 0.000 0.000 0.000 0.000 0.000 0.000 0.000
0.000 0.000 0.000 0.000 0.342 6.510 14.477 18.262 23.421 24.536 23.843 22.995 22.246 24.067 23.101 21.299 20.247 16.998 13.203 9.447 5.478 0.272 0.000 0.000 0.000 0.000 0.000 0.000 0.000 0.000 0.000 0.000 0.000 0.000 0.000 0.000 0.000 0.000 0.000 0.000 0.000 0.000 0.000 0.000 0.000 0.000 0.000 0.000 0.000 0.000 0.000 0.000
0.000 0.000 0.000 0.000 0.060 3.525 12.224 17.202 20.714 23.495 22.643 23.425 22.431 20.037 21.854 20.292 19.980 18.453 13.880 10.569 7.496 2.976 0.000 0.000 0.000 0.000 0.000 0.000 0.000 0.000 0.000 0.000 0.000 0.000 0.000 0.000 0.000 0.000 0.000 0.000 0.000 0.000 0.000 0.000 0.000 0.000 0.000 0.000 0.000 0.000 0.000 0.000
0.000 0.000 0.000 0.000 0.006 1.449 9.538 15.561 20.007 22.013 23.232 22.898 21.559 21.201 20.244 21.257 19.790 18.128 15.731 11.758 9.080 5.725 0.009 0.000 0.000 0.000 0.000 0.000 0.000 0.000 0.000 0.000 0.000 0.000 0.000 0.000 0.000 0.000 0.000 0.000 0.000 0.000 0.000 0.000 0.000 0.000 0.000 0.000 0.000 0.000 0.000 0.000
0.000 0.000 0.000 0.000 0.000 0.342 6.256 13.270 17.334 21.498 24.732 24.006 22.391 21.524 18.989 19.060 20.016 20.524 16.659 12.560 9.909 7.277 0.949 0.000 0.000 0.000 0.000 0.000 0.000 0.000 0.000 0.000 0.000 0.000 0.000 0.000 0.000 0.000 0.000 0.000 0.000 0.000 0.000 0.000 0.000 0.000 0.000 0.000 0.000 0.000 0.000 0.000
0.000 0.000 0.000 0.000 0.000 0.043 3.005 10.904 15.710 19.724 23.447 25.923 26.732 21.588 18.297 17.637 19.961 18.242 17.184 13.872 10.512 8.126 4.009 0.000 0.000 0.000 0.000 0.000 0.000 0.000 0.000 0.000 0.000 0.000 0.000 0.000 0.000 0.000 0.000 0.000 0.000 0.000 0.000 0.000 0.000 0.000 0.000 0.000 0.000 0.000 0.000 0.000
0.000 0.000 0.000 0.000 0.000 0.001 0.614 8.022 13.133 17.589 21.506 25.263 27.125 26.359 22.794 21.522 19.968 17.676 19.827 14.644 10.413 9.172 5.736 0.000 0.000 0.000 0.000 0.000 0.000 0.000 0.000 0.000 0.000 0.000 0.000 0.000 0.000 0.000 0.000 0.000 0.000 0.000 0.000 0.000 0.000 0.000 0.000 0.000 0.000 0.000 0.000 0.000
0.000 0.000 0.000 0.000 0.000 0.000 0.090 5.040 11.879 15.686 20.077 23.901 25.520 26.059 25.259 25.969 24.184 22.011 19.294 16.154 11.931 9.212 7.281 0.000 0.000 0.000 0.000 0.000 0.000 0.000 0.000 0.000 0.000 0.000 0.000 0.000 0.000 0.000 0.000 0.000 0.000 0.000 0.000 0.000 0.000 0.000 0.000 0.000 0.000 0.000 0.000 0.000
0.000 0.000 0.000 0.000 0.000 0.000 0.011 2.185 9.548 14.357 18.490 21.388 23.165 25.780 26.864 25.745 23.822 23.196 21.062 17.058 12.912 9.091 8.143 0.226 0.000 0.000 0.000 0.000 0.000 0.000 0.000 0.000 0.000 0.000 0.000 0.000 0.000 0.000 0.000 0.000 0.000 0.000 0.000 0.000 0.000 0.000 0.000 0.000 0.000 0.000 0.000 0.000
0.000 0.000 0.000 0.000 0.000 0.000 0.001 0.645 6.720 12.243 16.707 20.230 22.448 24.511 25.402 24.698 23.886 23.505 21.031 18.016 13.321 10.074 8.193 2.584 0.000 0.000 0.000 0.000 0.000 0.000 0.000 0.000 0.000 0.000 0.000 0.000 0.000 0.000 0.000 0.000 0.000 0.000 0.000 0.000 0.000 0.000 0.000 0.000 0.000 0.000 0.000 0.000
0.000 0.000 0.000 0.000 0.000 0.000 0.000 0.135 3.897 10.166 14.212 17.890 21.765 24.065 23.687 24.404 25.556 23.877 23.069 20.609 15.589 8.950 8.244 5.748 0.000 0.000 0.000 0.000 0.000 0.000 0.000 0.000 0.000 0.000 0.000 0.000 0.000 0.000 0.000 0.000 0.000 0.000 0.000 0.000 0.000 0.000 0.000 0.000 0.000 0.000 0.000 0.000
0.000 0.000 0.000 0.000 0.000 0.000 0.000 0.008 1.538 7.524 12.191 16.287 20.678 22.467 24.074 22.809 23.607 21.910 23.347 19.045 15.490 11.349 10.479 6.787 0.000 0.000 0.000 0.000 0.000 0.000 0.000 0.000 0.000 0.000 0.000 0.000 0.000 0.000 0.000 0.000 0.000 0.000 0.000 0.000 0.000 0.000 0.000 0.000 0.000 0.000 0.000 0.000
0.000 0.000 0.000 0.000 0.000 0.000 0.000 0.000 0.328 4.992 9.789 14.270 19.140 22.436 22.336 23.109 23.970 23.334 22.075 18.920 15.896 12.701 10.701 7.894 0.000 0.000 0.000 0.000 0.000 0.000 0.000 0.000 0.000 0.000 0.000 0.000 0.000 0.000 0.000 0.000 0.000 0.000 0.000 0.000 0.000 0.000 0.000 0.000 0.000 0.000 0.000 0.000
0.000 0.000 0.000 0.000 0.000 0.000 0.000 0.000 0.033 2.707 8.063 12.216 16.297 19.736 20.939 22.857 21.739 22.047 21.012 19.493 15.823 12.510 10.712 8.800 0.000 0.000 0.000 0.000 0.000 0.000 0.000 0.000 0.000 0.000 0.000 0.000 0.000 0.000 0.000 0.000 0.000 0.000 0.000 0.000 0.000 0.000 0.000 0.000 0.000 0.000 0.000 0.000
0.000 0.000 0.000 0.000 0.000 0.000 0.000 0.000 0.003 1.150 6.198 9.678 12.852 17.043 21.778 20.620 22.908 22.426 20.259 18.930 15.214 14.840 10.852 8.948 0.000 0.000 0.000 0.000 0.000 0.000 0.000 0.000 0.000 0.000 0.000 0.000 0.000 0.000 0.000 0.000 0.000 0.000 0.000 0.000 0.000 0.000 0.000 0.000 0.000 0.000 0.000 0.000
0.000 0.000 0.000 0.000 0.000 0.000 0.000 0.000 0.000 0.392 4.769 8.338 10.888 15.360 19.769 20.909 20.916 21.893 20.878 17.272 15.505 14.765 11.298 9.241 0.087 0.000 0.000 0.000 0.000 0.000 0.000 0.000 0.000 0.000 0.000 0.000 0.000 0.000 0.000 0.000 0.000 0.000 0.000 0.000 0.000 0.000 0.000 0.000 0.000 0.000 0.000 0.000
0.000 0.000 0.000 0.000 0.000 0.000 0.000 0.000 0.000 0.125 3.571 6.937 8.320 11.736 16.611 19.274 20.421 21.381 19.267 16.999 15.685 17.276 11.925 8.710 1.949 0.000 0.000 0.000 0.000 0.000 0.000 0.000 0.000 0.000 0.000 0.000 0.000 0.000 0.000 0.000 0.000 0.000 0.000 0.000 0.000 0.000 0.000 0.000 0.000 0.000 0.000 0.000
0.000 0.000 0.000 0.000 0.000 0.000 0.000 0.000 0.000 0.029 2.675 6.613 7.631 9.480 13.978 18.475 20.065 20.042 18.196 15.833 17.970 16.761 12.396 9.304 4.040 0.000 0.000 0.000 0.000 0.000 0.000 0.000 0.000 0.000 0.000 0.000 0.000 0.000 0.000 0.000 0.000 0.000 0.000 0.000 0.000 0.000 0.000 0.000 0.000 0.000 0.000 0.000
0.000 0.000 0.000 0.000 0.000 0.000 0.000 0.000 0.000 0.000 1.520 6.072 7.098 8.163 10.977 16.345 17.501 18.397 16.787 16.082 19.769 17.193 13.274 8.412 5.207 0.193 0.001 0.000 0.000 0.000 0.000 0.000 0.000 0.000 0.000 0.000 0.000 0.000 0.000 0.000 0.000 0.000 0.000 0.000 0.000 0.000 0.000 0.000 0.000 0.000 0.000 0.000
0.000 0.000 0.000 0.000 0.000 0.000 0.000 0.000 0.000 0.000 0.774 5.252 7.097 6.916 7.602 12.752 16.922 17.082 16.709 19.326 20.129 17.571 13.798 8.620 7.130 3.268 0.705 0.010 0.000 0.000 0.000 0.000 0.000 0.000 0.000 0.000 0.000 0.000 0.000 0.000 0.000 0.000 0.000 0.000 0.000 0.000 0.000 0.000 0.000 0.000 0.000 0.000
0.000 0.000 0.000 0.000 0.000 0.000 0.000 0.000 0.000 0.000 0.397 3.976 6.548 6.332 6.641 10.101 16.662 17.991 18.806 19.631 20.376 17.323 13.188 9.086 8.129 6.067 4.514 1.117 0.000 0.000 0.000 0.000 0.000 0.000 0.000 0.000 0.000 0.000 0.000 0.000 0.000 0.000 0.000 0.000 0.000 0.000 0.000 0.000 0.000 0.000 0.000 0.000
0.000 0.000 0.000 0.000 0.000 0.000 0.000 0.000 0.000 0.000 0.155 2.766 5.602 6.171 5.827 6.675 15.281 16.841 18.214 17.604 19.598 16.287 13.796 10.144 8.033 6.778 6.426 4.083 0.008 0.000 0.000 0.000 0.000 0.000 0.000 0.000 0.000 0.000 0.000 0.000 0.000 0.000 0.000 0.000 0.000 0.000 0.000 0.000 0.000 0.000 0.000 0.000
0.000 0.000 0.000 0.000 0.000 0.000 0.000 0.000 0.000 0.000 0.058 1.616 4.520 5.295 5.616 5.113 11.094 15.852 17.531 17.010 18.520 16.806 14.854 10.711 7.248 8.019 7.020 6.112 0.948 0.000 0.000 0.000 0.000 0.000 0.000 0.000 0.000 0.000 0.000 0.000 0.000 0.000 0.000 0.000 0.000 0.000 0.000 0.000 0.000 0.000 0.000 0.000
0.000 0.000 0.000 0.000 0.000 0.000 0.000 0.000 0.000 0.000 0.000 0.754 3.651 5.554 5.693 4.917 6.582 14.724 15.978 17.422 17.477 17.211 15.845 11.514 8.325 9.306 8.494 7.224 3.537 0.000 0.000 0.000 0.000 0.000 0.000 0.000 0.000 0.000 0.000 0.000 0.000 0.000 0.000 0.000 0.000 0.000 0.000 0.000 0.000 0.000 0.000 0.000
0.000 0.000 0.000 0.000 0.000 0.000 0.000 0.000 0.000 0.000 0.000 0.571 3.601 5.343 5.227 4.899 4.477 13.001 14.784 16.333 17.602 17.766 16.676 12.349 9.150 9.408 8.471 7.659 5.590 0.135 0.000 0.000 0.000 0.000 0.000 0.000 0.000 0.000 0.000 0.000 0.000 0.000 0.000 0.000 0.000 0.000 0.000 0.000 0.000 0.000 0.000 0.000
0.000 0.000 0.000 0.000 0.000 0.000 0.000 0.000 0.000 0.000 0.000 0.111 2.810 4.563 5.058 5.084 5.127 10.760 14.440 15.960 18.092 18.205 17.533 13.338 9.953 9.318 8.587 8.106 6.265 1.948 0.001 0.000 0.000 0.000 0.000 0.000 0.000 0.000 0.000 0.000 0.000 0.000 0.000 0.000 0.000 0.000 0.000 0.000 0.000 0.000 0.000 0.000
0.000 0.000 0.000 0.000 0.000 0.000 0.000 0.000 0.000 0.000 0.000 0.020 1.786 4.325 4.934 5.251 5.823 9.892 14.568 16.538 17.569 19.070 17.983 15.438 10.899 8.680 7.766 7.280 6.449 4.142 0.179 0.000 0.000 0.000 0.000 0.000 0.000 0.000 0.000 0.000 0.000 0.000 0.000 0.000 0.000 0.000 0.000 0.000 0.000 0.000 0.000 0.000
0.000 0.000 0.000 0.000 0.000 0.000 0.000 0.000 0.000 0.000 0.000 0.025 1.241 3.894 4.670 5.105 5.823 10.005 14.331 18.061 20.231 20.253 18.620 16.449 10.236 7.705 7.702 7.620 7.757 5.200 1.568 0.005 0.000 0.000 0.000 0.000 0.000 0.000 0.000 0.000 0.000 0.000 0.000 0.000 0.000 0.000 0.000 0.000 0.000 0.000 0.000 0.000
0.000 0.000 0.000 0.000 0.000 0.000 0.000 0.000 0.000 0.000 0.000 0.001 1.166 3.859 4.393 4.719 5.512 8.390 12.586 16.607 18.298 18.357 18.153 16.727 10.850 7.768 7.444 8.420 8.063 5.215 3.473 0.520 0.000 0.000 0.000 0.000 0.000 0.000 0.000 0.000 0.000 0.000 0.000 0.000 0.000 0.000 0.000 0.000 0.000 0.000 0.000 0.000
0.000 0.000 0.000 0.000 0.000 0.000 0.000 0.000 0.000 0.000 0.000 0.011 0.697 3.668 3.958 4.739 5.791 8.182 10.579 17.040 18.842 16.494 19.239 15.573 11.895 7.962 8.073 8.458 7.247 6.110 6.131 2.765 0.005 0.000 0.000 0.000 0.000 0.000 0.000 0.000 0.000 0.000 0.000 0.000 0.000 0.000 0.000 0.000 0.000 0.000 0.000 0.000
0.000 0.000 0.000 0.000 0.000 0.000 0.000 0.000 0.000 0.000 0.000 0.000 0.180 2.643 3.554 4.683 5.255 7.503 8.535 11.828 17.510 18.115 17.851 15.713 12.587 8.267 8.090 7.964 8.181 8.141 8.312 4.508 0.379 0.019 0.000 0.000 0.000 0.000 0.000 0.000 0.000 0.000 0.000 0.000 0.000 0.000 0.000 0.000 0.000 0.000 0.000 0.000
0.000 0.000 0.000 0.000 0.000 0.000 0.000 0.000 0.000 0.000 0.000 0.000 0.052 2.211 3.386 4.310 4.614 6.692 7.764 8.076 15.017 16.638 17.004 15.975 13.272 9.064 7.834 8.281 8.770 9.172 8.941 5.585 1.117 1.000 0.000 0.000 0.000 0.000 0.000 0.000 0.000 0.000 0.000 0.000 0.000 0.000 0.000 0.000 0.000 0.000 0.000 0.000
0.000 0.000 0.000 0.000 0.000 0.000 0.000 0.000 0.000 0.000 0.000 0.000 0.094 2.397 4.175 4.304 4.659 5.465 6.357 7.295 14.099 17.260 17.521 16.424 13.884 10.420 8.008 8.384 8.480 9.574 7.706 6.001 1.855 2.944 0.010 0.000 0.000 0.000 0.000 0.000 0.000 0.000 0.000 0.000 0.000 0.000 0.000 0.000 0.000 0.000 0.000 0.000
0.000 0.000 0.000 0.000 0.000 0.000 0.000 0.000 0.000 0.000 0.000 0.000 0.466 2.922 4.232 4.513 4.522 5.430 6.313 6.889 12.013 17.344 17.280 17.407 14.532 11.181 8.801 8.217 9.090 10.422 8.366 6.918 4.343 3.785 0.557 0.000 0.000 0.000 0.000 0.000 0.000 0.000 0.000 0.000 0.000 0.000 0.000 0.000 0.000 0.000 0.000 0.000
0.000 0.000 0.000 0.000 0.000 0.000 0.000 0.000 0.000 0.000 0.000 0.000 0.776 3.032 3.868 4.632 4.781 5.436 6.406 7.335 11.459 17.806 18.484 16.646 15.088 12.303 9.798 7.990 8.735 8.985 9.468 7.648 5.610 4.003 2.145 0.000 0.000 0.000 0.000 0.000 0.000 0.000 0.000 0.000 0.000 0.000 0.000 0.000 0.000 0.000 0.000 0.000
0.000 0.000 0.000 0.000 0.000 0.000 0.000 0.000 0.000 0.000 0.000 0.000 0.190 2.715 4.132 4.522 4.304 5.496 6.851 7.439 11.014 16.741 18.949 17.213 14.905 13.254 11.307 8.563 8.508 8.409 9.225 7.349 6.658 4.789 3.333 0.092 0.000 0.000 0.000 0.000 0.000 0.000 0.000 0.000 0.000 0.000 0.000 0.000 0.000 0.000 0.000 0.000
0.000 0.000 0.000 0.000 0.000 0.000 0.000 0.000 0.000 0.000 0.000 0.000 0.144 2.369 3.982 4.127 4.002 5.248 6.949 7.138 10.345 16.174 19.143 19.367 17.507 14.297 12.602 8.952 8.724 9.130 9.230 8.008 7.153 5.528 4.149 1.413 0.000 0.000 0.000 0.000 0.000 0.000 0.000 0.000 0.000 0.000 0.000 0.000 0.000 0.000 0.000 0.000
0.000 0.000 0.000 0.000 0.000 0.000 0.000 0.000 0.000 0.000 0.000 0.000 0.004 1.716 3.949 4.419 4.598 5.133 6.525 7.315 9.977 16.069 18.084 19.463 19.042 16.120 13.108 10.277 8.599 8.632 8.061 8.553 8.029 6.446 5.063 2.698 0.024 0.000 0.000 0.000 0.000 0.000 0.000 0.000 0.000 0.000 0.000 0.000 0.000 0.000 0.000 0.000
0.000 0.000 0.000 0.000 0.000 0.000 0.000 0.000 0.000 0.000 0.000 0.000 0.033 1.569 3.671 4.461 4.890 4.788 5.762 7.337 9.745 15.993 18.523 19.504 19.997 18.869 14.125 10.762 8.304 8.673 8.724 8.847 8.838 7.547 5.865 3.598 0.953 0.000 0.000 0.000 0.000 0.000 0.000 0.000 0.000 0.000 0.000 0.000 0.000 0.000 0.000 0.000
0.000 0.000 0.000 0.000 0.000 0.000 0.000 0.000 0.000 0.000 0.000 0.000 0.012 1.445 3.124 4.211 4.420 4.707 5.630 7.139 9.580 14.772 18.970 20.163 19.726 17.786 13.901 9.718 8.567 8.394 9.027 9.558 9.066 8.651 6.589 5.393 3.100 0.013 0.000 0.000 0.000 0.000 0.000 0.000 0.000 0.000 0.000 0.000 0.000 0.000 0.000 0.000
0.000 0.000 0.000 0.000 0.000 0.000 0.000 0.000 0.000 0.000 0.000 0.000 0.072 1.419 3.101 3.913 3.903 4.263 5.282 6.663 9.068 13.974 18.567 19.804 19.902 19.663 16.592 11.310 9.451 8.544 9.318 9.850 10.325 8.926 8.352 6.779 4.126 0.671 0.000 0.000 0.000 0.000 0.000 0.000 0.000 0.000 0.000 0.000 0.000 0.000 0.000 0.000
0.000 0.000 0.000 0.000 0.000 0.000 0.000 0.000 0.000 0.000 0.000 0.000 0.023 1.102 2.960 3.593 3.976 4.346 5.245 6.631 8.481 12.355 16.816 18.119 19.970 18.861 16.421 13.192 9.821 9.374 9.694 10.189 10.207 9.763 9.585 7.220 4.676 2.644 0.000 0.000 0.000 0.000 0.000 0.000 0.000 0.000 0.000 0.000 0.000 0.000 0.000 0.000
0.000 0.000 0.000 0.000 0.000 0.000 0.000 0.000 0.000 0.000 0.000 0.000 0.007 0.649 2.927 3.602 3.937 4.331 5.203 6.268 7.742 10.913 16.118 18.903 19.911 17.748 16.910 12.113 10.627 10.453 9.882 9.721 9.977 10.391 9.854 7.021 5.853 3.865 0.088 0.000 0.000 0.000 0.000 0.000 0.000 0.000 0.000 0.000 0.000 0.000 0.000 0.000
0.000 0.000 0.000 0.000 0.000 0.000 0.000 0.000 0.000 0.000 0.000 0.000 0.000 0.046 2.218 3.637 3.730 4.044 4.655 5.810 7.353 10.324 16.762 19.102 18.362 19.049 15.786 12.602 11.378 8.899 8.365 8.671 9.988 11.142 9.273 7.574 7.050 4.954 1.100 0.000 0.000 0.000 0.000 0.000 0.000 0.000 0.000 0.000 0.000 0.000 0.000 0.000
0.000 0.000 0.000 0.000 0.000 0.000 0.000 0.000 0.000 0.000 0.000 0.000 0.000 0.056 1.466 3.641 3.782 4.330 4.984 5.255 7.591 10.058 15.500 16.934 19.313 17.534 15.299 13.578 10.391 8.097 8.316 9.148 10.649 9.963 9.272 9.239 8.426 5.378 3.034 0.014 0.000 0.000 0.000 0.000 0.000 0.000 0.000 0.000 0.000 0.000 0.000 0.000
0.000 0.000 0.000 0.000 0.000 0.000 0.000 0.000 0.000 0.000 0.000 0.000 0.000 0.109 1.922 3.876 4.170 4.198 4.546 6.224 7.135 9.626 13.544 17.570 18.314 17.553 17.165 14.415 11.900 9.712 9.257 9.906 9.868 9.491 10.435 9.523 7.823 6.491 4.335 0.635 0.000 0.000 0.000 0.000 0.000 0.000 0.000 0.000 0.000 0.000 0.000 0.000
0.000 0.000 0.000 0.000 0.000 0.000 0.000 0.000 0.000 0.000 0.000 0.000 0.000 0.157 1.937 3.849 4.306 3.613 4.673 5.653 3.904 8.005 12.951 15.797 17.749 18.857 17.576 14.623 12.460 10.717 10.524 9.382 9.819 10.160 9.920 9.451 8.098 7.381 5.154 2.866 0.001 0.000 0.000 0.000 0.000 0.000 0.000 0.000 0.000 0.000 0.000 0.000
0.000 0.000 0.000 0.000 0.000 0.000 0.000 0.000 0.000 0.000 0.000 0.000 0.000 0.016 0.801 3.241 4.401 3.802 4.037 3.970 3.963 7.292 12.414 15.825 18.211 19.096 18.402 16.014 13.352 12.362 10.813 9.697 10.118 9.663 9.204 9.224 8.501 8.118 7.071 4.888 0.414 0.000 0.000 0.000 0.000 0.000 0.000 0.000 0.000 0.000 0.000 0.000
0.000 0.000 0.000 0.000 0.000 0.000 0.000 0.000 0.000 0.000 0.000 0.000 0.000 0.004 0.365 2.715 4.481 4.117 3.704 3.693 4.310 7.657 11.250 15.696 17.500 18.459 18.027 14.769 14.486 13.116 10.027 9.953 9.094 7.526 8.701 9.265 9.705 9.599 8.283 6.066 3.044 0.000 0.000 0.000 0.000 0.000 0.000 0.000 0.000 0.000 0.000 0.000
0.000 0.000 0.000 0.000 0.000 0.000 0.000 0.000 0.000 0.000 0.000 0.000 0.000 0.000 0.004 0.365 4.157 4.163 3.406 3.443 5.194 7.778 10.864 15.550 18.330 18.196 16.670 14.835 15.383 13.336 11.295 10.366 8.519 7.415 8.272 9.652 10.177 9.774 8.791 7.076 4.638 0.001 0.000 0.000 0.000 0.000 0.000 0.000 0.000 0.000 0.000 0.000
0.000 0.000 0.000 0.000 0.000 0.000 0.000 0.000 0.000 0.000 0.000 0.000 0.000 0.000 0.000 0.783 2.861 3.777 2.713 3.730 5.147 7.237 10.218 14.108 16.366 17.186 16.244 16.365 16.842 14.045 11.427 9.662 7.826 7.628 8.676 9.700 9.763 9.657 8.950 7.652 5.056 0.114 0.000 0.000 0.000 0.000 0.000 0.000 0.000 0.000 0.000 0.000
0.000 0.000 0.000 0.000 0.000 0.000 0.000 0.000 0.000 0.000 0.000 0.000 0.000 0.000 0.000 0.001 2.281 2.750 3.066 4.100 4.709 6.312 9.293 13.129 14.541 17.216 16.178 17.585 16.174 14.367 12.422 10.481 9.003 7.775 8.343 9.180 9.659 10.135 10.005 7.687 4.445 0.550 0.000 0.000 0.000 0.000 0.000 0.000 0.000 0.000 0.000 0.000
0.000 0.000 0.000 0.000 0.000 0.000 0.000 0.000 0.000 0.000 0.000 0.000 0.000 0.000 0.000 0.000 0.697 2.865 3.532 4.121 4.622 5.497 8.014 11.056 14.474 15.609 17.311 17.376 17.170 14.989 13.630 10.864 8.341 6.989 7.060 7.618 9.097 9.474 9.300 5.994 3.457 0.377 0.000 0.000 0.000 0.000 0.000 0.000 0.000 0.000 0.000 0.000
0.000 0.000 0.000 0.000 0.000 0.000 0.000 0.000 0.000 0.000 0.000 0.000 0.000 0.000 0.000 0.000 0.363 2.262 3.574 4.066 4.379 4.501 7.228 10.185 14.040 16.050 16.291 17.873 16.781 15.396 13.960 10.272 7.844 6.244 6.121 6.901 8.212 8.479 8.279 6.445 4.284 0.070 0.000 0.000 0.000 0.000 0.000 0.000 0.000 0.000 0.000 0.000
0.000 0.000 0.000 0.000 0.000 0.000 0.000 0.000 0.000 0.000 0.000 0.000 0.000 0.000 0.000 0.000 0.123 1.389 2.904 3.871 3.732 4.155 5.979 9.273 12.622 14.663 16.003 16.008 15.948 15.192 12.427 9.324 7.401 6.395 5.736 6.352 6.789 7.647 8.635 7.613 4.670 1.568 0.000 0.000 0.000 0.000 0.000 0.000 0.000 0.000 0.000 0.000
0.000 0.000 0.000 0.000 0.000 0.000 0.000 0.000 0.000 0.000 0.000 0.000 0.000 0.000 0.000 0.000 0.010 0.577 2.079 3.302 3.523 3.867 4.799 7.355 9.887 12.939 15.175 15.203 14.190 13.770 11.213 9.858 8.938 6.481 5.885 5.845 5.463 6.979 8.754 7.374 4.866 2.992 0.000 0.000 0.000 0.000 0.000 0.000 0.000 0.000 0.000 0.000
0.000 0.000 0.000 0.000 0.000 0.000 0.000 0.000 0.000 0.000 0.000 0.000 0.000 0.000 0.000 0.000 0.000 0.102 1.172 2.937 3.281 3.474 4.155 6.290 8.821 11.924 13.865 14.256 14.627 13.724 11.950 11.092 9.245 6.869 6.329 5.601 5.621 6.878 8.026 7.543 5.118 2.925 0.003 0.000 0.000 0.000 0.000 0.000 0.000 0.000 0.000 0.000
0.000 0.000 0.000 0.000 0.000 0.000 0.000 0.000 0.000 0.000 0.000 0.000 0.000 0.000 0.000 0.000 0.000 0.002 0.419 2.438 3.065 3.255 3.900 4.651 7.201 9.591 11.410 12.911 13.171 12.984 12.283 12.355 9.835 7.860 6.427 6.079 5.922 5.877 7.949 7.737 5.216 3.199 0.489 0.000 0.000 0.000 0.000 0.000 0.000 0.000 0.000 0.000
0.000 0.000 0.000 0.000 0.000 0.000 0.000 0.000 0.000 0.000 0.000 0.000 0.000 0.000 0.000 0.000 0.000 0.000 0.313 1.825 2.778 3.183 3.579 4.172 5.622 7.787 10.901 12.546 12.481 12.939 12.783 11.275 10.838 8.286 6.767 5.949 4.977 4.672 7.045 7.590 5.492 3.217 1.901 0.000 0.000 0.000 0.000 0.000 0.000 0.000 0.000 0.000
0.000 0.000 0.000 0.000 0.000 0.000 0.000 0.000 0.000 0.000 0.000 0.000 0.000 0.000 0.000 0.000 0.000 0.000 0.141 1.230 2.473 2.917 3.309 3.324 4.594 6.754 9.391 11.079 11.965 12.991 13.027 10.883 10.863 8.241 6.925 4.758 4.055 3.496 6.287 7.035 5.788 3.084 2.167 0.030 0.000 0.000 0.000 0.000 0.000 0.000 0.000 0.000
0.000 0.000 0.000 0.000 0.000 0.000 0.000 0.000 0.000 0.000 0.000 0.000 0.000 0.000 0.000 0.000 0.000 0.000 0.093 0.740 1.802 2.491 3.018 2.864 3.934 6.027 8.124 10.569 12.219 12.494 12.466 11.419 11.360 8.853 5.978 4.167 3.546 4.356 6.145 6.943 5.975 3.576 2.584 0.819 0.000 0.000 0.000 0.000 0.000 0.000 0.000 0.000
0.000 0.000 0.000 0.000 0.000 0.000 0.000 0.000 0.000 0.000 0.000 0.000 0.000 0.000 0.000 0.000 0.000 0.000 0.008 0.813 1.481 2.327 2.852 3.294 3.664 5.343 7.728 10.096 12.858 12.945 11.327 11.989 10.472 8.377 5.470 4.455 4.316 5.074 5.942 6.891 6.159 3.823 3.096 2.093 0.087 0.000 0.000 0.000 0.000 0.000 0.000 0.000
0.000 0.000 0.000 0.000 0.000 0.000 0.000 0.000 0.000 0.000 0.000 0.000 0.000 0.000 0.000 0.000 0.000 0.000 0.000 0.005 0.833 2.104 2.694 3.162 3.592 4.949 6.951 9.081 12.623 12.321 11.919 11.481 10.306 7.833 5.171 4.480 4.719 4.847 5.674 6.820 5.935 3.745 3.397 2.872 1.337 0.001 0.000 0.000 0.000 0.000 0.000 0.000
0.000 0.000 0.000 0.000 0.000 0.000 0.000 0.000 0.000 0.000 0.000 0.000 0.000 0.000 0.000 0.000 0.000 0.000 0.000 0.000 0.323 1.630 2.631 2.551 3.381 4.381 6.582 8.202 10.210 11.143 10.748 10.031 9.099 7.022 5.376 4.628 4.628 4.259 5.431 6.515 5.701 3.731 3.417 3.085 2.371 0.147 0.000 0.000 0.000 0.000 0.000 0.000
0.000 0.000 0.000 0.000 0.000 0.000 0.000 0.000 0.000 0.000 0.000 0.000 0.000 0.000 0.000 0.000 0.000 0.000 0.000 0.000 0.078 1.125 2.227 2.478 3.229 3.828 5.144 6.748 8.573 9.871 9.487 8.852 7.898 7.547 5.997 5.309 4.741 4.791 4.701 5.609 5.606 3.735 3.255 3.029 2.534 1.066 0.027 0.000 0.000 0.000 0.000 0.000
0.000 0.000 0.000 0.000 0.000 0.000 0.000 0.000 0.000 0.000 0.000 0.000 0.000 0.000 0.000 0.000 0.000 0.000 0.000 0.000 0.000 0.763 2.040 2.717 2.986 3.306 4.269 5.243 5.901 8.067 7.576 7.936 7.564 8.186 6.540 5.024 4.786 4.916 4.607 5.312 5.564 3.405 2.938 2.947 2.756 2.128 0.923 0.000 0.000 0.000 0.000 0.000
0.000 0.000 0.000 0.000 0.000 0.000 0.000 0.000 0.000 0.000 0.000 0.000 0.000 0.000 0.000 0.000 0.000 0.000 0.000 0.000 0.002 0.977 1.932 2.448 2.567 2.851 3.573 3.739 5.368 6.749 7.296 7.653 8.271 8.006 5.966 4.189 5.344 4.293 4.773 4.899 5.059 3.173 2.892 2.868 2.712 2.696 2.561 0.019 0.000 0.000 0.000 0.000
0.000 0.000 0.000 0.000 0.000 0.000 0.000 0.000 0.000 0.000 0.000 0.000 0.000 0.000 0.000 0.000 0.000 0.000 0.000 0.000 0.003 0.450 1.424 1.974 2.413 2.431 2.728 3.449 3.586 5.810 7.294 7.794 8.224 7.007 5.182 4.692 4.535 2.140 3.679 4.837 4.656 3.558 2.977 2.805 2.741 2.869 2.543 0.636 0.001 0.000 0.000 0.000
0.000 0.000 0.000 0.000 0.000 0.000 0.000 0.000 0.000 0.000 0.000 0.000 0.000 0.000 0.000 0.000 0.000 0.000 0.000 0.000 0.001 0.130 0.833 1.424 2.085 2.227 2.090 2.597 4.700 6.344 6.885 7.235 7.121 5.902 4.350 4.173 3.531 1.953 2.180 4.509 4.457 3.797 2.918 2.713 2.699 2.521 1.865 1.870 0.000 0.000 0.000 0.000
0.000 0.000 0.000 0.000 0.000 0.000 0.000 0.000 0.000 0.000 0.000 0.000 0.000 0.000 0.000 0.000 0.000 0.000 0.000 0.000 0.000 0.000 0.032 0.335 1.180 1.672 1.650 0.452 4.146 5.242 5.421 6.020 6.053 5.050 3.511 3.866 3.735 3.298 3.076 3.585 4.186 3.586 2.811 2.587 2.406 2.414 2.496 2.105 0.044 0.000 0.000 0.000
0.000 0.000 0.000 0.000 0.000 0.000 0.000 0.000 0.000 0.000 0.000 0.000 0.000 0.000 0.000 0.000 0.000 0.000 0.000 0.000 0.000 0.000 0.000 0.002 0.650 1.693 2.112 2.626 3.336 3.902 4.355 4.677 5.352 5.328 4.235 4.500 4.682 4.088 3.098 2.941 3.367 3.333 2.710 2.458 2.315 2.241 2.203 1.744 0.361 0.000 0.000 0.000
0.000 0.000 0.000 0.000 0.000 0.000 0.000 0.000 0.000 0.000 0.000 0.000 0.000 0.000 0.000 0.000 0.000 0.000 0.000 0.000 0.000 0.000 0.000 0.000 0.226 1.511 2.164 2.219 1.931 2.883 3.440 4.237 4.687 5.170 4.291 4.822 4.358 3.294 2.666 2.287 2.772 3.111 2.677 2.364 2.181 1.949 1.803 1.996 1.007 0.000 0.000 0.000
0.000 0.000 0.000 0.000 0.000 0.000 0.000 0.000 0.000 0.000 0.000 0.000 0.000 0.000 0.000 0.000 0.000 0.000 0.000 0.000 0.000 0.000 0.000 0.000 0.033 0.563 1.675 1.895 0.113 1.836 2.879 3.419 3.713 3.885 3.964 4.366 3.175 2.077 2.159 1.149 1.551 2.006 2.485 2.194 1.899 1.666 1.947 2.553 1.646 0.000 0.000 0.000
0.000 0.000 0.000 0.000 0.000 0.000 0.000 0.000 0.000 0.000 0.000 0.000 0.000 0.000 0.000 0.000 0.000 0.000 0.000 0.000 0.000 0.000 0.000 0.000 0.000 0.015 0.417 1.861 2.290 1.769 2.798 2.936 2.635 2.849 3.251 3.154 2.122 1.356 0.600 0.097 0.044 1.029 2.216 1.923 1.606 1.386 1.718 2.211 1.739 0.020 0.000 0.000
0.000 0.000 0.000 0.000 0.000 0.000 0.000 0.000 0.000 0.000 0.000 0.000 0.000 0.000 0.000 0.000 0.000 0.000 0.000 0.000 0.000 0.000 0.000 0.000 0.000 0.000 0.553 1.509 2.468 2.821 3.115 2.363 1.581 2.056 2.753 3.032 1.781 0.893 0.076 0.019 0.070 0.341 1.151 1.649 1.074 0.098 0.990 1.073 1.382 0.429 0.000 0.000
0.000 0.000 0.000 0.000 0.000 0.000 0.000 0.000 0.000 0.000 0.000 0.000 0.000 0.000 0.000 0.000 0.000 0.000 0.000 0.000 0.000 0.000 0.000 0.000 0.000 0.000 0.001 1.172 2.120 2.964 2.774 0.778 0.067 1.363 2.599 1.682 0.082 0.006 0.022 0.064 0.078 0.091 0.885 1.246 0.045 0.086 0.074 0.918 1.335 1.067 0.001 0.000
0.000 0.000 0.000 0.000 0.000 0.000 0.000 0.000 0.000 0.000 0.000 0.000 0.000 0.000 0.000 0.000 0.000 0.000 0.000 0.000 0.000 0.000 0.000 0.000 0.000 0.000 0.000 0.091 1.422 1.935 2.092 0.277 1.309 2.478 2.292 0.052 0.005 0.048 0.024 0.086 0.089 0.059 0.108 0.076 0.067 0.073 0.025 1.170 1.317 0.810 0.075 0.000
0.000 0.000 0.000 0.000 0.000 0.000 0.000 0.000 0.000 0.000 0.000 0.000 0.000 0.000 0.000 0.000 0.000 0.000 0.000 0.000 0.000 0.000 0.000 0.000 0.000 0.000 0.000 0.000 0.602 1.433 1.881 2.467 2.871 2.566 1.192 0.042 0.032 0.075 0.090 0.006 0.042 0.043 0.060 0.074 0.672 0.081 0.033 1.106 1.205 0.834 0.382 0.000
0.000 0.000 0.000 0.000 0.000 0.000 0.000 0.000 0.000 0.000 0.000 0.000 0.000 0.000 0.000 0.000 0.000 0.000 0.000 0.000 0.000 0.000 0.000 0.000 0.000 0.000 0.000 0.000 0.016 1.002 1.555 1.892 2.516 1.967 0.099 0.090 0.014 0.067 0.040 0.069 0.066 0.062 0.083 0.099 0.095 0.080 0.177 1.258 1.403 1.177 0.620 0.039
0.000 0.000 0.000 0.000 0.000 0.000 0.000 0.000 0.000 0.000 0.000 0.000 0.000 0.000 0.000 0.000 0.000 0.000 0.000 0.000 0.000 0.000 0.000 0.000 0.000 0.000 0.000 0.000 0.006 0.114 1.136 1.735 2.126 2.016 1.283 0.214 0.100 0.020 0.007 0.070 0.069 0.093 0.069 0.067 0.072 0.097 0.254 1.457 1.291 1.339 0.818 0.301
0.000 0.000 0.000 0.000 0.000 0.000 0.000 0.000 0.000 0.000 0.000 0.000 0.000 0.000 0.000 0.000 0.000 0.000 0.000 0.000 0.000 0.000 0.000 0.000 0.000 0.000 0.000 0.000 0.006 0.051 1.156 1.757 1.813 1.466 1.492 0.227 0.096 0.041 0.270 0.094 0.093 0.038 0.080 0.496 0.065 0.313 0.641 1.005 1.089 1.382 1.115 0.447
0.000 0.000 0.000 0.000 0.000 0.000 0.000 0.000 0.000 0.000 0.000 0.000 0.000 0.000 0.000 0.000 0.000 0.000 0.000 0.000 0.000 0.000 0.000 0.000 0.000 0.000 0.000 0.000 0.000 0.099 0.633 1.226 1.590 1.619 1.364 0.657 0.091 0.045 0.711 0.073 0.059 0.050 0.677 0.362 0.073 0.165 1.345 1.426 1.473 1.198 1.364 1.079
0.000 0.000 0.000 0.000 0.000 0.000 0.000 0.000 0.000 0.000 0.000 0.000 0.000 0.000 0.000 0.000 0.000 0.000 0.000 0.000 0.000 0.000 0.000 0.000 0.000 0.000 0.000 0.000 0.000 0.002 0.116 0.432 1.307 1.601 1.564 1.455 0.172 0.435 0.086 0.093 0.100 0.881 0.084 0.098 0.051 0.377 1.896 1.920 1.624 1.194 1.608 1.528
0.000 0.000 0.000 0.000 0.000 0.000 0.000 0.000 0.000 0.000 0.000 0.000 0.000 0.000 0.000 0.000 0.000 0.000 0.000 0.000 0.000 0.000 0.000 0.000 0.000 0.000 0.000 0.000 0.000 0.000 0.001 0.061 0.623 1.488 1.553 1.609 1.438 0.941 0.032 0.017 0.030 0.076 0.092 0.085 0.077 0.089 1.927 2.089 1.302 1.284 1.720 1.649
0.000 0.000 0.000 0.000 0.000 0.000 0.000 0.000 0.000 0.000 0.000 0.000 0.000 0.000 0.000 0.000 0.000 0.000 0.000 0.000 0.000 0.000 0.000 0.000 0.000 0.000 0.000 0.000 0.000 0.000 0.000 0.000 0.074 1.178 1.636 1.598 1.226 0.091 0.089 0.069 0.065 0.078 0.079 0.019 0.027 0.345 1.887 1.278 0.271 0.741 1.380 1.745
0.000 0.000 0.000 0.000 0.000 0.000 0.000 0.000 0.000 0.000 0.000 0.000 0.000 0.000 0.000 0.000 0.000 0.000 0.000 0.000 0.000 0.000 0.000 0.000 0.000 0.000 0.000 0.000 0.000 0.000 0.000 0.000 0.002 0.640 1.468 1.537 1.148 0.034 0.020 0.052 0.090 0.062 0.083 0.061 0.084 0.092 0.348 0.083 0.865 0.577 1.340 1.924
0.000 0.000 0.000 0.000 0.000 0.000 0.000 0.000 0.000 0.000 0.000 0.000 0.000 0.000 0.000 0.000 0.000 0.000 0.000 0.000 0.000 0.000 0.000 0.000 0.000 0.000 0.000 0.000 0.000 0.000 0.000 0.000 0.000 0.040 0.753 1.375 1.281 0.355 0.074 0.029 0.059 0.088 0.086 0.086 0.076 0.052 0.794 1.626 1.627 1.145 1.531 1.724
0.000 0.000 0.000 0.000 0.000 0.000 0.000 0.000 0.000 0.000 0.000 0.000 0.000 0.000 0.000 0.000 0.000 0.000 0.000 0.000 0.000 0.000 0.000 0.000 0.000 0.000 0.000 0.000 0.000 0.000 0.000 0.000 0.000 0.000 0.094 1.096 1.151 0.963 0.090 0.057 0.068 0.037 0.090 0.093 0.074 0.281 1.201 2.032 1.742 0.863 0.899 0.962
0.000 0.000 0.000 0.000 0.000 0.000 0.000 0.000 0.000 0.000 0.000 0.000 0.000 0.000 0.000 0.000 0.000 0.000 0.000 0.000 0.000 0.000 0.000 0.000 0.000 0.000 0.000 0.000 0.000 0.000 0.000 0.000 0.000 0.000 0.016 0.931 1.166 0.933 0.270 0.096 0.556 0.098 0.046 0.019 0.098 0.092 1.658 1.707 1.480 0.809 0.228 0.953
0.000 0.000 0.000 0.000 0.000 0.000 0.000 0.000 0.000 0.000 0.000 0.000 0.000 0.000 0.000 0.000 0.000 0.000 0.000 0.000 0.000 0.000 0.000 0.000 0.000 0.000 0.000 0.000 0.000 0.000 0.000 0.000 0.000 0.000 0.001 0.353 1.158 1.184 1.402 0.091 1.321 0.095 0.054 0.080 0.099 0.295 1.053 1.427 1.397 0.092 0.218 0.422
0.000 0.000 0.000 0.000 0.000 0.000 0.000 0.000 0.000 0.000 0.000 0.000 0.000 0.000 0.000 0.000 0.000 0.000 0.000 0.000 0.000 0.000 0.000 0.000 0.000 0.000 0.000 0.000 0.000 0.000 0.000 0.000 0.000 0.000 0.000 0.099 1.075 1.512 1.399 1.616 1.561 0.887 0.049 0.087 0.098 0.073 0.583 1.265 0.076 0.082 0.087 0.094
0.000 0.000 0.000 0.000 0.000 0.000 0.000 0.000 0.000 0.000 0.000 0.000 0.000 0.000 0.000 0.000 0.000 0.000 0.000 0.000 0.000 0.000 0.000 0.000 0.000 0.000 0.000 0.000 0.000 0.000 0.000 0.000 0.000 0.000 0.000 0.196 0.618 1.255 1.067 1.573 0.323 0.291 0.023 0.011 0.060 0.499 1.346 0.893 0.103 0.073 0.083 0.085
0.000 0.000 0.000 0.000 0.000 0.000 0.000 0.000 0.000 0.000 0.000 0.000 0.000 0.000 0.000 0.000 0.000 0.000 0.000 0.000 0.000 0.000 0.000 0.000 0.000 0.000 0.000 0.000 0.000 0.000 0.000 0.000 0.000 0.000 0.000 0.001 0.376 0.088 1.387 1.181 0.056 0.068 0.092 0.036 0.053 1.020 1.604 0.790 0.734 0.067 0.053 0.051
0.000 0.000 0.000 0.000 0.000 0.000 0.000 0.000 0.000 0.000 0.000 0.000 0.000 0.000 0.000 0.000 0.000 0.000 0.000 0.000 0.000 0.000 0.000 0.000 0.000 0.000 0.000 0.000 0.000 0.000 0.000 0.000 0.000 0.000 0.000 0.001 0.043 0.673 1.380 1.170 0.084 0.093 0.012 0.064 0.658 0.848 1.629 1.548 1.244 0.043 0.069 0.077
0.000 0.000 0.000 0.000 0.000 0.000 0.000 0.000 0.000 0.000 0.000 0.000 0.000 0.000 0.000 0.000 0.000 0.000 0.000 0.000 0.000 0.000 0.000 0.000 0.000 0.000 0.000 0.000 0.000 0.000 0.000 0.000 0.000 0.000 0.000 0.000 0.024 0.690 1.097 1.108 0.089 0.036 0.291 0.584 1.449 1.451 2.184 1.892 0.088 0.218 0.062 0.036
0.000 0.000 0.000 0.000 0.000 0.000 0.000 0.000 0.000 0.000 0.000 0.000 0.000 0.000 0.000 0.000 0.000 0.000 0.000 0.000 0.000 0.000 0.000 0.000 0.000 0.000 0.000 0.000 0.000 0.000 0.000 0.000 0.000 0.000 0.000 0.000 0.001 0.443 0.442 1.009 0.099 0.254 2.918 2.873 2.924 3.006 2.320 1.090 0.095 0.067 0.066 0.059
0.000 0.000 0.000 0.000 0.000 0.000 0.000 0.000 0.000 0.000 0.000 0.000 0.000 0.000 0.000 0.000 0.000 0.000 0.000 0.000 0.000 0.000 0.000 0.000 0.000 0.000 0.000 0.000 0.000 0.000 0.000 0.000 0.000 0.000 0.000 0.000 0.000 0.050 0.518 0.188 0.097 1.480 2.794 3.694 3.517 3.262 2.001 1.123 0.098 0.089 0.057 0.051
0.000 0.000 0.000 0.000 0.000 0.000 0.000 0.000 0.000 0.000 0.000 0.000 0.000 0.000 0.000 0.000 0.000 0.000 0.000 0.000 0.000 0.000 0.000 0.000 0.000 0.000 0.000 0.000 0.000 0.000 0.000 0.000 0.000 0.000 0.000 0.000 0.000 0.000 0.320 0.247 0.324 1.826 2.322 3.074 3.040 2.420 2.038 0.989 0.212 0.154 0.064 0.053
0.000 0.000 0.000 0.000 0.000 0.000 0.000 0.000 0.000 0.000 0.000 0.000 0.000 0.000 0.000 0.000 0.000 0.000 0.000 0.000 0.000 0.000 0.000 0.000 0.000 0.000 0.000 0.000 0.000 0.000 0.000 0.000 0.000 0.000 0.000 0.000 0.000 0.000 0.027 0.081 1.456 1.712 1.760 2.402 2.092 2.254 2.777 2.352 1.923 0.624 0.075 0.077
0.000 0.000 0.000 0.000 0.000 0.000 0.000 0.000 0.000 0.000 0.000 0.000 0.000 0.000 0.000 0.000 0.000 0.000 0.000 0.000 0.000 0.000 0.000 0.000 0.000 0.000 0.000 0.000 0.000 0.000 0.000 0.000 0.000 0.000 0.000 0.000 0.000 0.000 0.060 1.063 1.544 1.546 1.513 1.635 1.129 1.639 2.990 2.895 2.639 1.573 0.284 0.089
0.000 0.000 0.000 0.000 0.000 0.000 0.000 0.000 0.000 0.000 0.000 0.000 0.000 0.000 0.000 0.000 0.000 0.000 0.000 0.000 0.000 0.000 0.000 0.000 0.000 0.000 0.000 0.000 0.000 0.000 0.000 0.000 0.000 0.000 0.000 0.000 0.000 0.000 0.158 0.956 1.271 1.286 1.315 1.476 0.220 0.379 2.149 2.374 2.469 2.072 0.846 0.128
0.000 0.000 0.000 0.000 0.000 0.000 0.000 0.000 0.000 0.000 0.000 0.000 0.000 0.000 0.000 0.000 0.000 0.000 0.000 0.000 0.000 0.000 0.000 0.000 0.000 0.000 0.000 0.000 0.000 0.000 0.000 0.000 0.000 0.000 0.000 0.000 0.000 0.000 0.001 0.070 0.550 1.093 1.248 1.377 0.503 0.282 1.736 2.038 2.156 2.049 1.646 0.742
0.000 0.000 0.000 0.000 0.000 0.000 0.000 0.000 0.000 0.000 0.000 0.000 0.000 0.000 0.000 0.000 0.000 0.000 0.000 0.000 0.000 0.000 0.000 0.000 0.000 0.000 0.000 0.000 0.000 0.000 0.000 0.000 0.000 0.000 0.000 0.000 0.000 0.000 0.000 0.001 0.040 0.860 1.066 0.979 0.695 1.661 2.029 2.239 1.955 1.763 2.048 1.110
0.000 0.000 0.000 0.000 0.000 0.000 0.000 0.000 0.000 0.000 0.000 0.000 0.000 0.000 0.000 0.000 0.000 0.000 0.000 0.000 0.000 0.000 0.000 0.000 0.000 0.000 0.000 0.000 0.000 0.000 0.000 0.000 0.000 0.000 0.000 0.000 0.000 0.000 0.000 0.000 0.001 0.199 0.724 0.093 1.421 2.468 2.428 2.029 1.948 1.633 1.985 1.069
0.000 0.000 0.000 0.000 0.000 0.000 0.000 0.000 0.000 0.000 0.000 0.000 0.000 0.000 0.000 0.000 0.000 0.000 0.000 0.000 0.000 0.000 0.000 0.000 0.000 0.000 0.000 0.000 0.000 0.000 0.000 0.000 0.000 0.000 0.000 0.000 0.000 0.000 0.000 0.000 0.000 0.004 0.835 1.096 1.694 2.386 2.422 2.025 1.957 1.628 1.491 1.135
0.000 0.000 0.000 0.000 0.000 0.000 0.000 0.000 0.000 0.000 0.000 0.000 0.000 0.000 0.000 0.000 0.000 0.000 0.000 0.000 0.000 0.000 0.000 0.000 0.000 0.000 0.000 0.000 0.000 0.000 0.000 0.000 0.000 0.000 0.000 0.000 0.000 0.000 0.000 0.000 0.000 0.000 0.708 1.225 1.597 1.929 2.407 2.433 2.053 2.010 1.152 1.011
0.000 0.000 0.000 0.000 0.000 0.000 0.000 0.000 0.000 0.000 0.000 0.000 0.000 0.000 0.000 0.000 0.000 0.000 0.000 0.000 0.000 0.000 0.000 0.000 0.000 0.000 0.000 0.000 0.000 0.000 0.000 0.000 0.000 0.000 0.000 0.000 0.000 0.000 0.000 0.000 0.000 0.001 0.332 1.373 1.518 1.546 2.123 2.661 2.058 1.668 1.003 1.041
