ncols        44
nrows        116
xllcorner    409592.8
yllcorner    6870849.1
cellsize     5.00
NODATA_value -9999
0.000 0.000 0.175 2.813 8.962 11.677 9.458 1.928 0.008 0.000 0.000 0.000 0.000 0.000 0.000 0.000 0.000 0.000 0.000 0.000 0.000 0.000 0.000 0.000 0.000 0.000 0.000 0.000 0.000 0.000 0.000 0.000 0.000 0.000 0.000 0.000 0.000 0.000 0.000 0.000 0.000 0.000 0.000 0.000
0.000 1.139 10.753 19.307 19.152 18.310 20.095 19.972 4.806 0.000 0.000 0.000 0.000 0.000 0.000 0.000 0.000 0.000 0.000 0.000 0.000 0.000 0.000 0.000 0.000 0.000 0.000 0.000 0.000 0.000 0.000 0.000 0.000 0.000 0.000 0.000 0.000 0.000 0.000 0.000 0.000 0.000 0.000 0.000
0.985 12.907 18.355 19.880 19.645 19.815 21.869 19.518 17.930 1.613 0.000 0.000 0.000 0.000 0.000 0.000 0.000 0.000 0.000 0.000 0.000 0.000 0.000 0.000 0.000 0.000 0.000 0.000 0.000 0.000 0.000 0.000 0.000 0.000 0.000 0.000 0.000 0.000 0.000 0.000 0.000 0.000 0.000 0.000
5.392 18.730 19.873 20.315 20.372 20.934 21.736 20.400 18.544 14.165 0.037 0.000 0.000 0.000 0.000 0.000 0.000 0.000 0.000 0.000 0.000 0.000 0.000 0.000 0.000 0.000 0.000 0.000 0.000 0.000 0.000 0.000 0.000 0.000 0.000 0.000 0.000 0.000 0.000 0.000 0.000 0.000 0.000 0.000
10.988 19.578 20.384 20.052 20.698 21.636 22.816 22.702 22.608 19.913 4.128 0.000 0.000 0.000 0.000 0.000 0.000 0.000 0.000 0.000 0.000 0.000 0.000 0.000 0.000 0.000 0.000 0.000 0.000 0.000 0.000 0.000 0.000 0.000 0.000 0.000 0.000 0.000 0.000 0.000 0.000 0.000 0.000 0.000
13.891 19.370 21.295 22.915 21.083 22.743 24.101 24.979 22.921 19.258 12.779 0.000 0.000 0.000 0.000 0.000 0.000 0.000 0.000 0.000 0.000 0.000 0.000 0.000 0.000 0.000 0.000 0.000 0.000 0.000 0.000 0.000 0.000 0.000 0.000 0.000 0.000 0.000 0.000 0.000 0.000 0.000 0.000 0.000
15.091 19.817 22.207 22.495 21.428 23.036 24.995 24.193 23.098 19.929 16.130 0.609 0.000 0.000 0.000 0.000 0.000 0.000 0.000 0.000 0.000 0.000 0.000 0.000 0.000 0.000 0.000 0.000 0.000 0.000 0.000 0.000 0.000 0.000 0.000 0.000 0.000 0.000 0.000 0.000 0.000 0.000 0.000 0.000
16.678 21.238 22.420 22.484 22.516 23.989 23.417 22.527 22.156 19.889 16.868 6.935 0.000 0.000 0.000 0.000 0.000 0.000 0.000 0.000 0.000 0.000 0.000 0.000 0.000 0.000 0.000 0.000 0.000 0.000 0.000 0.000 0.000 0.000 0.000 0.000 0.000 0.000 0.000 0.000 0.000 0.000 0.000 0.000
15.542 21.469 22.062 23.267 22.711 20.670 22.424 21.644 21.956 21.159 17.906 12.998 0.042 0.000 0.000 0.000 0.000 0.000 0.000 0.000 0.000 0.000 0.000 0.000 0.000 0.000 0.000 0.000 0.000 0.000 0.000 0.000 0.000 0.000 0.000 0.000 0.000 0.000 0.000 0.000 0.000 0.000 0.000 0.000
14.416 21.125 22.993 23.216 22.252 21.910 21.023 22.445 21.764 20.716 20.082 16.629 2.977 0.000 0.000 0.000 0.000 0.000 0.000 0.000 0.000 0.000 0.000 0.000 0.000 0.000 0.000 0.000 0.000 0.000 0.000 0.000 0.000 0.000 0.000 0.000 0.000 0.000 0.000 0.000 0.000 0.000 0.000 0.000
12.137 21.335 24.816 24.581 23.200 22.346 20.000 20.349 21.878 22.981 20.897 17.136 9.736 0.029 0.000 0.000 0.000 0.000 0.000 0.000 0.000 0.000 0.000 0.000 0.000 0.000 0.000 0.000 0.000 0.000 0.000 0.000 0.000 0.000 0.000 0.000 0.000 0.000 0.000 0.000 0.000 0.000 0.000 0.000
8.537 20.083 24.219 26.844 27.527 22.598 19.426 19.029 21.497 20.475 20.972 18.556 14.064 2.564 0.000 0.000 0.000 0.000 0.000 0.000 0.000 0.000 0.000 0.000 0.000 0.000 0.000 0.000 0.000 0.000 0.000 0.000 0.000 0.000 0.000 0.000 0.000 0.000 0.000 0.000 0.000 0.000 0.000 0.000
4.566 18.882 22.549 26.558 28.375 27.582 24.000 22.839 21.523 19.815 23.459 19.354 14.672 8.836 0.030 0.000 0.000 0.000 0.000 0.000 0.000 0.000 0.000 0.000 0.000 0.000 0.000 0.000 0.000 0.000 0.000 0.000 0.000 0.000 0.000 0.000 0.000 0.000 0.000 0.000 0.000 0.000 0.000 0.000
1.753 14.671 21.009 25.340 27.103 27.648 26.706 27.479 25.882 24.281 22.646 20.681 16.273 11.594 2.311 0.000 0.000 0.000 0.000 0.000 0.000 0.000 0.000 0.000 0.000 0.000 0.000 0.000 0.000 0.000 0.000 0.000 0.000 0.000 0.000 0.000 0.000 0.000 0.000 0.000 0.000 0.000 0.000 0.000
0.479 10.127 19.122 22.815 24.901 27.535 28.481 27.453 25.564 25.338 24.312 21.293 17.558 12.042 7.247 0.000 0.000 0.000 0.000 0.000 0.000 0.000 0.000 0.000 0.000 0.000 0.000 0.000 0.000 0.000 0.000 0.000 0.000 0.000 0.000 0.000 0.000 0.000 0.000 0.000 0.000 0.000 0.000 0.000
0.065 5.182 17.345 21.761 24.231 26.264 27.144 26.574 25.690 25.556 24.078 21.836 18.148 13.229 9.631 0.000 0.000 0.000 0.000 0.000 0.000 0.000 0.000 0.000 0.000 0.000 0.000 0.000 0.000 0.000 0.000 0.000 0.000 0.000 0.000 0.000 0.000 0.000 0.000 0.000 0.000 0.000 0.000 0.000
0.004 1.885 13.019 19.480 23.628 25.936 25.500 26.311 27.375 25.968 26.198 24.634 20.420 12.777 11.178 0.056 0.000 0.000 0.000 0.000 0.000 0.000 0.000 0.000 0.000 0.000 0.000 0.000 0.000 0.000 0.000 0.000 0.000 0.000 0.000 0.000 0.000 0.000 0.000 0.000 0.000 0.000 0.000 0.000
0.000 0.473 8.462 18.181 22.613 24.389 26.056 24.689 25.456 23.931 26.178 22.697 20.266 15.745 14.143 2.416 0.000 0.000 0.000 0.000 0.000 0.000 0.000 0.000 0.000 0.000 0.000 0.000 0.000 0.000 0.000 0.000 0.000 0.000 0.000 0.000 0.000 0.000 0.000 0.000 0.000 0.000 0.000 0.000
0.000 0.056 3.867 14.445 21.184 24.520 24.482 25.089 25.972 25.517 24.590 22.225 20.380 17.316 13.994 6.253 0.000 0.000 0.000 0.000 0.000 0.000 0.000 0.000 0.000 0.000 0.000 0.000 0.000 0.000 0.000 0.000 0.000 0.000 0.000 0.000 0.000 0.000 0.000 0.000 0.000 0.000 0.000 0.000
0.000 0.002 1.118 9.824 18.669 21.840 23.026 24.956 23.793 24.251 23.462 22.632 20.040 16.956 14.246 7.883 0.000 0.000 0.000 0.000 0.000 0.000 0.000 0.000 0.000 0.000 0.000 0.000 0.000 0.000 0.000 0.000 0.000 0.000 0.000 0.000 0.000 0.000 0.000 0.000 0.000 0.000 0.000 0.000
0.000 0.000 0.210 5.366 14.397 19.125 24.006 22.828 25.142 24.780 22.528 21.813 19.017 19.112 14.764 8.782 0.000 0.000 0.000 0.000 0.000 0.000 0.000 0.000 0.000 0.000 0.000 0.000 0.000 0.000 0.000 0.000 0.000 0.000 0.000 0.000 0.000 0.000 0.000 0.000 0.000 0.000 0.000 0.000
0.000 0.000 0.022 2.352 11.350 17.575 22.023 23.357 23.201 24.257 23.266 20.028 19.121 18.906 15.327 9.860 0.000 0.000 0.000 0.000 0.000 0.000 0.000 0.000 0.000 0.000 0.000 0.000 0.000 0.000 0.000 0.000 0.000 0.000 0.000 0.000 0.000 0.000 0.000 0.000 0.000 0.000 0.000 0.000
0.000 0.000 0.002 1.026 7.874 13.221 18.619 21.597 22.727 23.814 21.695 19.658 18.975 21.612 15.784 10.349 0.000 0.000 0.000 0.000 0.000 0.000 0.000 0.000 0.000 0.000 0.000 0.000 0.000 0.000 0.000 0.000 0.000 0.000 0.000 0.000 0.000 0.000 0.000 0.000 0.000 0.000 0.000 0.000
0.000 0.000 0.001 0.753 6.761 10.964 15.731 20.705 22.531 22.498 20.649 18.468 21.376 20.851 16.251 11.520 0.012 0.000 0.000 0.000 0.000 0.000 0.000 0.000 0.000 0.000 0.000 0.000 0.000 0.000 0.000 0.000 0.000 0.000 0.000 0.000 0.000 0.000 0.000 0.000 0.000 0.000 0.000 0.000
0.000 0.000 0.001 0.836 6.419 10.118 12.250 18.348 20.087 20.975 19.341 18.425 23.100 20.949 17.242 10.603 0.939 0.000 0.000 0.000 0.000 0.000 0.000 0.000 0.000 0.000 0.000 0.000 0.000 0.000 0.000 0.000 0.000 0.000 0.000 0.000 0.000 0.000 0.000 0.000 0.000 0.000 0.000 0.000
0.000 0.000 0.001 0.734 6.195 8.993 9.503 14.732 19.560 19.803 19.140 21.895 23.209 21.027 17.819 10.846 3.744 0.000 0.000 0.000 0.000 0.000 0.000 0.000 0.000 0.000 0.000 0.000 0.000 0.000 0.000 0.000 0.000 0.000 0.000 0.000 0.000 0.000 0.000 0.000 0.000 0.000 0.000 0.000
0.000 0.000 0.000 0.507 5.572 8.202 9.041 13.507 19.387 21.091 21.642 22.205 23.282 20.481 16.968 11.659 5.943 0.000 0.000 0.000 0.000 0.000 0.000 0.000 0.000 0.000 0.000 0.000 0.000 0.000 0.000 0.000 0.000 0.000 0.000 0.000 0.000 0.000 0.000 0.000 0.000 0.000 0.000 0.000
0.000 0.000 0.000 0.312 4.629 7.964 8.050 12.113 17.926 20.020 21.135 20.259 22.173 19.313 17.348 13.238 7.372 0.336 0.000 0.000 0.000 0.000 0.000 0.000 0.000 0.000 0.000 0.000 0.000 0.000 0.000 0.000 0.000 0.000 0.000 0.000 0.000 0.000 0.000 0.000 0.000 0.000 0.000 0.000
0.000 0.000 0.000 0.149 3.473 6.793 7.448 10.643 13.965 19.181 20.543 19.647 21.004 19.636 18.234 14.016 7.975 3.571 0.011 0.000 0.000 0.000 0.000 0.000 0.000 0.000 0.000 0.000 0.000 0.000 0.000 0.000 0.000 0.000 0.000 0.000 0.000 0.000 0.000 0.000 0.000 0.000 0.000 0.000
0.000 0.000 0.000 0.080 2.916 6.768 7.493 10.009 11.498 18.334 19.240 20.222 19.873 19.816 19.024 14.799 9.266 7.399 1.644 0.034 0.000 0.000 0.000 0.000 0.000 0.000 0.000 0.000 0.000 0.000 0.000 0.000 0.000 0.000 0.000 0.000 0.000 0.000 0.000 0.000 0.000 0.000 0.000 0.000
0.000 0.000 0.000 0.058 2.538 6.476 7.001 8.832 10.623 16.782 17.968 19.015 19.929 20.215 19.635 15.533 10.623 9.546 6.275 2.417 0.084 0.000 0.000 0.000 0.000 0.000 0.000 0.000 0.000 0.000 0.000 0.000 0.000 0.000 0.000 0.000 0.000 0.000 0.000 0.000 0.000 0.000 0.000 0.000
0.000 0.000 0.000 0.011 1.709 5.574 6.724 8.242 10.675 14.710 17.657 18.522 20.421 20.524 20.346 16.321 11.975 10.238 8.392 6.930 2.535 0.000 0.000 0.000 0.000 0.000 0.000 0.000 0.000 0.000 0.000 0.000 0.000 0.000 0.000 0.000 0.000 0.000 0.000 0.000 0.000 0.000 0.000 0.000
0.000 0.000 0.000 0.002 0.976 5.304 6.521 7.918 10.847 14.066 17.970 19.267 19.710 21.282 20.593 18.403 13.733 10.023 8.587 7.681 5.969 0.249 0.000 0.000 0.000 0.000 0.000 0.000 0.000 0.000 0.000 0.000 0.000 0.000 0.000 0.000 0.000 0.000 0.000 0.000 0.000 0.000 0.000 0.000
0.000 0.000 0.000 0.002 0.744 4.853 6.118 7.648 10.601 15.296 18.192 21.264 22.880 22.707 21.251 19.260 13.473 9.112 8.607 8.252 8.010 2.909 0.018 0.000 0.000 0.000 0.000 0.000 0.000 0.000 0.000 0.000 0.000 0.000 0.000 0.000 0.000 0.000 0.000 0.000 0.000 0.000 0.000 0.000
0.000 0.000 0.000 0.000 0.797 4.735 5.796 6.999 9.315 13.682 17.193 20.054 21.216 20.720 20.629 19.349 13.719 9.209 8.211 8.952 8.574 5.004 1.155 0.000 0.000 0.000 0.000 0.000 0.000 0.000 0.000 0.000 0.000 0.000 0.000 0.000 0.000 0.000 0.000 0.000 0.000 0.000 0.000 0.000
0.000 0.000 0.000 0.001 0.487 4.550 5.301 6.840 9.131 13.985 16.521 21.323 22.460 18.980 21.743 18.122 14.645 9.648 8.880 9.001 7.723 6.415 4.984 0.110 0.000 0.000 0.000 0.000 0.000 0.000 0.000 0.000 0.000 0.000 0.000 0.000 0.000 0.000 0.000 0.000 0.000 0.000 0.000 0.000
0.000 0.000 0.000 0.000 0.112 3.548 4.956 6.718 8.557 12.931 15.020 18.251 21.416 21.096 20.379 18.140 15.149 10.441 9.063 8.564 8.683 8.527 8.296 2.085 0.000 0.000 0.000 0.000 0.000 0.000 0.000 0.000 0.000 0.000 0.000 0.000 0.000 0.000 0.000 0.000 0.000 0.000 0.000 0.000
0.000 0.000 0.000 0.000 0.051 3.116 4.669 6.080 7.319 12.009 14.565 16.514 19.765 19.884 19.610 18.261 15.674 11.564 8.945 8.902 9.300 9.632 9.162 4.690 0.090 0.000 0.000 0.000 0.000 0.000 0.000 0.000 0.000 0.000 0.000 0.000 0.000 0.000 0.000 0.000 0.000 0.000 0.000 0.000
0.000 0.000 0.000 0.000 0.099 3.230 5.238 5.765 7.023 9.923 12.454 15.675 19.717 20.764 20.193 18.610 16.122 12.665 9.432 9.101 8.977 10.022 8.009 6.228 1.171 0.133 0.000 0.000 0.000 0.000 0.000 0.000 0.000 0.000 0.000 0.000 0.000 0.000 0.000 0.000 0.000 0.000 0.000 0.000
0.000 0.000 0.000 0.000 0.466 3.526 5.333 5.769 6.397 9.447 11.997 14.415 18.132 21.018 19.857 19.615 16.703 13.292 10.561 9.038 9.634 10.942 8.764 7.224 4.007 1.789 0.000 0.000 0.000 0.000 0.000 0.000 0.000 0.000 0.000 0.000 0.000 0.000 0.000 0.000 0.000 0.000 0.000 0.000
0.000 0.000 0.000 0.000 0.451 3.429 4.864 5.766 6.452 8.665 11.434 14.629 18.013 21.765 21.174 18.864 17.128 14.369 11.735 8.980 9.341 9.528 9.902 8.029 5.751 3.387 0.237 0.000 0.000 0.000 0.000 0.000 0.000 0.000 0.000 0.000 0.000 0.000 0.000 0.000 0.000 0.000 0.000 0.000
0.000 0.000 0.000 0.000 0.111 2.910 5.019 5.662 5.993 8.035 11.240 14.519 17.796 20.712 21.591 19.263 16.943 15.212 13.038 9.815 9.223 8.976 9.681 7.742 6.931 4.645 2.016 0.000 0.000 0.000 0.000 0.000 0.000 0.000 0.000 0.000 0.000 0.000 0.000 0.000 0.000 0.000 0.000 0.000
0.000 0.000 0.000 0.000 0.062 2.247 4.749 5.175 5.529 7.414 10.543 13.377 17.498 20.214 21.827 21.442 19.615 16.230 14.406 10.471 9.616 9.755 9.748 8.394 7.459 5.616 3.537 0.039 0.000 0.000 0.000 0.000 0.000 0.000 0.000 0.000 0.000 0.000 0.000 0.000 0.000 0.000 0.000 0.000
0.000 0.000 0.000 0.000 0.001 1.274 4.574 5.344 5.844 7.136 9.776 12.934 16.843 20.295 20.676 21.477 21.137 18.068 14.822 11.874 9.698 9.362 8.571 8.974 8.373 6.639 4.962 1.018 0.000 0.000 0.000 0.000 0.000 0.000 0.000 0.000 0.000 0.000 0.000 0.000 0.000 0.000 0.000 0.000
0.000 0.000 0.000 0.000 0.009 1.217 4.222 5.364 6.060 6.452 8.473 12.239 16.188 20.521 21.244 21.490 22.116 20.990 15.954 12.288 9.678 9.530 9.289 9.290 9.251 7.800 5.888 2.729 0.006 0.000 0.000 0.000 0.000 0.000 0.000 0.000 0.000 0.000 0.000 0.000 0.000 0.000 0.000 0.000
0.000 0.000 0.000 0.000 0.003 0.970 3.515 5.037 5.549 6.253 7.930 11.089 15.745 19.352 21.987 22.201 21.768 19.806 15.774 11.448 10.016 9.290 9.699 10.063 9.536 8.958 6.694 4.971 0.655 0.000 0.000 0.000 0.000 0.000 0.000 0.000 0.000 0.000 0.000 0.000 0.000 0.000 0.000 0.000
0.000 0.000 0.000 0.000 0.011 0.900 3.268 4.685 4.909 5.600 7.247 9.766 14.718 18.956 21.905 21.827 21.941 21.803 18.552 13.161 11.188 9.477 10.124 10.427 10.848 9.282 8.591 6.676 2.746 0.004 0.000 0.000 0.000 0.000 0.000 0.000 0.000 0.000 0.000 0.000 0.000 0.000 0.000 0.000
0.000 0.000 0.000 0.000 0.003 0.557 2.900 4.265 4.922 5.543 6.822 9.182 13.491 17.582 20.230 20.206 22.070 20.870 18.467 15.317 11.787 10.501 10.510 10.903 10.697 10.188 9.909 7.246 4.035 0.466 0.000 0.000 0.000 0.000 0.000 0.000 0.000 0.000 0.000 0.000 0.000 0.000 0.000 0.000
0.000 0.000 0.000 0.000 0.001 0.252 2.574 4.134 4.819 5.497 6.807 8.444 11.482 16.631 19.723 21.218 22.045 19.684 18.968 14.332 12.831 12.070 10.900 10.524 10.534 10.882 10.254 7.184 5.578 2.509 0.000 0.000 0.000 0.000 0.000 0.000 0.000 0.000 0.000 0.000 0.000 0.000 0.000 0.000
0.000 0.000 0.000 0.000 0.000 0.016 1.605 3.971 4.504 5.050 5.916 7.761 10.272 16.242 21.144 21.499 20.542 21.142 17.692 14.826 13.796 10.812 9.468 9.481 10.632 11.692 9.735 7.851 6.947 4.153 0.034 0.000 0.000 0.000 0.000 0.000 0.000 0.000 0.000 0.000 0.000 0.000 0.000 0.000
0.000 0.000 0.000 0.000 0.000 0.009 0.885 3.810 4.422 5.317 6.220 6.913 9.789 16.330 19.744 19.404 21.639 19.626 17.213 15.840 12.721 10.155 9.502 9.951 11.348 10.504 9.754 9.647 8.577 5.057 1.094 0.000 0.000 0.000 0.000 0.000 0.000 0.000 0.000 0.000 0.000 0.000 0.000 0.000
0.000 0.000 0.000 0.000 0.000 0.018 1.221 3.922 4.687 5.179 5.703 7.728 9.331 15.172 17.814 20.174 20.506 19.532 19.169 16.623 14.392 12.147 10.632 10.948 10.636 10.070 11.101 10.071 8.179 6.456 3.082 0.001 0.000 0.000 0.000 0.000 0.000 0.000 0.000 0.000 0.000 0.000 0.000 0.000
0.000 0.000 0.000 0.000 0.000 0.017 1.041 3.714 4.624 4.401 5.808 7.033 6.095 12.632 16.946 18.511 19.900 20.967 19.539 16.641 14.888 13.321 12.280 10.514 10.665 10.857 10.636 10.100 8.611 7.584 4.598 0.374 0.000 0.000 0.000 0.000 0.000 0.000 0.000 0.000 0.000 0.000 0.000 0.000
0.000 0.000 0.000 0.000 0.000 0.001 0.321 2.976 4.563 4.482 5.089 4.835 6.123 10.770 16.290 18.653 20.486 21.274 20.449 18.113 15.803 15.272 12.893 11.056 11.142 10.447 9.916 9.931 9.163 8.613 6.987 2.714 0.000 0.000 0.000 0.000 0.000 0.000 0.000 0.000 0.000 0.000 0.000 0.000
0.000 0.000 0.000 0.000 0.000 0.000 0.110 2.267 4.504 4.717 4.583 4.561 5.831 10.277 15.090 18.678 19.706 20.613 20.009 16.857 16.957 16.255 12.164 11.570 10.177 8.246 9.354 10.012 10.484 10.315 8.372 4.562 0.000 0.000 0.000 0.000 0.000 0.000 0.000 0.000 0.000 0.000 0.000 0.000
0.000 0.000 0.000 0.000 0.000 0.000 0.001 0.161 3.953 4.630 4.123 4.310 6.578 10.073 14.652 18.792 20.723 20.277 18.641 16.757 17.729 16.161 13.821 12.292 9.690 8.092 8.888 10.367 11.060 10.717 9.385 6.294 0.043 0.000 0.000 0.000 0.000 0.000 0.000 0.000 0.000 0.000 0.000 0.000
0.000 0.000 0.000 0.000 0.000 0.000 0.000 0.269 2.409 4.047 3.320 4.579 6.493 9.374 13.475 17.247 18.820 19.120 18.066 18.318 19.198 16.500 14.215 11.582 8.918 8.350 9.330 10.418 10.656 10.734 9.928 7.626 1.529 0.004 0.000 0.000 0.000 0.000 0.000 0.000 0.000 0.000 0.000 0.000
0.000 0.000 0.000 0.000 0.000 0.000 0.000 0.000 1.721 2.807 3.615 4.930 5.875 8.013 11.855 16.334 16.957 19.210 17.926 19.593 18.284 16.615 15.193 12.640 10.357 8.623 9.057 9.892 10.555 11.329 11.234 8.065 3.438 0.079 0.000 0.000 0.000 0.000 0.000 0.000 0.000 0.000 0.000 0.000
0.000 0.000 0.000 0.000 0.000 0.000 0.000 0.000 0.359 2.798 4.016 4.944 5.692 7.088 10.110 14.223 17.034 17.730 19.247 19.292 19.270 17.093 16.286 13.393 9.890 7.926 7.796 8.256 9.948 10.726 10.551 6.719 3.157 0.190 0.000 0.000 0.000 0.000 0.000 0.000 0.000 0.000 0.000 0.000
0.000 0.000 0.000 0.000 0.000 0.000 0.000 0.000 0.126 1.892 3.932 4.772 5.369 5.681 9.111 13.054 16.784 18.385 18.201 19.844 18.733 17.366 16.039 12.660 9.678 7.248 6.923 7.561 9.009 9.682 9.269 7.209 3.934 0.000 0.000 0.000 0.000 0.000 0.000 0.000 0.000 0.000 0.000 0.000
0.000 0.000 0.000 0.000 0.000 0.000 0.000 0.000 0.024 0.877 2.983 4.479 4.504 5.069 7.419 11.460 15.500 17.001 17.995 17.914 17.737 17.062 14.166 11.234 9.268 7.534 6.642 7.103 7.517 8.739 9.712 8.364 4.465 0.005 0.000 0.000 0.000 0.000 0.000 0.000 0.000 0.000 0.000 0.000
0.000 0.000 0.000 0.000 0.000 0.000 0.000 0.000 0.001 0.278 1.972 3.736 4.235 4.722 5.923 9.013 12.630 15.214 17.201 17.084 15.959 15.639 12.975 11.633 11.068 7.763 6.906 6.706 6.158 7.820 9.997 7.991 5.016 0.328 0.000 0.000 0.000 0.000 0.000 0.000 0.000 0.000 0.000 0.000
0.000 0.000 0.000 0.000 0.000 0.000 0.000 0.000 0.000 0.034 0.923 3.225 3.907 4.195 5.007 7.843 11.335 14.418 15.882 16.118 16.449 15.535 13.682 12.821 11.275 8.233 7.505 6.494 6.334 7.692 9.413 8.289 5.500 1.844 0.000 0.000 0.000 0.000 0.000 0.000 0.000 0.000 0.000 0.000
0.000 0.000 0.000 0.000 0.000 0.000 0.000 0.000 0.000 0.001 0.260 2.554 3.626 3.922 4.629 5.647 8.978 12.361 13.484 14.710 14.840 14.652 13.962 14.193 11.557 9.439 7.623 7.077 6.804 6.711 9.648 8.652 5.691 2.868 0.000 0.000 0.000 0.000 0.000 0.000 0.000 0.000 0.000 0.000
0.000 0.000 0.000 0.000 0.000 0.000 0.000 0.000 0.000 0.000 0.162 1.746 3.245 3.813 4.242 5.039 7.110 10.346 13.224 14.449 14.074 14.550 14.474 12.911 12.635 10.185 8.076 7.035 5.800 5.544 9.257 8.788 6.070 3.119 0.146 0.000 0.000 0.000 0.000 0.000 0.000 0.000 0.000 0.000
0.000 0.000 0.000 0.000 0.000 0.000 0.000 0.000 0.000 0.000 0.059 1.062 2.826 3.502 3.931 4.045 5.878 8.666 11.909 12.944 13.460 14.556 14.746 12.362 12.566 10.410 8.496 5.852 4.950 4.344 8.681 8.892 6.523 3.230 1.250 0.000 0.000 0.000 0.000 0.000 0.000 0.000 0.000 0.000
0.000 0.000 0.000 0.000 0.000 0.000 0.000 0.000 0.000 0.000 0.027 0.529 1.956 2.962 3.589 3.505 5.083 7.831 10.865 12.550 13.698 13.876 14.122 12.858 13.032 11.088 7.749 5.320 4.500 5.209 8.707 9.160 6.828 3.833 2.387 0.037 0.000 0.000 0.000 0.000 0.000 0.000 0.000 0.000
0.000 0.000 0.000 0.000 0.000 0.000 0.000 0.000 0.000 0.000 0.003 0.583 1.555 2.736 3.416 3.970 4.616 6.817 10.095 12.630 14.431 14.308 12.777 13.479 11.927 10.094 7.606 5.743 5.344 6.024 8.400 9.204 7.127 4.120 3.136 0.943 0.000 0.000 0.000 0.000 0.000 0.000 0.000 0.000
0.000 0.000 0.000 0.000 0.000 0.000 0.000 0.000 0.000 0.000 0.000 0.003 0.756 2.424 3.219 3.840 4.523 6.378 8.546 11.599 14.341 13.633 13.450 12.963 11.728 9.572 7.843 6.059 5.945 5.987 7.563 9.137 6.983 4.074 3.591 2.475 0.063 0.000 0.000 0.000 0.000 0.000 0.000 0.000
0.000 0.000 0.000 0.000 0.000 0.000 0.000 0.000 0.000 0.000 0.000 0.000 0.252 1.778 3.120 3.113 4.217 5.511 8.129 10.117 11.922 12.409 12.215 11.426 10.461 8.578 8.173 6.437 6.068 5.489 7.315 8.910 6.795 4.085 3.687 3.037 1.003 0.001 0.000 0.000 0.000 0.000 0.000 0.000
0.000 0.000 0.000 0.000 0.000 0.000 0.000 0.000 0.000 0.000 0.000 0.000 0.049 1.067 2.613 3.000 3.994 4.801 6.278 8.169 10.966 11.096 10.978 10.188 9.214 8.970 8.833 7.455 6.403 6.248 6.608 7.893 6.697 4.112 3.565 3.184 2.150 0.183 0.000 0.000 0.000 0.000 0.000 0.000
0.000 0.000 0.000 0.000 0.000 0.000 0.000 0.000 0.000 0.000 0.000 0.000 0.000 0.546 2.342 3.290 3.685 4.057 5.223 6.367 7.675 9.354 8.937 9.229 8.764 9.628 9.446 7.726 6.629 6.434 6.336 7.659 6.698 3.792 3.261 3.204 2.745 1.372 0.021 0.000 0.000 0.000 0.000 0.000
0.000 0.000 0.000 0.000 0.000 0.000 0.000 0.000 0.000 0.000 0.000 0.000 0.001 0.855 2.145 2.947 3.118 3.496 4.325 4.549 7.827 8.098 8.605 8.902 9.427 9.441 8.711 7.077 7.730 6.083 6.418 7.159 6.239 3.579 3.243 3.173 2.854 2.477 0.814 0.000 0.000 0.000 0.000 0.000
0.000 0.000 0.000 0.000 0.000 0.000 0.000 0.000 0.000 0.000 0.000 0.000 0.001 0.306 1.474 2.285 2.875 2.914 3.271 4.141 5.260 6.947 8.575 9.073 9.434 8.416 7.500 7.697 7.246 4.714 5.395 6.470 5.805 4.019 3.374 3.144 2.983 2.949 2.019 0.005 0.000 0.000 0.000 0.000
0.000 0.000 0.000 0.000 0.000 0.000 0.000 0.000 0.000 0.000 0.000 0.000 0.000 0.061 0.738 1.552 2.429 2.650 2.475 3.389 6.450 7.462 8.356 8.612 8.365 7.415 6.986 7.352 6.484 4.740 4.127 5.881 5.476 4.309 3.328 3.086 3.031 2.734 1.837 0.349 0.000 0.000 0.000 0.000
0.000 0.000 0.000 0.000 0.000 0.000 0.000 0.000 0.000 0.000 0.000 0.000 0.000 0.000 0.017 0.291 1.293 1.932 1.915 1.695 5.817 6.331 7.173 8.064 7.324 6.612 6.267 7.080 6.631 5.661 4.464 4.654 5.153 4.115 3.228 2.973 2.748 2.708 2.654 1.426 0.006 0.000 0.000 0.000
0.000 0.000 0.000 0.000 0.000 0.000 0.000 0.000 0.000 0.000 0.000 0.000 0.000 0.000 0.000 0.002 0.658 1.952 2.509 3.161 4.276 4.957 5.918 6.477 6.685 6.824 7.203 7.686 7.250 6.149 4.232 3.817 4.200 3.836 3.132 2.840 2.668 2.554 2.429 1.637 0.120 0.000 0.000 0.000
0.000 0.000 0.000 0.000 0.000 0.000 0.000 0.000 0.000 0.000 0.000 0.000 0.000 0.000 0.000 0.000 0.205 1.711 2.583 2.672 2.724 3.938 4.774 6.032 6.214 7.225 7.177 7.845 6.706 5.135 3.491 2.924 3.367 3.589 3.098 2.750 2.526 2.212 1.982 2.012 0.464 0.000 0.000 0.000
0.000 0.000 0.000 0.000 0.000 0.000 0.000 0.000 0.000 0.000 0.000 0.000 0.000 0.000 0.000 0.000 0.023 0.557 1.925 2.215 0.175 3.022 4.121 4.989 5.287 5.840 6.628 7.207 5.395 3.695 2.714 1.717 2.107 2.473 2.880 2.547 2.183 1.872 2.160 2.659 1.148 0.000 0.000 0.000
0.000 0.000 0.000 0.000 0.000 0.000 0.000 0.000 0.000 0.000 0.000 0.000 0.000 0.000 0.000 0.000 0.000 0.012 0.472 2.179 2.803 2.960 4.071 4.312 3.911 4.709 5.518 5.176 3.802 2.516 1.184 0.097 0.039 1.618 2.569 2.228 1.820 1.544 1.895 2.325 1.590 0.001 0.000 0.000
0.000 0.000 0.000 0.000 0.000 0.000 0.000 0.000 0.000 0.000 0.000 0.000 0.000 0.000 0.000 0.000 0.000 0.000 0.533 1.715 2.956 3.405 3.912 3.582 2.831 3.790 4.721 4.007 3.050 1.400 0.077 0.017 0.096 1.066 1.525 1.882 1.190 0.094 1.097 1.132 1.375 0.148 0.000 0.000
0.000 0.000 0.000 0.000 0.000 0.000 0.000 0.000 0.000 0.000 0.000 0.000 0.000 0.000 0.000 0.000 0.000 0.000 0.001 1.287 2.475 3.502 3.387 1.988 1.857 2.983 4.181 2.306 0.802 0.004 0.022 0.061 0.076 0.356 1.247 1.419 0.044 0.086 0.089 1.037 1.371 0.803 0.000 0.000
0.000 0.000 0.000 0.000 0.000 0.000 0.000 0.000 0.000 0.000 0.000 0.000 0.000 0.000 0.000 0.000 0.000 0.000 0.000 0.077 1.585 2.244 2.436 0.859 2.544 3.451 3.273 0.052 0.003 0.047 0.018 0.086 0.090 0.099 0.703 0.074 0.066 0.071 0.054 1.331 1.402 0.767 0.021 0.000
0.000 0.000 0.000 0.000 0.000 0.000 0.000 0.000 0.000 0.000 0.000 0.000 0.000 0.000 0.000 0.000 0.000 0.000 0.000 0.000 0.620 1.622 2.190 2.923 3.433 3.087 2.112 0.042 0.031 0.074 0.092 0.004 0.041 0.038 0.058 0.068 0.842 0.078 0.076 1.298 1.345 0.852 0.251 0.000
0.000 0.000 0.000 0.000 0.000 0.000 0.000 0.000 0.000 0.000 0.000 0.000 0.000 0.000 0.000 0.000 0.000 0.000 0.000 0.000 0.016 1.095 1.791 2.233 2.967 2.345 0.921 0.067 0.004 0.256 0.031 0.055 0.065 0.352 0.068 0.641 0.132 0.070 0.310 1.461 1.569 1.274 0.580 0.014
0.000 0.000 0.000 0.000 0.000 0.000 0.000 0.000 0.000 0.000 0.000 0.000 0.000 0.000 0.000 0.000 0.000 0.000 0.000 0.000 0.004 0.123 1.273 1.995 2.493 2.367 1.613 0.958 0.079 0.008 0.096 0.568 0.064 0.432 0.063 0.440 0.072 0.091 0.280 1.664 1.475 1.490 0.842 0.213
0.000 0.000 0.000 0.000 0.000 0.000 0.000 0.000 0.000 0.000 0.000 0.000 0.000 0.000 0.000 0.000 0.000 0.000 0.000 0.000 0.003 0.050 1.241 2.013 2.096 1.675 1.722 0.093 0.945 0.016 1.138 0.656 0.096 0.083 0.277 1.175 0.054 0.101 1.045 1.288 1.306 1.547 1.223 0.433
0.000 0.000 0.000 0.000 0.000 0.000 0.000 0.000 0.000 0.000 0.000 0.000 0.000 0.000 0.000 0.000 0.000 0.000 0.000 0.000 0.000 0.065 0.612 1.337 1.812 1.850 1.582 1.103 0.940 0.280 1.181 0.172 0.048 0.549 1.235 0.871 0.067 0.075 1.661 1.687 1.679 1.385 1.521 1.161
0.000 0.000 0.000 0.000 0.000 0.000 0.000 0.000 0.000 0.000 0.000 0.000 0.000 0.000 0.000 0.000 0.000 0.000 0.000 0.000 0.000 0.001 0.082 0.421 1.452 1.827 1.783 1.700 0.938 1.095 0.400 0.093 0.096 1.480 0.191 0.099 0.046 0.383 2.189 2.169 1.811 1.401 1.799 1.712
0.000 0.000 0.000 0.000 0.000 0.000 0.000 0.000 0.000 0.000 0.000 0.000 0.000 0.000 0.000 0.000 0.000 0.000 0.000 0.000 0.000 0.000 0.000 0.049 0.648 1.682 1.770 1.842 1.650 1.153 0.029 0.014 0.028 0.074 0.342 0.087 0.067 0.725 2.254 2.324 1.451 1.487 1.927 1.868
0.000 0.000 0.000 0.000 0.000 0.000 0.000 0.000 0.000 0.000 0.000 0.000 0.000 0.000 0.000 0.000 0.000 0.000 0.000 0.000 0.000 0.000 0.000 0.000 0.064 1.291 1.863 1.823 1.370 0.092 0.091 0.069 0.063 0.080 0.079 0.018 0.017 0.518 2.260 1.541 0.254 1.010 1.577 1.986
0.000 0.000 0.000 0.000 0.000 0.000 0.000 0.000 0.000 0.000 0.000 0.000 0.000 0.000 0.000 0.000 0.000 0.000 0.000 0.000 0.000 0.000 0.000 0.000 0.002 0.651 1.646 1.737 1.274 0.016 0.018 0.052 0.096 0.061 0.083 0.060 0.082 0.100 1.193 0.773 1.165 0.884 1.545 2.197
0.000 0.000 0.000 0.000 0.000 0.000 0.000 0.000 0.000 0.000 0.000 0.000 0.000 0.000 0.000 0.000 0.000 0.000 0.000 0.000 0.000 0.000 0.000 0.000 0.000 0.035 0.800 1.542 1.420 0.512 0.074 0.027 0.058 0.089 0.086 0.085 0.320 0.073 1.622 1.946 1.850 1.331 1.717 1.958
0.000 0.000 0.000 0.000 0.000 0.000 0.000 0.000 0.000 0.000 0.000 0.000 0.000 0.000 0.000 0.000 0.000 0.000 0.000 0.000 0.000 0.000 0.000 0.000 0.000 0.000 0.094 1.212 1.274 1.073 0.067 0.054 0.098 0.033 0.091 0.097 0.068 0.051 1.995 2.359 1.958 1.016 1.037 1.145
0.000 0.000 0.000 0.000 0.000 0.000 0.000 0.000 0.000 0.000 0.000 0.000 0.000 0.000 0.000 0.000 0.000 0.000 0.000 0.000 0.000 0.000 0.000 0.000 0.000 0.000 0.016 1.011 1.294 1.060 0.339 0.262 1.237 0.097 0.046 0.014 0.083 0.795 2.434 2.117 1.695 0.893 0.124 1.123
0.000 0.000 0.000 0.000 0.000 0.000 0.000 0.000 0.000 0.000 0.000 0.000 0.000 0.000 0.000 0.000 0.000 0.000 0.000 0.000 0.000 0.000 0.000 0.000 0.000 0.000 0.001 0.374 1.285 1.311 1.612 0.532 1.642 0.310 0.054 0.079 0.137 1.411 1.891 1.962 1.624 0.093 0.330 0.614
0.000 0.000 0.000 0.000 0.000 0.000 0.000 0.000 0.000 0.000 0.000 0.000 0.000 0.000 0.000 0.000 0.000 0.000 0.000 0.000 0.000 0.000 0.000 0.000 0.000 0.000 0.000 0.100 1.185 1.673 1.588 1.845 1.830 1.469 0.049 0.088 0.024 1.181 1.577 1.964 0.413 0.082 0.087 0.098
0.000 0.000 0.000 0.000 0.000 0.000 0.000 0.000 0.000 0.000 0.000 0.000 0.000 0.000 0.000 0.000 0.000 0.000 0.000 0.000 0.000 0.000 0.000 0.000 0.000 0.000 0.000 0.176 0.663 1.410 1.195 1.759 0.484 0.626 0.019 0.002 0.142 1.687 2.064 1.579 0.233 0.073 0.084 0.087
0.000 0.000 0.000 0.000 0.000 0.000 0.000 0.000 0.000 0.000 0.000 0.000 0.000 0.000 0.000 0.000 0.000 0.000 0.000 0.000 0.000 0.000 0.000 0.000 0.000 0.000 0.000 0.001 0.379 0.081 1.540 1.307 0.052 0.066 0.093 0.103 1.484 2.041 2.325 1.627 1.075 0.068 0.052 0.050
0.000 0.000 0.000 0.000 0.000 0.000 0.000 0.000 0.000 0.000 0.000 0.000 0.000 0.000 0.000 0.000 0.000 0.000 0.000 0.000 0.000 0.000 0.000 0.000 0.000 0.000 0.000 0.001 0.041 0.744 1.533 1.287 0.075 0.098 0.038 0.651 1.904 2.001 2.404 2.306 1.392 0.044 0.069 0.079
0.000 0.000 0.000 0.000 0.000 0.000 0.000 0.000 0.000 0.000 0.000 0.000 0.000 0.000 0.000 0.000 0.000 0.000 0.000 0.000 0.000 0.000 0.000 0.000 0.000 0.000 0.000 0.000 0.020 0.717 1.213 1.215 0.090 0.021 1.167 1.920 2.427 2.393 2.892 2.619 0.067 0.335 0.058 0.035
0.000 0.000 0.000 0.000 0.000 0.000 0.000 0.000 0.000 0.000 0.000 0.000 0.000 0.000 0.000 0.000 0.000 0.000 0.000 0.000 0.000 0.000 0.000 0.000 0.000 0.000 0.000 0.000 0.001 0.436 0.512 1.105 0.221 0.258 3.351 3.405 3.522 3.579 3.006 1.891 0.197 0.065 0.067 0.059
0.000 0.000 0.000 0.000 0.000 0.000 0.000 0.000 0.000 0.000 0.000 0.000 0.000 0.000 0.000 0.000 0.000 0.000 0.000 0.000 0.000 0.000 0.000 0.000 0.000 0.000 0.000 0.000 0.000 0.044 0.545 0.306 0.090 1.699 3.198 4.121 3.980 3.859 2.771 2.013 0.992 0.057 0.058 0.051
0.000 0.000 0.000 0.000 0.000 0.000 0.000 0.000 0.000 0.000 0.000 0.000 0.000 0.000 0.000 0.000 0.000 0.000 0.000 0.000 0.000 0.000 0.000 0.000 0.000 0.000 0.000 0.000 0.000 0.000 0.313 0.339 0.498 2.037 2.627 3.444 3.484 3.039 2.823 2.037 1.434 0.615 0.065 0.052
0.000 0.000 0.000 0.000 0.000 0.000 0.000 0.000 0.000 0.000 0.000 0.000 0.000 0.000 0.000 0.000 0.000 0.000 0.000 0.000 0.000 0.000 0.000 0.000 0.000 0.000 0.000 0.000 0.000 0.000 0.024 0.096 1.612 1.933 1.998 2.723 2.496 2.726 3.391 3.062 2.650 1.592 0.049 0.067
0.000 0.000 0.000 0.000 0.000 0.000 0.000 0.000 0.000 0.000 0.000 0.000 0.000 0.000 0.000 0.000 0.000 0.000 0.000 0.000 0.000 0.000 0.000 0.000 0.000 0.000 0.000 0.000 0.000 0.000 0.048 1.136 1.713 1.734 1.692 1.900 1.635 2.029 3.574 3.527 3.302 2.328 0.444 0.476
0.000 0.000 0.000 0.000 0.000 0.000 0.000 0.000 0.000 0.000 0.000 0.000 0.000 0.000 0.000 0.000 0.000 0.000 0.000 0.000 0.000 0.000 0.000 0.000 0.000 0.000 0.000 0.000 0.000 0.000 0.128 1.000 1.380 1.425 1.456 1.672 0.900 0.716 2.831 3.078 3.182 2.822 1.747 0.894
0.000 0.000 0.000 0.000 0.000 0.000 0.000 0.000 0.000 0.000 0.000 0.000 0.000 0.000 0.000 0.000 0.000 0.000 0.000 0.000 0.000 0.000 0.000 0.000 0.000 0.000 0.000 0.000 0.000 0.000 0.000 0.057 0.560 1.194 1.379 1.521 0.981 0.574 2.486 2.774 2.928 2.841 2.386 1.322
0.000 0.000 0.000 0.000 0.000 0.000 0.000 0.000 0.000 0.000 0.000 0.000 0.000 0.000 0.000 0.000 0.000 0.000 0.000 0.000 0.000 0.000 0.000 0.000 0.000 0.000 0.000 0.000 0.000 0.000 0.000 0.001 0.037 0.916 1.172 1.071 1.091 2.168 2.646 2.937 2.795 2.673 2.842 1.645
0.000 0.000 0.000 0.000 0.000 0.000 0.000 0.000 0.000 0.000 0.000 0.000 0.000 0.000 0.000 0.000 0.000 0.000 0.000 0.000 0.000 0.000 0.000 0.000 0.000 0.000 0.000 0.000 0.000 0.000 0.000 0.000 0.000 0.195 0.786 0.114 1.631 2.805 2.931 2.772 2.828 2.689 2.945 1.652
0.000 0.000 0.000 0.000 0.000 0.000 0.000 0.000 0.000 0.000 0.000 0.000 0.000 0.000 0.000 0.000 0.000 0.000 0.000 0.000 0.000 0.000 0.000 0.000 0.000 0.000 0.000 0.000 0.000 0.000 0.000 0.000 0.000 0.004 0.892 1.206 1.850 2.652 2.853 2.758 2.942 2.881 2.671 1.747
0.000 0.000 0.000 0.000 0.000 0.000 0.000 0.000 0.000 0.000 0.000 0.000 0.000 0.000 0.000 0.000 0.000 0.000 0.000 0.000 0.000 0.000 0.000 0.000 0.000 0.000 0.000 0.000 0.000 0.000 0.000 0.000 0.000 0.000 0.736 1.344 1.759 2.115 2.714 3.030 3.241 3.464 2.878 1.753
0.000 0.000 0.000 0.000 0.000 0.000 0.000 0.000 0.000 0.000 0.000 0.000 0.000 0.000 0.000 0.000 0.000 0.000 0.000 0.000 0.000 0.000 0.000 0.000 0.000 0.000 0.000 0.000 0.000 0.000 0.000 0.000 0.000 0.000 0.322 1.495 1.685 1.720 2.384 3.153 3.387 4.000 3.357 1.968
0.000 0.000 0.000 0.000 0.000 0.000 0.000 0.000 0.000 0.000 0.000 0.000 0.000 0.000 0.000 0.000 0.000 0.000 0.000 0.000 0.000 0.000 0.000 0.000 0.000 0.000 0.000 0.000 0.000 0.000 0.000 0.000 0.000 0.000 0.051 1.155 1.557 1.613 2.148 2.293 3.112 4.189 3.803 2.556
0.000 0.000 0.000 0.000 0.000 0.000 0.000 0.000 0.000 0.000 0.000 0.000 0.000 0.000 0.000 0.000 0.000 0.000 0.000 0.000 0.000 0.000 0.000 0.000 0.000 0.000 0.000 0.000 0.000 0.000 0.000 0.000 0.000 0.000 0.078 0.710 1.319 1.540 2.112 1.971 3.096 3.841 4.022 2.710
0.000 0.000 0.000 0.000 0.000 0.000 0.000 0.000 0.000 0.000 0.000 0.000 0.000 0.000 0.000 0.000 0.000 0.000 0.000 0.000 0.000 0.000 0.000 0.000 0.000 0.000 0.000 0.000 0.000 0.000 0.000 0.000 0.000 0.000 0.000 0.225 1.075 1.389 2.014 1.883 2.739 2.928 2.802 2.264
