ncols        32
nrows        37
xllcorner    409852.8
yllcorner    6870499.1
cellsize     5.00
NODATA_value -9999
0.000 0.000 0.000 0.000 0.000 0.000 0.000 0.000 0.000 0.000 0.000 0.000 0.000 0.000 0.000 0.000 0.043 1.178 4.611 8.022 10.292 10.540 8.311 4.734 1.413 0.141 0.002 0.000 0.000 0.000 0.000 0.000
0.000 0.000 0.000 0.000 0.000 0.000 0.000 0.000 0.000 0.000 0.000 0.000 0.000 0.000 0.067 1.751 7.859 16.419 16.330 17.043 17.034 17.315 17.095 15.901 13.002 6.420 1.447 0.071 0.000 0.000 0.000 0.000
0.000 0.000 0.000 0.000 0.000 0.000 0.000 0.000 0.000 0.000 0.000 0.000 0.000 0.735 7.643 15.773 16.302 16.975 17.554 18.043 18.500 18.592 18.281 17.660 16.842 14.949 10.523 4.006 0.541 0.007 0.000 0.000
0.000 0.000 0.000 0.000 0.000 0.000 0.000 0.000 0.000 0.000 0.000 0.000 0.719 10.983 16.237 16.702 17.077 17.582 18.520 19.287 20.496 19.325 20.318 19.389 18.428 17.424 15.082 11.341 6.579 1.525 0.082 0.000
0.000 0.000 0.000 0.000 0.000 0.000 0.000 0.000 0.000 0.000 0.000 0.253 7.253 16.785 17.306 17.409 17.743 18.428 19.347 20.857 20.619 20.753 20.182 21.349 20.052 19.617 16.145 14.011 12.214 7.672 2.932 0.344
0.000 0.000 0.000 0.000 0.000 0.000 0.000 0.000 0.000 0.000 0.002 2.612 16.772 17.264 18.143 18.569 18.515 18.851 19.926 21.413 20.425 20.443 21.358 22.396 21.472 20.657 17.685 16.054 14.035 10.586 8.016 3.955
0.000 0.000 0.000 0.000 0.000 0.000 0.000 0.000 0.000 0.000 0.158 9.644 16.818 18.065 19.378 19.552 19.274 19.474 20.486 21.407 20.950 22.153 22.645 21.963 22.585 20.632 19.530 18.082 16.279 11.740 9.843 7.314
0.000 0.000 0.000 0.000 0.000 0.000 0.000 0.000 0.000 0.000 1.250 16.603 17.455 19.361 20.054 20.262 20.028 19.886 20.870 21.436 21.314 22.523 22.320 21.713 22.678 21.912 21.590 19.356 17.349 13.106 9.935 7.384
0.000 0.000 0.000 0.000 0.000 0.000 0.000 0.000 0.000 0.001 3.056 16.225 17.941 19.420 20.382 20.790 20.665 20.622 21.131 21.205 21.212 22.304 22.358 22.816 22.569 22.927 22.125 20.251 17.763 15.151 9.788 7.161
0.000 0.000 0.000 0.000 0.000 0.000 0.000 0.000 0.000 0.008 4.882 16.583 18.539 19.564 20.624 21.410 21.485 21.486 21.180 20.349 21.922 22.204 22.355 22.888 22.134 22.880 20.800 19.310 18.555 15.870 9.636 7.685
0.000 0.000 0.000 0.000 0.000 0.000 0.000 0.000 0.000 0.041 7.438 16.711 18.014 19.822 21.111 22.256 22.862 22.919 22.282 22.221 22.575 22.881 21.508 22.455 21.044 21.417 19.766 19.421 18.492 15.415 10.085 7.793
0.000 0.000 0.000 0.000 0.000 0.000 0.000 0.000 0.000 0.322 14.772 17.036 18.943 20.084 22.415 22.892 23.828 23.664 22.331 22.289 22.153 21.561 21.294 21.016 19.689 21.768 19.853 20.035 19.092 13.890 9.632 7.195
0.000 0.000 0.000 0.000 0.000 0.000 0.000 0.000 0.000 1.085 15.659 17.645 20.462 22.158 22.101 23.030 23.183 23.178 22.527 21.169 20.265 19.916 21.065 20.055 21.256 21.614 19.690 20.281 19.680 13.452 8.757 6.885
0.000 0.000 0.000 0.000 0.000 0.000 0.000 0.000 0.001 2.259 14.984 17.777 19.769 20.918 21.390 21.333 23.156 22.681 22.994 21.766 19.692 19.314 19.717 20.624 21.508 20.829 20.337 20.425 19.335 12.439 8.121 6.486
0.000 0.000 0.000 0.000 0.000 0.000 0.000 0.000 0.091 7.471 15.520 17.780 19.556 19.614 20.119 21.167 22.504 23.463 22.613 21.787 20.278 20.650 21.316 22.361 21.190 19.498 19.701 20.764 16.775 11.984 7.845 6.206
0.000 0.000 0.000 0.000 0.000 0.000 0.000 0.003 0.890 14.537 15.615 17.805 18.857 18.714 19.408 20.684 21.249 22.763 23.157 22.186 21.713 20.909 20.951 19.856 19.805 18.851 19.965 18.453 14.932 12.569 7.227 5.278
0.000 0.000 0.000 0.000 0.044 0.745 2.087 4.361 10.709 14.979 16.481 18.470 18.575 18.713 18.727 19.355 20.696 22.441 23.163 22.735 21.839 20.649 18.959 19.078 18.654 20.129 20.256 16.839 15.333 10.589 7.421 5.572
0.000 0.000 0.023 1.318 9.912 16.510 16.433 15.766 15.335 15.940 17.586 19.562 19.322 18.460 19.074 18.547 21.152 22.955 22.756 23.079 24.163 21.346 19.980 19.204 20.466 20.547 18.782 16.885 14.700 11.695 9.292 5.839
0.000 0.003 1.391 16.745 17.346 17.439 17.450 16.967 16.430 16.920 18.095 19.915 19.828 19.048 18.494 21.077 23.469 22.879 23.282 23.811 24.245 21.394 21.549 21.140 20.603 19.501 17.925 16.598 15.123 14.229 10.506 5.583
0.000 0.627 14.806 17.375 18.486 19.081 19.075 17.999 17.119 17.308 18.665 20.114 20.645 19.019 19.469 20.755 23.586 22.367 23.147 24.208 24.264 21.523 20.635 19.048 18.484 18.357 17.313 16.758 15.319 14.579 10.514 6.228
0.003 3.253 17.579 18.507 20.069 20.629 19.670 19.009 18.371 19.166 19.508 20.655 20.342 19.546 21.239 23.078 23.454 23.430 23.575 23.702 24.900 22.606 19.865 20.076 18.718 17.925 16.603 15.763 16.749 15.419 12.631 6.811
0.108 9.712 18.627 20.398 21.320 21.044 20.108 19.355 18.713 20.003 19.844 21.179 21.540 21.458 22.880 23.219 24.126 23.901 23.819 24.406 25.739 23.896 20.406 20.017 18.647 17.563 16.205 16.976 17.555 16.366 13.205 7.223
0.884 17.923 19.473 21.168 21.498 21.664 21.040 21.189 21.649 21.491 20.578 20.940 22.266 22.693 22.524 23.833 24.674 23.770 24.312 24.664 26.866 23.728 20.503 19.341 17.303 17.147 17.336 18.647 18.596 16.472 13.498 7.794
2.194 18.046 19.707 22.232 22.548 22.109 22.821 22.979 22.571 22.776 21.472 22.432 24.136 23.167 22.472 23.743 24.607 25.669 25.194 26.030 26.969 23.981 20.763 18.490 18.620 17.454 18.530 18.891 18.664 17.263 14.618 8.701
3.319 17.888 20.705 22.224 23.002 23.789 22.512 23.749 23.086 22.959 22.132 24.234 25.241 24.492 25.024 27.378 26.203 26.457 26.196 24.990 26.391 24.558 21.633 18.188 17.026 18.283 18.460 18.853 18.537 17.705 14.200 10.200
3.774 18.979 21.770 23.561 24.460 24.388 23.783 25.156 24.355 23.868 22.927 24.916 26.162 24.954 25.438 27.903 28.242 27.536 25.638 25.672 26.463 25.160 21.572 19.163 16.664 16.839 18.134 17.954 17.827 16.812 14.605 9.944
3.327 18.630 22.424 24.538 25.496 24.308 25.436 25.670 23.741 24.622 23.664 25.205 26.774 25.464 26.451 28.493 28.025 28.255 26.965 26.274 27.104 25.853 22.703 19.380 16.908 16.859 17.389 17.453 18.088 20.249 15.655 7.671
2.377 18.417 21.959 24.773 25.321 25.179 25.419 25.112 25.513 26.498 24.785 25.804 27.176 25.164 25.952 27.984 27.167 28.298 28.128 27.747 27.811 26.079 22.004 19.569 16.231 16.747 16.787 17.240 20.334 19.761 14.058 6.511
1.348 15.461 21.240 24.136 25.008 25.317 25.539 26.441 25.122 25.763 23.871 25.374 28.464 26.462 26.797 32.644 32.475 29.705 28.712 29.663 31.451 26.968 22.820 19.716 15.880 15.739 15.549 19.004 19.383 15.686 11.831 5.866
0.616 12.296 19.803 23.373 24.907 25.473 24.354 25.548 26.918 29.513 28.382 29.410 31.818 29.599 29.813 31.984 30.199 29.981 27.972 27.090 28.678 25.191 24.463 21.245 15.618 15.054 17.632 18.838 15.621 12.950 11.129 5.617
0.241 9.171 17.857 22.076 25.775 25.267 24.220 28.350 31.756 32.441 29.230 29.409 31.939 26.897 26.955 30.326 29.555 26.802 26.067 24.066 25.461 25.717 21.073 17.273 10.497 12.462 14.718 14.829 14.147 14.092 10.690 4.805
0.106 6.830 15.598 20.190 24.177 26.139 29.749 32.831 32.068 29.352 25.289 26.371 29.298 23.229 23.506 27.702 26.370 23.080 21.916 23.478 25.209 21.624 16.438 13.229 10.464 11.391 11.361 14.378 11.709 12.664 9.153 4.569
0.084 5.759 13.299 17.941 21.985 25.256 25.604 29.642 27.700 25.689 21.545 25.772 26.525 25.720 26.961 25.015 22.718 22.668 21.246 20.453 20.333 16.118 11.726 12.168 10.254 8.903 9.445 10.999 7.201 9.059 6.780 4.204
0.128 6.006 12.504 16.148 22.938 25.124 26.915 26.450 24.290 23.117 22.402 26.357 23.632 21.972 23.088 22.847 20.977 17.393 15.530 14.700 15.920 11.787 11.462 10.015 8.248 7.103 7.541 7.909 6.417 6.797 6.384 3.940
0.070 3.627 10.852 13.981 16.428 22.474 22.086 24.659 24.957 20.654 14.526 22.535 22.814 23.952 20.406 20.382 16.098 13.609 12.080 11.937 12.763 11.268 9.346 8.300 7.048 4.862 6.229 7.597 5.562 6.279 5.651 3.129
0.010 1.886 9.308 11.039 11.392 13.850 15.792 16.641 15.772 12.980 11.954 18.962 14.331 16.355 14.320 12.703 12.303 11.256 10.713 10.901 10.508 8.595 7.478 6.697 6.175 5.883 5.725 6.322 4.857 5.223 4.091 3.275
0.002 1.392 8.523 9.461 9.825 10.663 10.054 9.784 10.553 9.182 9.110 11.491 10.914 11.590 11.176 10.319 9.097 8.134 7.329 7.503 7.505 6.876 6.527 6.366 5.482 5.232 4.259 4.361 3.555 4.104 3.046 2.983
