ncols        36
nrows        67
xllcorner    409677.8
yllcorner    6870774.1
cellsize     5.00
NODATA_value -9999
0.000 0.000 0.000 0.000 0.000 0.000 0.000 0.000 0.000 0.000 0.000 0.000 0.000 0.000 0.000 0.000 0.000 0.000 0.000 0.000 0.000 0.000 0.000 0.000 0.000 0.000 0.000 0.000 0.000 0.000 0.000 0.000 0.000 0.000 0.000 0.000
0.000 0.000 0.000 0.308 4.396 12.694 14.882 15.578 15.723 11.527 6.851 2.179 0.206 0.000 0.000 0.000 0.000 0.000 0.000 0.000 0.000 0.000 0.000 0.000 0.000 0.000 0.000 0.000 0.000 0.000 0.000 0.000 0.000 0.000 0.000 0.000
0.000 0.000 0.538 7.565 15.948 15.964 15.704 16.870 16.440 15.449 13.611 13.438 9.236 2.288 0.000 0.000 0.000 0.000 0.000 0.000 0.000 0.000 0.000 0.000 0.000 0.000 0.000 0.000 0.000 0.000 0.000 0.000 0.000 0.000 0.000 0.000
0.000 0.058 5.489 15.512 16.450 16.641 17.693 17.341 16.848 16.150 14.631 13.784 13.554 12.543 1.627 0.000 0.000 0.000 0.000 0.000 0.000 0.000 0.000 0.000 0.000 0.000 0.000 0.000 0.000 0.000 0.000 0.000 0.000 0.000 0.000 0.000
0.000 1.574 15.314 16.469 16.851 18.196 18.625 18.092 17.026 16.507 15.865 15.537 14.670 12.469 10.599 0.048 0.000 0.000 0.000 0.000 0.000 0.000 0.000 0.000 0.000 0.000 0.000 0.000 0.000 0.000 0.000 0.000 0.000 0.000 0.000 0.000
0.027 5.749 15.065 16.137 17.140 18.243 18.389 17.723 16.099 16.927 16.365 16.528 14.737 14.078 12.319 3.380 0.000 0.000 0.000 0.000 0.000 0.000 0.000 0.000 0.000 0.000 0.000 0.000 0.000 0.000 0.000 0.000 0.000 0.000 0.000 0.000
0.403 12.604 15.254 16.515 16.640 17.845 17.815 17.191 16.511 17.648 17.755 17.077 16.310 14.414 12.189 9.039 0.069 0.000 0.000 0.000 0.000 0.000 0.000 0.000 0.000 0.000 0.000 0.000 0.000 0.000 0.000 0.000 0.000 0.000 0.000 0.000
1.534 14.367 15.196 14.858 16.681 16.633 17.317 16.634 18.061 18.921 18.344 17.219 16.524 14.673 13.173 11.130 2.551 0.000 0.000 0.000 0.000 0.000 0.000 0.000 0.000 0.000 0.000 0.000 0.000 0.000 0.000 0.000 0.000 0.000 0.000 0.000
2.635 13.527 14.782 15.636 15.899 16.374 17.082 17.804 18.815 18.758 16.735 19.899 17.215 14.630 13.331 11.046 6.396 0.442 0.000 0.000 0.000 0.000 0.000 0.000 0.000 0.000 0.000 0.000 0.000 0.000 0.000 0.000 0.000 0.000 0.000 0.000
3.341 13.086 13.790 14.270 15.171 16.770 17.663 18.839 18.217 17.647 17.831 19.202 16.004 14.900 13.243 11.560 8.606 3.769 0.089 0.000 0.000 0.000 0.000 0.000 0.000 0.000 0.000 0.000 0.000 0.000 0.000 0.000 0.000 0.000 0.000 0.000
2.932 12.877 14.155 14.599 16.560 17.470 17.504 18.241 17.300 17.341 17.951 17.777 15.743 14.271 14.230 11.768 9.782 6.608 2.108 0.019 0.000 0.000 0.000 0.000 0.000 0.000 0.000 0.000 0.000 0.000 0.000 0.000 0.000 0.000 0.000 0.000
1.906 10.879 12.595 15.296 16.318 16.972 17.920 17.118 16.159 15.724 17.078 17.159 15.705 15.398 14.392 12.614 10.857 7.934 5.016 1.141 0.001 0.000 0.000 0.000 0.000 0.000 0.000 0.000 0.000 0.000 0.000 0.000 0.000 0.000 0.000 0.000
0.862 10.451 12.552 14.013 15.464 16.564 16.280 16.482 15.511 16.493 17.585 18.948 17.978 15.769 14.696 12.387 11.064 8.459 6.553 3.887 0.418 0.000 0.000 0.000 0.000 0.000 0.000 0.000 0.000 0.000 0.000 0.000 0.000 0.000 0.000 0.000
0.173 6.548 12.458 14.078 14.553 15.725 16.703 16.229 16.959 16.713 18.095 18.890 16.829 15.036 14.192 12.647 11.977 9.112 7.345 5.482 2.388 0.033 0.000 0.000 0.000 0.000 0.000 0.000 0.000 0.000 0.000 0.000 0.000 0.000 0.000 0.000
0.005 2.154 10.632 11.716 13.666 14.741 15.987 16.239 16.027 16.464 18.393 17.305 15.940 14.725 14.194 12.757 11.955 10.346 7.604 5.808 3.609 1.059 0.001 0.000 0.000 0.000 0.000 0.000 0.000 0.000 0.000 0.000 0.000 0.000 0.000 0.000
0.000 0.295 7.099 11.080 13.389 14.511 15.535 15.618 15.536 15.870 16.079 15.445 14.415 14.607 12.727 12.274 12.033 10.935 8.325 5.814 4.283 2.601 0.151 0.000 0.000 0.000 0.000 0.000 0.000 0.000 0.000 0.000 0.000 0.000 0.000 0.000
0.000 0.015 2.635 10.536 12.236 14.474 15.065 14.718 15.139 15.557 16.441 14.984 14.668 13.038 12.786 12.670 12.505 11.140 8.981 6.201 3.858 3.091 0.962 0.006 0.000 0.000 0.000 0.000 0.000 0.000 0.000 0.000 0.000 0.000 0.000 0.000
0.000 0.000 0.400 6.763 11.917 14.034 14.604 14.134 14.479 14.774 15.371 14.268 13.239 12.683 13.531 12.924 12.703 11.596 10.063 6.493 4.364 3.309 2.233 0.394 0.000 0.000 0.000 0.000 0.000 0.000 0.000 0.000 0.000 0.000 0.000 0.000
0.000 0.000 0.005 1.792 8.788 11.821 12.308 13.306 14.201 15.018 13.273 13.103 12.614 13.080 13.853 12.828 12.959 12.114 10.317 7.841 5.183 3.565 3.560 1.657 0.014 0.000 0.000 0.000 0.000 0.000 0.000 0.000 0.000 0.000 0.000 0.000
0.000 0.000 0.000 0.218 4.609 9.330 12.183 14.241 15.440 14.317 13.690 12.959 12.948 13.213 12.759 13.296 13.073 12.198 10.588 9.134 6.035 4.181 3.981 2.924 0.473 0.000 0.000 0.000 0.000 0.000 0.000 0.000 0.000 0.000 0.000 0.000
0.000 0.000 0.000 0.005 1.380 7.049 10.939 13.221 13.256 13.250 12.632 12.928 13.052 13.255 13.519 13.486 13.403 12.657 11.435 10.053 6.951 4.827 4.466 3.789 1.862 0.028 0.000 0.000 0.000 0.000 0.000 0.000 0.000 0.000 0.000 0.000
0.000 0.000 0.000 0.000 0.102 3.209 7.417 11.764 13.415 12.735 13.398 12.638 13.682 12.443 13.759 13.388 13.504 12.664 11.767 10.260 7.950 5.975 5.128 4.058 3.307 0.619 0.000 0.000 0.000 0.000 0.000 0.000 0.000 0.000 0.000 0.000
0.000 0.000 0.000 0.000 0.003 0.917 5.417 8.306 10.755 12.522 12.114 12.471 11.991 13.362 13.721 13.303 13.401 12.652 12.345 10.794 9.168 7.289 5.573 4.308 3.732 2.053 0.104 0.000 0.000 0.000 0.000 0.000 0.000 0.000 0.000 0.000
0.000 0.000 0.000 0.000 0.000 0.053 1.795 5.654 8.272 10.929 11.873 12.482 12.447 12.972 13.218 12.852 13.117 13.073 12.650 11.185 9.861 8.492 6.391 5.032 3.941 3.273 1.284 0.056 0.000 0.000 0.000 0.000 0.000 0.000 0.000 0.000
0.000 0.000 0.000 0.000 0.000 0.000 0.162 3.060 6.356 9.625 11.135 11.479 11.984 12.653 12.534 12.376 13.301 12.934 12.227 11.271 10.559 9.689 7.628 5.742 4.281 3.792 3.046 1.054 0.016 0.000 0.000 0.000 0.000 0.000 0.000 0.000
0.000 0.000 0.000 0.000 0.000 0.000 0.003 0.660 4.502 6.627 10.022 11.043 11.365 11.345 11.740 12.620 12.920 12.294 11.953 11.550 10.986 10.636 9.195 6.302 4.713 4.194 3.792 2.632 0.517 0.002 0.000 0.000 0.000 0.000 0.000 0.000
0.000 0.000 0.000 0.000 0.000 0.000 0.000 0.019 2.258 5.253 6.923 9.986 10.526 10.474 10.938 11.714 12.264 12.760 11.533 11.648 11.226 10.938 10.170 6.973 5.131 4.135 4.107 3.742 1.898 0.235 0.000 0.000 0.000 0.000 0.000 0.000
0.000 0.000 0.000 0.000 0.000 0.000 0.000 0.000 0.416 3.482 4.481 7.787 9.098 10.275 10.928 12.126 11.412 11.440 11.743 11.733 11.366 10.962 9.273 8.215 5.874 4.475 4.502 4.068 3.116 1.436 0.090 0.000 0.000 0.000 0.000 0.000
0.000 0.000 0.000 0.000 0.000 0.000 0.000 0.000 0.009 1.114 3.509 4.747 8.148 9.427 10.357 11.111 11.399 11.866 11.550 12.201 11.208 11.242 10.413 9.258 7.148 5.097 4.425 3.789 3.814 2.710 0.890 0.001 0.000 0.000 0.000 0.000
0.000 0.000 0.000 0.000 0.000 0.000 0.000 0.000 0.000 0.096 2.495 3.298 7.268 8.965 10.195 10.695 11.421 11.475 11.928 11.621 11.298 11.224 10.965 9.918 7.765 5.526 4.067 4.049 4.099 3.396 2.054 0.096 0.064 0.000 0.000 0.000
0.000 0.000 0.000 0.000 0.000 0.000 0.000 0.000 0.000 0.016 1.731 2.922 4.660 8.059 9.947 10.793 10.876 11.604 11.068 11.198 11.268 11.682 10.978 9.972 8.146 6.159 4.564 4.187 3.951 3.467 2.858 2.012 0.853 0.012 0.000 0.000
0.000 0.000 0.000 0.000 0.000 0.000 0.000 0.000 0.000 0.000 0.557 2.722 3.604 6.551 8.792 10.134 10.575 10.685 11.170 11.450 11.479 11.640 10.719 10.110 8.384 6.352 5.126 4.058 3.725 3.274 3.194 3.064 2.179 0.390 0.002 0.000
0.000 0.000 0.000 0.000 0.000 0.000 0.000 0.000 0.000 0.000 0.100 2.283 3.694 5.170 7.542 9.530 9.908 10.803 10.643 11.418 11.382 11.104 10.914 9.621 8.076 6.870 5.806 4.170 3.634 3.026 3.260 3.457 3.038 1.787 0.298 0.000
0.000 0.000 0.000 0.000 0.000 0.000 0.000 0.000 0.000 0.000 0.052 1.058 3.118 3.289 5.602 7.585 9.257 9.351 10.319 10.806 11.380 11.221 10.805 9.642 8.442 7.376 6.277 4.737 3.550 3.266 3.650 3.591 3.432 2.788 1.630 0.044
0.000 0.000 0.000 0.000 0.000 0.000 0.000 0.000 0.000 0.000 0.000 0.337 0.651 3.278 3.537 5.286 7.715 9.087 10.154 11.121 11.334 11.357 10.682 9.986 8.689 7.633 6.541 5.363 3.745 3.314 3.788 3.797 3.603 3.207 2.437 0.349
0.000 0.000 0.000 0.000 0.000 0.000 0.000 0.000 0.000 0.000 0.000 0.034 1.438 3.098 2.569 3.416 6.584 8.679 10.066 10.920 11.239 11.127 10.676 10.450 8.599 7.858 7.036 5.761 4.309 3.844 3.978 3.917 3.673 3.260 3.056 2.257
0.000 0.000 0.000 0.000 0.000 0.000 0.000 0.000 0.000 0.000 0.000 0.006 0.794 2.367 2.355 1.894 4.869 8.164 9.998 10.582 10.653 11.147 10.835 10.277 8.494 8.240 7.329 6.209 5.303 4.317 4.177 4.065 3.749 3.285 3.326 2.848
0.000 0.000 0.000 0.000 0.000 0.000 0.000 0.000 0.000 0.000 0.000 0.000 0.240 1.210 2.135 2.287 3.795 8.282 9.376 10.621 10.864 11.149 10.614 9.191 9.220 8.407 7.487 6.709 5.736 4.664 4.123 4.151 3.901 3.705 3.548 3.251
0.000 0.000 0.000 0.000 0.000 0.000 0.000 0.000 0.000 0.000 0.000 0.000 0.014 0.756 1.449 2.161 4.405 6.854 9.487 10.302 11.441 10.868 10.618 10.176 9.417 8.542 8.022 7.133 6.053 5.303 4.570 4.466 4.563 3.976 3.819 3.377
0.000 0.000 0.000 0.000 0.000 0.000 0.000 0.000 0.000 0.000 0.000 0.000 0.000 0.197 1.129 2.177 4.219 5.533 8.052 9.709 10.245 10.548 10.301 9.849 9.610 8.867 8.187 7.677 6.580 5.787 5.504 4.785 4.765 4.441 4.028 3.588
0.000 0.000 0.000 0.000 0.000 0.000 0.000 0.000 0.000 0.000 0.000 0.000 0.000 0.011 0.630 3.199 4.197 4.487 6.282 8.026 9.589 10.163 10.290 10.122 9.538 9.308 8.737 7.982 7.271 6.477 5.945 5.599 5.398 4.778 4.065 4.168
0.000 0.000 0.000 0.000 0.000 0.000 0.000 0.000 0.000 0.000 0.000 0.000 0.000 0.013 1.375 3.231 3.622 3.551 4.909 7.008 8.685 10.244 10.481 10.415 9.725 9.048 9.154 8.723 8.037 6.907 6.499 6.210 5.888 5.474 4.742 4.536
0.000 0.000 0.000 0.000 0.000 0.000 0.000 0.000 0.000 0.000 0.000 0.000 0.000 0.007 0.668 2.066 2.717 2.757 3.601 5.316 7.604 9.310 10.017 10.185 9.829 9.211 9.314 8.966 8.426 7.398 7.031 7.572 6.799 6.108 5.422 4.524
0.000 0.000 0.000 0.000 0.000 0.000 0.000 0.000 0.000 0.000 0.000 0.000 0.000 0.000 0.009 0.467 2.030 2.613 2.796 4.219 6.139 8.452 9.294 9.771 9.711 9.257 9.308 9.136 8.655 8.209 8.062 8.660 7.870 6.837 5.799 4.556
0.000 0.000 0.000 0.000 0.000 0.000 0.000 0.000 0.000 0.000 0.000 0.000 0.000 0.000 0.000 0.020 1.269 2.188 2.071 2.979 5.582 7.574 9.014 9.460 9.437 9.222 9.371 9.315 9.009 8.648 9.238 9.782 8.664 7.752 5.921 3.942
0.000 0.000 0.000 0.000 0.000 0.000 0.000 0.000 0.000 0.000 0.000 0.000 0.000 0.000 0.000 0.000 0.155 1.371 1.368 2.815 4.901 6.848 8.421 9.117 9.259 9.227 9.077 9.251 9.292 9.319 9.537 10.337 9.629 8.073 5.069 3.724
0.000 0.000 0.000 0.000 0.000 0.000 0.000 0.000 0.000 0.000 0.000 0.000 0.000 0.000 0.000 0.000 0.004 1.279 2.262 3.074 4.054 5.613 7.621 8.907 9.102 8.995 8.901 9.147 9.343 9.431 9.367 10.454 9.968 8.209 5.364 4.759
0.000 0.000 0.000 0.000 0.000 0.000 0.000 0.000 0.000 0.000 0.000 0.000 0.000 0.000 0.000 0.000 0.000 0.785 2.348 3.201 3.390 4.415 6.639 8.456 9.090 8.752 8.709 8.945 9.335 9.247 9.735 10.931 10.518 8.326 6.154 5.275
0.000 0.000 0.000 0.000 0.000 0.000 0.000 0.000 0.000 0.000 0.000 0.000 0.000 0.000 0.000 0.000 0.000 0.193 2.317 3.117 3.261 3.792 5.458 8.285 9.330 8.945 8.489 8.883 8.997 9.065 10.139 11.012 10.098 8.381 6.835 5.435
0.000 0.000 0.000 0.000 0.000 0.000 0.000 0.000 0.000 0.000 0.000 0.000 0.000 0.000 0.000 0.000 0.000 0.016 1.328 2.732 3.048 3.688 3.915 7.172 9.167 8.952 8.546 8.903 9.000 9.417 10.677 11.035 9.978 8.795 7.395 5.365
0.000 0.000 0.000 0.000 0.000 0.000 0.000 0.000 0.000 0.000 0.000 0.000 0.000 0.000 0.000 0.000 0.000 0.008 0.520 2.043 2.903 3.632 3.404 5.957 9.178 9.236 8.589 8.850 8.889 9.419 10.710 10.561 10.269 9.097 7.441 5.360
0.000 0.000 0.000 0.000 0.000 0.000 0.000 0.000 0.000 0.000 0.000 0.000 0.000 0.000 0.000 0.000 0.000 0.000 0.081 1.349 2.492 3.514 3.327 4.539 8.483 8.998 8.198 8.034 8.394 9.171 10.499 10.823 10.136 8.401 7.345 5.621
0.000 0.000 0.000 0.000 0.000 0.000 0.000 0.000 0.000 0.000 0.000 0.000 0.000 0.000 0.000 0.000 0.000 0.000 0.000 0.525 1.983 2.950 3.314 4.045 7.812 8.743 7.950 7.308 7.669 8.733 9.860 10.043 8.839 7.503 7.414 5.590
0.000 0.000 0.000 0.000 0.000 0.000 0.000 0.000 0.000 0.000 0.000 0.000 0.000 0.000 0.000 0.000 0.000 0.000 0.000 0.017 1.306 2.787 3.274 3.596 6.564 8.659 7.696 6.876 7.388 8.209 8.980 9.131 8.168 7.501 6.618 5.215
0.000 0.000 0.000 0.000 0.000 0.000 0.000 0.000 0.000 0.000 0.000 0.000 0.000 0.000 0.000 0.000 0.000 0.000 0.000 0.000 0.370 3.101 3.236 3.374 5.506 8.142 7.519 6.797 7.057 7.697 8.931 8.985 7.909 7.174 6.613 5.264
0.000 0.000 0.000 0.000 0.000 0.000 0.000 0.000 0.000 0.000 0.000 0.000 0.000 0.000 0.000 0.000 0.000 0.000 0.000 0.000 0.141 2.920 3.353 3.558 4.795 7.557 7.500 6.485 6.348 7.460 8.715 7.827 7.051 7.145 7.052 5.510
0.000 0.000 0.000 0.000 0.000 0.000 0.000 0.000 0.000 0.000 0.000 0.000 0.000 0.000 0.000 0.000 0.000 0.000 0.000 0.000 0.087 2.780 3.140 3.455 4.580 7.139 7.354 6.082 5.663 6.533 6.694 6.578 6.955 7.093 6.092 5.465
0.000 0.000 0.000 0.000 0.000 0.000 0.000 0.000 0.000 0.000 0.000 0.000 0.000 0.000 0.000 0.000 0.000 0.000 0.000 0.000 0.116 2.347 2.949 3.477 4.335 6.361 6.876 6.031 4.789 5.339 5.966 6.243 6.452 6.155 5.804 5.256
0.000 0.000 0.000 0.000 0.000 0.000 0.000 0.000 0.000 0.000 0.000 0.000 0.000 0.000 0.000 0.000 0.000 0.000 0.000 0.000 0.115 2.212 2.524 3.479 4.049 5.531 6.696 5.475 4.065 4.834 5.319 5.617 5.637 6.018 6.436 4.993
0.000 0.000 0.000 0.000 0.000 0.000 0.000 0.000 0.000 0.000 0.000 0.000 0.000 0.000 0.000 0.000 0.000 0.000 0.000 0.000 0.094 2.174 2.509 3.322 3.734 4.504 6.280 5.400 3.747 4.621 5.017 5.585 6.040 6.569 5.931 4.646
0.000 0.000 0.000 0.000 0.000 0.000 0.000 0.000 0.000 0.000 0.000 0.000 0.000 0.000 0.000 0.000 0.000 0.000 0.000 0.000 0.114 2.076 2.529 3.226 3.762 4.389 5.997 5.318 3.734 4.328 5.261 6.236 6.659 6.214 5.340 5.114
0.000 0.000 0.000 0.000 0.000 0.000 0.000 0.000 0.000 0.000 0.000 0.000 0.000 0.000 0.000 0.000 0.000 0.000 0.000 0.000 0.163 2.160 2.449 3.208 3.530 4.100 5.910 4.889 4.101 4.943 6.169 6.347 6.174 5.818 5.553 5.376
0.000 0.000 0.000 0.000 0.000 0.000 0.000 0.000 0.000 0.000 0.000 0.000 0.000 0.000 0.000 0.000 0.000 0.000 0.000 0.000 0.118 2.170 2.505 3.246 3.567 3.676 5.487 4.998 4.480 4.971 5.912 5.931 5.865 6.038 5.705 5.395
0.000 0.000 0.000 0.000 0.000 0.000 0.000 0.000 0.000 0.000 0.000 0.000 0.000 0.000 0.000 0.000 0.000 0.000 0.000 0.000 0.104 2.191 2.594 3.111 3.441 3.268 5.006 5.144 4.611 5.033 5.297 5.192 5.832 5.731 5.475 5.230
0.000 0.000 0.000 0.000 0.000 0.000 0.000 0.000 0.000 0.000 0.000 0.000 0.000 0.000 0.000 0.000 0.000 0.000 0.000 0.000 0.105 2.088 2.431 3.023 3.194 3.130 4.038 5.353 4.773 4.808 4.787 5.200 5.506 5.485 5.069 5.101
0.000 0.000 0.000 0.000 0.000 0.000 0.000 0.000 0.000 0.000 0.000 0.000 0.000 0.000 0.000 0.000 0.000 0.000 0.000 0.000 0.075 2.226 2.483 3.050 2.853 2.847 3.108 4.878 4.049 4.279 4.469 4.819 5.149 5.432 5.226 5.443
0.000 0.000 0.000 0.000 0.000 0.000 0.000 0.000 0.000 0.000 0.000 0.000 0.000 0.000 0.000 0.000 0.000 0.000 0.000 0.000 0.043 2.088 2.634 2.675 2.503 2.508 2.942 3.936 3.398 3.638 3.693 4.584 5.086 5.380 5.104 4.812
