ncols        33
nrows        38
xllcorner    409832.8
yllcorner    6870564.1
cellsize     5.00
NODATA_value -9999
0.000 0.000 0.000 0.000 0.000 0.000 0.000 0.000 0.000 0.000 0.000 0.000 0.000 0.000 0.000 0.000 0.000 0.000 0.000 0.000 0.000 0.000 0.000 0.000 0.000 0.000 0.000 0.000 0.000 0.000 0.000 0.000 0.000
0.000 0.000 0.000 0.000 0.000 0.000 0.000 0.000 0.000 0.000 0.437 4.973 15.055 17.268 16.906 15.782 7.752 1.176 0.007 0.000 0.000 0.000 0.000 0.000 0.000 0.000 0.000 0.000 0.000 0.000 0.000 0.000 0.000
0.000 0.000 0.000 0.000 0.000 0.000 0.000 0.000 0.000 0.928 10.538 17.254 17.673 17.958 17.606 16.856 15.935 15.377 4.457 0.109 0.000 0.000 0.000 0.000 0.000 0.000 0.000 0.000 0.000 0.000 0.000 0.000 0.000
0.000 0.000 0.000 0.000 0.000 0.000 0.000 0.000 0.066 6.410 16.982 18.067 18.493 18.752 18.668 18.087 16.968 16.486 16.230 7.659 0.562 0.000 0.000 0.000 0.000 0.000 0.000 0.000 0.000 0.000 0.000 0.000 0.000
0.000 0.000 0.000 0.000 0.000 0.000 0.000 0.000 1.909 17.485 17.986 18.822 19.632 19.830 19.524 18.998 19.024 18.209 17.125 16.086 9.370 1.046 0.002 0.000 0.000 0.000 0.000 0.000 0.000 0.000 0.000 0.000 0.000
0.000 0.000 0.000 0.000 0.000 0.000 0.000 0.012 6.501 17.776 18.495 19.459 20.178 20.741 20.230 20.509 20.218 19.585 18.554 16.844 15.183 9.123 1.361 0.004 0.000 0.000 0.000 0.000 0.000 0.000 0.000 0.000 0.000
0.000 0.000 0.000 0.000 0.000 0.000 0.000 0.105 11.104 17.818 19.275 20.410 21.347 21.045 21.029 21.503 21.192 21.070 19.824 18.487 16.341 13.854 8.421 1.301 0.002 0.000 0.000 0.000 0.000 0.000 0.000 0.000 0.000
0.000 0.000 0.000 0.000 0.000 0.000 0.000 0.261 13.818 18.236 19.794 20.562 21.032 21.688 21.798 21.208 22.586 22.322 20.171 19.755 17.397 15.621 12.780 7.124 0.858 0.003 0.000 0.000 0.000 0.000 0.000 0.000 0.000
0.000 0.000 0.000 0.000 0.000 0.000 0.000 0.308 13.562 18.496 19.771 20.966 22.300 21.620 21.939 22.521 23.254 22.443 20.442 20.147 18.624 17.157 14.012 9.944 5.296 0.943 0.005 0.000 0.000 0.000 0.000 0.000 0.000
0.000 0.000 0.000 0.000 0.000 0.000 0.000 0.210 11.349 18.130 20.285 21.360 21.640 21.715 22.533 23.364 23.629 21.864 20.417 21.184 19.494 17.647 15.735 10.656 8.847 5.410 0.858 0.008 0.000 0.000 0.000 0.000 0.000
0.000 0.000 0.000 0.000 0.000 0.000 0.000 0.075 7.998 18.211 19.691 21.400 21.521 22.537 22.519 23.596 22.826 21.610 22.029 21.291 20.221 18.874 16.575 12.605 10.999 8.327 4.401 0.960 0.020 0.000 0.000 0.000 0.000
0.000 0.000 0.000 0.000 0.000 0.000 0.000 0.012 4.185 16.521 19.351 22.128 22.214 22.249 24.049 23.526 22.710 22.750 21.644 21.171 21.087 20.211 18.079 15.040 13.352 9.432 7.231 4.766 1.191 0.027 0.000 0.000 0.000
0.000 0.000 0.000 0.000 0.000 0.000 0.000 0.001 1.537 14.044 18.914 20.241 20.927 21.698 23.079 22.562 22.860 22.492 22.398 22.487 21.958 21.224 19.397 17.323 14.949 10.896 8.978 6.960 4.022 1.184 0.041 0.000 0.000
0.000 0.000 0.000 0.000 0.000 0.000 0.000 0.000 0.343 8.869 17.068 18.830 19.823 21.136 21.865 22.796 23.216 23.202 23.424 23.105 22.426 22.366 20.133 17.986 15.628 13.151 9.983 7.282 6.028 4.158 1.220 0.060 0.000
0.000 0.000 0.000 0.000 0.000 0.000 0.000 0.000 0.044 4.430 15.248 17.503 19.588 20.719 21.761 22.522 23.407 23.657 23.811 24.011 23.293 23.025 22.001 19.723 17.944 14.433 11.664 8.360 6.918 5.790 3.919 1.573 0.111
0.000 0.000 0.000 0.000 0.027 0.620 2.141 2.655 1.550 3.283 17.342 16.989 19.817 21.186 21.786 21.646 23.379 24.893 24.630 23.915 24.433 24.685 22.247 20.531 18.017 16.099 13.195 9.216 7.473 6.318 5.613 3.905 1.755
0.000 0.000 0.021 1.393 9.983 17.409 17.341 17.631 17.294 16.175 16.498 16.027 17.552 20.505 21.224 22.068 22.975 24.489 25.559 25.348 25.534 24.736 23.294 21.095 18.916 16.874 14.199 11.103 8.090 6.383 6.254 5.283 3.913
0.000 0.037 2.591 17.669 17.798 18.199 18.171 18.653 17.877 17.271 17.081 16.420 17.885 18.939 20.281 21.469 23.524 24.781 26.025 26.734 26.361 24.973 23.760 21.880 20.745 17.503 16.138 12.912 9.308 7.344 6.098 5.362 4.911
0.002 1.896 17.871 18.305 19.204 19.896 19.761 19.721 19.453 19.014 17.673 16.630 17.242 19.570 21.203 21.896 23.030 25.939 26.580 26.175 26.112 25.827 24.368 23.839 20.072 18.697 16.319 14.839 11.035 8.105 5.857 5.493 5.495
0.345 11.016 18.324 19.662 20.530 20.861 20.786 21.130 21.020 19.159 18.523 16.996 17.838 19.277 21.255 22.236 23.823 25.078 25.907 26.866 26.531 25.770 24.771 23.890 19.702 18.104 17.585 15.973 12.872 8.995 6.108 5.662 5.359
2.453 18.286 19.270 20.800 21.894 22.342 21.253 21.920 21.073 20.342 20.669 19.417 19.225 19.941 21.352 21.366 22.915 24.321 26.494 27.181 26.849 26.336 25.579 23.466 20.239 19.892 19.060 16.388 14.218 9.671 6.964 5.938 5.180
6.066 18.265 19.914 21.532 22.519 22.202 21.604 22.804 22.715 21.233 20.057 19.010 18.970 20.620 22.090 23.513 23.473 25.476 26.292 26.866 27.006 26.233 25.883 23.380 20.624 20.162 18.902 17.010 15.127 11.736 8.131 6.117 5.051
9.687 18.445 20.613 22.112 23.568 21.670 21.545 22.940 21.768 20.288 19.603 19.465 20.153 21.024 22.009 23.001 23.610 24.477 25.410 26.199 26.591 26.466 25.939 23.037 20.521 19.953 19.091 18.391 16.018 13.516 8.959 6.301 4.942
12.282 18.593 20.736 22.000 23.544 24.996 22.997 21.614 20.908 19.790 21.139 21.883 19.364 20.600 22.916 24.372 24.325 24.150 24.718 25.763 26.452 26.597 25.609 21.976 21.017 19.925 19.220 18.703 16.547 14.470 9.401 6.426 5.254
12.346 18.784 20.689 23.077 24.791 23.663 21.662 21.894 21.356 23.672 23.510 20.720 19.566 21.449 22.645 24.490 23.479 23.916 24.620 25.723 27.113 27.437 26.443 24.608 21.772 20.857 18.881 18.704 16.443 14.630 10.335 7.228 5.637
11.058 17.562 20.056 22.767 23.393 22.699 22.352 21.819 25.389 23.956 21.890 20.771 19.448 22.511 22.587 24.336 24.950 23.823 25.738 25.666 27.222 27.212 25.583 24.201 21.340 19.362 18.833 17.869 16.007 15.650 12.049 8.305 6.543
9.127 17.239 19.969 21.400 22.023 22.560 25.181 23.746 22.875 22.054 21.223 21.005 21.295 22.102 23.670 25.196 26.980 27.037 25.264 25.283 25.520 25.365 24.737 22.408 19.416 17.643 18.511 17.337 17.678 16.337 13.085 9.316 7.470
6.461 15.868 18.732 20.669 21.339 23.865 25.369 21.274 21.180 20.687 20.711 20.750 19.510 20.835 22.137 24.766 25.380 25.328 24.246 22.911 24.631 23.622 23.936 22.227 18.592 17.085 17.062 17.743 17.985 16.345 14.258 10.439 7.750
4.133 14.154 17.041 19.545 21.753 24.339 23.749 22.787 21.150 20.735 20.345 19.817 19.181 19.561 22.346 23.557 24.378 23.625 22.372 22.388 23.042 23.655 22.328 20.991 18.454 18.050 18.376 19.260 17.970 15.721 14.430 11.475 6.752
2.274 12.459 16.093 19.181 21.702 21.727 21.572 20.753 20.805 20.476 20.242 19.965 18.489 19.094 20.653 22.033 22.598 22.018 20.876 21.312 20.936 21.848 21.898 20.218 18.923 17.850 17.919 16.750 16.626 15.203 15.006 11.204 6.269
0.931 9.198 14.556 17.928 19.177 19.209 19.656 19.294 19.433 19.508 19.763 18.040 18.166 19.295 20.209 21.436 20.895 21.375 19.272 18.917 19.374 20.553 20.796 19.610 17.638 16.963 15.567 15.694 15.150 15.972 15.296 10.728 6.261
0.292 6.192 11.510 14.419 16.477 17.787 18.377 19.048 19.302 19.552 18.029 17.836 17.751 18.410 20.021 21.434 20.568 20.055 18.651 16.535 18.634 20.122 19.092 18.725 18.806 16.799 15.926 15.411 16.386 16.011 13.545 10.714 5.623
0.091 3.731 9.831 11.837 15.548 16.362 17.168 17.298 17.996 17.280 17.500 17.086 16.400 17.036 18.615 20.183 19.659 19.567 16.539 18.046 19.904 18.603 18.225 18.210 17.298 15.750 16.452 16.407 16.079 14.882 12.504 10.166 5.568
0.022 2.025 7.333 9.622 12.473 13.679 14.803 15.937 16.240 16.340 16.600 15.038 13.914 14.614 17.213 18.639 18.981 17.767 16.049 15.893 18.039 15.855 16.308 17.207 15.592 14.407 14.809 13.746 13.271 12.835 11.318 8.828 5.449
0.004 1.091 6.128 8.789 10.819 14.327 15.032 14.536 15.617 15.516 13.826 13.163 12.707 14.150 16.153 17.509 16.458 16.349 16.390 16.425 15.474 13.760 14.292 14.828 14.734 13.617 12.880 13.342 12.711 11.717 9.824 7.120 6.009
0.001 0.538 4.890 8.296 9.416 12.469 14.047 14.563 14.617 13.238 11.550 9.749 9.280 11.746 14.335 16.150 15.475 16.443 16.153 13.812 11.911 10.812 11.367 13.640 14.111 12.296 10.582 10.669 10.974 10.439 8.532 7.195 6.449
0.000 0.206 3.472 7.345 7.972 9.567 11.852 12.046 11.252 10.326 8.453 7.903 8.481 9.188 11.589 12.646 12.927 14.790 10.998 10.142 9.610 8.912 9.794 11.005 12.885 9.698 9.194 8.992 8.486 8.312 7.925 7.798 6.912
0.000 0.048 2.041 5.895 6.274 6.743 6.969 7.569 7.200 6.678 6.736 6.737 6.874 7.269 7.726 8.065 8.389 8.624 7.175 6.664 7.241 7.795 8.235 8.995 8.397 7.321 7.267 7.027 7.432 6.879 7.237 7.066 6.464
