ncols        64
nrows        160
xllcorner    409492.8
yllcorner    6870884.1
cellsize     5.00
NODATA_value -9999
0.000 0.000 0.000 0.000 0.000 0.000 0.000 0.000 0.000 0.000 0.000 0.000 0.000 0.000 0.000 0.000 0.000 0.000 0.000 0.000 0.000 0.000 0.000 0.000 0.000 0.000 0.000 0.000 0.000 0.000 0.000 0.000 0.000 0.000 0.000 0.000 0.000 0.000 0.000 0.000 0.000 0.000 0.000 0.000 0.000 0.000 0.000 0.000 0.000 0.000 0.000 0.000 0.000 0.000 0.000 0.000 0.000 0.000 0.000 0.000 0.000 0.000 0.000 0.000
0.009 2.088 15.959 16.145 15.974 9.214 0.319 0.000 0.000 0.000 0.000 0.000 0.000 0.000 0.000 0.000 0.000 0.000 0.000 0.000 0.000 0.000 0.000 0.000 0.000 0.000 0.000 0.000 0.000 0.000 0.000 0.000 0.000 0.000 0.000 0.000 0.000 0.000 0.000 0.000 0.000 0.000 0.000 0.000 0.000 0.000 0.000 0.000 0.000 0.000 0.000 0.000 0.000 0.000 0.000 0.000 0.000 0.000 0.000 0.000 0.000 0.000 0.000 0.000
1.393 15.543 15.711 16.590 16.251 15.549 9.550 0.006 0.000 0.000 0.000 0.000 0.000 0.000 0.000 0.000 0.000 0.000 0.000 0.000 0.000 0.000 0.000 0.000 0.000 0.000 0.000 0.000 0.000 0.000 0.000 0.000 0.000 0.000 0.000 0.000 0.000 0.000 0.000 0.000 0.000 0.000 0.000 0.000 0.000 0.000 0.000 0.000 0.000 0.000 0.000 0.000 0.000 0.000 0.000 0.000 0.000 0.000 0.000 0.000 0.000 0.000 0.000 0.000
5.369 16.768 15.919 17.034 17.798 17.098 15.109 2.279 0.000 0.000 0.000 0.000 0.000 0.000 0.000 0.000 0.000 0.000 0.000 0.000 0.000 0.000 0.000 0.000 0.000 0.000 0.000 0.000 0.000 0.000 0.000 0.000 0.000 0.000 0.000 0.000 0.000 0.000 0.000 0.000 0.000 0.000 0.000 0.000 0.000 0.000 0.000 0.000 0.000 0.000 0.000 0.000 0.000 0.000 0.000 0.000 0.000 0.000 0.000 0.000 0.000 0.000 0.000 0.000
11.402 17.512 18.312 17.417 17.541 17.578 16.583 11.344 0.327 0.000 0.000 0.000 0.000 0.000 0.000 0.000 0.000 0.000 0.000 0.000 0.000 0.000 0.000 0.000 0.000 0.000 0.000 0.000 0.000 0.000 0.000 0.000 0.000 0.000 0.000 0.000 0.000 0.000 0.000 0.000 0.000 0.000 0.000 0.000 0.000 0.000 0.000 0.000 0.000 0.000 0.000 0.000 0.000 0.000 0.000 0.000 0.000 0.000 0.000 0.000 0.000 0.000 0.000 0.000
16.837 19.769 19.870 18.816 16.009 16.640 17.589 14.689 6.369 0.011 0.000 0.000 0.000 0.000 0.000 0.000 0.000 0.000 0.000 0.000 0.000 0.000 0.000 0.000 0.000 0.000 0.000 0.000 0.000 0.000 0.000 0.000 0.000 0.000 0.000 0.000 0.000 0.000 0.000 0.000 0.000 0.000 0.000 0.000 0.000 0.000 0.000 0.000 0.000 0.000 0.000 0.000 0.000 0.000 0.000 0.000 0.000 0.000 0.000 0.000 0.000 0.000 0.000 0.000
16.819 19.742 20.688 19.904 17.577 17.908 18.581 16.271 13.136 2.152 0.000 0.000 0.000 0.000 0.000 0.000 0.000 0.000 0.000 0.000 0.000 0.000 0.000 0.000 0.000 0.000 0.000 0.000 0.000 0.000 0.000 0.000 0.000 0.000 0.000 0.000 0.000 0.000 0.000 0.000 0.000 0.000 0.000 0.000 0.000 0.000 0.000 0.000 0.000 0.000 0.000 0.000 0.000 0.000 0.000 0.000 0.000 0.000 0.000 0.000 0.000 0.000 0.000 0.000
15.134 19.512 20.167 21.299 20.316 19.449 20.828 18.542 15.359 9.192 0.248 0.000 0.000 0.000 0.000 0.000 0.000 0.000 0.000 0.000 0.000 0.000 0.000 0.000 0.000 0.000 0.000 0.000 0.000 0.000 0.000 0.000 0.000 0.000 0.000 0.000 0.000 0.000 0.000 0.000 0.000 0.000 0.000 0.000 0.000 0.000 0.000 0.000 0.000 0.000 0.000 0.000 0.000 0.000 0.000 0.000 0.000 0.000 0.000 0.000 0.000 0.000 0.000 0.000
12.687 18.997 21.812 21.484 21.520 21.815 22.655 20.353 17.924 13.347 4.818 0.001 0.000 0.000 0.000 0.000 0.000 0.000 0.000 0.000 0.000 0.000 0.000 0.000 0.000 0.000 0.000 0.000 0.000 0.000 0.000 0.000 0.000 0.000 0.000 0.000 0.000 0.000 0.000 0.000 0.000 0.000 0.000 0.000 0.000 0.000 0.000 0.000 0.000 0.000 0.000 0.000 0.000 0.000 0.000 0.000 0.000 0.000 0.000 0.000 0.000 0.000 0.000 0.000
9.841 18.783 20.846 21.555 21.152 23.196 22.396 20.861 19.655 15.294 10.725 0.691 0.000 0.000 0.000 0.000 0.000 0.000 0.000 0.000 0.000 0.000 0.000 0.000 0.000 0.000 0.000 0.000 0.000 0.000 0.000 0.000 0.000 0.000 0.000 0.000 0.000 0.000 0.000 0.000 0.000 0.000 0.000 0.000 0.000 0.000 0.000 0.000 0.000 0.000 0.000 0.000 0.000 0.000 0.000 0.000 0.000 0.000 0.000 0.000 0.000 0.000 0.000 0.000
6.536 18.015 20.924 21.765 22.338 23.303 23.295 20.710 23.478 18.062 13.911 5.648 0.014 0.000 0.000 0.000 0.000 0.000 0.000 0.000 0.000 0.000 0.000 0.000 0.000 0.000 0.000 0.000 0.000 0.000 0.000 0.000 0.000 0.000 0.000 0.000 0.000 0.000 0.000 0.000 0.000 0.000 0.000 0.000 0.000 0.000 0.000 0.000 0.000 0.000 0.000 0.000 0.000 0.000 0.000 0.000 0.000 0.000 0.000 0.000 0.000 0.000 0.000 0.000
3.440 16.741 20.509 23.010 22.778 21.858 22.755 23.648 25.851 21.709 14.572 9.563 1.565 0.000 0.000 0.000 0.000 0.000 0.000 0.000 0.000 0.000 0.000 0.000 0.000 0.000 0.000 0.000 0.000 0.000 0.000 0.000 0.000 0.000 0.000 0.000 0.000 0.000 0.000 0.000 0.000 0.000 0.000 0.000 0.000 0.000 0.000 0.000 0.000 0.000 0.000 0.000 0.000 0.000 0.000 0.000 0.000 0.000 0.000 0.000 0.000 0.000 0.000 0.000
1.354 13.501 19.213 23.164 26.007 24.071 21.231 23.967 26.507 21.370 15.070 11.829 6.191 0.062 0.000 0.000 0.000 0.000 0.000 0.000 0.000 0.000 0.000 0.000 0.000 0.000 0.000 0.000 0.000 0.000 0.000 0.000 0.000 0.000 0.000 0.000 0.000 0.000 0.000 0.000 0.000 0.000 0.000 0.000 0.000 0.000 0.000 0.000 0.000 0.000 0.000 0.000 0.000 0.000 0.000 0.000 0.000 0.000 0.000 0.000 0.000 0.000 0.000 0.000
0.357 9.495 17.572 22.515 24.305 23.077 20.981 22.383 24.604 21.409 16.955 14.931 10.260 2.323 0.000 0.000 0.000 0.000 0.000 0.000 0.000 0.000 0.000 0.000 0.000 0.000 0.000 0.000 0.000 0.000 0.000 0.000 0.000 0.000 0.000 0.000 0.000 0.000 0.000 0.000 0.000 0.000 0.000 0.000 0.000 0.000 0.000 0.000 0.000 0.000 0.000 0.000 0.000 0.000 0.000 0.000 0.000 0.000 0.000 0.000 0.000 0.000 0.000 0.000
0.057 5.629 15.056 19.695 22.409 22.297 19.691 20.501 22.721 23.296 19.377 15.712 12.575 6.827 0.112 0.000 0.000 0.000 0.000 0.000 0.000 0.000 0.000 0.000 0.000 0.000 0.000 0.000 0.000 0.000 0.000 0.000 0.000 0.000 0.000 0.000 0.000 0.000 0.000 0.000 0.000 0.000 0.000 0.000 0.000 0.000 0.000 0.000 0.000 0.000 0.000 0.000 0.000 0.000 0.000 0.000 0.000 0.000 0.000 0.000 0.000 0.000 0.000 0.000
0.007 2.880 12.818 18.805 20.024 24.168 23.165 20.847 22.810 23.695 19.543 17.249 13.026 10.219 2.546 0.001 0.000 0.000 0.000 0.000 0.000 0.000 0.000 0.000 0.000 0.000 0.000 0.000 0.000 0.000 0.000 0.000 0.000 0.000 0.000 0.000 0.000 0.000 0.000 0.000 0.000 0.000 0.000 0.000 0.000 0.000 0.000 0.000 0.000 0.000 0.000 0.000 0.000 0.000 0.000 0.000 0.000 0.000 0.000 0.000 0.000 0.000 0.000 0.000
0.000 1.225 10.302 16.493 21.926 22.591 23.638 22.353 23.375 24.897 21.853 20.147 14.822 10.775 6.281 0.487 0.000 0.000 0.000 0.000 0.000 0.000 0.000 0.000 0.000 0.000 0.000 0.000 0.000 0.000 0.000 0.000 0.000 0.000 0.000 0.000 0.000 0.000 0.000 0.000 0.000 0.000 0.000 0.000 0.000 0.000 0.000 0.000 0.000 0.000 0.000 0.000 0.000 0.000 0.000 0.000 0.000 0.000 0.000 0.000 0.000 0.000 0.000 0.000
0.000 0.421 8.392 14.225 20.055 22.104 22.752 22.223 22.663 23.657 22.919 21.038 16.406 11.296 8.667 4.159 0.279 0.000 0.000 0.000 0.000 0.000 0.000 0.000 0.000 0.000 0.000 0.000 0.000 0.000 0.000 0.000 0.000 0.000 0.000 0.000 0.000 0.000 0.000 0.000 0.000 0.000 0.000 0.000 0.000 0.000 0.000 0.000 0.000 0.000 0.000 0.000 0.000 0.000 0.000 0.000 0.000 0.000 0.000 0.000 0.000 0.000 0.000 0.000
0.000 0.181 7.030 12.670 18.494 24.004 24.227 20.856 20.817 22.057 24.009 21.945 16.970 12.691 9.069 6.854 3.451 0.337 0.001 0.000 0.000 0.000 0.000 0.000 0.000 0.000 0.000 0.000 0.000 0.000 0.000 0.000 0.000 0.000 0.000 0.000 0.000 0.000 0.000 0.000 0.000 0.000 0.000 0.000 0.000 0.000 0.000 0.000 0.000 0.000 0.000 0.000 0.000 0.000 0.000 0.000 0.000 0.000 0.000 0.000 0.000 0.000 0.000 0.000
0.000 0.201 6.273 12.462 19.137 22.295 23.629 22.311 21.647 22.240 23.458 22.434 17.895 12.629 9.585 8.162 6.813 3.510 0.518 0.008 0.000 0.000 0.000 0.000 0.000 0.000 0.000 0.000 0.000 0.000 0.000 0.000 0.000 0.000 0.000 0.000 0.000 0.000 0.000 0.000 0.000 0.000 0.000 0.000 0.000 0.000 0.000 0.000 0.000 0.000 0.000 0.000 0.000 0.000 0.000 0.000 0.000 0.000 0.000 0.000 0.000 0.000 0.000 0.000
0.000 0.167 5.163 11.578 18.335 22.599 23.384 21.217 22.098 24.338 23.640 22.331 17.341 13.377 10.076 8.681 8.493 6.647 3.795 0.982 0.066 0.000 0.000 0.000 0.000 0.000 0.000 0.000 0.000 0.000 0.000 0.000 0.000 0.000 0.000 0.000 0.000 0.000 0.000 0.000 0.000 0.000 0.000 0.000 0.000 0.000 0.000 0.000 0.000 0.000 0.000 0.000 0.000 0.000 0.000 0.000 0.000 0.000 0.000 0.000 0.000 0.000 0.000 0.000
0.000 0.082 3.755 10.164 15.468 23.280 25.767 24.433 25.890 25.283 22.464 21.684 16.237 14.491 11.038 9.161 9.968 8.518 6.804 4.652 2.037 0.056 0.000 0.000 0.000 0.000 0.000 0.000 0.000 0.000 0.000 0.000 0.000 0.000 0.000 0.000 0.000 0.000 0.000 0.000 0.000 0.000 0.000 0.000 0.000 0.000 0.000 0.000 0.000 0.000 0.000 0.000 0.000 0.000 0.000 0.000 0.000 0.000 0.000 0.000 0.000 0.000 0.000 0.000
0.000 0.051 2.517 8.892 12.680 21.080 25.339 26.959 26.905 23.559 23.290 20.102 16.524 15.688 14.373 10.535 10.602 9.292 8.477 7.046 5.458 1.920 0.000 0.000 0.000 0.000 0.000 0.000 0.000 0.000 0.000 0.000 0.000 0.000 0.000 0.000 0.000 0.000 0.000 0.000 0.000 0.000 0.000 0.000 0.000 0.000 0.000 0.000 0.000 0.000 0.000 0.000 0.000 0.000 0.000 0.000 0.000 0.000 0.000 0.000 0.000 0.000 0.000 0.000
0.000 0.025 1.684 7.516 11.316 18.052 23.357 24.826 26.177 24.655 20.563 19.122 17.302 17.206 16.328 10.969 9.903 9.685 9.083 8.391 7.087 5.110 0.261 0.000 0.000 0.000 0.000 0.000 0.000 0.000 0.000 0.000 0.000 0.000 0.000 0.000 0.000 0.000 0.000 0.000 0.000 0.000 0.000 0.000 0.000 0.000 0.000 0.000 0.000 0.000 0.000 0.000 0.000 0.000 0.000 0.000 0.000 0.000 0.000 0.000 0.000 0.000 0.000 0.000
0.000 0.009 1.026 6.260 9.901 16.617 22.898 23.876 25.189 24.214 19.316 19.185 17.556 17.700 16.992 13.175 10.168 9.826 9.475 8.383 7.990 6.685 2.750 0.003 0.000 0.000 0.000 0.000 0.000 0.000 0.000 0.000 0.000 0.000 0.000 0.000 0.000 0.000 0.000 0.000 0.000 0.000 0.000 0.000 0.000 0.000 0.000 0.000 0.000 0.000 0.000 0.000 0.000 0.000 0.000 0.000 0.000 0.000 0.000 0.000 0.000 0.000 0.000 0.000
0.000 0.002 0.561 5.140 8.718 12.525 21.155 22.323 24.637 23.838 22.426 18.599 16.012 14.884 16.846 16.130 11.084 9.412 9.349 8.843 8.833 6.787 4.911 0.690 0.006 0.000 0.000 0.000 0.000 0.000 0.000 0.000 0.000 0.000 0.000 0.000 0.000 0.000 0.000 0.000 0.000 0.000 0.000 0.000 0.000 0.000 0.000 0.000 0.000 0.000 0.000 0.000 0.000 0.000 0.000 0.000 0.000 0.000 0.000 0.000 0.000 0.000 0.000 0.000
0.000 0.000 0.323 4.320 8.118 10.382 20.274 23.345 24.671 26.998 24.398 20.229 16.140 13.700 17.522 17.310 13.038 9.189 9.413 9.430 8.546 7.311 5.231 3.519 0.105 0.000 0.000 0.000 0.000 0.000 0.000 0.000 0.000 0.000 0.000 0.000 0.000 0.000 0.000 0.000 0.000 0.000 0.000 0.000 0.000 0.000 0.000 0.000 0.000 0.000 0.000 0.000 0.000 0.000 0.000 0.000 0.000 0.000 0.000 0.000 0.000 0.000 0.000 0.000
0.000 0.000 0.167 3.926 7.709 9.890 19.005 23.242 24.750 27.447 27.076 24.358 22.769 23.235 16.414 19.586 14.399 10.279 10.772 9.491 7.449 7.574 4.703 4.443 0.291 0.000 0.000 0.000 0.000 0.000 0.000 0.000 0.000 0.000 0.000 0.000 0.000 0.000 0.000 0.000 0.000 0.000 0.000 0.000 0.000 0.000 0.000 0.000 0.000 0.000 0.000 0.000 0.000 0.000 0.000 0.000 0.000 0.000 0.000 0.000 0.000 0.000 0.000 0.000
0.000 0.000 0.177 3.554 7.530 9.268 18.405 22.388 25.593 26.149 26.405 25.232 25.127 21.807 22.402 15.878 15.917 12.026 9.574 9.130 8.462 7.160 5.654 4.827 2.147 0.000 0.000 0.000 0.000 0.000 0.000 0.000 0.000 0.000 0.000 0.000 0.000 0.000 0.000 0.000 0.000 0.000 0.000 0.000 0.000 0.000 0.000 0.000 0.000 0.000 0.000 0.000 0.000 0.000 0.000 0.000 0.000 0.000 0.000 0.000 0.000 0.000 0.000 0.000
0.000 0.000 0.156 2.981 7.023 9.312 16.388 23.366 23.421 24.674 25.658 24.740 23.309 23.564 21.488 16.971 15.740 13.944 9.815 9.399 8.094 6.684 6.412 5.712 4.662 0.000 0.000 0.000 0.000 0.000 0.000 0.000 0.000 0.000 0.000 0.000 0.000 0.000 0.000 0.000 0.000 0.000 0.000 0.000 0.000 0.000 0.000 0.000 0.000 0.000 0.000 0.000 0.000 0.000 0.000 0.000 0.000 0.000 0.000 0.000 0.000 0.000 0.000 0.000
0.000 0.000 0.090 2.083 6.331 8.624 14.189 21.280 23.477 22.922 24.779 23.165 22.213 23.171 22.442 20.273 12.525 13.521 11.195 9.419 8.698 7.762 7.392 6.147 5.802 0.000 0.000 0.000 0.000 0.000 0.000 0.000 0.000 0.000 0.000 0.000 0.000 0.000 0.000 0.000 0.000 0.000 0.000 0.000 0.000 0.000 0.000 0.000 0.000 0.000 0.000 0.000 0.000 0.000 0.000 0.000 0.000 0.000 0.000 0.000 0.000 0.000 0.000 0.000
0.000 0.000 0.021 1.240 5.131 7.945 11.640 20.227 23.447 24.550 23.526 23.666 24.281 21.739 22.195 19.323 16.093 12.047 12.762 10.991 10.680 9.033 7.411 5.842 5.968 0.092 0.000 0.000 0.000 0.000 0.000 0.000 0.000 0.000 0.000 0.000 0.000 0.000 0.000 0.000 0.000 0.000 0.000 0.000 0.000 0.000 0.000 0.000 0.000 0.000 0.000 0.000 0.000 0.000 0.000 0.000 0.000 0.000 0.000 0.000 0.000 0.000 0.000 0.000
0.000 0.000 0.001 0.348 3.732 6.648 10.127 17.869 22.094 24.241 25.091 23.975 24.131 23.004 22.151 18.927 19.553 15.667 14.897 13.619 9.993 8.671 6.951 5.502 6.101 1.553 0.000 0.000 0.000 0.000 0.000 0.000 0.000 0.000 0.000 0.000 0.000 0.000 0.000 0.000 0.000 0.000 0.000 0.000 0.000 0.000 0.000 0.000 0.000 0.000 0.000 0.000 0.000 0.000 0.000 0.000 0.000 0.000 0.000 0.000 0.000 0.000 0.000 0.000
0.000 0.000 0.000 0.077 2.558 6.575 9.433 17.162 21.489 23.740 23.599 24.951 24.261 22.143 21.100 19.886 20.388 18.762 14.153 14.417 10.466 8.550 6.839 6.104 6.084 3.345 0.000 0.000 0.000 0.000 0.000 0.000 0.000 0.000 0.000 0.000 0.000 0.000 0.000 0.000 0.000 0.000 0.000 0.000 0.000 0.000 0.000 0.000 0.000 0.000 0.000 0.000 0.000 0.000 0.000 0.000 0.000 0.000 0.000 0.000 0.000 0.000 0.000 0.000
0.000 0.000 0.000 0.024 1.389 5.667 8.435 16.910 19.492 23.838 22.862 23.584 22.807 20.569 20.861 20.244 20.423 17.936 15.231 14.029 11.520 9.398 7.352 6.420 5.615 4.391 0.000 0.000 0.000 0.000 0.000 0.000 0.000 0.000 0.000 0.000 0.000 0.000 0.000 0.000 0.000 0.000 0.000 0.000 0.000 0.000 0.000 0.000 0.000 0.000 0.000 0.000 0.000 0.000 0.000 0.000 0.000 0.000 0.000 0.000 0.000 0.000 0.000 0.000
0.000 0.000 0.000 0.004 0.630 3.994 7.057 13.644 19.101 22.017 23.184 23.480 23.474 21.209 20.411 23.191 21.114 18.059 17.922 13.441 13.110 9.209 7.782 6.640 5.530 5.389 0.032 0.000 0.000 0.000 0.000 0.000 0.000 0.000 0.000 0.000 0.000 0.000 0.000 0.000 0.000 0.000 0.000 0.000 0.000 0.000 0.000 0.000 0.000 0.000 0.000 0.000 0.000 0.000 0.000 0.000 0.000 0.000 0.000 0.000 0.000 0.000 0.000 0.000
0.000 0.000 0.000 0.000 0.177 2.352 5.946 11.596 16.490 19.737 22.417 23.168 22.473 22.922 23.522 22.627 21.059 19.546 16.009 15.263 13.388 9.529 8.216 7.110 6.323 6.155 0.964 0.000 0.000 0.000 0.000 0.000 0.000 0.000 0.000 0.000 0.000 0.000 0.000 0.000 0.000 0.000 0.000 0.000 0.000 0.000 0.000 0.000 0.000 0.000 0.000 0.000 0.000 0.000 0.000 0.000 0.000 0.000 0.000 0.000 0.000 0.000 0.000 0.000
0.000 0.000 0.000 0.000 0.005 1.041 4.599 9.501 15.471 18.004 20.336 21.638 21.366 21.685 23.974 22.722 20.095 17.715 18.309 17.968 14.126 10.350 8.724 7.578 7.039 5.824 2.562 0.000 0.000 0.000 0.000 0.000 0.000 0.000 0.000 0.000 0.000 0.000 0.000 0.000 0.000 0.000 0.000 0.000 0.000 0.000 0.000 0.000 0.000 0.000 0.000 0.000 0.000 0.000 0.000 0.000 0.000 0.000 0.000 0.000 0.000 0.000 0.000 0.000
0.000 0.000 0.000 0.000 0.000 0.018 3.543 8.317 12.793 16.781 19.207 20.271 19.865 20.713 24.010 20.582 20.090 20.103 18.866 17.525 13.337 11.440 9.793 8.630 7.898 5.744 3.885 0.006 0.000 0.000 0.000 0.000 0.000 0.000 0.000 0.000 0.000 0.000 0.000 0.000 0.000 0.000 0.000 0.000 0.000 0.000 0.000 0.000 0.000 0.000 0.000 0.000 0.000 0.000 0.000 0.000 0.000 0.000 0.000 0.000 0.000 0.000 0.000 0.000
0.000 0.000 0.000 0.000 0.000 0.000 1.931 8.110 11.559 15.750 18.540 19.533 20.255 21.819 22.677 22.378 21.341 17.975 17.641 16.405 13.883 12.940 10.479 9.144 8.415 6.359 4.921 0.458 0.000 0.000 0.000 0.000 0.000 0.000 0.000 0.000 0.000 0.000 0.000 0.000 0.000 0.000 0.000 0.000 0.000 0.000 0.000 0.000 0.000 0.000 0.000 0.000 0.000 0.000 0.000 0.000 0.000 0.000 0.000 0.000 0.000 0.000 0.000 0.000
0.000 0.000 0.000 0.000 0.000 0.000 0.453 6.541 9.667 13.751 16.746 20.110 20.914 21.692 21.257 21.679 19.044 16.125 16.462 17.898 15.021 13.373 10.720 9.618 8.981 6.195 4.939 1.529 0.008 0.000 0.000 0.000 0.000 0.000 0.000 0.000 0.000 0.000 0.000 0.000 0.000 0.000 0.000 0.000 0.000 0.000 0.000 0.000 0.000 0.000 0.000 0.000 0.000 0.000 0.000 0.000 0.000 0.000 0.000 0.000 0.000 0.000 0.000 0.000
0.000 0.000 0.000 0.000 0.000 0.000 0.278 5.148 8.213 11.821 15.153 18.153 20.425 21.675 22.108 20.800 17.642 18.167 18.182 19.286 15.787 14.444 11.821 10.593 9.156 6.595 4.827 2.537 0.695 0.000 0.000 0.000 0.000 0.000 0.000 0.000 0.000 0.000 0.000 0.000 0.000 0.000 0.000 0.000 0.000 0.000 0.000 0.000 0.000 0.000 0.000 0.000 0.000 0.000 0.000 0.000 0.000 0.000 0.000 0.000 0.000 0.000 0.000 0.000
0.000 0.000 0.000 0.000 0.000 0.000 0.185 4.708 7.446 10.402 14.252 17.329 17.945 20.837 20.619 19.028 17.628 17.621 18.229 19.022 16.595 14.854 13.683 11.056 9.582 6.185 4.592 4.662 3.116 0.000 0.000 0.000 0.000 0.000 0.000 0.000 0.000 0.000 0.000 0.000 0.000 0.000 0.000 0.000 0.000 0.000 0.000 0.000 0.000 0.000 0.000 0.000 0.000 0.000 0.000 0.000 0.000 0.000 0.000 0.000 0.000 0.000 0.000 0.000
0.000 0.000 0.000 0.000 0.000 0.000 0.034 3.661 6.573 9.271 12.895 16.627 18.753 19.380 18.777 18.141 18.578 19.543 20.499 18.300 17.654 15.440 13.281 10.898 8.260 5.681 5.610 5.546 4.093 0.044 0.000 0.000 0.000 0.000 0.000 0.000 0.000 0.000 0.000 0.000 0.000 0.000 0.000 0.000 0.000 0.000 0.000 0.000 0.000 0.000 0.000 0.000 0.000 0.000 0.000 0.000 0.000 0.000 0.000 0.000 0.000 0.000 0.000 0.000
0.000 0.000 0.000 0.000 0.000 0.000 0.001 3.064 5.779 8.239 11.232 14.528 17.411 17.673 18.934 17.718 19.752 18.213 19.832 18.803 17.650 16.627 15.029 11.042 7.802 6.524 6.065 5.243 4.322 0.946 0.000 0.000 0.000 0.000 0.000 0.000 0.000 0.000 0.000 0.000 0.000 0.000 0.000 0.000 0.000 0.000 0.000 0.000 0.000 0.000 0.000 0.000 0.000 0.000 0.000 0.000 0.000 0.000 0.000 0.000 0.000 0.000 0.000 0.000
0.000 0.000 0.000 0.000 0.000 0.000 0.000 1.075 4.964 7.450 9.889 13.074 15.189 17.303 17.755 19.527 18.609 19.766 18.248 19.035 18.611 18.303 13.922 10.691 8.286 6.975 6.398 5.378 4.367 2.423 0.002 0.000 0.000 0.000 0.000 0.000 0.000 0.000 0.000 0.000 0.000 0.000 0.000 0.000 0.000 0.000 0.000 0.000 0.000 0.000 0.000 0.000 0.000 0.000 0.000 0.000 0.000 0.000 0.000 0.000 0.000 0.000 0.000 0.000
0.000 0.000 0.000 0.000 0.000 0.000 0.000 0.158 2.893 5.471 8.098 10.838 13.981 16.701 18.087 19.229 19.879 20.231 16.928 18.628 18.820 18.214 12.929 10.674 9.353 8.296 6.675 5.687 4.023 3.405 0.347 0.000 0.000 0.000 0.000 0.000 0.000 0.000 0.000 0.000 0.000 0.000 0.000 0.000 0.000 0.000 0.000 0.000 0.000 0.000 0.000 0.000 0.000 0.000 0.000 0.000 0.000 0.000 0.000 0.000 0.000 0.000 0.000 0.000
0.000 0.000 0.000 0.000 0.000 0.000 0.000 0.034 1.415 4.057 7.053 10.231 14.151 16.442 19.265 19.109 20.763 19.724 20.036 20.397 19.582 18.099 13.786 12.345 11.348 9.108 6.582 6.187 4.441 4.483 2.080 0.000 0.000 0.000 0.000 0.000 0.000 0.000 0.000 0.000 0.000 0.000 0.000 0.000 0.000 0.000 0.000 0.000 0.000 0.000 0.000 0.000 0.000 0.000 0.000 0.000 0.000 0.000 0.000 0.000 0.000 0.000 0.000 0.000
0.000 0.000 0.000 0.000 0.000 0.000 0.000 0.002 0.477 2.498 5.826 8.684 11.384 15.040 17.780 19.514 21.024 19.413 17.757 19.752 20.557 17.774 14.935 14.232 12.443 8.382 7.771 6.473 5.551 5.283 3.494 0.000 0.000 0.000 0.000 0.000 0.000 0.000 0.000 0.000 0.000 0.000 0.000 0.000 0.000 0.000 0.000 0.000 0.000 0.000 0.000 0.000 0.000 0.000 0.000 0.000 0.000 0.000 0.000 0.000 0.000 0.000 0.000 0.000
0.000 0.000 0.000 0.000 0.000 0.000 0.000 0.000 0.084 1.538 4.372 7.152 10.359 13.863 16.020 18.675 18.907 18.234 18.730 18.246 20.238 18.323 16.797 15.691 13.630 10.270 9.182 6.442 6.504 5.624 3.864 0.062 0.000 0.000 0.000 0.000 0.000 0.000 0.000 0.000 0.000 0.000 0.000 0.000 0.000 0.000 0.000 0.000 0.000 0.000 0.000 0.000 0.000 0.000 0.000 0.000 0.000 0.000 0.000 0.000 0.000 0.000 0.000 0.000
0.000 0.000 0.000 0.000 0.000 0.000 0.000 0.000 0.004 0.471 2.267 5.396 7.886 10.685 15.514 16.475 16.985 17.855 18.932 20.830 20.633 19.003 17.680 16.745 15.203 11.670 8.833 7.418 7.150 5.836 4.494 1.131 0.000 0.000 0.000 0.000 0.000 0.000 0.000 0.000 0.000 0.000 0.000 0.000 0.000 0.000 0.000 0.000 0.000 0.000 0.000 0.000 0.000 0.000 0.000 0.000 0.000 0.000 0.000 0.000 0.000 0.000 0.000 0.000
0.000 0.000 0.000 0.000 0.000 0.000 0.000 0.000 0.000 0.040 0.826 2.965 6.444 9.502 12.449 15.407 17.504 18.472 19.912 18.086 18.941 19.179 17.347 16.925 15.451 11.295 8.768 9.294 7.504 6.040 5.025 2.840 0.000 0.000 0.000 0.000 0.000 0.000 0.000 0.000 0.000 0.000 0.000 0.000 0.000 0.000 0.000 0.000 0.000 0.000 0.000 0.000 0.000 0.000 0.000 0.000 0.000 0.000 0.000 0.000 0.000 0.000 0.000 0.000
0.000 0.000 0.000 0.000 0.000 0.000 0.000 0.000 0.000 0.000 0.152 1.609 4.667 7.421 10.946 13.657 15.955 17.374 17.226 15.374 19.599 17.667 16.936 17.586 16.519 12.200 11.517 9.865 7.124 5.764 5.755 4.130 0.079 0.000 0.000 0.000 0.000 0.000 0.000 0.000 0.000 0.000 0.000 0.000 0.000 0.000 0.000 0.000 0.000 0.000 0.000 0.000 0.000 0.000 0.000 0.000 0.000 0.000 0.000 0.000 0.000 0.000 0.000 0.000
0.000 0.000 0.000 0.000 0.000 0.000 0.000 0.000 0.000 0.000 0.002 0.274 2.152 4.941 7.364 11.107 15.011 16.449 15.118 16.893 20.206 19.487 17.717 18.346 16.013 13.162 12.805 8.749 6.620 6.695 6.210 4.867 1.180 0.001 0.000 0.000 0.000 0.000 0.000 0.000 0.000 0.000 0.000 0.000 0.000 0.000 0.000 0.000 0.000 0.000 0.000 0.000 0.000 0.000 0.000 0.000 0.000 0.000 0.000 0.000 0.000 0.000 0.000 0.000
0.000 0.000 0.000 0.000 0.000 0.000 0.000 0.000 0.000 0.000 0.000 0.004 0.420 3.220 5.456 8.312 11.631 14.067 16.702 18.129 17.648 19.008 18.807 17.849 16.215 14.376 12.354 9.072 7.749 7.585 6.168 4.800 1.992 0.173 0.000 0.000 0.000 0.000 0.000 0.000 0.000 0.000 0.000 0.000 0.000 0.000 0.000 0.000 0.000 0.000 0.000 0.000 0.000 0.000 0.000 0.000 0.000 0.000 0.000 0.000 0.000 0.000 0.000 0.000
0.000 0.000 0.000 0.000 0.000 0.000 0.000 0.000 0.000 0.000 0.000 0.000 0.007 0.865 3.752 5.978 8.754 12.418 14.984 16.386 16.974 18.841 18.059 16.550 15.933 15.443 13.982 10.991 9.411 7.609 6.262 4.581 3.679 1.781 0.000 0.000 0.000 0.000 0.000 0.000 0.000 0.000 0.000 0.000 0.000 0.000 0.000 0.000 0.000 0.000 0.000 0.000 0.000 0.000 0.000 0.000 0.000 0.000 0.000 0.000 0.000 0.000 0.000 0.000
0.000 0.000 0.000 0.000 0.000 0.000 0.000 0.000 0.000 0.000 0.000 0.000 0.000 0.050 1.863 3.994 6.108 9.689 12.747 14.513 15.899 17.069 18.175 19.564 16.000 16.980 15.811 12.940 9.577 7.533 5.830 4.681 4.701 3.265 0.001 0.000 0.000 0.000 0.000 0.000 0.000 0.000 0.000 0.000 0.000 0.000 0.000 0.000 0.000 0.000 0.000 0.000 0.000 0.000 0.000 0.000 0.000 0.000 0.000 0.000 0.000 0.000 0.000 0.000
0.000 0.000 0.000 0.000 0.000 0.000 0.000 0.000 0.000 0.000 0.000 0.000 0.000 0.001 0.317 3.028 4.884 7.416 11.365 13.615 15.349 16.906 18.657 18.496 16.281 17.879 17.542 13.517 10.128 7.586 5.912 5.626 5.357 3.898 0.152 0.000 0.000 0.000 0.000 0.000 0.000 0.000 0.000 0.000 0.000 0.000 0.000 0.000 0.000 0.000 0.000 0.000 0.000 0.000 0.000 0.000 0.000 0.000 0.000 0.000 0.000 0.000 0.000 0.000
0.000 0.000 0.000 0.000 0.000 0.000 0.000 0.000 0.000 0.000 0.000 0.000 0.000 0.000 0.060 1.634 3.970 5.676 9.481 12.565 16.323 17.802 17.705 17.821 17.475 19.031 17.047 13.166 10.270 8.062 6.786 6.314 5.579 4.046 1.281 0.000 0.000 0.000 0.000 0.000 0.000 0.000 0.000 0.000 0.000 0.000 0.000 0.000 0.000 0.000 0.000 0.000 0.000 0.000 0.000 0.000 0.000 0.000 0.000 0.000 0.000 0.000 0.000 0.000
0.000 0.000 0.000 0.000 0.000 0.000 0.000 0.000 0.000 0.000 0.000 0.000 0.000 0.000 0.003 0.490 2.746 4.805 8.140 11.764 13.807 16.448 16.290 17.715 17.514 15.770 16.619 13.390 11.290 9.125 7.256 7.049 6.133 4.752 2.815 0.000 0.000 0.000 0.000 0.000 0.000 0.000 0.000 0.000 0.000 0.000 0.000 0.000 0.000 0.000 0.000 0.000 0.000 0.000 0.000 0.000 0.000 0.000 0.000 0.000 0.000 0.000 0.000 0.000
0.000 0.000 0.000 0.000 0.000 0.000 0.000 0.000 0.000 0.000 0.000 0.000 0.000 0.000 0.000 0.039 1.641 3.778 6.912 10.551 13.000 14.370 16.323 16.911 16.402 16.658 15.682 14.773 12.123 9.701 8.290 7.865 7.218 6.072 3.663 0.000 0.000 0.000 0.000 0.000 0.000 0.000 0.000 0.000 0.000 0.000 0.000 0.000 0.000 0.000 0.000 0.000 0.000 0.000 0.000 0.000 0.000 0.000 0.000 0.000 0.000 0.000 0.000 0.000
0.000 0.000 0.000 0.000 0.000 0.000 0.000 0.000 0.000 0.000 0.000 0.000 0.000 0.000 0.000 0.003 0.534 2.498 5.435 9.331 11.445 13.983 16.999 17.451 17.225 16.887 14.662 13.865 13.184 12.010 8.590 8.316 8.046 6.896 4.641 0.059 0.000 0.000 0.000 0.000 0.000 0.000 0.000 0.000 0.000 0.000 0.000 0.000 0.000 0.000 0.000 0.000 0.000 0.000 0.000 0.000 0.000 0.000 0.000 0.000 0.000 0.000 0.000 0.000
0.000 0.000 0.000 0.000 0.000 0.000 0.000 0.000 0.000 0.000 0.000 0.000 0.000 0.000 0.000 0.000 0.115 1.366 3.960 8.364 10.679 12.923 16.024 18.779 20.190 16.785 14.116 12.981 13.871 11.166 9.180 8.864 8.845 7.554 5.732 1.214 0.000 0.000 0.000 0.000 0.000 0.000 0.000 0.000 0.000 0.000 0.000 0.000 0.000 0.000 0.000 0.000 0.000 0.000 0.000 0.000 0.000 0.000 0.000 0.000 0.000 0.000 0.000 0.000
0.000 0.000 0.000 0.000 0.000 0.000 0.000 0.000 0.000 0.000 0.000 0.000 0.000 0.000 0.000 0.000 0.000 0.295 2.230 7.385 9.418 11.680 14.703 18.220 20.550 20.415 17.927 16.566 14.465 11.456 11.256 9.062 9.024 8.802 6.581 3.175 0.000 0.000 0.000 0.000 0.000 0.000 0.000 0.000 0.000 0.000 0.000 0.000 0.000 0.000 0.000 0.000 0.000 0.000 0.000 0.000 0.000 0.000 0.000 0.000 0.000 0.000 0.000 0.000
0.000 0.000 0.000 0.000 0.000 0.000 0.000 0.000 0.000 0.000 0.000 0.000 0.000 0.000 0.000 0.000 0.000 0.028 1.488 6.535 9.253 10.540 13.641 17.015 19.257 20.137 20.070 20.195 17.989 14.725 11.249 9.813 9.949 8.830 7.788 4.246 0.000 0.000 0.000 0.000 0.000 0.000 0.000 0.000 0.000 0.000 0.000 0.000 0.000 0.000 0.000 0.000 0.000 0.000 0.000 0.000 0.000 0.000 0.000 0.000 0.000 0.000 0.000 0.000
0.000 0.000 0.000 0.000 0.000 0.000 0.000 0.000 0.000 0.000 0.000 0.000 0.000 0.000 0.000 0.000 0.000 0.019 1.301 5.396 8.276 9.925 12.198 14.887 17.121 19.876 21.342 20.134 18.255 16.418 12.474 9.897 10.035 8.170 8.328 5.540 0.000 0.000 0.000 0.000 0.000 0.000 0.000 0.000 0.000 0.000 0.000 0.000 0.000 0.000 0.000 0.000 0.000 0.000 0.000 0.000 0.000 0.000 0.000 0.000 0.000 0.000 0.000 0.000
0.000 0.000 0.000 0.000 0.000 0.000 0.000 0.000 0.000 0.000 0.000 0.000 0.000 0.000 0.000 0.000 0.000 0.005 0.925 4.648 7.381 9.071 11.028 13.524 16.302 18.773 19.951 19.412 18.622 17.370 13.251 10.181 9.031 8.755 8.235 7.334 0.000 0.000 0.000 0.000 0.000 0.000 0.000 0.000 0.000 0.000 0.000 0.000 0.000 0.000 0.000 0.000 0.000 0.000 0.000 0.000 0.000 0.000 0.000 0.000 0.000 0.000 0.000 0.000
0.000 0.000 0.000 0.000 0.000 0.000 0.000 0.000 0.000 0.000 0.000 0.000 0.000 0.000 0.000 0.000 0.000 0.000 0.144 3.825 6.615 8.435 9.498 11.824 15.441 18.157 18.530 19.274 20.081 18.000 15.052 11.564 9.039 7.404 8.347 8.553 0.003 0.000 0.000 0.000 0.000 0.000 0.000 0.000 0.000 0.000 0.000 0.000 0.000 0.000 0.000 0.000 0.000 0.000 0.000 0.000 0.000 0.000 0.000 0.000 0.000 0.000 0.000 0.000
0.000 0.000 0.000 0.000 0.000 0.000 0.000 0.000 0.000 0.000 0.000 0.000 0.000 0.000 0.000 0.000 0.000 0.000 0.050 2.158 5.854 7.581 8.484 10.862 13.979 16.819 18.624 18.091 18.676 16.637 15.837 10.566 8.051 9.414 9.929 8.059 0.488 0.000 0.000 0.000 0.000 0.000 0.000 0.000 0.000 0.000 0.000 0.000 0.000 0.000 0.000 0.000 0.000 0.000 0.000 0.000 0.000 0.000 0.000 0.000 0.000 0.000 0.000 0.000
0.000 0.000 0.000 0.000 0.000 0.000 0.000 0.000 0.000 0.000 0.000 0.000 0.000 0.000 0.000 0.000 0.000 0.000 0.000 0.316 4.712 7.023 7.597 9.772 12.798 16.310 17.078 18.331 18.998 17.872 15.561 11.008 7.856 8.771 9.363 7.901 2.799 0.000 0.000 0.000 0.000 0.000 0.000 0.000 0.000 0.000 0.000 0.000 0.000 0.000 0.000 0.000 0.000 0.000 0.000 0.000 0.000 0.000 0.000 0.000 0.000 0.000 0.000 0.000
0.000 0.000 0.000 0.000 0.000 0.000 0.000 0.000 0.000 0.000 0.000 0.000 0.000 0.000 0.000 0.000 0.000 0.000 0.000 0.000 3.124 6.480 7.430 8.699 10.911 13.189 15.762 17.956 16.965 16.998 15.004 11.864 7.314 6.894 8.599 8.138 4.793 0.076 0.000 0.000 0.000 0.000 0.000 0.000 0.000 0.000 0.000 0.000 0.000 0.000 0.000 0.000 0.000 0.000 0.000 0.000 0.000 0.000 0.000 0.000 0.000 0.000 0.000 0.000
0.000 0.000 0.000 0.000 0.000 0.000 0.000 0.000 0.000 0.000 0.000 0.000 0.000 0.000 0.000 0.000 0.000 0.000 0.000 0.004 2.017 5.712 6.988 7.356 8.793 11.223 15.636 15.814 17.787 17.232 14.837 11.791 7.042 7.273 7.766 7.833 5.469 1.307 0.026 0.000 0.000 0.000 0.000 0.000 0.000 0.000 0.000 0.000 0.000 0.000 0.000 0.000 0.000 0.000 0.000 0.000 0.000 0.000 0.000 0.000 0.000 0.000 0.000 0.000
0.000 0.000 0.000 0.000 0.000 0.000 0.000 0.000 0.000 0.000 0.000 0.000 0.000 0.000 0.000 0.000 0.000 0.000 0.000 0.018 0.930 4.761 6.692 6.784 7.654 10.117 13.288 15.732 16.105 16.719 15.242 10.310 7.350 7.231 7.009 7.939 5.323 3.394 0.710 0.004 0.000 0.000 0.000 0.000 0.000 0.000 0.000 0.000 0.000 0.000 0.000 0.000 0.000 0.000 0.000 0.000 0.000 0.000 0.000 0.000 0.000 0.000 0.000 0.000
0.000 0.000 0.000 0.000 0.000 0.000 0.000 0.000 0.000 0.000 0.000 0.000 0.000 0.000 0.000 0.000 0.000 0.000 0.000 0.000 0.183 3.033 6.119 6.005 6.124 7.910 10.864 14.163 15.641 16.089 13.852 10.405 8.016 8.561 6.654 7.851 5.855 4.543 2.819 0.329 0.000 0.000 0.000 0.000 0.000 0.000 0.000 0.000 0.000 0.000 0.000 0.000 0.000 0.000 0.000 0.000 0.000 0.000 0.000 0.000 0.000 0.000 0.000 0.000
0.000 0.000 0.000 0.000 0.000 0.000 0.000 0.000 0.000 0.000 0.000 0.000 0.000 0.000 0.000 0.000 0.000 0.000 0.000 0.000 0.017 0.818 5.550 5.971 5.683 6.617 9.135 12.627 15.120 14.845 12.992 9.247 9.742 8.478 6.801 8.157 5.931 5.326 4.391 1.836 0.000 0.000 0.000 0.000 0.000 0.000 0.000 0.000 0.000 0.000 0.000 0.000 0.000 0.000 0.000 0.000 0.000 0.000 0.000 0.000 0.000 0.000 0.000 0.000
0.000 0.000 0.000 0.000 0.000 0.000 0.000 0.000 0.000 0.000 0.000 0.000 0.000 0.000 0.000 0.000 0.000 0.000 0.000 0.000 0.000 0.003 4.558 5.708 5.467 5.712 6.826 9.943 12.254 13.295 11.415 10.478 11.480 9.154 7.296 6.629 5.690 6.570 5.597 3.417 0.002 0.000 0.000 0.000 0.000 0.000 0.000 0.000 0.000 0.000 0.000 0.000 0.000 0.000 0.000 0.000 0.000 0.000 0.000 0.000 0.000 0.000 0.000 0.000
0.000 0.000 0.000 0.000 0.000 0.000 0.000 0.000 0.000 0.000 0.000 0.000 0.000 0.000 0.000 0.000 0.000 0.000 0.000 0.000 0.000 0.002 3.638 5.233 5.615 4.956 4.987 7.146 11.322 12.193 11.861 13.152 12.718 9.930 7.442 6.539 6.438 7.270 5.878 4.462 0.174 0.000 0.000 0.000 0.000 0.000 0.000 0.000 0.000 0.000 0.000 0.000 0.000 0.000 0.000 0.000 0.000 0.000 0.000 0.000 0.000 0.000 0.000 0.000
0.000 0.000 0.000 0.000 0.000 0.000 0.000 0.000 0.000 0.000 0.000 0.000 0.000 0.000 0.000 0.000 0.000 0.000 0.000 0.000 0.000 0.010 2.979 4.478 5.264 4.700 4.663 5.711 9.867 12.912 13.392 13.450 13.364 10.258 7.027 6.725 7.118 6.707 6.002 4.477 0.550 0.000 0.000 0.000 0.000 0.000 0.000 0.000 0.000 0.000 0.000 0.000 0.000 0.000 0.000 0.000 0.000 0.000 0.000 0.000 0.000 0.000 0.000 0.000
0.000 0.000 0.000 0.000 0.000 0.000 0.000 0.000 0.000 0.000 0.000 0.000 0.000 0.000 0.000 0.000 0.000 0.000 0.000 0.000 0.000 0.148 2.035 3.723 4.598 4.575 4.242 4.328 7.616 12.090 12.786 12.019 13.323 9.902 7.578 7.173 6.794 6.142 6.308 4.550 2.373 0.004 0.000 0.000 0.000 0.000 0.000 0.000 0.000 0.000 0.000 0.000 0.000 0.000 0.000 0.000 0.000 0.000 0.000 0.000 0.000 0.000 0.000 0.000
0.000 0.000 0.000 0.000 0.000 0.000 0.000 0.000 0.000 0.000 0.000 0.000 0.000 0.000 0.000 0.000 0.000 0.000 0.000 0.000 0.000 0.084 1.464 2.961 3.784 3.900 4.225 3.708 5.207 11.352 12.056 11.784 12.886 10.813 8.613 7.162 6.041 7.111 6.455 5.840 3.908 0.269 0.000 0.000 0.000 0.000 0.000 0.000 0.000 0.000 0.000 0.000 0.000 0.000 0.000 0.000 0.000 0.000 0.000 0.000 0.000 0.000 0.000 0.000
0.000 0.000 0.000 0.000 0.000 0.000 0.000 0.000 0.000 0.000 0.000 0.000 0.000 0.000 0.000 0.000 0.000 0.000 0.000 0.000 0.000 0.000 0.001 2.225 3.148 4.194 4.331 3.572 3.275 10.479 10.822 12.095 12.477 11.692 9.912 7.329 6.931 8.212 7.729 6.785 4.574 2.012 0.012 0.000 0.000 0.000 0.000 0.000 0.000 0.000 0.000 0.000 0.000 0.000 0.000 0.000 0.000 0.000 0.000 0.000 0.000 0.000 0.000 0.000
0.000 0.000 0.000 0.000 0.000 0.000 0.000 0.000 0.000 0.000 0.000 0.000 0.000 0.000 0.000 0.000 0.000 0.000 0.000 0.000 0.000 0.000 0.000 1.691 3.361 3.971 3.988 3.604 2.757 9.240 10.240 11.534 12.943 12.597 10.928 7.578 7.591 8.182 7.519 7.096 5.733 3.140 0.537 0.000 0.000 0.000 0.000 0.000 0.000 0.000 0.000 0.000 0.000 0.000 0.000 0.000 0.000 0.000 0.000 0.000 0.000 0.000 0.000 0.000
0.000 0.000 0.000 0.000 0.000 0.000 0.000 0.000 0.000 0.000 0.000 0.000 0.000 0.000 0.000 0.000 0.000 0.000 0.000 0.000 0.000 0.000 0.000 0.623 2.985 3.388 3.927 3.778 3.604 8.063 10.415 11.682 13.601 13.372 11.938 8.271 8.049 8.076 7.535 7.328 5.912 4.145 2.106 0.061 0.006 0.000 0.000 0.000 0.000 0.000 0.000 0.000 0.000 0.000 0.000 0.000 0.000 0.000 0.000 0.000 0.000 0.000 0.000 0.000
0.000 0.000 0.000 0.000 0.000 0.000 0.000 0.000 0.000 0.000 0.000 0.000 0.000 0.000 0.000 0.000 0.000 0.000 0.000 0.000 0.000 0.000 0.000 0.177 2.270 3.189 3.866 3.942 4.339 8.173 10.980 12.336 13.634 14.523 12.717 10.006 8.122 7.458 6.770 6.436 5.949 4.905 2.993 1.350 0.657 0.000 0.000 0.000 0.000 0.000 0.000 0.000 0.000 0.000 0.000 0.000 0.000 0.000 0.000 0.000 0.000 0.000 0.000 0.000
0.000 0.000 0.000 0.000 0.000 0.000 0.000 0.000 0.000 0.000 0.000 0.000 0.000 0.000 0.000 0.000 0.000 0.000 0.000 0.000 0.000 0.000 0.000 0.212 1.563 2.836 3.690 3.727 4.301 8.531 11.264 13.605 15.581 15.362 13.293 11.038 6.761 6.401 6.656 6.673 7.056 5.177 3.664 3.575 3.165 0.053 0.000 0.000 0.000 0.000 0.000 0.000 0.000 0.000 0.000 0.000 0.000 0.000 0.000 0.000 0.000 0.000 0.000 0.000
0.000 0.000 0.000 0.000 0.000 0.000 0.000 0.000 0.000 0.000 0.000 0.000 0.000 0.000 0.000 0.000 0.000 0.000 0.000 0.000 0.000 0.000 0.000 0.004 1.325 2.878 3.414 3.393 4.139 6.910 10.510 12.659 13.893 13.817 13.084 11.550 6.639 6.326 6.367 7.342 7.125 4.673 4.266 4.514 4.473 1.433 0.000 0.000 0.000 0.000 0.000 0.000 0.000 0.000 0.000 0.000 0.000 0.000 0.000 0.000 0.000 0.000 0.000 0.000
0.000 0.000 0.000 0.000 0.000 0.000 0.000 0.000 0.000 0.000 0.000 0.000 0.000 0.000 0.000 0.000 0.000 0.000 0.000 0.000 0.000 0.000 0.000 0.067 0.882 2.740 2.956 3.448 4.326 6.327 9.398 13.119 13.414 11.758 13.940 10.854 7.321 6.235 6.866 7.258 6.264 5.264 5.701 5.002 5.204 2.184 0.000 0.000 0.000 0.000 0.000 0.000 0.000 0.000 0.000 0.000 0.000 0.000 0.000 0.000 0.000 0.000 0.000 0.000
0.000 0.000 0.000 0.000 0.000 0.000 0.000 0.000 0.000 0.000 0.000 0.000 0.000 0.000 0.000 0.000 0.000 0.000 0.000 0.000 0.000 0.000 0.000 0.000 0.322 1.808 2.414 3.334 3.657 5.160 6.802 10.185 12.062 12.402 12.508 11.081 8.070 5.852 6.807 6.786 7.073 7.088 7.202 4.843 4.038 1.650 0.044 0.000 0.000 0.000 0.000 0.000 0.000 0.000 0.000 0.000 0.000 0.000 0.000 0.000 0.000 0.000 0.000 0.000
0.000 0.000 0.000 0.000 0.000 0.000 0.000 0.000 0.000 0.000 0.000 0.000 0.000 0.000 0.000 0.000 0.000 0.000 0.000 0.000 0.000 0.000 0.000 0.001 0.054 1.337 2.204 2.939 3.138 4.071 4.889 6.735 9.797 10.826 11.805 11.441 9.029 5.888 6.324 6.984 7.470 7.936 7.815 4.908 2.051 3.302 0.950 0.000 0.000 0.000 0.000 0.000 0.000 0.000 0.000 0.000 0.000 0.000 0.000 0.000 0.000 0.000 0.000 0.000
0.000 0.000 0.000 0.000 0.000 0.000 0.000 0.000 0.000 0.000 0.000 0.000 0.000 0.000 0.000 0.000 0.000 0.000 0.000 0.000 0.000 0.000 0.000 0.000 0.099 1.637 3.164 3.060 3.200 2.979 3.269 3.971 8.690 10.861 11.958 11.876 9.655 6.592 6.033 6.996 7.084 8.185 6.652 5.108 1.775 3.768 1.737 0.000 0.000 0.000 0.000 0.000 0.000 0.000 0.000 0.000 0.000 0.000 0.000 0.000 0.000 0.000 0.000 0.000
0.000 0.000 0.000 0.000 0.000 0.000 0.000 0.000 0.000 0.000 0.000 0.000 0.000 0.000 0.000 0.000 0.000 0.000 0.000 0.000 0.000 0.000 0.000 0.000 0.217 2.384 3.160 3.313 3.187 3.271 3.336 3.604 5.495 10.115 11.699 12.561 10.164 7.353 6.339 6.638 7.581 8.754 7.005 5.857 3.820 3.832 2.061 0.038 0.000 0.000 0.000 0.000 0.000 0.000 0.000 0.000 0.000 0.000 0.000 0.000 0.000 0.000 0.000 0.000
0.000 0.000 0.000 0.000 0.000 0.000 0.000 0.000 0.000 0.000 0.000 0.000 0.000 0.000 0.000 0.000 0.000 0.000 0.000 0.000 0.000 0.000 0.000 0.001 1.102 2.686 2.876 3.456 3.387 3.541 3.792 4.040 4.116 8.758 12.299 11.781 10.638 8.471 6.888 6.213 7.120 7.242 7.876 6.248 4.699 3.765 2.934 0.685 0.000 0.000 0.000 0.000 0.000 0.000 0.000 0.000 0.000 0.000 0.000 0.000 0.000 0.000 0.000 0.000
0.000 0.000 0.000 0.000 0.000 0.000 0.000 0.000 0.000 0.000 0.000 0.000 0.000 0.000 0.000 0.000 0.000 0.000 0.000 0.000 0.000 0.000 0.000 0.000 0.354 2.599 3.226 3.313 2.857 3.657 4.456 3.938 4.425 6.756 12.551 12.571 10.909 9.584 7.991 6.480 6.749 6.750 7.495 5.852 5.464 4.193 3.525 2.018 0.121 0.000 0.000 0.000 0.000 0.000 0.000 0.000 0.000 0.000 0.000 0.000 0.000 0.000 0.000 0.000
0.000 0.000 0.000 0.000 0.000 0.000 0.000 0.000 0.000 0.000 0.000 0.000 0.000 0.000 0.000 0.000 0.000 0.000 0.000 0.000 0.000 0.000 0.000 0.000 0.321 2.703 3.177 2.955 2.515 3.486 4.643 3.716 4.462 6.582 12.440 14.563 13.193 10.425 9.030 6.717 6.766 7.239 7.226 6.274 5.719 4.566 3.916 3.116 1.133 0.000 0.000 0.000 0.000 0.000 0.000 0.000 0.000 0.000 0.000 0.000 0.000 0.000 0.000 0.000
0.000 0.000 0.000 0.000 0.000 0.000 0.000 0.000 0.000 0.000 0.000 0.000 0.000 0.000 0.000 0.000 0.000 0.000 0.000 0.000 0.000 0.000 0.000 0.000 0.047 2.358 3.262 3.306 3.229 3.370 4.233 4.048 4.398 6.747 11.384 14.669 14.593 11.950 9.468 7.647 6.556 6.613 6.193 6.614 6.353 5.190 4.527 3.400 1.568 0.017 0.000 0.000 0.000 0.000 0.000 0.000 0.000 0.000 0.000 0.000 0.000 0.000 0.000 0.000
0.000 0.000 0.000 0.000 0.000 0.000 0.000 0.000 0.000 0.000 0.000 0.000 0.000 0.000 0.000 0.000 0.000 0.000 0.000 0.000 0.000 0.000 0.000 0.001 0.163 1.930 3.011 3.327 3.518 3.219 3.657 4.240 4.592 6.788 11.188 14.630 15.373 14.042 9.887 7.546 6.236 6.480 6.640 6.868 6.911 6.018 4.955 3.700 2.907 0.698 0.000 0.000 0.000 0.000 0.000 0.000 0.000 0.000 0.000 0.000 0.000 0.000 0.000 0.000
0.000 0.000 0.000 0.000 0.000 0.000 0.000 0.000 0.000 0.000 0.000 0.000 0.000 0.000 0.000 0.000 0.000 0.000 0.000 0.000 0.000 0.000 0.000 0.000 0.073 1.910 2.611 3.156 3.134 3.149 3.618 4.169 4.845 6.482 10.397 14.973 15.143 12.936 9.617 6.679 6.564 6.347 6.825 7.427 7.132 6.815 5.383 4.981 4.040 2.416 0.009 0.000 0.000 0.000 0.000 0.000 0.000 0.000 0.000 0.000 0.000 0.000 0.000 0.000
0.000 0.000 0.000 0.000 0.000 0.000 0.000 0.000 0.000 0.000 0.000 0.000 0.000 0.000 0.000 0.000 0.000 0.000 0.000 0.000 0.000 0.000 0.000 0.004 0.437 1.907 2.768 2.912 2.755 2.831 3.368 4.049 4.901 6.191 9.352 14.377 15.213 14.367 11.531 7.716 7.125 6.609 7.182 7.629 8.069 6.985 6.753 5.933 4.474 3.333 0.520 0.000 0.000 0.000 0.000 0.000 0.000 0.000 0.000 0.000 0.000 0.000 0.000 0.000
0.000 0.000 0.000 0.000 0.000 0.000 0.000 0.000 0.000 0.000 0.000 0.000 0.000 0.000 0.000 0.000 0.000 0.000 0.000 0.000 0.000 0.000 0.000 0.002 0.236 1.803 2.815 2.676 2.844 2.953 3.524 4.230 4.749 5.641 7.800 11.762 14.999 13.720 11.426 8.604 7.163 7.278 7.637 7.917 7.808 7.635 7.609 5.931 4.528 4.105 2.089 0.009 0.000 0.000 0.000 0.000 0.000 0.000 0.000 0.000 0.000 0.000 0.000 0.000
0.000 0.000 0.000 0.000 0.000 0.000 0.000 0.000 0.000 0.000 0.000 0.000 0.000 0.000 0.000 0.000 0.000 0.000 0.000 0.000 0.000 0.000 0.000 0.000 0.130 1.385 2.986 2.755 2.845 2.910 3.362 4.058 4.516 5.610 7.323 10.829 14.638 12.980 11.440 7.323 7.384 7.741 7.612 7.418 7.544 8.094 7.622 5.431 5.189 4.462 2.897 0.605 0.007 0.000 0.000 0.000 0.000 0.000 0.000 0.000 0.000 0.000 0.000 0.000
0.000 0.000 0.000 0.000 0.000 0.000 0.000 0.000 0.000 0.000 0.000 0.000 0.000 0.000 0.000 0.000 0.000 0.000 0.000 0.000 0.000 0.000 0.000 0.000 0.001 0.256 2.479 2.885 2.722 2.743 3.082 3.697 4.506 5.973 7.561 10.020 12.598 13.786 10.538 7.383 7.219 6.023 6.127 6.541 7.721 8.482 6.948 5.697 5.732 4.808 3.347 2.581 0.537 0.000 0.000 0.000 0.000 0.000 0.000 0.000 0.000 0.000 0.000 0.000
0.000 0.000 0.000 0.000 0.000 0.000 0.000 0.000 0.000 0.000 0.000 0.000 0.000 0.000 0.000 0.000 0.000 0.000 0.000 0.000 0.000 0.000 0.000 0.000 0.001 0.444 1.719 2.919 2.852 2.964 3.340 3.314 5.036 5.818 6.882 7.804 12.852 12.035 10.359 7.792 6.013 5.386 5.991 7.028 8.200 7.341 6.992 7.033 6.310 4.623 4.245 3.640 2.254 0.000 0.000 0.000 0.000 0.000 0.000 0.000 0.000 0.000 0.000 0.000
0.000 0.000 0.000 0.000 0.000 0.000 0.000 0.000 0.000 0.000 0.000 0.000 0.000 0.000 0.000 0.000 0.000 0.000 0.000 0.000 0.000 0.000 0.000 0.000 0.000 0.578 2.098 3.164 3.249 2.855 2.998 4.107 4.667 5.507 5.999 8.049 11.865 12.190 11.753 8.266 6.850 6.360 6.646 7.446 7.553 7.194 7.914 7.077 5.561 5.060 4.491 3.927 3.827 0.000 0.000 0.000 0.000 0.000 0.000 0.000 0.000 0.000 0.000 0.000
0.000 0.000 0.000 0.000 0.000 0.000 0.000 0.000 0.000 0.000 0.000 0.000 0.000 0.000 0.000 0.000 0.000 0.000 0.000 0.000 0.000 0.000 0.000 0.000 0.004 0.880 2.272 3.178 3.453 2.501 3.116 3.692 2.359 4.193 5.828 7.407 11.059 12.967 11.995 8.539 7.088 6.906 7.282 6.957 7.581 7.880 7.419 6.896 5.585 5.244 4.292 4.743 4.217 0.000 0.000 0.000 0.000 0.000 0.000 0.000 0.000 0.000 0.000 0.000
0.000 0.000 0.000 0.000 0.000 0.000 0.000 0.000 0.000 0.000 0.000 0.000 0.000 0.000 0.000 0.000 0.000 0.000 0.000 0.000 0.000 0.000 0.000 0.000 0.002 0.233 1.446 2.780 3.561 2.746 2.683 2.759 2.117 3.664 5.549 7.698 10.525 12.804 12.194 9.118 7.402 7.645 7.131 7.010 7.741 7.317 6.831 6.707 5.851 5.590 5.491 5.340 4.660 0.001 0.000 0.000 0.000 0.000 0.000 0.000 0.000 0.000 0.000 0.000
0.000 0.000 0.000 0.000 0.000 0.000 0.000 0.000 0.000 0.000 0.000 0.000 0.000 0.000 0.000 0.000 0.000 0.000 0.000 0.000 0.000 0.000 0.000 0.000 0.000 0.101 0.907 2.517 3.683 3.053 2.479 2.542 2.529 4.285 5.538 7.730 9.571 12.027 11.543 7.825 7.742 7.605 6.395 6.923 6.906 5.617 6.354 6.813 6.865 6.429 5.824 5.217 5.135 0.166 0.000 0.000 0.000 0.000 0.000 0.000 0.000 0.000 0.000 0.000
0.000 0.000 0.000 0.000 0.000 0.000 0.000 0.000 0.000 0.000 0.000 0.000 0.000 0.000 0.000 0.000 0.000 0.000 0.000 0.000 0.000 0.000 0.000 0.000 0.000 0.001 0.169 1.464 3.474 3.179 2.367 2.337 3.337 4.569 5.937 7.731 9.476 11.660 10.487 8.053 8.175 7.398 6.937 6.857 6.281 5.662 6.176 7.207 7.272 6.532 5.781 5.529 5.136 1.327 0.000 0.000 0.000 0.000 0.000 0.000 0.000 0.000 0.000 0.000
0.000 0.000 0.000 0.000 0.000 0.000 0.000 0.000 0.000 0.000 0.000 0.000 0.000 0.000 0.000 0.000 0.000 0.000 0.000 0.000 0.000 0.000 0.000 0.000 0.000 0.000 0.000 1.509 2.623 2.970 1.863 2.534 3.273 4.210 5.666 7.310 8.019 10.540 10.331 9.200 8.870 7.404 6.743 6.258 5.839 5.923 6.630 7.333 7.116 6.630 5.866 5.477 4.989 1.878 0.000 0.000 0.000 0.000 0.000 0.000 0.000 0.000 0.000 0.000
0.000 0.000 0.000 0.000 0.000 0.000 0.000 0.000 0.000 0.000 0.000 0.000 0.000 0.000 0.000 0.000 0.000 0.000 0.000 0.000 0.000 0.000 0.000 0.000 0.000 0.000 0.000 0.001 2.282 2.286 2.178 2.855 3.045 3.805 5.059 6.926 7.455 10.063 10.397 9.963 8.668 7.615 7.112 6.695 6.619 5.991 6.404 6.901 7.133 7.073 6.511 4.842 4.137 1.358 0.000 0.000 0.000 0.000 0.000 0.000 0.000 0.000 0.000 0.000
0.000 0.000 0.000 0.000 0.000 0.000 0.000 0.000 0.000 0.000 0.000 0.000 0.000 0.000 0.000 0.000 0.000 0.000 0.000 0.000 0.000 0.000 0.000 0.000 0.000 0.000 0.000 0.000 1.259 2.468 2.598 2.865 3.061 3.309 4.611 6.119 7.778 8.759 10.600 9.960 9.258 8.001 7.448 6.527 5.864 5.229 5.425 5.760 6.786 6.670 5.902 3.087 2.890 0.449 0.000 0.000 0.000 0.000 0.000 0.000 0.000 0.000 0.000 0.000
0.000 0.000 0.000 0.000 0.000 0.000 0.000 0.000 0.000 0.000 0.000 0.000 0.000 0.000 0.000 0.000 0.000 0.000 0.000 0.000 0.000 0.000 0.000 0.000 0.000 0.000 0.000 0.000 0.997 2.198 2.702 2.907 2.927 2.857 4.270 6.027 7.637 8.865 9.671 10.159 8.953 8.171 7.131 5.418 5.023 4.460 4.603 5.282 6.112 5.862 4.967 3.872 3.472 1.893 0.000 0.000 0.000 0.000 0.000 0.000 0.000 0.000 0.000 0.000
0.000 0.000 0.000 0.000 0.000 0.000 0.000 0.000 0.000 0.000 0.000 0.000 0.000 0.000 0.000 0.000 0.000 0.000 0.000 0.000 0.000 0.000 0.000 0.000 0.000 0.000 0.000 0.010 0.630 1.699 2.338 2.811 2.556 2.790 3.709 5.543 6.948 7.830 9.260 9.139 8.359 7.780 5.844 4.024 4.448 4.374 4.147 4.827 4.994 5.177 5.416 4.724 3.650 3.390 0.025 0.000 0.000 0.000 0.000 0.000 0.000 0.000 0.000 0.000
0.000 0.000 0.000 0.000 0.000 0.000 0.000 0.000 0.000 0.000 0.000 0.000 0.000 0.000 0.000 0.000 0.000 0.000 0.000 0.000 0.000 0.000 0.000 0.000 0.000 0.000 0.000 0.000 0.113 1.047 1.865 2.475 2.424 2.614 3.091 4.645 5.847 6.970 8.425 8.632 7.477 6.914 5.145 4.595 5.207 4.178 4.068 4.237 3.921 4.959 5.480 4.242 3.720 3.523 0.289 0.000 0.000 0.000 0.000 0.000 0.000 0.000 0.000 0.000
0.000 0.000 0.000 0.000 0.000 0.000 0.000 0.000 0.000 0.000 0.000 0.000 0.000 0.000 0.000 0.000 0.000 0.000 0.000 0.000 0.000 0.000 0.000 0.000 0.000 0.000 0.000 0.000 0.007 0.371 1.346 2.283 2.284 2.378 2.833 3.889 5.463 6.539 7.315 7.867 7.637 6.847 5.812 5.669 5.085 4.387 4.174 3.898 4.171 5.115 5.003 4.406 3.816 2.933 1.232 0.000 0.000 0.000 0.000 0.000 0.000 0.000 0.000 0.000
0.000 0.000 0.000 0.000 0.000 0.000 0.000 0.000 0.000 0.000 0.000 0.000 0.000 0.000 0.000 0.000 0.000 0.000 0.000 0.000 0.000 0.000 0.000 0.000 0.000 0.000 0.000 0.000 0.000 0.015 0.782 2.016 2.151 2.237 2.678 3.085 4.463 5.372 5.913 6.971 6.749 6.498 6.290 6.213 5.297 5.050 4.217 4.144 4.157 4.355 5.004 4.527 3.775 2.905 2.511 0.008 0.000 0.000 0.000 0.000 0.000 0.000 0.000 0.000
0.000 0.000 0.000 0.000 0.000 0.000 0.000 0.000 0.000 0.000 0.000 0.000 0.000 0.000 0.000 0.000 0.000 0.000 0.000 0.000 0.000 0.000 0.000 0.000 0.000 0.000 0.000 0.000 0.000 0.004 0.677 1.690 1.984 2.215 2.474 2.825 3.531 4.503 5.699 6.486 6.368 6.656 6.679 5.591 5.791 5.112 4.448 3.992 3.466 3.273 4.461 4.456 3.981 2.740 2.603 0.061 0.000 0.000 0.000 0.000 0.000 0.000 0.000 0.000
0.000 0.000 0.000 0.000 0.000 0.000 0.000 0.000 0.000 0.000 0.000 0.000 0.000 0.000 0.000 0.000 0.000 0.000 0.000 0.000 0.000 0.000 0.000 0.000 0.000 0.000 0.000 0.000 0.000 0.006 0.447 1.303 1.819 2.047 2.296 2.286 2.893 4.009 4.948 5.546 6.364 6.998 6.694 5.560 5.916 5.077 4.472 3.066 2.635 2.096 4.029 4.504 4.180 2.492 2.160 0.389 0.002 0.000 0.000 0.000 0.000 0.000 0.000 0.000
0.000 0.000 0.000 0.000 0.000 0.000 0.000 0.000 0.000 0.000 0.000 0.000 0.000 0.000 0.000 0.000 0.000 0.000 0.000 0.000 0.000 0.000 0.000 0.000 0.000 0.000 0.000 0.000 0.000 0.000 0.406 0.947 1.434 1.801 2.112 1.971 2.493 3.409 4.692 5.547 6.916 7.272 6.330 6.177 6.291 5.217 3.718 2.522 2.063 2.835 4.150 4.731 4.351 2.883 2.293 1.792 0.135 0.003 0.000 0.000 0.000 0.000 0.000 0.000
0.000 0.000 0.000 0.000 0.000 0.000 0.000 0.000 0.000 0.000 0.000 0.000 0.000 0.000 0.000 0.000 0.000 0.000 0.000 0.000 0.000 0.000 0.000 0.000 0.000 0.000 0.000 0.000 0.000 0.000 0.031 0.989 1.258 1.737 1.988 2.265 2.378 3.199 4.625 5.579 7.481 7.822 6.153 6.511 5.789 4.524 3.246 2.759 2.692 3.364 4.052 4.840 4.499 3.038 2.559 2.351 1.802 0.294 0.000 0.000 0.000 0.000 0.000 0.000
0.000 0.000 0.000 0.000 0.000 0.000 0.000 0.000 0.000 0.000 0.000 0.000 0.000 0.000 0.000 0.000 0.000 0.000 0.000 0.000 0.000 0.000 0.000 0.000 0.000 0.000 0.000 0.000 0.000 0.000 0.000 0.008 0.868 1.646 1.896 2.163 2.322 2.933 4.489 5.368 7.124 7.568 6.679 6.010 5.542 3.784 2.924 2.652 2.923 3.084 3.945 4.926 4.305 2.929 2.718 2.667 2.753 1.452 0.040 0.000 0.000 0.000 0.000 0.000
0.000 0.000 0.000 0.000 0.000 0.000 0.000 0.000 0.000 0.000 0.000 0.000 0.000 0.000 0.000 0.000 0.000 0.000 0.000 0.000 0.000 0.000 0.000 0.000 0.000 0.000 0.000 0.000 0.000 0.000 0.000 0.000 0.442 1.430 1.868 1.758 2.211 2.750 4.154 4.847 5.864 6.885 6.009 4.971 4.392 3.157 3.171 2.827 2.826 2.668 3.736 4.645 4.108 2.891 2.674 2.601 2.653 1.850 0.516 0.021 0.000 0.000 0.000 0.000
0.000 0.000 0.000 0.000 0.000 0.000 0.000 0.000 0.000 0.000 0.000 0.000 0.000 0.000 0.000 0.000 0.000 0.000 0.000 0.000 0.000 0.000 0.000 0.000 0.000 0.000 0.000 0.000 0.000 0.000 0.000 0.000 0.168 1.243 1.617 1.720 2.145 2.446 3.355 4.200 4.657 5.951 4.874 4.013 3.201 3.994 3.892 3.444 2.923 3.034 3.252 3.984 4.096 2.868 2.508 2.418 2.346 2.013 1.340 0.645 0.000 0.000 0.000 0.000
0.000 0.000 0.000 0.000 0.000 0.000 0.000 0.000 0.000 0.000 0.000 0.000 0.000 0.000 0.000 0.000 0.000 0.000 0.000 0.000 0.000 0.000 0.000 0.000 0.000 0.000 0.000 0.000 0.000 0.000 0.000 0.000 0.000 0.998 1.532 1.876 2.007 2.193 2.766 3.429 3.250 4.477 3.473 3.308 3.387 4.571 4.367 3.227 3.058 3.281 3.360 3.873 4.110 2.566 2.230 2.272 2.299 2.272 2.496 2.399 0.000 0.000 0.000 0.000
0.000 0.000 0.000 0.000 0.000 0.000 0.000 0.000 0.000 0.000 0.000 0.000 0.000 0.000 0.000 0.000 0.000 0.000 0.000 0.000 0.000 0.000 0.000 0.000 0.000 0.000 0.000 0.000 0.000 0.000 0.000 0.000 0.003 1.013 1.493 1.706 1.775 1.919 2.349 2.457 2.834 3.282 3.497 3.460 4.370 4.426 3.680 2.813 3.452 2.874 3.546 3.658 3.748 2.329 2.167 2.170 2.142 2.347 2.801 2.941 0.030 0.000 0.000 0.000
0.000 0.000 0.000 0.000 0.000 0.000 0.000 0.000 0.000 0.000 0.000 0.000 0.000 0.000 0.000 0.000 0.000 0.000 0.000 0.000 0.000 0.000 0.000 0.000 0.000 0.000 0.000 0.000 0.000 0.000 0.000 0.000 0.016 0.661 1.203 1.460 1.723 1.702 1.868 2.273 0.689 2.993 3.925 3.944 4.330 3.562 2.663 3.331 3.107 0.909 2.785 3.784 3.494 2.591 2.188 2.087 2.094 2.271 2.256 2.748 0.331 0.000 0.000 0.000
0.000 0.000 0.000 0.000 0.000 0.000 0.000 0.000 0.000 0.000 0.000 0.000 0.000 0.000 0.000 0.000 0.000 0.000 0.000 0.000 0.000 0.000 0.000 0.000 0.000 0.000 0.000 0.000 0.000 0.000 0.000 0.000 0.007 0.312 0.833 1.160 1.540 1.586 1.507 1.749 3.134 3.833 3.929 3.950 3.533 2.461 1.488 2.818 2.396 0.181 1.427 3.612 3.472 2.751 2.125 1.981 2.003 1.972 1.653 2.462 0.325 0.000 0.000 0.000
0.000 0.000 0.000 0.000 0.000 0.000 0.000 0.000 0.000 0.000 0.000 0.000 0.000 0.000 0.000 0.000 0.000 0.000 0.000 0.000 0.000 0.000 0.000 0.000 0.000 0.000 0.000 0.000 0.000 0.000 0.000 0.000 0.000 0.002 0.088 0.387 0.967 1.251 1.240 0.070 2.754 3.015 3.219 3.429 2.707 1.554 0.469 2.619 2.803 2.724 2.626 3.020 3.341 2.592 2.030 1.870 1.764 1.826 2.017 2.129 0.981 0.000 0.000 0.000
0.000 0.000 0.000 0.000 0.000 0.000 0.000 0.000 0.000 0.000 0.000 0.000 0.000 0.000 0.000 0.000 0.000 0.000 0.000 0.000 0.000 0.000 0.000 0.000 0.000 0.000 0.000 0.000 0.000 0.000 0.000 0.000 0.000 0.000 0.000 0.003 0.611 1.269 1.513 1.824 2.403 2.005 2.288 2.624 2.410 2.939 2.799 3.278 3.617 3.481 2.790 2.567 2.784 2.467 1.947 1.771 1.690 1.682 1.716 1.668 1.059 0.000 0.000 0.000
0.000 0.000 0.000 0.000 0.000 0.000 0.000 0.000 0.000 0.000 0.000 0.000 0.000 0.000 0.000 0.000 0.000 0.000 0.000 0.000 0.000 0.000 0.000 0.000 0.000 0.000 0.000 0.000 0.000 0.000 0.000 0.000 0.000 0.000 0.000 0.000 0.259 1.167 1.541 1.548 1.313 1.113 1.045 2.448 2.445 3.346 3.058 3.589 3.436 2.934 2.501 2.004 2.345 2.386 1.932 1.698 1.597 1.498 1.445 1.784 1.464 0.000 0.000 0.000
0.000 0.000 0.000 0.000 0.000 0.000 0.000 0.000 0.000 0.000 0.000 0.000 0.000 0.000 0.000 0.000 0.000 0.000 0.000 0.000 0.000 0.000 0.000 0.000 0.000 0.000 0.000 0.000 0.000 0.000 0.000 0.000 0.000 0.000 0.000 0.000 0.060 0.541 1.263 1.382 0.020 0.362 0.735 1.899 2.045 2.447 2.937 3.290 2.586 1.842 1.979 0.924 1.188 1.557 1.827 1.599 1.427 1.318 1.559 2.193 1.726 0.062 0.000 0.000
0.000 0.000 0.000 0.000 0.000 0.000 0.000 0.000 0.000 0.000 0.000 0.000 0.000 0.000 0.000 0.000 0.000 0.000 0.000 0.000 0.000 0.000 0.000 0.000 0.000 0.000 0.000 0.000 0.000 0.000 0.000 0.000 0.000 0.000 0.000 0.000 0.000 0.022 0.325 1.357 1.551 0.211 1.599 1.753 1.025 1.705 2.492 2.508 1.765 1.123 0.415 0.093 0.083 0.662 1.703 1.437 1.249 1.115 1.409 1.904 1.664 0.396 0.000 0.000
0.000 0.000 0.000 0.000 0.000 0.000 0.000 0.000 0.000 0.000 0.000 0.000 0.000 0.000 0.000 0.000 0.000 0.000 0.000 0.000 0.000 0.000 0.000 0.000 0.000 0.000 0.000 0.000 0.000 0.000 0.000 0.000 0.000 0.000 0.000 0.000 0.000 0.000 0.545 1.156 1.691 1.944 2.195 1.578 0.095 0.990 2.207 2.394 1.528 0.614 0.072 0.023 0.077 0.158 0.840 1.311 0.865 0.078 0.797 0.943 1.312 0.997 0.000 0.000
0.000 0.000 0.000 0.000 0.000 0.000 0.000 0.000 0.000 0.000 0.000 0.000 0.000 0.000 0.000 0.000 0.000 0.000 0.000 0.000 0.000 0.000 0.000 0.000 0.000 0.000 0.000 0.000 0.000 0.000 0.000 0.000 0.000 0.000 0.000 0.000 0.000 0.000 0.002 0.953 1.535 2.064 2.062 0.281 0.030 0.244 2.258 1.375 0.063 0.010 0.023 0.069 0.086 0.319 0.693 1.015 0.053 0.085 0.099 0.697 1.206 1.203 0.041 0.000
0.000 0.000 0.000 0.000 0.000 0.000 0.000 0.000 0.000 0.000 0.000 0.000 0.000 0.000 0.000 0.000 0.000 0.000 0.000 0.000 0.000 0.000 0.000 0.000 0.000 0.000 0.000 0.000 0.000 0.000 0.000 0.000 0.000 0.000 0.000 0.000 0.000 0.000 0.000 0.119 1.124 1.435 1.565 0.097 0.251 2.085 1.971 0.051 0.009 0.050 0.033 0.084 0.085 0.059 0.097 0.080 0.099 0.076 0.045 0.890 1.132 0.814 0.384 0.000
0.000 0.000 0.000 0.000 0.000 0.000 0.000 0.000 0.000 0.000 0.000 0.000 0.000 0.000 0.000 0.000 0.000 0.000 0.000 0.000 0.000 0.000 0.000 0.000 0.000 0.000 0.000 0.000 0.000 0.000 0.000 0.000 0.000 0.000 0.000 0.000 0.000 0.000 0.000 0.000 0.550 1.112 1.387 1.772 2.118 2.082 0.974 0.044 0.034 0.075 0.084 0.010 0.045 0.046 0.063 0.075 0.460 0.095 0.044 0.770 0.956 0.775 0.583 0.010
0.000 0.000 0.000 0.000 0.000 0.000 0.000 0.000 0.000 0.000 0.000 0.000 0.000 0.000 0.000 0.000 0.000 0.000 0.000 0.000 0.000 0.000 0.000 0.000 0.000 0.000 0.000 0.000 0.000 0.000 0.000 0.000 0.000 0.000 0.000 0.000 0.000 0.000 0.000 0.000 0.016 0.827 1.175 1.364 1.816 1.561 0.161 0.060 0.022 0.061 0.041 0.069 0.067 0.066 0.081 0.080 0.099 0.099 0.243 0.922 1.115 0.987 0.638 0.181
0.000 0.000 0.000 0.000 0.000 0.000 0.000 0.000 0.000 0.000 0.000 0.000 0.000 0.000 0.000 0.000 0.000 0.000 0.000 0.000 0.000 0.000 0.000 0.000 0.000 0.000 0.000 0.000 0.000 0.000 0.000 0.000 0.000 0.000 0.000 0.000 0.000 0.000 0.000 0.000 0.012 0.100 0.902 1.303 1.541 1.498 1.076 0.200 0.097 0.022 0.011 0.073 0.073 0.085 0.069 0.093 0.079 0.048 0.226 1.129 0.988 1.069 0.747 0.445
0.000 0.000 0.000 0.000 0.000 0.000 0.000 0.000 0.000 0.000 0.000 0.000 0.000 0.000 0.000 0.000 0.000 0.000 0.000 0.000 0.000 0.000 0.000 0.000 0.000 0.000 0.000 0.000 0.000 0.000 0.000 0.000 0.000 0.000 0.000 0.000 0.000 0.000 0.000 0.000 0.017 0.053 0.973 1.329 1.350 1.128 1.144 0.214 0.091 0.042 0.083 0.091 0.086 0.042 0.051 0.171 0.097 0.205 0.118 0.525 0.735 1.092 0.909 0.440
0.000 0.000 0.000 0.000 0.000 0.000 0.000 0.000 0.000 0.000 0.000 0.000 0.000 0.000 0.000 0.000 0.000 0.000 0.000 0.000 0.000 0.000 0.000 0.000 0.000 0.000 0.000 0.000 0.000 0.000 0.000 0.000 0.000 0.000 0.000 0.000 0.000 0.000 0.000 0.000 0.001 0.182 0.620 1.008 1.213 1.229 1.042 0.148 0.089 0.068 0.090 0.077 0.067 0.088 0.257 0.167 0.089 0.192 0.892 1.062 1.166 0.888 1.077 0.897
0.000 0.000 0.000 0.000 0.000 0.000 0.000 0.000 0.000 0.000 0.000 0.000 0.000 0.000 0.000 0.000 0.000 0.000 0.000 0.000 0.000 0.000 0.000 0.000 0.000 0.000 0.000 0.000 0.000 0.000 0.000 0.000 0.000 0.000 0.000 0.000 0.000 0.000 0.000 0.000 0.000 0.011 0.194 0.430 1.041 1.217 1.193 1.113 0.093 0.124 0.072 0.088 0.400 0.495 0.086 0.094 0.067 0.320 1.473 1.571 1.339 0.859 1.252 1.182
0.000 0.000 0.000 0.000 0.000 0.000 0.000 0.000 0.000 0.000 0.000 0.000 0.000 0.000 0.000 0.000 0.000 0.000 0.000 0.000 0.000 0.000 0.000 0.000 0.000 0.000 0.000 0.000 0.000 0.000 0.000 0.000 0.000 0.000 0.000 0.000 0.000 0.000 0.000 0.000 0.000 0.000 0.003 0.090 0.563 1.150 1.184 1.220 1.130 0.756 0.037 0.022 0.036 0.076 0.088 0.081 0.084 0.213 1.503 1.753 1.056 0.963 1.336 1.254
0.000 0.000 0.000 0.000 0.000 0.000 0.000 0.000 0.000 0.000 0.000 0.000 0.000 0.000 0.000 0.000 0.000 0.000 0.000 0.000 0.000 0.000 0.000 0.000 0.000 0.000 0.000 0.000 0.000 0.000 0.000 0.000 0.000 0.000 0.000 0.000 0.000 0.000 0.000 0.000 0.000 0.000 0.000 0.000 0.096 0.961 1.249 1.218 0.979 0.089 0.084 0.068 0.068 0.075 0.078 0.024 0.047 0.255 1.565 0.987 0.172 0.295 1.062 1.315
0.000 0.000 0.000 0.000 0.000 0.000 0.000 0.000 0.000 0.000 0.000 0.000 0.000 0.000 0.000 0.000 0.000 0.000 0.000 0.000 0.000 0.000 0.000 0.000 0.000 0.000 0.000 0.000 0.000 0.000 0.000 0.000 0.000 0.000 0.000 0.000 0.000 0.000 0.000 0.000 0.000 0.000 0.000 0.000 0.003 0.590 1.153 1.189 0.923 0.045 0.025 0.052 0.081 0.065 0.082 0.064 0.084 0.094 0.200 0.190 0.400 0.097 1.030 1.435
0.000 0.000 0.000 0.000 0.000 0.000 0.000 0.000 0.000 0.000 0.000 0.000 0.000 0.000 0.000 0.000 0.000 0.000 0.000 0.000 0.000 0.000 0.000 0.000 0.000 0.000 0.000 0.000 0.000 0.000 0.000 0.000 0.000 0.000 0.000 0.000 0.000 0.000 0.000 0.000 0.000 0.000 0.000 0.000 0.000 0.054 0.656 1.080 1.026 0.099 0.074 0.032 0.061 0.084 0.086 0.086 0.077 0.066 0.314 1.197 1.303 0.897 1.238 1.318
0.000 0.000 0.000 0.000 0.000 0.000 0.000 0.000 0.000 0.000 0.000 0.000 0.000 0.000 0.000 0.000 0.000 0.000 0.000 0.000 0.000 0.000 0.000 0.000 0.000 0.000 0.000 0.000 0.000 0.000 0.000 0.000 0.000 0.000 0.000 0.000 0.000 0.000 0.000 0.000 0.000 0.000 0.000 0.000 0.000 0.000 0.093 0.882 0.926 0.762 0.069 0.063 0.083 0.046 0.086 0.084 0.094 0.124 0.216 1.615 1.431 0.695 0.704 0.729
0.000 0.000 0.000 0.000 0.000 0.000 0.000 0.000 0.000 0.000 0.000 0.000 0.000 0.000 0.000 0.000 0.000 0.000 0.000 0.000 0.000 0.000 0.000 0.000 0.000 0.000 0.000 0.000 0.000 0.000 0.000 0.000 0.000 0.000 0.000 0.000 0.000 0.000 0.000 0.000 0.000 0.000 0.000 0.000 0.000 0.000 0.016 0.776 0.934 0.656 0.122 0.099 0.256 0.094 0.046 0.030 0.098 0.088 1.047 1.330 1.237 0.714 0.245 0.732
0.000 0.000 0.000 0.000 0.000 0.000 0.000 0.000 0.000 0.000 0.000 0.000 0.000 0.000 0.000 0.000 0.000 0.000 0.000 0.000 0.000 0.000 0.000 0.000 0.000 0.000 0.000 0.000 0.000 0.000 0.000 0.000 0.000 0.000 0.000 0.000 0.000 0.000 0.000 0.000 0.000 0.000 0.000 0.000 0.000 0.000 0.002 0.311 0.927 0.948 1.117 0.294 1.082 0.086 0.056 0.081 0.089 0.076 0.224 1.079 1.178 0.364 0.165 0.097
0.000 0.000 0.000 0.000 0.000 0.000 0.000 0.000 0.000 0.000 0.000 0.000 0.000 0.000 0.000 0.000 0.000 0.000 0.000 0.000 0.000 0.000 0.000 0.000 0.000 0.000 0.000 0.000 0.000 0.000 0.000 0.000 0.000 0.000 0.000 0.000 0.000 0.000 0.000 0.000 0.000 0.000 0.000 0.000 0.000 0.000 0.001 0.099 0.872 1.254 1.087 1.261 1.222 0.626 0.048 0.085 0.093 0.052 0.272 0.825 0.098 0.081 0.087 0.085
0.000 0.000 0.000 0.000 0.000 0.000 0.000 0.000 0.000 0.000 0.000 0.000 0.000 0.000 0.000 0.000 0.000 0.000 0.000 0.000 0.000 0.000 0.000 0.000 0.000 0.000 0.000 0.000 0.000 0.000 0.000 0.000 0.000 0.000 0.000 0.000 0.000 0.000 0.000 0.000 0.000 0.000 0.000 0.000 0.000 0.000 0.000 0.230 0.529 0.972 0.845 1.245 0.095 0.091 0.031 0.015 0.066 0.083 0.226 0.194 0.197 0.073 0.079 0.081
0.000 0.000 0.000 0.000 0.000 0.000 0.000 0.000 0.000 0.000 0.000 0.000 0.000 0.000 0.000 0.000 0.000 0.000 0.000 0.000 0.000 0.000 0.000 0.000 0.000 0.000 0.000 0.000 0.000 0.000 0.000 0.000 0.000 0.000 0.000 0.000 0.000 0.000 0.000 0.000 0.000 0.000 0.000 0.000 0.000 0.000 0.000 0.001 0.360 0.095 1.114 0.951 0.070 0.071 0.086 0.040 0.073 0.095 0.208 0.282 0.479 0.064 0.055 0.053
0.000 0.000 0.000 0.000 0.000 0.000 0.000 0.000 0.000 0.000 0.000 0.000 0.000 0.000 0.000 0.000 0.000 0.000 0.000 0.000 0.000 0.000 0.000 0.000 0.000 0.000 0.000 0.000 0.000 0.000 0.000 0.000 0.000 0.000 0.000 0.000 0.000 0.000 0.000 0.000 0.000 0.000 0.000 0.000 0.000 0.000 0.000 0.001 0.047 0.545 1.103 0.950 0.086 0.078 0.034 0.053 0.064 0.100 0.343 0.586 1.180 0.062 0.068 0.073
0.000 0.000 0.000 0.000 0.000 0.000 0.000 0.000 0.000 0.000 0.000 0.000 0.000 0.000 0.000 0.000 0.000 0.000 0.000 0.000 0.000 0.000 0.000 0.000 0.000 0.000 0.000 0.000 0.000 0.000 0.000 0.000 0.000 0.000 0.000 0.000 0.000 0.000 0.000 0.000 0.000 0.000 0.000 0.000 0.000 0.000 0.000 0.000 0.031 0.622 0.885 0.906 0.087 0.070 0.252 0.278 0.245 0.324 1.004 1.106 0.045 0.302 0.073 0.038
0.000 0.000 0.000 0.000 0.000 0.000 0.000 0.000 0.000 0.000 0.000 0.000 0.000 0.000 0.000 0.000 0.000 0.000 0.000 0.000 0.000 0.000 0.000 0.000 0.000 0.000 0.000 0.000 0.000 0.000 0.000 0.000 0.000 0.000 0.000 0.000 0.000 0.000 0.000 0.000 0.000 0.000 0.000 0.000 0.000 0.000 0.000 0.000 0.001 0.436 0.314 0.831 0.094 0.233 2.164 1.765 1.721 2.074 1.361 0.097 0.093 0.071 0.065 0.058
0.000 0.000 0.000 0.000 0.000 0.000 0.000 0.000 0.000 0.000 0.000 0.000 0.000 0.000 0.000 0.000 0.000 0.000 0.000 0.000 0.000 0.000 0.000 0.000 0.000 0.000 0.000 0.000 0.000 0.000 0.000 0.000 0.000 0.000 0.000 0.000 0.000 0.000 0.000 0.000 0.000 0.000 0.000 0.000 0.000 0.000 0.000 0.000 0.000 0.065 0.462 0.098 0.094 1.071 2.043 2.885 2.479 2.267 0.918 0.217 0.099 0.096 0.057 0.051
0.000 0.000 0.000 0.000 0.000 0.000 0.000 0.000 0.000 0.000 0.000 0.000 0.000 0.000 0.000 0.000 0.000 0.000 0.000 0.000 0.000 0.000 0.000 0.000 0.000 0.000 0.000 0.000 0.000 0.000 0.000 0.000 0.000 0.000 0.000 0.000 0.000 0.000 0.000 0.000 0.000 0.000 0.000 0.000 0.000 0.000 0.000 0.000 0.000 0.001 0.321 0.097 0.094 1.430 1.748 2.362 2.101 1.407 0.727 0.297 0.161 0.095 0.066 0.054
0.000 0.000 0.000 0.000 0.000 0.000 0.000 0.000 0.000 0.000 0.000 0.000 0.000 0.000 0.000 0.000 0.000 0.000 0.000 0.000 0.000 0.000 0.000 0.000 0.000 0.000 0.000 0.000 0.000 0.000 0.000 0.000 0.000 0.000 0.000 0.000 0.000 0.000 0.000 0.000 0.000 0.000 0.000 0.000 0.000 0.000 0.000 0.000 0.000 0.000 0.035 0.088 1.181 1.324 1.344 1.845 1.336 1.180 1.540 0.974 0.584 0.187 0.075 0.079
0.000 0.000 0.000 0.000 0.000 0.000 0.000 0.000 0.000 0.000 0.000 0.000 0.000 0.000 0.000 0.000 0.000 0.000 0.000 0.000 0.000 0.000 0.000 0.000 0.000 0.000 0.000 0.000 0.000 0.000 0.000 0.000 0.000 0.000 0.000 0.000 0.000 0.000 0.000 0.000 0.000 0.000 0.000 0.000 0.000 0.000 0.000 0.000 0.000 0.000 0.099 0.903 1.229 1.213 1.191 1.275 0.373 0.654 1.796 1.606 1.376 0.114 0.330 0.095
0.000 0.000 0.000 0.000 0.000 0.000 0.000 0.000 0.000 0.000 0.000 0.000 0.000 0.000 0.000 0.000 0.000 0.000 0.000 0.000 0.000 0.000 0.000 0.000 0.000 0.000 0.000 0.000 0.000 0.000 0.000 0.000 0.000 0.000 0.000 0.000 0.000 0.000 0.000 0.000 0.000 0.000 0.000 0.000 0.000 0.000 0.000 0.000 0.000 0.000 0.218 0.840 1.051 1.031 1.054 1.160 0.275 0.264 0.801 0.920 1.067 0.711 0.094 0.082
0.000 0.000 0.000 0.000 0.000 0.000 0.000 0.000 0.000 0.000 0.000 0.000 0.000 0.000 0.000 0.000 0.000 0.000 0.000 0.000 0.000 0.000 0.000 0.000 0.000 0.000 0.000 0.000 0.000 0.000 0.000 0.000 0.000 0.000 0.000 0.000 0.000 0.000 0.000 0.000 0.000 0.000 0.000 0.000 0.000 0.000 0.000 0.000 0.000 0.000 0.002 0.101 0.513 0.900 1.004 1.118 0.246 0.205 0.295 0.307 0.572 0.538 0.320 0.101
0.000 0.000 0.000 0.000 0.000 0.000 0.000 0.000 0.000 0.000 0.000 0.000 0.000 0.000 0.000 0.000 0.000 0.000 0.000 0.000 0.000 0.000 0.000 0.000 0.000 0.000 0.000 0.000 0.000 0.000 0.000 0.000 0.000 0.000 0.000 0.000 0.000 0.000 0.000 0.000 0.000 0.000 0.000 0.000 0.000 0.000 0.000 0.000 0.000 0.000 0.000 0.002 0.049 0.744 0.867 0.808 0.154 0.369 0.511 0.726 0.093 0.093 0.797 0.583
