ncols        37
nrows        77
xllcorner    409652.8
yllcorner    6870789.1
cellsize     5.00
NODATA_value -9999
0.000 0.000 0.000 0.000 0.000 0.000 0.000 0.000 0.000 0.000 0.000 0.000 0.000 0.000 0.000 0.000 0.000 0.000 0.000 0.000 0.000 0.000 0.000 0.000 0.000 0.000 0.000 0.000 0.000 0.000 0.000 0.000 0.000 0.000 0.000 0.000 0.000
0.000 0.000 0.002 1.057 8.450 17.314 17.888 15.356 8.992 1.747 0.064 0.000 0.000 0.000 0.000 0.000 0.000 0.000 0.000 0.000 0.000 0.000 0.000 0.000 0.000 0.000 0.000 0.000 0.000 0.000 0.000 0.000 0.000 0.000 0.000 0.000 0.000
0.000 0.005 1.999 16.586 17.623 18.993 19.329 18.580 17.883 20.186 9.537 1.050 0.004 0.000 0.000 0.000 0.000 0.000 0.000 0.000 0.000 0.000 0.000 0.000 0.000 0.000 0.000 0.000 0.000 0.000 0.000 0.000 0.000 0.000 0.000 0.000 0.000
0.000 1.421 17.170 17.930 18.903 20.440 20.676 19.312 20.345 20.351 17.422 14.866 4.027 0.025 0.000 0.000 0.000 0.000 0.000 0.000 0.000 0.000 0.000 0.000 0.000 0.000 0.000 0.000 0.000 0.000 0.000 0.000 0.000 0.000 0.000 0.000 0.000
0.029 6.433 18.064 19.841 20.672 20.863 20.764 20.173 22.237 21.566 19.933 18.362 15.778 5.195 0.294 0.003 0.000 0.000 0.000 0.000 0.000 0.000 0.000 0.000 0.000 0.000 0.000 0.000 0.000 0.000 0.000 0.000 0.000 0.000 0.000 0.000 0.000
0.435 16.125 18.985 20.471 20.990 20.956 20.783 22.305 24.372 22.459 20.718 18.672 14.913 15.027 9.071 2.966 0.313 0.002 0.000 0.000 0.000 0.000 0.000 0.000 0.000 0.000 0.000 0.000 0.000 0.000 0.000 0.000 0.000 0.000 0.000 0.000 0.000
1.826 18.543 19.904 20.758 20.656 22.111 20.895 24.214 24.003 22.878 22.142 20.257 17.651 15.595 16.302 13.360 8.630 2.150 0.001 0.000 0.000 0.000 0.000 0.000 0.000 0.000 0.000 0.000 0.000 0.000 0.000 0.000 0.000 0.000 0.000 0.000 0.000
2.835 18.451 19.215 20.525 21.643 21.953 23.075 24.249 25.475 23.566 23.649 21.137 17.675 16.454 15.634 13.936 14.666 11.503 1.768 0.000 0.000 0.000 0.000 0.000 0.000 0.000 0.000 0.000 0.000 0.000 0.000 0.000 0.000 0.000 0.000 0.000 0.000
2.664 17.616 19.505 20.588 22.493 23.349 22.726 25.450 25.016 24.086 23.153 20.153 17.511 16.387 15.972 14.786 14.430 12.773 9.227 0.000 0.000 0.000 0.000 0.000 0.000 0.000 0.000 0.000 0.000 0.000 0.000 0.000 0.000 0.000 0.000 0.000 0.000
2.184 16.354 19.099 21.249 22.192 22.659 23.148 23.867 24.071 24.001 20.987 18.908 17.026 17.285 16.475 15.882 14.453 12.829 11.666 0.022 0.000 0.000 0.000 0.000 0.000 0.000 0.000 0.000 0.000 0.000 0.000 0.000 0.000 0.000 0.000 0.000 0.000
1.419 16.632 18.630 19.677 20.824 21.714 22.987 23.174 22.339 22.838 19.826 18.703 19.973 17.673 17.220 16.412 14.044 13.056 11.905 2.373 0.000 0.000 0.000 0.000 0.000 0.000 0.000 0.000 0.000 0.000 0.000 0.000 0.000 0.000 0.000 0.000 0.000
0.841 13.690 17.830 20.176 20.948 22.206 21.937 22.264 23.098 22.572 20.465 19.823 19.872 17.481 18.699 16.024 14.437 14.516 11.816 7.144 0.000 0.000 0.000 0.000 0.000 0.000 0.000 0.000 0.000 0.000 0.000 0.000 0.000 0.000 0.000 0.000 0.000
0.483 11.208 17.204 18.409 20.778 21.102 20.233 20.955 21.556 21.622 20.600 21.825 19.513 18.905 18.343 17.178 16.616 14.659 12.526 8.808 0.000 0.000 0.000 0.000 0.000 0.000 0.000 0.000 0.000 0.000 0.000 0.000 0.000 0.000 0.000 0.000 0.000
0.264 8.892 16.276 19.170 19.642 19.848 20.773 20.915 20.528 21.553 21.483 20.353 20.938 19.816 18.863 17.837 15.239 14.005 12.499 9.724 0.217 0.000 0.000 0.000 0.000 0.000 0.000 0.000 0.000 0.000 0.000 0.000 0.000 0.000 0.000 0.000 0.000
0.111 6.581 15.036 17.833 18.918 19.536 20.056 19.557 19.587 21.722 22.030 19.157 20.568 18.858 20.004 16.224 14.427 12.473 12.204 10.075 3.173 0.000 0.000 0.000 0.000 0.000 0.000 0.000 0.000 0.000 0.000 0.000 0.000 0.000 0.000 0.000 0.000
0.041 4.618 13.443 15.969 18.704 19.885 19.197 19.080 19.917 20.799 21.228 19.790 21.363 20.015 18.321 14.868 13.274 12.865 12.667 10.283 5.686 0.000 0.000 0.000 0.000 0.000 0.000 0.000 0.000 0.000 0.000 0.000 0.000 0.000 0.000 0.000 0.000
0.015 3.060 12.789 15.576 17.651 18.691 19.565 19.608 21.016 21.842 20.040 21.369 19.710 18.300 17.317 15.077 14.033 14.058 12.896 10.735 6.842 0.012 0.000 0.000 0.000 0.000 0.000 0.000 0.000 0.000 0.000 0.000 0.000 0.000 0.000 0.000 0.000
0.003 1.641 10.507 15.565 17.793 19.827 18.162 19.372 21.498 21.008 21.386 21.258 19.637 17.337 16.415 15.430 15.003 14.491 12.610 11.080 7.526 0.997 0.000 0.000 0.000 0.000 0.000 0.000 0.000 0.000 0.000 0.000 0.000 0.000 0.000 0.000 0.000
0.000 0.560 7.729 13.246 16.734 18.331 19.783 19.477 18.778 19.892 19.969 19.498 18.077 15.479 16.087 15.114 15.110 13.229 13.181 11.258 7.729 3.532 0.005 0.000 0.000 0.000 0.000 0.000 0.000 0.000 0.000 0.000 0.000 0.000 0.000 0.000 0.000
0.000 0.113 4.700 11.007 15.505 18.216 17.543 18.130 18.165 18.551 18.574 18.026 16.707 15.593 16.431 16.111 15.124 14.227 12.552 10.558 7.867 4.782 0.615 0.000 0.000 0.000 0.000 0.000 0.000 0.000 0.000 0.000 0.000 0.000 0.000 0.000 0.000
0.000 0.014 2.387 9.378 14.654 15.738 17.274 17.657 14.806 17.338 16.425 16.720 15.561 16.860 17.407 16.288 14.939 13.967 12.189 10.777 8.299 5.249 2.646 0.092 0.000 0.000 0.000 0.000 0.000 0.000 0.000 0.000 0.000 0.000 0.000 0.000 0.000
0.000 0.001 0.683 6.487 11.204 15.310 15.874 15.901 15.873 15.843 15.814 16.049 16.566 17.171 16.805 14.318 16.944 14.176 11.990 10.578 8.327 5.408 3.962 1.575 0.006 0.000 0.000 0.000 0.000 0.000 0.000 0.000 0.000 0.000 0.000 0.000 0.000
0.000 0.000 0.114 3.210 8.567 12.379 14.059 13.872 13.424 14.330 15.901 16.427 17.272 16.169 15.216 15.090 15.909 12.317 11.503 10.344 8.459 6.023 4.976 3.368 0.584 0.000 0.000 0.000 0.000 0.000 0.000 0.000 0.000 0.000 0.000 0.000 0.000
0.000 0.000 0.005 0.769 5.923 10.043 13.025 14.059 14.065 15.746 16.369 16.017 16.224 14.981 14.720 14.872 14.143 11.929 10.557 10.617 8.511 6.582 5.383 4.274 2.622 0.167 0.000 0.000 0.000 0.000 0.000 0.000 0.000 0.000 0.000 0.000 0.000
0.000 0.000 0.000 0.041 2.059 6.876 9.942 11.354 14.342 14.999 15.406 16.166 14.847 13.643 13.005 13.926 13.529 11.948 11.197 10.222 8.828 6.724 5.496 4.733 3.561 1.762 0.002 0.000 0.000 0.000 0.000 0.000 0.000 0.000 0.000 0.000 0.000
0.000 0.000 0.000 0.000 0.523 5.395 9.580 11.333 12.431 13.551 14.427 14.014 13.950 13.035 13.661 14.303 14.769 13.366 11.243 10.058 8.390 6.818 5.533 4.872 4.128 3.156 0.300 0.001 0.000 0.000 0.000 0.000 0.000 0.000 0.000 0.000 0.000
0.000 0.000 0.000 0.000 0.084 3.198 7.760 10.850 12.274 12.326 13.218 14.078 13.533 14.107 13.689 14.597 14.282 12.077 10.461 9.436 8.336 7.364 5.679 5.000 4.336 3.155 1.594 0.043 0.000 0.000 0.000 0.000 0.000 0.000 0.000 0.000 0.000
0.000 0.000 0.000 0.000 0.001 0.357 4.352 7.713 9.022 11.028 11.967 13.012 13.133 12.884 13.206 14.536 12.663 10.966 9.932 9.094 8.091 7.331 5.869 4.818 3.960 3.035 2.631 0.442 0.000 0.000 0.000 0.000 0.000 0.000 0.000 0.000 0.000
0.000 0.000 0.000 0.000 0.000 0.003 0.924 6.078 8.373 10.368 11.470 12.257 12.162 12.089 12.246 11.990 10.709 9.609 9.308 7.981 7.640 7.360 6.249 4.766 3.558 2.860 2.646 1.438 0.005 0.000 0.000 0.000 0.000 0.000 0.000 0.000 0.000
0.000 0.000 0.000 0.000 0.000 0.000 0.231 3.650 7.117 8.988 11.001 11.442 11.053 11.419 11.712 12.024 10.178 9.416 8.069 8.134 7.960 7.681 6.443 4.683 3.183 1.795 2.125 1.267 0.249 0.000 0.000 0.000 0.000 0.000 0.000 0.000 0.000
0.000 0.000 0.000 0.000 0.000 0.000 0.000 1.592 5.398 7.750 9.827 10.458 10.191 10.500 10.774 10.849 9.311 8.251 7.953 8.615 8.148 7.871 6.891 5.199 2.778 1.959 1.588 1.774 1.101 0.004 0.000 0.000 0.000 0.000 0.000 0.000 0.000
0.000 0.000 0.000 0.000 0.000 0.000 0.000 0.027 2.605 5.437 6.674 7.901 9.296 10.162 10.420 8.666 8.316 7.939 8.309 8.632 8.135 8.110 7.284 5.564 3.581 2.272 1.615 2.471 1.710 0.158 0.000 0.000 0.000 0.000 0.000 0.000 0.000
0.000 0.000 0.000 0.000 0.000 0.000 0.000 0.000 0.566 3.360 5.183 6.959 9.620 10.697 9.687 8.902 8.241 8.287 8.341 8.097 8.502 8.264 7.435 6.077 4.604 2.532 2.022 2.667 2.271 0.751 0.002 0.000 0.000 0.000 0.000 0.000 0.000
0.000 0.000 0.000 0.000 0.000 0.000 0.000 0.000 0.016 1.662 4.154 5.702 7.248 8.604 8.686 8.245 8.228 8.468 8.370 8.753 8.649 8.560 7.828 6.832 5.273 2.777 2.327 2.957 2.722 1.715 0.155 0.000 0.000 0.000 0.000 0.000 0.000
0.000 0.000 0.000 0.000 0.000 0.000 0.000 0.000 0.000 0.156 2.453 4.260 5.922 7.500 8.275 8.689 8.110 8.597 8.004 8.893 8.606 8.642 7.882 7.157 5.576 3.730 3.148 3.326 2.824 2.516 0.810 0.009 0.000 0.000 0.000 0.000 0.000
0.000 0.000 0.000 0.000 0.000 0.000 0.000 0.000 0.000 0.025 1.429 3.916 4.565 4.802 7.508 7.665 7.985 7.393 8.602 8.755 8.513 8.561 8.005 7.633 6.208 4.772 3.759 3.358 2.857 2.702 1.786 0.231 0.002 0.000 0.000 0.000 0.000
0.000 0.000 0.000 0.000 0.000 0.000 0.000 0.000 0.000 0.001 0.243 1.847 3.458 4.041 5.391 7.455 7.997 7.846 8.158 8.263 8.155 8.426 8.315 7.762 6.584 5.474 4.494 3.828 3.338 2.738 2.489 1.355 0.262 0.001 0.000 0.000 0.000
0.000 0.000 0.000 0.000 0.000 0.000 0.000 0.000 0.000 0.000 0.006 0.267 2.335 3.579 4.275 6.561 7.254 7.488 7.676 7.623 7.899 8.529 8.109 7.386 6.753 6.191 5.359 4.476 3.676 2.910 2.908 2.568 1.404 0.152 0.000 0.000 0.000
0.000 0.000 0.000 0.000 0.000 0.000 0.000 0.000 0.000 0.000 0.000 0.012 0.690 3.029 3.576 4.721 6.777 6.967 6.652 7.023 7.972 8.080 7.718 7.240 7.025 6.667 6.304 4.994 3.662 3.120 3.159 3.001 2.395 0.945 0.035 0.000 0.000
0.000 0.000 0.000 0.000 0.000 0.000 0.000 0.000 0.000 0.000 0.000 0.000 0.030 1.895 3.501 3.669 4.598 6.190 6.200 6.569 7.443 7.649 7.873 7.041 7.171 6.877 6.691 5.295 3.410 3.089 2.927 3.228 3.020 1.862 0.564 0.005 0.000
0.000 0.000 0.000 0.000 0.000 0.000 0.000 0.000 0.000 0.000 0.000 0.000 0.001 0.545 2.739 3.064 2.802 5.053 6.155 6.769 7.667 7.071 7.120 7.322 7.388 7.012 6.695 5.361 4.397 3.318 3.052 3.539 3.204 2.573 1.523 0.275 0.000
0.000 0.000 0.000 0.000 0.000 0.000 0.000 0.000 0.000 0.000 0.000 0.000 0.000 0.015 1.012 2.610 2.378 4.473 5.668 6.556 7.012 7.314 7.558 7.382 7.727 7.027 7.089 6.454 5.394 3.849 3.325 3.293 2.983 3.021 2.298 1.027 0.002
0.000 0.000 0.000 0.000 0.000 0.000 0.000 0.000 0.000 0.000 0.000 0.000 0.000 0.000 0.095 1.916 2.111 3.063 5.579 6.714 7.026 7.373 7.425 7.630 7.300 7.161 7.230 6.961 5.926 4.077 3.062 2.659 3.188 3.243 2.710 1.770 0.094
0.000 0.000 0.000 0.000 0.000 0.000 0.000 0.000 0.000 0.000 0.000 0.000 0.000 0.000 0.016 1.444 2.113 2.352 4.946 6.614 7.246 7.048 7.421 7.015 7.187 7.314 7.621 6.920 5.920 4.297 2.889 2.810 3.202 3.138 2.743 2.277 1.754
0.000 0.000 0.000 0.000 0.000 0.000 0.000 0.000 0.000 0.000 0.000 0.000 0.000 0.000 0.001 0.487 2.072 2.216 4.048 5.722 6.873 6.806 6.813 7.180 7.509 7.566 7.516 6.740 5.940 4.152 2.728 2.728 2.817 2.876 2.571 2.526 2.461
0.000 0.000 0.000 0.000 0.000 0.000 0.000 0.000 0.000 0.000 0.000 0.000 0.000 0.000 0.000 0.100 1.824 2.774 3.401 4.757 6.333 6.327 6.667 6.785 7.486 7.519 7.218 6.848 5.476 3.933 3.126 2.689 2.425 2.627 2.263 2.563 2.717
0.000 0.000 0.000 0.000 0.000 0.000 0.000 0.000 0.000 0.000 0.000 0.000 0.000 0.000 0.000 0.085 0.905 2.345 2.251 3.719 4.415 5.568 5.501 6.607 7.217 7.666 7.453 6.838 5.638 4.344 3.508 2.707 2.142 2.163 2.455 2.873 2.808
0.000 0.000 0.000 0.000 0.000 0.000 0.000 0.000 0.000 0.000 0.000 0.000 0.000 0.000 0.000 0.000 0.361 0.047 2.502 2.339 1.951 4.228 5.453 6.659 7.575 7.745 7.659 6.890 6.095 4.577 3.640 2.844 2.367 1.712 2.312 2.963 2.945
0.000 0.000 0.000 0.000 0.000 0.000 0.000 0.000 0.000 0.000 0.000 0.000 0.000 0.000 0.000 0.000 0.036 1.159 2.460 1.959 0.244 3.301 5.302 6.759 7.514 7.698 7.599 7.079 6.516 4.575 3.940 3.253 2.266 1.719 2.674 3.080 2.999
0.000 0.000 0.000 0.000 0.000 0.000 0.000 0.000 0.000 0.000 0.000 0.000 0.000 0.000 0.000 0.000 0.009 0.793 1.905 1.872 0.084 0.999 5.419 6.840 7.371 7.443 7.783 7.335 6.275 4.783 4.379 3.470 2.705 2.554 2.773 3.144 3.076
0.000 0.000 0.000 0.000 0.000 0.000 0.000 0.000 0.000 0.000 0.000 0.000 0.000 0.000 0.000 0.000 0.000 0.319 0.930 1.684 1.313 1.433 5.921 6.717 7.585 7.862 7.902 7.238 5.904 5.734 4.623 3.768 3.223 2.583 2.336 2.782 3.005
0.000 0.000 0.000 0.000 0.000 0.000 0.000 0.000 0.000 0.000 0.000 0.000 0.000 0.000 0.000 0.000 0.000 0.022 0.679 0.942 1.168 3.069 5.278 6.924 7.468 8.266 7.736 7.423 6.897 6.110 5.063 4.373 3.633 2.837 2.704 2.678 3.029
0.000 0.000 0.000 0.000 0.000 0.000 0.000 0.000 0.000 0.000 0.000 0.000 0.000 0.000 0.000 0.000 0.000 0.000 0.242 0.772 1.433 3.282 4.294 5.819 6.875 7.306 7.558 7.284 6.861 6.484 5.667 4.879 4.271 3.343 2.989 2.854 2.813
0.000 0.000 0.000 0.000 0.000 0.000 0.000 0.000 0.000 0.000 0.000 0.000 0.000 0.000 0.000 0.000 0.000 0.000 0.014 0.085 2.553 3.290 3.449 4.774 5.620 6.805 7.437 7.508 7.327 6.688 6.220 5.662 4.898 4.274 3.496 2.868 2.890
0.000 0.000 0.000 0.000 0.000 0.000 0.000 0.000 0.000 0.000 0.000 0.000 0.000 0.000 0.000 0.000 0.000 0.000 0.020 1.371 2.669 2.875 2.772 3.790 4.868 6.130 7.529 7.733 7.690 7.035 6.266 6.249 5.814 5.131 3.859 3.079 2.489
0.000 0.000 0.000 0.000 0.000 0.000 0.000 0.000 0.000 0.000 0.000 0.000 0.000 0.000 0.000 0.000 0.000 0.000 0.025 0.924 1.870 2.225 2.258 2.938 3.844 5.332 6.791 7.325 7.519 7.259 6.670 6.529 6.169 5.563 4.484 3.447 3.310
0.000 0.000 0.000 0.000 0.000 0.000 0.000 0.000 0.000 0.000 0.000 0.000 0.000 0.000 0.000 0.000 0.000 0.000 0.000 0.018 0.526 1.728 2.135 2.298 3.356 4.543 6.243 6.808 7.192 7.203 6.901 6.695 6.457 5.907 5.289 3.890 3.835
0.000 0.000 0.000 0.000 0.000 0.000 0.000 0.000 0.000 0.000 0.000 0.000 0.000 0.000 0.000 0.000 0.000 0.000 0.000 0.000 0.024 1.167 1.788 1.648 2.507 4.698 5.855 6.700 6.952 6.978 7.015 6.877 6.703 6.336 5.746 4.564 4.237
0.000 0.000 0.000 0.000 0.000 0.000 0.000 0.000 0.000 0.000 0.000 0.000 0.000 0.000 0.000 0.000 0.000 0.000 0.000 0.000 0.000 0.168 1.140 0.902 2.408 4.473 5.678 6.341 6.739 6.845 7.059 6.764 6.734 6.613 6.306 4.548 4.283
0.000 0.000 0.000 0.000 0.000 0.000 0.000 0.000 0.000 0.000 0.000 0.000 0.000 0.000 0.000 0.000 0.000 0.000 0.000 0.000 0.000 0.004 1.155 1.842 2.586 3.709 4.953 5.959 6.641 6.754 6.840 6.750 6.722 6.653 6.138 4.301 4.268
0.000 0.000 0.000 0.000 0.000 0.000 0.000 0.000 0.000 0.000 0.000 0.000 0.000 0.000 0.000 0.000 0.000 0.000 0.000 0.000 0.000 0.000 0.802 1.980 2.655 2.936 4.045 5.582 6.477 6.863 6.704 6.715 6.661 6.587 5.605 4.422 4.565
0.000 0.000 0.000 0.000 0.000 0.000 0.000 0.000 0.000 0.000 0.000 0.000 0.000 0.000 0.000 0.000 0.000 0.000 0.000 0.000 0.000 0.000 0.240 2.058 2.588 2.682 3.386 5.012 6.535 7.141 6.927 6.708 6.748 6.304 5.313 4.638 4.619
0.000 0.000 0.000 0.000 0.000 0.000 0.000 0.000 0.000 0.000 0.000 0.000 0.000 0.000 0.000 0.000 0.000 0.000 0.000 0.000 0.000 0.000 0.025 1.332 2.318 2.512 3.182 3.588 5.893 7.103 7.028 6.955 6.908 6.398 5.304 4.982 4.542
0.000 0.000 0.000 0.000 0.000 0.000 0.000 0.000 0.000 0.000 0.000 0.000 0.000 0.000 0.000 0.000 0.000 0.000 0.000 0.000 0.000 0.000 0.019 0.634 1.819 2.397 3.132 2.882 5.283 7.137 7.273 7.073 6.846 6.267 5.038 4.972 4.333
0.000 0.000 0.000 0.000 0.000 0.000 0.000 0.000 0.000 0.000 0.000 0.000 0.000 0.000 0.000 0.000 0.000 0.000 0.000 0.000 0.000 0.000 0.000 0.122 1.308 2.093 3.001 2.808 4.290 6.586 7.022 6.732 6.132 5.638 4.870 4.896 4.570
0.000 0.000 0.000 0.000 0.000 0.000 0.000 0.000 0.000 0.000 0.000 0.000 0.000 0.000 0.000 0.000 0.000 0.000 0.000 0.000 0.000 0.000 0.000 0.001 0.608 1.736 2.454 2.824 3.466 6.027 6.801 6.497 5.633 4.992 4.655 4.639 4.166
0.000 0.000 0.000 0.000 0.000 0.000 0.000 0.000 0.000 0.000 0.000 0.000 0.000 0.000 0.000 0.000 0.000 0.000 0.000 0.000 0.000 0.000 0.000 0.000 0.024 1.224 2.340 2.788 3.023 5.133 6.695 6.236 5.500 4.950 4.401 4.286 3.790
0.000 0.000 0.000 0.000 0.000 0.000 0.000 0.000 0.000 0.000 0.000 0.000 0.000 0.000 0.000 0.000 0.000 0.000 0.000 0.000 0.000 0.000 0.000 0.000 0.000 0.420 2.648 2.788 2.857 4.506 6.190 6.068 5.640 4.835 4.276 4.661 3.856
0.000 0.000 0.000 0.000 0.000 0.000 0.000 0.000 0.000 0.000 0.000 0.000 0.000 0.000 0.000 0.000 0.000 0.000 0.000 0.000 0.000 0.000 0.000 0.000 0.000 0.173 2.511 2.897 3.075 4.062 5.673 6.039 5.432 4.369 4.443 4.512 2.854
0.000 0.000 0.000 0.000 0.000 0.000 0.000 0.000 0.000 0.000 0.000 0.000 0.000 0.000 0.000 0.000 0.000 0.000 0.000 0.000 0.000 0.000 0.000 0.000 0.000 0.110 2.398 2.720 2.986 3.932 5.207 5.777 5.112 3.940 3.793 3.003 2.036
0.000 0.000 0.000 0.000 0.000 0.000 0.000 0.000 0.000 0.000 0.000 0.000 0.000 0.000 0.000 0.000 0.000 0.000 0.000 0.000 0.000 0.000 0.000 0.000 0.000 0.144 2.004 2.551 3.036 3.685 4.411 5.180 5.031 3.233 2.982 2.735 2.413
0.000 0.000 0.000 0.000 0.000 0.000 0.000 0.000 0.000 0.000 0.000 0.000 0.000 0.000 0.000 0.000 0.000 0.000 0.000 0.000 0.000 0.000 0.000 0.000 0.000 0.141 1.893 2.154 3.034 3.357 3.560 4.616 4.375 2.558 2.857 2.791 2.679
0.000 0.000 0.000 0.000 0.000 0.000 0.000 0.000 0.000 0.000 0.000 0.000 0.000 0.000 0.000 0.000 0.000 0.000 0.000 0.000 0.000 0.000 0.000 0.000 0.000 0.113 1.857 2.157 2.869 3.078 3.151 3.531 4.267 2.260 2.757 2.595 2.886
0.000 0.000 0.000 0.000 0.000 0.000 0.000 0.000 0.000 0.000 0.000 0.000 0.000 0.000 0.000 0.000 0.000 0.000 0.000 0.000 0.000 0.000 0.000 0.000 0.000 0.137 1.780 2.178 2.753 3.103 3.335 3.099 4.064 2.261 2.590 3.328 3.798
0.000 0.000 0.000 0.000 0.000 0.000 0.000 0.000 0.000 0.000 0.000 0.000 0.000 0.000 0.000 0.000 0.000 0.000 0.000 0.000 0.000 0.000 0.000 0.000 0.000 0.198 1.857 2.100 2.709 2.873 3.081 3.018 3.258 2.770 3.382 4.323 3.987
0.000 0.000 0.000 0.000 0.000 0.000 0.000 0.000 0.000 0.000 0.000 0.000 0.000 0.000 0.000 0.000 0.000 0.000 0.000 0.000 0.000 0.000 0.000 0.000 0.000 0.148 1.874 2.147 2.685 2.878 2.608 2.534 2.992 3.090 3.439 4.088 3.611
0.000 0.000 0.000 0.000 0.000 0.000 0.000 0.000 0.000 0.000 0.000 0.000 0.000 0.000 0.000 0.000 0.000 0.000 0.000 0.000 0.000 0.000 0.000 0.000 0.000 0.129 1.889 2.180 2.377 2.629 2.097 2.104 2.177 2.496 3.443 3.453 2.987
