ncols        36
nrows        65
xllcorner    409682.8
yllcorner    6870769.1
cellsize     5.00
NODATA_value -9999
0.000 0.000 0.000 0.000 0.000 0.000 0.000 0.000 0.000 0.000 0.000 0.000 0.000 0.000 0.000 0.000 0.000 0.000 0.000 0.000 0.000 0.000 0.000 0.000 0.000 0.000 0.000 0.000 0.000 0.000 0.000 0.000 0.000 0.000 0.000 0.000
0.000 0.000 0.000 0.083 2.527 11.448 14.790 14.274 13.999 14.112 11.644 6.084 1.210 0.004 0.000 0.000 0.000 0.000 0.000 0.000 0.000 0.000 0.000 0.000 0.000 0.000 0.000 0.000 0.000 0.000 0.000 0.000 0.000 0.000 0.000 0.000
0.000 0.000 0.110 4.151 15.033 15.090 15.031 14.349 14.977 14.618 14.491 13.180 12.679 3.108 0.001 0.000 0.000 0.000 0.000 0.000 0.000 0.000 0.000 0.000 0.000 0.000 0.000 0.000 0.000 0.000 0.000 0.000 0.000 0.000 0.000 0.000
0.000 0.006 2.696 13.943 14.931 15.348 15.358 15.261 16.266 16.383 15.682 14.818 13.024 12.152 1.388 0.000 0.000 0.000 0.000 0.000 0.000 0.000 0.000 0.000 0.000 0.000 0.000 0.000 0.000 0.000 0.000 0.000 0.000 0.000 0.000 0.000
0.000 0.806 13.373 14.119 14.759 15.682 15.586 16.920 17.793 17.355 16.371 15.669 13.865 12.357 9.307 0.109 0.000 0.000 0.000 0.000 0.000 0.000 0.000 0.000 0.000 0.000 0.000 0.000 0.000 0.000 0.000 0.000 0.000 0.000 0.000 0.000
0.000 3.599 13.382 13.957 14.981 15.980 16.832 17.904 18.025 16.387 19.094 16.608 14.123 13.081 11.672 3.695 0.006 0.000 0.000 0.000 0.000 0.000 0.000 0.000 0.000 0.000 0.000 0.000 0.000 0.000 0.000 0.000 0.000 0.000 0.000 0.000
0.000 6.991 12.887 14.006 15.650 16.749 17.915 17.656 17.317 17.586 18.809 15.906 14.798 13.302 11.795 8.887 1.323 0.001 0.000 0.000 0.000 0.000 0.000 0.000 0.000 0.000 0.000 0.000 0.000 0.000 0.000 0.000 0.000 0.000 0.000 0.000
0.000 12.135 13.134 15.185 16.399 16.864 17.673 17.057 17.250 17.853 17.706 15.915 14.602 14.541 12.364 11.131 6.094 0.519 0.000 0.000 0.000 0.000 0.000 0.000 0.000 0.000 0.000 0.000 0.000 0.000 0.000 0.000 0.000 0.000 0.000 0.000
0.000 12.234 13.853 15.203 16.220 17.388 16.850 16.180 15.909 17.227 17.343 16.047 15.892 15.002 13.398 12.014 9.027 4.120 0.221 0.000 0.000 0.000 0.000 0.000 0.000 0.000 0.000 0.000 0.000 0.000 0.000 0.000 0.000 0.000 0.000 0.000
0.000 12.365 13.140 14.762 16.044 16.078 16.435 15.662 16.698 17.811 19.186 18.369 16.393 15.510 13.345 12.395 10.167 7.132 2.898 0.049 0.000 0.000 0.000 0.000 0.000 0.000 0.000 0.000 0.000 0.000 0.000 0.000 0.000 0.000 0.000 0.000
0.000 10.032 13.239 14.045 15.458 16.543 16.281 17.058 16.974 18.400 19.302 17.398 15.781 15.143 13.724 13.445 11.473 8.668 5.731 1.436 0.002 0.000 0.000 0.000 0.000 0.000 0.000 0.000 0.000 0.000 0.000 0.000 0.000 0.000 0.000 0.000
0.000 5.925 11.500 13.393 14.686 16.020 16.393 16.301 16.831 18.806 17.879 16.640 15.562 15.275 13.939 13.371 12.106 9.272 6.747 3.658 0.425 0.000 0.000 0.000 0.000 0.000 0.000 0.000 0.000 0.000 0.000 0.000 0.000 0.000 0.000 0.000
0.000 2.685 10.775 13.190 14.525 15.685 15.913 15.932 16.368 16.684 16.236 15.286 15.621 13.787 13.460 13.432 12.713 10.913 7.013 4.931 2.306 0.040 0.000 0.000 0.000 0.000 0.000 0.000 0.000 0.000 0.000 0.000 0.000 0.000 0.000 0.000
0.000 0.634 9.109 12.302 14.542 15.319 15.144 15.636 16.141 17.142 15.857 15.701 14.113 13.852 13.884 13.920 12.768 10.705 7.794 4.855 3.449 0.737 0.001 0.000 0.000 0.000 0.000 0.000 0.000 0.000 0.000 0.000 0.000 0.000 0.000 0.000
0.000 0.053 4.359 12.402 14.156 14.924 14.655 15.099 15.449 16.158 15.235 14.295 13.749 14.690 14.164 14.101 13.162 11.925 8.525 5.517 4.062 2.354 0.208 0.000 0.000 0.000 0.000 0.000 0.000 0.000 0.000 0.000 0.000 0.000 0.000 0.000
0.000 0.000 0.765 8.401 12.272 12.857 13.925 14.885 15.847 14.202 14.108 13.650 14.173 15.134 14.051 14.349 13.676 12.081 9.604 6.670 4.433 4.026 1.542 0.004 0.000 0.000 0.000 0.000 0.000 0.000 0.000 0.000 0.000 0.000 0.000 0.000
0.000 0.000 0.065 3.755 10.329 12.857 14.875 16.215 15.206 14.691 13.986 14.003 14.384 13.915 14.571 14.448 13.692 12.182 10.944 7.966 5.209 4.592 3.137 0.356 0.000 0.000 0.000 0.000 0.000 0.000 0.000 0.000 0.000 0.000 0.000 0.000
0.000 0.000 0.001 0.856 7.332 12.495 14.067 14.125 14.219 13.618 14.000 14.087 14.482 14.745 14.802 14.797 14.156 13.011 11.904 8.710 6.135 5.183 4.262 1.876 0.013 0.000 0.000 0.000 0.000 0.000 0.000 0.000 0.000 0.000 0.000 0.000
0.000 0.000 0.000 0.049 2.916 8.322 12.859 14.432 13.704 14.503 13.721 14.811 13.591 15.060 14.714 14.915 14.135 13.284 11.960 9.673 7.724 6.028 4.605 3.586 0.528 0.000 0.000 0.000 0.000 0.000 0.000 0.000 0.000 0.000 0.000 0.000
0.000 0.000 0.000 0.001 0.600 5.611 9.649 11.970 13.623 13.219 13.648 13.214 14.660 15.102 14.657 14.822 14.074 13.882 12.389 10.847 8.921 6.726 4.973 4.177 2.122 0.071 0.000 0.000 0.000 0.000 0.000 0.000 0.000 0.000 0.000 0.000
0.000 0.000 0.000 0.000 0.022 1.577 6.532 10.332 12.105 12.993 13.713 13.736 14.337 14.641 14.207 14.498 14.541 14.239 12.734 11.451 10.139 7.820 5.830 4.452 3.578 1.218 0.027 0.000 0.000 0.000 0.000 0.000 0.000 0.000 0.000 0.000
0.000 0.000 0.000 0.000 0.000 0.125 3.286 7.522 11.003 12.333 12.690 13.290 14.112 13.986 13.698 14.742 14.422 13.776 12.747 12.087 11.325 9.543 6.725 4.886 4.157 3.190 0.880 0.006 0.000 0.000 0.000 0.000 0.000 0.000 0.000 0.000
0.000 0.000 0.000 0.000 0.000 0.002 0.640 5.165 8.073 11.488 12.294 12.705 12.739 13.150 14.050 14.431 13.691 13.451 13.019 12.461 12.209 10.775 7.567 5.457 4.636 4.097 2.667 0.383 0.001 0.000 0.000 0.000 0.000 0.000 0.000 0.000
0.000 0.000 0.000 0.000 0.000 0.000 0.016 2.364 6.131 9.535 11.325 11.897 11.776 12.275 13.047 13.720 14.326 12.937 13.093 12.694 12.435 11.872 8.434 6.124 4.666 4.450 3.995 1.861 0.159 0.000 0.000 0.000 0.000 0.000 0.000 0.000
0.000 0.000 0.000 0.000 0.000 0.000 0.000 0.373 3.756 5.623 9.286 10.406 11.559 12.215 13.563 12.766 12.788 13.147 13.124 12.827 12.469 10.731 9.744 7.132 5.138 4.896 4.389 3.296 1.359 0.057 0.000 0.000 0.000 0.000 0.000 0.000
0.000 0.000 0.000 0.000 0.000 0.000 0.000 0.008 1.145 3.954 7.071 9.427 10.643 11.545 12.402 12.664 13.215 12.847 13.640 12.572 12.688 11.882 10.766 8.516 5.987 4.926 4.107 4.103 2.836 0.818 0.001 0.000 0.000 0.000 0.000 0.000
0.000 0.000 0.000 0.000 0.000 0.000 0.000 0.000 0.096 2.764 4.370 8.670 10.142 11.309 11.834 12.659 12.699 13.242 12.963 12.626 12.573 12.424 11.458 9.247 6.856 4.708 4.406 4.416 3.645 2.140 0.092 0.038 0.000 0.000 0.000 0.000
0.000 0.000 0.000 0.000 0.000 0.000 0.000 0.000 0.016 1.843 3.389 6.388 9.231 11.026 11.888 11.996 12.829 12.254 12.405 12.511 13.027 12.410 11.476 9.611 7.448 5.408 4.632 4.272 3.739 3.069 2.082 0.755 0.007 0.000 0.000 0.000
0.000 0.000 0.000 0.000 0.000 0.000 0.000 0.000 0.000 0.580 3.020 4.409 7.514 9.817 11.136 11.649 11.766 12.306 12.606 12.671 12.967 12.056 11.611 9.927 7.719 6.410 4.640 4.094 3.549 3.435 3.261 2.229 0.328 0.001 0.000 0.000
0.000 0.000 0.000 0.000 0.000 0.000 0.000 0.000 0.000 0.100 2.469 4.171 6.030 8.503 10.530 10.898 11.913 11.704 12.543 12.524 12.305 12.235 11.037 9.520 8.226 7.045 4.967 4.104 3.341 3.509 3.691 3.227 1.801 0.236 0.000 0.000
0.000 0.000 0.000 0.000 0.000 0.000 0.000 0.000 0.000 0.044 1.112 3.463 3.813 6.457 8.571 10.291 10.365 11.337 11.825 12.468 12.361 12.058 10.970 9.864 8.747 7.598 5.792 4.188 3.617 3.932 3.836 3.669 2.944 1.612 0.032 0.000
0.000 0.000 0.000 0.000 0.000 0.000 0.000 0.000 0.000 0.000 0.328 1.008 3.616 4.098 6.291 8.722 10.065 11.122 12.133 12.386 12.471 11.867 11.262 10.103 9.016 7.860 6.544 4.612 3.765 4.096 4.061 3.844 3.416 2.559 0.351 0.011
0.000 0.000 0.000 0.000 0.000 0.000 0.000 0.000 0.000 0.000 0.033 1.537 3.331 2.892 4.476 7.642 9.643 11.023 11.911 12.290 12.201 11.809 11.747 9.955 9.204 8.361 7.019 5.317 4.395 4.331 4.205 3.925 3.478 3.245 2.333 0.486
0.000 0.000 0.000 0.000 0.000 0.000 0.000 0.000 0.000 0.000 0.005 0.788 2.532 2.561 2.785 6.052 9.050 10.982 11.568 11.632 12.191 11.943 11.592 9.723 9.573 8.658 7.449 6.399 5.044 4.609 4.382 4.029 3.507 3.551 3.019 1.939
0.000 0.000 0.000 0.000 0.000 0.000 0.000 0.000 0.000 0.000 0.000 0.217 1.308 2.321 2.733 4.731 9.211 10.300 11.618 11.821 12.174 11.689 10.246 10.401 9.715 8.759 7.937 6.913 5.628 4.677 4.512 4.193 3.946 3.778 3.464 2.823
0.000 0.000 0.000 0.000 0.000 0.000 0.000 0.000 0.000 0.000 0.000 0.012 0.781 1.652 2.564 4.976 7.658 10.510 11.297 12.504 11.873 11.635 11.232 10.527 9.754 9.287 8.357 7.212 6.344 5.320 4.888 4.902 4.237 4.062 3.606 3.262
0.000 0.000 0.000 0.000 0.000 0.000 0.000 0.000 0.000 0.000 0.000 0.000 0.184 1.263 2.471 4.578 6.100 9.106 10.792 11.269 11.535 11.269 10.803 10.653 10.004 9.342 8.879 7.731 6.821 6.391 5.333 5.139 4.726 4.269 3.822 3.573
0.000 0.000 0.000 0.000 0.000 0.000 0.000 0.000 0.000 0.000 0.000 0.000 0.010 0.773 3.431 4.512 4.932 7.311 9.003 10.615 11.100 11.202 11.022 10.473 10.424 9.834 9.081 8.358 7.558 6.898 6.263 5.816 5.119 4.307 4.431 3.744
0.000 0.000 0.000 0.000 0.000 0.000 0.000 0.000 0.000 0.000 0.000 0.000 0.011 1.356 3.408 3.878 3.865 5.423 7.951 9.668 11.215 11.400 11.298 10.592 10.041 10.201 9.779 9.100 7.949 7.477 6.938 6.360 5.835 5.014 4.829 3.751
0.000 0.000 0.000 0.000 0.000 0.000 0.000 0.000 0.000 0.000 0.000 0.000 0.004 0.578 2.110 2.881 2.929 3.905 6.011 8.523 10.234 10.929 11.051 10.650 10.107 10.314 9.968 9.447 8.358 7.911 8.367 7.400 6.517 5.755 4.857 3.974
0.000 0.000 0.000 0.000 0.000 0.000 0.000 0.000 0.000 0.000 0.000 0.000 0.000 0.007 0.447 2.127 2.777 2.988 4.670 6.801 9.288 10.149 10.613 10.507 10.058 10.241 10.081 9.596 9.123 8.898 9.499 8.608 7.325 6.217 4.973 4.223
0.000 0.000 0.000 0.000 0.000 0.000 0.000 0.000 0.000 0.000 0.000 0.000 0.000 0.000 0.019 1.296 2.326 2.230 3.246 5.934 8.222 9.832 10.287 10.213 9.930 10.257 10.219 9.900 9.484 10.079 10.694 9.704 8.378 6.492 4.483 3.944
0.000 0.000 0.000 0.000 0.000 0.000 0.000 0.000 0.000 0.000 0.000 0.000 0.000 0.000 0.000 0.151 1.451 1.534 3.023 5.095 7.230 9.164 9.913 10.020 9.881 9.888 10.101 10.150 10.152 10.355 11.185 10.435 8.899 5.810 4.373 4.389
0.000 0.000 0.000 0.000 0.000 0.000 0.000 0.000 0.000 0.000 0.000 0.000 0.000 0.000 0.000 0.004 1.317 2.413 3.256 4.227 5.827 8.193 9.682 9.851 9.613 9.648 9.947 10.165 10.265 10.125 11.257 10.765 8.993 6.314 5.514 5.286
0.000 0.000 0.000 0.000 0.000 0.000 0.000 0.000 0.000 0.000 0.000 0.000 0.000 0.000 0.000 0.000 0.773 2.469 3.382 3.557 4.580 6.899 9.149 9.818 9.331 9.392 9.679 10.128 10.047 10.466 11.732 11.367 9.137 6.933 6.258 5.153
0.000 0.000 0.000 0.000 0.000 0.000 0.000 0.000 0.000 0.000 0.000 0.000 0.000 0.000 0.000 0.000 0.180 2.389 3.288 3.451 3.937 5.556 8.913 10.064 9.515 9.084 9.556 9.722 9.789 10.851 11.795 10.901 9.182 7.707 6.692 4.699
0.000 0.000 0.000 0.000 0.000 0.000 0.000 0.000 0.000 0.000 0.000 0.000 0.000 0.000 0.000 0.000 0.014 1.314 2.861 3.221 3.840 4.035 7.586 9.890 9.515 9.058 9.520 9.659 10.098 11.388 11.818 10.756 9.602 8.342 6.930 4.321
0.000 0.000 0.000 0.000 0.000 0.000 0.000 0.000 0.000 0.000 0.000 0.000 0.000 0.000 0.000 0.000 0.006 0.482 2.106 3.065 3.780 3.585 5.986 9.926 9.829 9.044 9.457 9.508 10.064 11.420 11.291 11.055 9.948 8.381 7.193 5.102
0.000 0.000 0.000 0.000 0.000 0.000 0.000 0.000 0.000 0.000 0.000 0.000 0.000 0.000 0.000 0.000 0.000 0.071 1.351 2.618 3.673 3.505 4.567 9.235 9.626 8.609 8.594 8.985 9.783 11.193 11.586 10.973 9.295 8.292 7.491 5.593
0.000 0.000 0.000 0.000 0.000 0.000 0.000 0.000 0.000 0.000 0.000 0.000 0.000 0.000 0.000 0.000 0.000 0.000 0.496 2.055 3.113 3.479 4.288 8.617 9.400 8.352 7.805 8.207 9.311 10.528 10.804 9.668 8.381 8.498 7.163 5.936
0.000 0.000 0.000 0.000 0.000 0.000 0.000 0.000 0.000 0.000 0.000 0.000 0.000 0.000 0.000 0.000 0.000 0.000 0.016 1.323 2.932 3.437 3.835 7.432 9.363 8.118 7.290 7.885 8.761 9.603 9.853 8.985 8.441 7.859 7.623 6.590
0.000 0.000 0.000 0.000 0.000 0.000 0.000 0.000 0.000 0.000 0.000 0.000 0.000 0.000 0.000 0.000 0.000 0.000 0.000 0.355 3.241 3.380 3.584 6.499 8.885 7.969 7.146 7.537 8.221 9.544 9.737 8.782 8.198 8.057 8.357 6.908
0.000 0.000 0.000 0.000 0.000 0.000 0.000 0.000 0.000 0.000 0.000 0.000 0.000 0.000 0.000 0.000 0.000 0.000 0.000 0.133 3.045 3.497 3.746 5.267 8.305 7.981 6.783 6.810 7.973 9.408 8.647 7.977 8.295 8.830 9.013 7.241
0.000 0.000 0.000 0.000 0.000 0.000 0.000 0.000 0.000 0.000 0.000 0.000 0.000 0.000 0.000 0.000 0.000 0.000 0.000 0.081 2.896 3.273 3.632 4.917 7.911 7.879 6.335 6.113 7.075 7.405 7.473 8.037 8.546 8.830 9.134 6.476
0.000 0.000 0.000 0.000 0.000 0.000 0.000 0.000 0.000 0.000 0.000 0.000 0.000 0.000 0.000 0.000 0.000 0.000 0.000 0.109 2.456 3.077 3.636 4.648 7.136 7.408 6.282 5.220 5.913 6.803 7.404 8.075 8.330 8.665 8.563 5.817
0.000 0.000 0.000 0.000 0.000 0.000 0.000 0.000 0.000 0.000 0.000 0.000 0.000 0.000 0.000 0.000 0.000 0.000 0.000 0.108 2.313 2.647 3.637 4.347 6.466 7.249 5.748 4.468 5.421 6.425 7.116 7.436 8.178 8.504 6.916 5.753
0.000 0.000 0.000 0.000 0.000 0.000 0.000 0.000 0.000 0.000 0.000 0.000 0.000 0.000 0.000 0.000 0.000 0.000 0.000 0.089 2.275 2.624 3.476 3.997 5.773 6.824 5.673 4.109 5.178 5.859 6.419 6.973 7.654 7.269 6.112 6.090
0.000 0.000 0.000 0.000 0.000 0.000 0.000 0.000 0.000 0.000 0.000 0.000 0.000 0.000 0.000 0.000 0.000 0.000 0.000 0.108 2.169 2.642 3.379 4.009 5.276 6.512 5.605 4.044 4.772 5.756 6.797 7.349 7.054 6.417 6.348 6.060
0.000 0.000 0.000 0.000 0.000 0.000 0.000 0.000 0.000 0.000 0.000 0.000 0.000 0.000 0.000 0.000 0.000 0.000 0.000 0.154 2.253 2.559 3.354 3.753 4.758 6.420 5.186 4.362 5.323 6.587 6.847 6.771 6.512 6.431 6.490 6.014
0.000 0.000 0.000 0.000 0.000 0.000 0.000 0.000 0.000 0.000 0.000 0.000 0.000 0.000 0.000 0.000 0.000 0.000 0.000 0.110 2.258 2.610 3.389 3.768 4.245 6.041 5.289 4.712 5.318 6.309 6.413 6.409 6.691 6.498 6.419 6.254
0.000 0.000 0.000 0.000 0.000 0.000 0.000 0.000 0.000 0.000 0.000 0.000 0.000 0.000 0.000 0.000 0.000 0.000 0.000 0.097 2.277 2.698 3.257 3.633 3.769 5.675 5.442 4.854 5.374 5.683 5.629 6.354 6.356 6.228 6.193 6.246
0.000 0.000 0.000 0.000 0.000 0.000 0.000 0.000 0.000 0.000 0.000 0.000 0.000 0.000 0.000 0.000 0.000 0.000 0.000 0.098 2.167 2.536 3.171 3.399 3.589 5.383 5.689 5.062 5.191 5.169 5.639 6.027 6.103 5.799 5.967 6.098
0.000 0.000 0.000 0.000 0.000 0.000 0.000 0.000 0.000 0.000 0.000 0.000 0.000 0.000 0.000 0.000 0.000 0.000 0.000 0.070 2.304 2.596 3.221 3.090 3.315 4.671 5.393 4.538 4.710 4.901 5.289 5.690 6.057 5.935 6.295 5.737
0.000 0.000 0.000 0.000 0.000 0.000 0.000 0.000 0.000 0.000 0.000 0.000 0.000 0.000 0.000 0.000 0.000 0.000 0.000 0.040 2.162 2.781 2.891 2.798 2.998 3.805 4.705 3.919 4.146 4.180 5.100 5.657 6.054 5.822 5.591 5.398
0.000 0.000 0.000 0.000 0.000 0.000 0.000 0.000 0.000 0.000 0.000 0.000 0.000 0.000 0.000 0.000 0.000 0.000 0.000 0.040 1.777 2.442 2.527 2.408 2.525 3.102 3.670 2.823 3.387 4.222 4.860 4.975 5.022 5.126 4.720 4.680
