ncols        59
nrows        143
xllcorner    409517.8
yllcorner    6870874.1
cellsize     5.00
NODATA_value -9999
0.000 0.000 0.000 0.205 3.900 12.972 12.849 5.183 0.295 0.000 0.000 0.000 0.000 0.000 0.000 0.000 0.000 0.000 0.000 0.000 0.000 0.000 0.000 0.000 0.000 0.000 0.000 0.000 0.000 0.000 0.000 0.000 0.000 0.000 0.000 0.000 0.000 0.000 0.000 0.000 0.000 0.000 0.000 0.000 0.000 0.000 0.000 0.000 0.000 0.000 0.000 0.000 0.000 0.000 0.000 0.000 0.000 0.000 0.000
0.000 0.000 0.572 9.293 20.237 19.442 18.906 16.240 10.040 0.740 0.000 0.000 0.000 0.000 0.000 0.000 0.000 0.000 0.000 0.000 0.000 0.000 0.000 0.000 0.000 0.000 0.000 0.000 0.000 0.000 0.000 0.000 0.000 0.000 0.000 0.000 0.000 0.000 0.000 0.000 0.000 0.000 0.000 0.000 0.000 0.000 0.000 0.000 0.000 0.000 0.000 0.000 0.000 0.000 0.000 0.000 0.000 0.000 0.000
0.000 0.785 11.628 19.912 20.854 20.429 20.140 16.709 15.735 11.008 0.799 0.002 0.000 0.000 0.000 0.000 0.000 0.000 0.000 0.000 0.000 0.000 0.000 0.000 0.000 0.000 0.000 0.000 0.000 0.000 0.000 0.000 0.000 0.000 0.000 0.000 0.000 0.000 0.000 0.000 0.000 0.000 0.000 0.000 0.000 0.000 0.000 0.000 0.000 0.000 0.000 0.000 0.000 0.000 0.000 0.000 0.000 0.000 0.000
0.456 10.149 20.101 20.881 20.979 22.059 20.036 17.650 17.628 18.271 11.462 2.052 0.077 0.000 0.000 0.000 0.000 0.000 0.000 0.000 0.000 0.000 0.000 0.000 0.000 0.000 0.000 0.000 0.000 0.000 0.000 0.000 0.000 0.000 0.000 0.000 0.000 0.000 0.000 0.000 0.000 0.000 0.000 0.000 0.000 0.000 0.000 0.000 0.000 0.000 0.000 0.000 0.000 0.000 0.000 0.000 0.000 0.000 0.000
2.955 19.710 20.813 22.245 22.644 20.889 20.020 18.780 19.247 20.128 17.741 13.579 5.374 0.597 0.004 0.000 0.000 0.000 0.000 0.000 0.000 0.000 0.000 0.000 0.000 0.000 0.000 0.000 0.000 0.000 0.000 0.000 0.000 0.000 0.000 0.000 0.000 0.000 0.000 0.000 0.000 0.000 0.000 0.000 0.000 0.000 0.000 0.000 0.000 0.000 0.000 0.000 0.000 0.000 0.000 0.000 0.000 0.000 0.000
7.120 20.132 21.588 22.948 22.898 20.334 20.461 19.365 19.905 20.491 20.500 18.395 14.913 8.629 1.870 0.046 0.000 0.000 0.000 0.000 0.000 0.000 0.000 0.000 0.000 0.000 0.000 0.000 0.000 0.000 0.000 0.000 0.000 0.000 0.000 0.000 0.000 0.000 0.000 0.000 0.000 0.000 0.000 0.000 0.000 0.000 0.000 0.000 0.000 0.000 0.000 0.000 0.000 0.000 0.000 0.000 0.000 0.000 0.000
11.218 20.247 21.449 23.642 23.051 22.830 20.224 17.929 16.988 19.804 21.999 20.241 16.890 15.379 10.073 3.749 0.079 0.000 0.000 0.000 0.000 0.000 0.000 0.000 0.000 0.000 0.000 0.000 0.000 0.000 0.000 0.000 0.000 0.000 0.000 0.000 0.000 0.000 0.000 0.000 0.000 0.000 0.000 0.000 0.000 0.000 0.000 0.000 0.000 0.000 0.000 0.000 0.000 0.000 0.000 0.000 0.000 0.000 0.000
12.324 20.725 22.727 24.558 25.941 24.040 21.704 18.326 15.762 20.176 21.904 22.110 17.813 17.181 15.294 11.085 3.848 0.004 0.000 0.000 0.000 0.000 0.000 0.000 0.000 0.000 0.000 0.000 0.000 0.000 0.000 0.000 0.000 0.000 0.000 0.000 0.000 0.000 0.000 0.000 0.000 0.000 0.000 0.000 0.000 0.000 0.000 0.000 0.000 0.000 0.000 0.000 0.000 0.000 0.000 0.000 0.000 0.000 0.000
12.355 20.554 23.415 25.343 27.476 26.563 24.784 24.494 25.826 19.078 23.933 21.460 19.546 20.361 17.258 13.091 10.102 1.251 0.000 0.000 0.000 0.000 0.000 0.000 0.000 0.000 0.000 0.000 0.000 0.000 0.000 0.000 0.000 0.000 0.000 0.000 0.000 0.000 0.000 0.000 0.000 0.000 0.000 0.000 0.000 0.000 0.000 0.000 0.000 0.000 0.000 0.000 0.000 0.000 0.000 0.000 0.000 0.000 0.000
12.278 21.091 23.463 26.711 27.050 26.832 25.950 26.474 24.188 25.881 19.304 21.631 21.440 18.687 18.023 15.425 12.292 6.174 0.001 0.000 0.000 0.000 0.000 0.000 0.000 0.000 0.000 0.000 0.000 0.000 0.000 0.000 0.000 0.000 0.000 0.000 0.000 0.000 0.000 0.000 0.000 0.000 0.000 0.000 0.000 0.000 0.000 0.000 0.000 0.000 0.000 0.000 0.000 0.000 0.000 0.000 0.000 0.000 0.000
12.371 21.075 24.834 25.063 26.194 26.806 26.000 24.889 25.678 24.814 20.686 20.448 22.108 18.599 18.400 15.479 12.235 9.117 0.615 0.000 0.000 0.000 0.000 0.000 0.000 0.000 0.000 0.000 0.000 0.000 0.000 0.000 0.000 0.000 0.000 0.000 0.000 0.000 0.000 0.000 0.000 0.000 0.000 0.000 0.000 0.000 0.000 0.000 0.000 0.000 0.000 0.000 0.000 0.000 0.000 0.000 0.000 0.000 0.000
11.062 21.184 23.680 25.340 24.769 26.385 24.681 23.936 25.402 25.477 24.639 16.337 18.641 19.801 18.107 16.158 13.431 11.398 4.709 0.000 0.000 0.000 0.000 0.000 0.000 0.000 0.000 0.000 0.000 0.000 0.000 0.000 0.000 0.000 0.000 0.000 0.000 0.000 0.000 0.000 0.000 0.000 0.000 0.000 0.000 0.000 0.000 0.000 0.000 0.000 0.000 0.000 0.000 0.000 0.000 0.000 0.000 0.000 0.000
8.932 19.496 23.382 25.761 26.567 25.344 25.394 26.251 23.969 24.914 23.269 20.791 16.399 19.568 19.372 19.083 16.056 11.904 7.075 0.122 0.000 0.000 0.000 0.000 0.000 0.000 0.000 0.000 0.000 0.000 0.000 0.000 0.000 0.000 0.000 0.000 0.000 0.000 0.000 0.000 0.000 0.000 0.000 0.000 0.000 0.000 0.000 0.000 0.000 0.000 0.000 0.000 0.000 0.000 0.000 0.000 0.000 0.000 0.000
6.824 18.140 21.600 25.048 26.639 27.085 25.810 26.231 25.449 24.592 22.001 24.832 21.587 23.402 23.959 18.167 15.946 12.000 8.087 2.770 0.000 0.000 0.000 0.000 0.000 0.000 0.000 0.000 0.000 0.000 0.000 0.000 0.000 0.000 0.000 0.000 0.000 0.000 0.000 0.000 0.000 0.000 0.000 0.000 0.000 0.000 0.000 0.000 0.000 0.000 0.000 0.000 0.000 0.000 0.000 0.000 0.000 0.000 0.000
4.587 17.920 21.072 25.106 26.472 25.872 27.121 26.456 24.538 23.605 22.720 25.154 25.379 21.015 23.768 18.724 15.653 12.063 9.355 5.753 0.000 0.000 0.000 0.000 0.000 0.000 0.000 0.000 0.000 0.000 0.000 0.000 0.000 0.000 0.000 0.000 0.000 0.000 0.000 0.000 0.000 0.000 0.000 0.000 0.000 0.000 0.000 0.000 0.000 0.000 0.000 0.000 0.000 0.000 0.000 0.000 0.000 0.000 0.000
2.524 15.701 21.230 23.227 27.065 25.120 25.831 25.053 22.832 23.568 23.017 24.491 23.456 21.647 21.977 19.659 16.972 12.872 10.019 6.760 0.158 0.000 0.000 0.000 0.000 0.000 0.000 0.000 0.000 0.000 0.000 0.000 0.000 0.000 0.000 0.000 0.000 0.000 0.000 0.000 0.000 0.000 0.000 0.000 0.000 0.000 0.000 0.000 0.000 0.000 0.000 0.000 0.000 0.000 0.000 0.000 0.000 0.000 0.000
0.994 12.135 18.915 23.455 25.722 25.799 25.783 25.832 23.422 22.842 26.559 24.879 23.068 25.306 20.318 21.372 16.421 13.678 10.628 7.654 2.766 0.000 0.000 0.000 0.000 0.000 0.000 0.000 0.000 0.000 0.000 0.000 0.000 0.000 0.000 0.000 0.000 0.000 0.000 0.000 0.000 0.000 0.000 0.000 0.000 0.000 0.000 0.000 0.000 0.000 0.000 0.000 0.000 0.000 0.000 0.000 0.000 0.000 0.000
0.326 8.873 17.981 20.792 23.867 25.569 25.643 24.782 25.461 26.317 25.778 24.783 24.533 22.342 22.939 21.191 16.016 14.420 11.700 8.786 5.485 0.000 0.000 0.000 0.000 0.000 0.000 0.000 0.000 0.000 0.000 0.000 0.000 0.000 0.000 0.000 0.000 0.000 0.000 0.000 0.000 0.000 0.000 0.000 0.000 0.000 0.000 0.000 0.000 0.000 0.000 0.000 0.000 0.000 0.000 0.000 0.000 0.000 0.000
0.075 5.396 16.009 20.155 22.181 23.863 24.471 23.631 24.187 26.857 25.809 23.357 21.912 24.886 26.336 21.062 16.699 14.956 12.237 9.548 6.261 0.003 0.000 0.000 0.000 0.000 0.000 0.000 0.000 0.000 0.000 0.000 0.000 0.000 0.000 0.000 0.000 0.000 0.000 0.000 0.000 0.000 0.000 0.000 0.000 0.000 0.000 0.000 0.000 0.000 0.000 0.000 0.000 0.000 0.000 0.000 0.000 0.000 0.000
0.002 2.514 13.175 17.888 21.123 22.914 23.230 22.210 23.091 26.972 23.444 23.382 24.590 24.964 24.533 20.075 17.991 16.337 13.713 10.722 7.016 0.653 0.000 0.000 0.000 0.000 0.000 0.000 0.000 0.000 0.000 0.000 0.000 0.000 0.000 0.000 0.000 0.000 0.000 0.000 0.000 0.000 0.000 0.000 0.000 0.000 0.000 0.000 0.000 0.000 0.000 0.000 0.000 0.000 0.000 0.000 0.000 0.000 0.000
0.000 0.873 11.288 17.039 20.353 22.486 22.581 22.758 24.376 25.581 25.509 24.805 21.903 22.763 22.726 20.064 19.998 17.187 14.616 11.519 8.101 3.512 0.000 0.000 0.000 0.000 0.000 0.000 0.000 0.000 0.000 0.000 0.000 0.000 0.000 0.000 0.000 0.000 0.000 0.000 0.000 0.000 0.000 0.000 0.000 0.000 0.000 0.000 0.000 0.000 0.000 0.000 0.000 0.000 0.000 0.000 0.000 0.000 0.000
0.000 0.189 8.002 14.703 18.490 20.673 23.666 23.738 24.311 23.887 24.631 22.251 19.660 21.049 23.902 21.178 19.535 16.914 15.270 12.575 7.956 4.874 0.017 0.000 0.000 0.000 0.000 0.000 0.000 0.000 0.000 0.000 0.000 0.000 0.000 0.000 0.000 0.000 0.000 0.000 0.000 0.000 0.000 0.000 0.000 0.000 0.000 0.000 0.000 0.000 0.000 0.000 0.000 0.000 0.000 0.000 0.000 0.000 0.000
0.000 0.078 5.166 12.434 17.034 19.147 21.763 23.507 24.505 24.875 23.454 20.609 21.801 22.809 25.022 21.753 20.628 17.734 16.754 13.220 8.562 5.429 0.852 0.000 0.000 0.000 0.000 0.000 0.000 0.000 0.000 0.000 0.000 0.000 0.000 0.000 0.000 0.000 0.000 0.000 0.000 0.000 0.000 0.000 0.000 0.000 0.000 0.000 0.000 0.000 0.000 0.000 0.000 0.000 0.000 0.000 0.000 0.000 0.000
0.000 0.019 2.994 10.466 15.268 18.623 21.208 21.015 23.880 23.259 21.478 20.221 20.758 22.101 24.283 22.395 20.570 19.771 17.531 14.247 8.307 5.622 3.798 0.015 0.000 0.000 0.000 0.000 0.000 0.000 0.000 0.000 0.000 0.000 0.000 0.000 0.000 0.000 0.000 0.000 0.000 0.000 0.000 0.000 0.000 0.000 0.000 0.000 0.000 0.000 0.000 0.000 0.000 0.000 0.000 0.000 0.000 0.000 0.000
0.000 0.002 1.238 8.008 13.369 17.788 20.778 22.227 22.354 21.402 20.599 21.002 22.750 24.633 23.033 23.281 20.958 18.640 17.094 12.982 7.942 7.113 5.699 0.928 0.000 0.000 0.000 0.000 0.000 0.000 0.000 0.000 0.000 0.000 0.000 0.000 0.000 0.000 0.000 0.000 0.000 0.000 0.000 0.000 0.000 0.000 0.000 0.000 0.000 0.000 0.000 0.000 0.000 0.000 0.000 0.000 0.000 0.000 0.000
0.000 0.000 0.376 5.364 11.243 15.690 18.646 20.894 20.639 21.570 19.969 22.238 20.786 23.390 23.159 22.665 21.923 20.634 16.784 12.298 9.419 7.978 6.258 3.243 0.000 0.000 0.000 0.000 0.000 0.000 0.000 0.000 0.000 0.000 0.000 0.000 0.000 0.000 0.000 0.000 0.000 0.000 0.000 0.000 0.000 0.000 0.000 0.000 0.000 0.000 0.000 0.000 0.000 0.000 0.000 0.000 0.000 0.000 0.000
0.000 0.000 0.032 2.595 9.318 13.674 17.405 18.826 20.400 20.483 22.127 21.019 22.373 21.375 22.819 23.451 23.720 19.038 16.074 12.892 10.393 8.509 6.784 4.301 0.211 0.000 0.000 0.000 0.000 0.000 0.000 0.000 0.000 0.000 0.000 0.000 0.000 0.000 0.000 0.000 0.000 0.000 0.000 0.000 0.000 0.000 0.000 0.000 0.000 0.000 0.000 0.000 0.000 0.000 0.000 0.000 0.000 0.000 0.000
0.000 0.000 0.001 0.676 5.863 11.033 14.691 17.324 19.844 20.844 21.834 22.372 22.823 19.418 21.973 23.124 23.028 17.888 15.703 14.106 12.055 8.956 7.377 4.639 1.999 0.000 0.000 0.000 0.000 0.000 0.000 0.000 0.000 0.000 0.000 0.000 0.000 0.000 0.000 0.000 0.000 0.000 0.000 0.000 0.000 0.000 0.000 0.000 0.000 0.000 0.000 0.000 0.000 0.000 0.000 0.000 0.000 0.000 0.000
0.000 0.000 0.000 0.133 3.140 8.949 13.471 17.799 19.705 22.440 21.711 23.404 22.370 22.957 23.873 23.600 22.538 18.328 17.320 16.909 13.457 8.931 8.092 5.293 3.977 0.005 0.000 0.000 0.000 0.000 0.000 0.000 0.000 0.000 0.000 0.000 0.000 0.000 0.000 0.000 0.000 0.000 0.000 0.000 0.000 0.000 0.000 0.000 0.000 0.000 0.000 0.000 0.000 0.000 0.000 0.000 0.000 0.000 0.000
0.000 0.000 0.000 0.009 1.034 6.308 11.235 14.685 18.213 20.897 22.334 23.722 21.943 20.285 23.024 24.401 21.900 19.127 19.268 18.049 12.655 10.371 8.353 6.654 5.439 0.586 0.000 0.000 0.000 0.000 0.000 0.000 0.000 0.000 0.000 0.000 0.000 0.000 0.000 0.000 0.000 0.000 0.000 0.000 0.000 0.000 0.000 0.000 0.000 0.000 0.000 0.000 0.000 0.000 0.000 0.000 0.000 0.000 0.000
0.000 0.000 0.000 0.000 0.199 3.324 8.455 13.037 17.115 18.939 21.631 21.480 20.783 21.372 20.909 23.536 21.950 20.943 20.648 18.928 14.998 12.622 8.331 7.963 6.317 2.630 0.000 0.000 0.000 0.000 0.000 0.000 0.000 0.000 0.000 0.000 0.000 0.000 0.000 0.000 0.000 0.000 0.000 0.000 0.000 0.000 0.000 0.000 0.000 0.000 0.000 0.000 0.000 0.000 0.000 0.000 0.000 0.000 0.000
0.000 0.000 0.000 0.000 0.005 0.614 5.131 9.493 13.202 18.608 19.248 19.458 20.310 21.519 23.931 23.757 22.339 21.541 21.404 20.565 17.035 12.814 9.531 8.853 6.705 3.959 0.000 0.000 0.000 0.000 0.000 0.000 0.000 0.000 0.000 0.000 0.000 0.000 0.000 0.000 0.000 0.000 0.000 0.000 0.000 0.000 0.000 0.000 0.000 0.000 0.000 0.000 0.000 0.000 0.000 0.000 0.000 0.000 0.000
0.000 0.000 0.000 0.000 0.000 0.063 1.826 7.058 11.586 15.168 18.191 20.164 21.099 22.735 20.800 21.773 22.154 20.680 21.024 20.136 15.880 12.822 12.299 9.413 7.103 4.985 0.132 0.000 0.000 0.000 0.000 0.000 0.000 0.000 0.000 0.000 0.000 0.000 0.000 0.000 0.000 0.000 0.000 0.000 0.000 0.000 0.000 0.000 0.000 0.000 0.000 0.000 0.000 0.000 0.000 0.000 0.000 0.000 0.000
0.000 0.000 0.000 0.000 0.000 0.001 0.338 3.759 8.451 13.435 16.526 18.495 19.882 19.716 17.817 22.433 20.289 19.931 21.209 20.761 16.684 16.608 13.520 9.141 6.925 6.314 1.992 0.000 0.000 0.000 0.000 0.000 0.000 0.000 0.000 0.000 0.000 0.000 0.000 0.000 0.000 0.000 0.000 0.000 0.000 0.000 0.000 0.000 0.000 0.000 0.000 0.000 0.000 0.000 0.000 0.000 0.000 0.000 0.000
0.000 0.000 0.000 0.000 0.000 0.000 0.006 0.681 4.428 8.616 13.332 17.649 18.970 17.567 19.316 23.103 22.275 20.540 21.618 19.808 17.296 18.124 12.828 8.596 8.062 6.990 4.078 0.002 0.000 0.000 0.000 0.000 0.000 0.000 0.000 0.000 0.000 0.000 0.000 0.000 0.000 0.000 0.000 0.000 0.000 0.000 0.000 0.000 0.000 0.000 0.000 0.000 0.000 0.000 0.000 0.000 0.000 0.000 0.000
0.000 0.000 0.000 0.000 0.000 0.000 0.000 0.023 1.539 5.389 9.729 13.835 16.495 19.473 20.864 20.445 21.737 21.612 20.505 19.388 18.325 17.299 13.370 9.888 9.192 7.100 4.711 0.262 0.000 0.000 0.000 0.000 0.000 0.000 0.000 0.000 0.000 0.000 0.000 0.000 0.000 0.000 0.000 0.000 0.000 0.000 0.000 0.000 0.000 0.000 0.000 0.000 0.000 0.000 0.000 0.000 0.000 0.000 0.000
0.000 0.000 0.000 0.000 0.000 0.000 0.000 0.000 0.081 2.271 6.466 10.558 14.753 17.611 19.194 19.745 21.493 20.726 18.819 18.786 18.850 18.355 15.644 12.394 9.288 7.364 4.935 2.307 0.013 0.000 0.000 0.000 0.000 0.000 0.000 0.000 0.000 0.000 0.000 0.000 0.000 0.000 0.000 0.000 0.000 0.000 0.000 0.000 0.000 0.000 0.000 0.000 0.000 0.000 0.000 0.000 0.000 0.000 0.000
0.000 0.000 0.000 0.000 0.000 0.000 0.000 0.000 0.001 0.420 3.404 7.441 11.788 15.088 17.189 18.569 19.702 20.758 22.126 18.615 20.072 19.846 17.986 13.002 9.338 6.892 5.200 4.303 0.834 0.000 0.000 0.000 0.000 0.000 0.000 0.000 0.000 0.000 0.000 0.000 0.000 0.000 0.000 0.000 0.000 0.000 0.000 0.000 0.000 0.000 0.000 0.000 0.000 0.000 0.000 0.000 0.000 0.000 0.000
0.000 0.000 0.000 0.000 0.000 0.000 0.000 0.000 0.000 0.025 1.687 5.432 9.550 13.777 16.144 18.005 19.487 21.405 20.946 18.666 20.446 21.129 17.732 14.110 9.582 6.855 6.136 5.460 2.888 0.000 0.000 0.000 0.000 0.000 0.000 0.000 0.000 0.000 0.000 0.000 0.000 0.000 0.000 0.000 0.000 0.000 0.000 0.000 0.000 0.000 0.000 0.000 0.000 0.000 0.000 0.000 0.000 0.000 0.000
0.000 0.000 0.000 0.000 0.000 0.000 0.000 0.000 0.000 0.001 0.426 3.663 7.325 11.633 14.842 19.406 20.870 20.659 20.388 19.842 21.455 19.850 16.708 14.323 10.265 7.746 6.776 5.705 3.635 0.038 0.000 0.000 0.000 0.000 0.000 0.000 0.000 0.000 0.000 0.000 0.000 0.000 0.000 0.000 0.000 0.000 0.000 0.000 0.000 0.000 0.000 0.000 0.000 0.000 0.000 0.000 0.000 0.000 0.000
0.000 0.000 0.000 0.000 0.000 0.000 0.000 0.000 0.000 0.000 0.064 1.964 5.933 10.219 13.881 16.728 19.545 19.267 20.515 19.965 17.825 19.046 16.448 14.968 11.922 8.251 7.437 6.236 4.727 1.190 0.000 0.000 0.000 0.000 0.000 0.000 0.000 0.000 0.000 0.000 0.000 0.000 0.000 0.000 0.000 0.000 0.000 0.000 0.000 0.000 0.000 0.000 0.000 0.000 0.000 0.000 0.000 0.000 0.000
0.000 0.000 0.000 0.000 0.000 0.000 0.000 0.000 0.000 0.000 0.003 0.729 4.219 8.765 12.496 15.938 17.717 19.461 19.782 18.914 18.853 17.837 17.681 15.389 12.895 9.563 8.124 7.152 5.874 2.989 0.000 0.000 0.000 0.000 0.000 0.000 0.000 0.000 0.000 0.000 0.000 0.000 0.000 0.000 0.000 0.000 0.000 0.000 0.000 0.000 0.000 0.000 0.000 0.000 0.000 0.000 0.000 0.000 0.000
0.000 0.000 0.000 0.000 0.000 0.000 0.000 0.000 0.000 0.000 0.000 0.123 2.254 7.007 11.081 13.900 17.263 20.440 20.489 19.745 19.125 16.712 16.236 16.176 15.389 10.304 8.434 7.674 6.428 4.026 0.000 0.000 0.000 0.000 0.000 0.000 0.000 0.000 0.000 0.000 0.000 0.000 0.000 0.000 0.000 0.000 0.000 0.000 0.000 0.000 0.000 0.000 0.000 0.000 0.000 0.000 0.000 0.000 0.000
0.000 0.000 0.000 0.000 0.000 0.000 0.000 0.000 0.000 0.000 0.000 0.012 0.837 4.972 9.805 12.787 15.879 19.326 22.033 23.239 19.100 16.126 15.143 16.651 14.023 11.553 8.986 8.211 6.890 4.976 0.000 0.000 0.000 0.000 0.000 0.000 0.000 0.000 0.000 0.000 0.000 0.000 0.000 0.000 0.000 0.000 0.000 0.000 0.000 0.000 0.000 0.000 0.000 0.000 0.000 0.000 0.000 0.000 0.000
0.000 0.000 0.000 0.000 0.000 0.000 0.000 0.000 0.000 0.000 0.000 0.000 0.081 2.233 8.446 11.032 14.262 17.731 21.424 23.600 23.100 20.179 18.839 16.881 13.873 14.010 9.403 8.391 7.956 5.792 0.164 0.000 0.000 0.000 0.000 0.000 0.000 0.000 0.000 0.000 0.000 0.000 0.000 0.000 0.000 0.000 0.000 0.000 0.000 0.000 0.000 0.000 0.000 0.000 0.000 0.000 0.000 0.000 0.000
0.000 0.000 0.000 0.000 0.000 0.000 0.000 0.000 0.000 0.000 0.000 0.000 0.003 0.940 7.163 10.616 12.850 16.535 20.140 22.101 22.782 22.401 22.773 20.703 17.670 13.867 10.548 9.471 8.109 6.928 1.753 0.000 0.000 0.000 0.000 0.000 0.000 0.000 0.000 0.000 0.000 0.000 0.000 0.000 0.000 0.000 0.000 0.000 0.000 0.000 0.000 0.000 0.000 0.000 0.000 0.000 0.000 0.000 0.000
0.000 0.000 0.000 0.000 0.000 0.000 0.000 0.000 0.000 0.000 0.000 0.000 0.001 0.499 5.402 9.374 11.921 15.102 17.883 19.886 22.559 23.824 22.579 20.688 19.240 15.590 11.283 9.842 7.788 7.595 3.602 0.000 0.000 0.000 0.000 0.000 0.000 0.000 0.000 0.000 0.000 0.000 0.000 0.000 0.000 0.000 0.000 0.000 0.000 0.000 0.000 0.000 0.000 0.000 0.000 0.000 0.000 0.000 0.000
0.000 0.000 0.000 0.000 0.000 0.000 0.000 0.000 0.000 0.000 0.000 0.000 0.000 0.211 3.944 8.129 10.666 13.528 16.740 19.137 21.414 22.455 21.713 20.925 19.942 16.296 12.438 9.366 8.484 7.987 5.882 0.000 0.000 0.000 0.000 0.000 0.000 0.000 0.000 0.000 0.000 0.000 0.000 0.000 0.000 0.000 0.000 0.000 0.000 0.000 0.000 0.000 0.000 0.000 0.000 0.000 0.000 0.000 0.000
0.000 0.000 0.000 0.000 0.000 0.000 0.000 0.000 0.000 0.000 0.000 0.000 0.000 0.021 2.598 6.935 9.709 11.587 14.749 18.447 20.876 20.861 21.533 22.533 20.486 18.265 14.709 10.340 7.364 8.465 7.864 0.000 0.000 0.000 0.000 0.000 0.000 0.000 0.000 0.000 0.000 0.000 0.000 0.000 0.000 0.000 0.000 0.000 0.000 0.000 0.000 0.000 0.000 0.000 0.000 0.000 0.000 0.000 0.000
0.000 0.000 0.000 0.000 0.000 0.000 0.000 0.000 0.000 0.000 0.000 0.000 0.000 0.002 0.841 5.613 8.488 10.151 13.396 17.326 19.507 21.083 20.179 20.868 18.947 18.978 13.915 9.868 9.395 10.325 8.090 0.000 0.000 0.000 0.000 0.000 0.000 0.000 0.000 0.000 0.000 0.000 0.000 0.000 0.000 0.000 0.000 0.000 0.000 0.000 0.000 0.000 0.000 0.000 0.000 0.000 0.000 0.000 0.000
0.000 0.000 0.000 0.000 0.000 0.000 0.000 0.000 0.000 0.000 0.000 0.000 0.000 0.000 0.071 3.805 7.573 8.783 11.860 15.816 19.338 19.467 20.461 21.201 20.281 18.380 14.255 10.365 9.431 9.782 8.222 0.018 0.000 0.000 0.000 0.000 0.000 0.000 0.000 0.000 0.000 0.000 0.000 0.000 0.000 0.000 0.000 0.000 0.000 0.000 0.000 0.000 0.000 0.000 0.000 0.000 0.000 0.000 0.000
0.000 0.000 0.000 0.000 0.000 0.000 0.000 0.000 0.000 0.000 0.000 0.000 0.000 0.000 0.000 1.687 6.735 8.301 10.384 13.681 16.680 18.246 20.134 19.101 19.202 17.578 15.044 10.577 8.347 9.134 7.972 1.190 0.000 0.000 0.000 0.000 0.000 0.000 0.000 0.000 0.000 0.000 0.000 0.000 0.000 0.000 0.000 0.000 0.000 0.000 0.000 0.000 0.000 0.000 0.000 0.000 0.000 0.000 0.000
0.000 0.000 0.000 0.000 0.000 0.000 0.000 0.000 0.000 0.000 0.000 0.000 0.000 0.000 0.001 0.809 5.673 7.591 8.553 10.894 14.186 18.747 17.999 20.091 19.515 17.241 14.899 10.431 9.518 8.681 7.735 3.868 0.000 0.000 0.000 0.000 0.000 0.000 0.000 0.000 0.000 0.000 0.000 0.000 0.000 0.000 0.000 0.000 0.000 0.000 0.000 0.000 0.000 0.000 0.000 0.000 0.000 0.000 0.000
0.000 0.000 0.000 0.000 0.000 0.000 0.000 0.000 0.000 0.000 0.000 0.000 0.000 0.000 0.000 0.245 4.307 7.110 7.736 9.339 12.961 16.804 18.098 18.256 19.062 17.795 13.484 10.940 9.722 8.495 8.057 5.183 0.348 0.001 0.000 0.000 0.000 0.000 0.000 0.000 0.000 0.000 0.000 0.000 0.000 0.000 0.000 0.000 0.000 0.000 0.000 0.000 0.000 0.000 0.000 0.000 0.000 0.000 0.000
0.000 0.000 0.000 0.000 0.000 0.000 0.000 0.000 0.000 0.000 0.000 0.000 0.000 0.000 0.000 0.033 2.310 6.354 6.719 7.248 10.032 13.967 16.613 17.811 18.538 16.245 13.495 11.610 11.747 8.511 8.056 6.155 2.958 0.355 0.000 0.000 0.000 0.000 0.000 0.000 0.000 0.000 0.000 0.000 0.000 0.000 0.000 0.000 0.000 0.000 0.000 0.000 0.000 0.000 0.000 0.000 0.000 0.000 0.000
0.000 0.000 0.000 0.000 0.000 0.000 0.000 0.000 0.000 0.000 0.000 0.000 0.000 0.000 0.000 0.002 0.490 5.588 6.598 6.626 8.146 11.858 15.796 17.361 17.311 15.294 12.433 13.764 11.892 8.787 8.418 6.032 5.016 2.815 0.080 0.000 0.000 0.000 0.000 0.000 0.000 0.000 0.000 0.000 0.000 0.000 0.000 0.000 0.000 0.000 0.000 0.000 0.000 0.000 0.000 0.000 0.000 0.000 0.000
0.000 0.000 0.000 0.000 0.000 0.000 0.000 0.000 0.000 0.000 0.000 0.000 0.000 0.000 0.000 0.000 0.002 4.202 6.243 6.235 6.865 9.216 13.749 14.756 15.679 13.837 13.207 15.631 12.994 9.517 7.109 5.892 6.657 5.242 1.590 0.000 0.000 0.000 0.000 0.000 0.000 0.000 0.000 0.000 0.000 0.000 0.000 0.000 0.000 0.000 0.000 0.000 0.000 0.000 0.000 0.000 0.000 0.000 0.000
0.000 0.000 0.000 0.000 0.000 0.000 0.000 0.000 0.000 0.000 0.000 0.000 0.000 0.000 0.000 0.000 0.001 2.992 5.697 6.315 5.789 6.353 10.265 14.203 14.308 14.056 16.160 16.325 13.719 10.088 7.142 6.756 7.588 5.950 3.775 0.001 0.000 0.000 0.000 0.000 0.000 0.000 0.000 0.000 0.000 0.000 0.000 0.000 0.000 0.000 0.000 0.000 0.000 0.000 0.000 0.000 0.000 0.000 0.000
0.000 0.000 0.000 0.000 0.000 0.000 0.000 0.000 0.000 0.000 0.000 0.000 0.000 0.000 0.000 0.000 0.002 2.170 4.768 5.879 5.362 5.540 8.486 13.991 15.054 15.833 16.504 16.812 13.832 9.705 7.479 7.537 7.173 6.301 4.552 0.129 0.000 0.000 0.000 0.000 0.000 0.000 0.000 0.000 0.000 0.000 0.000 0.000 0.000 0.000 0.000 0.000 0.000 0.000 0.000 0.000 0.000 0.000 0.000
0.000 0.000 0.000 0.000 0.000 0.000 0.000 0.000 0.000 0.000 0.000 0.000 0.000 0.000 0.000 0.000 0.018 1.190 3.793 5.097 5.202 4.866 5.477 12.739 14.071 15.235 14.642 16.447 12.938 10.411 8.202 7.353 6.692 6.771 4.842 1.607 0.000 0.000 0.000 0.000 0.000 0.000 0.000 0.000 0.000 0.000 0.000 0.000 0.000 0.000 0.000 0.000 0.000 0.000 0.000 0.000 0.000 0.000 0.000
0.000 0.000 0.000 0.000 0.000 0.000 0.000 0.000 0.000 0.000 0.000 0.000 0.000 0.000 0.000 0.000 0.007 0.698 2.769 4.193 4.448 4.754 4.170 9.332 13.243 14.539 14.219 15.629 13.707 11.537 8.469 6.651 7.674 6.879 6.027 3.546 0.005 0.000 0.000 0.000 0.000 0.000 0.000 0.000 0.000 0.000 0.000 0.000 0.000 0.000 0.000 0.000 0.000 0.000 0.000 0.000 0.000 0.000 0.000
0.000 0.000 0.000 0.000 0.000 0.000 0.000 0.000 0.000 0.000 0.000 0.000 0.000 0.000 0.000 0.000 0.000 0.000 1.803 3.459 4.743 4.849 4.021 5.850 12.287 13.127 14.564 14.920 14.389 12.656 9.015 7.586 8.820 8.227 7.110 4.694 0.624 0.000 0.000 0.000 0.000 0.000 0.000 0.000 0.000 0.000 0.000 0.000 0.000 0.000 0.000 0.000 0.000 0.000 0.000 0.000 0.000 0.000 0.000
0.000 0.000 0.000 0.000 0.000 0.000 0.000 0.000 0.000 0.000 0.000 0.000 0.000 0.000 0.000 0.000 0.000 0.000 1.355 3.624 4.520 4.448 4.064 3.290 10.870 12.252 13.775 15.221 15.145 13.668 9.663 8.251 8.798 8.044 7.451 5.878 2.386 0.008 0.000 0.000 0.000 0.000 0.000 0.000 0.000 0.000 0.000 0.000 0.000 0.000 0.000 0.000 0.000 0.000 0.000 0.000 0.000 0.000 0.000
0.000 0.000 0.000 0.000 0.000 0.000 0.000 0.000 0.000 0.000 0.000 0.000 0.000 0.000 0.000 0.000 0.000 0.000 0.359 3.114 3.848 4.348 4.257 4.113 9.207 12.165 13.678 15.799 15.764 14.650 10.639 8.798 8.705 8.121 7.774 6.112 3.810 0.525 0.000 0.000 0.000 0.000 0.000 0.000 0.000 0.000 0.000 0.000 0.000 0.000 0.000 0.000 0.000 0.000 0.000 0.000 0.000 0.000 0.000
0.000 0.000 0.000 0.000 0.000 0.000 0.000 0.000 0.000 0.000 0.000 0.000 0.000 0.000 0.000 0.000 0.000 0.000 0.081 2.254 3.629 4.265 4.418 4.863 8.808 12.511 14.256 15.584 16.775 15.298 12.606 9.165 8.161 7.408 6.981 6.236 4.789 1.893 0.029 0.000 0.000 0.000 0.000 0.000 0.000 0.000 0.000 0.000 0.000 0.000 0.000 0.000 0.000 0.000 0.000 0.000 0.000 0.000 0.000
0.000 0.000 0.000 0.000 0.000 0.000 0.000 0.000 0.000 0.000 0.000 0.000 0.000 0.000 0.000 0.000 0.000 0.000 0.104 1.533 3.237 4.056 4.206 4.834 8.884 12.540 15.616 17.921 17.753 15.908 13.626 8.041 7.067 7.275 7.288 7.460 5.228 2.751 0.906 0.010 0.000 0.000 0.000 0.000 0.000 0.000 0.000 0.000 0.000 0.000 0.000 0.000 0.000 0.000 0.000 0.000 0.000 0.000 0.000
0.000 0.000 0.000 0.000 0.000 0.000 0.000 0.000 0.000 0.000 0.000 0.000 0.000 0.000 0.000 0.000 0.000 0.000 0.002 1.323 3.253 3.770 3.847 4.629 7.088 11.326 14.360 15.903 16.018 15.610 13.988 8.213 6.975 6.992 8.027 7.681 5.029 3.940 2.598 0.878 0.007 0.000 0.000 0.000 0.000 0.000 0.000 0.000 0.000 0.000 0.000 0.000 0.000 0.000 0.000 0.000 0.000 0.000 0.000
0.000 0.000 0.000 0.000 0.000 0.000 0.000 0.000 0.000 0.000 0.000 0.000 0.000 0.000 0.000 0.000 0.000 0.000 0.035 0.829 3.084 3.310 3.889 4.849 6.746 9.748 14.855 15.795 14.050 16.614 13.139 9.226 6.984 7.559 7.986 6.859 5.804 6.018 4.111 3.561 0.369 0.000 0.000 0.000 0.000 0.000 0.000 0.000 0.000 0.000 0.000 0.000 0.000 0.000 0.000 0.000 0.000 0.000 0.000
0.000 0.000 0.000 0.000 0.000 0.000 0.000 0.000 0.000 0.000 0.000 0.000 0.000 0.000 0.000 0.000 0.000 0.000 0.000 0.258 2.100 2.816 3.798 4.213 5.870 7.172 11.038 14.401 15.150 15.094 13.366 10.208 6.854 7.459 7.450 7.730 7.721 7.934 4.932 3.651 1.149 0.000 0.000 0.000 0.000 0.000 0.000 0.000 0.000 0.000 0.000 0.000 0.000 0.000 0.000 0.000 0.000 0.000 0.000
0.000 0.000 0.000 0.000 0.000 0.000 0.000 0.000 0.000 0.000 0.000 0.000 0.000 0.000 0.000 0.000 0.000 0.000 0.000 0.053 1.648 2.638 3.429 3.666 4.869 5.712 6.835 11.618 13.384 14.325 13.708 10.941 7.233 7.061 7.683 8.224 8.640 8.502 5.410 2.031 2.979 0.050 0.000 0.000 0.000 0.000 0.000 0.000 0.000 0.000 0.000 0.000 0.000 0.000 0.000 0.000 0.000 0.000 0.000
0.000 0.000 0.000 0.000 0.000 0.000 0.000 0.000 0.000 0.000 0.000 0.000 0.000 0.000 0.000 0.000 0.000 0.000 0.000 0.091 1.889 3.530 3.531 3.742 3.743 4.200 4.875 9.726 13.620 14.685 14.199 11.590 8.247 6.955 7.756 7.865 8.954 7.258 5.600 1.978 3.851 0.750 0.000 0.000 0.000 0.000 0.000 0.000 0.000 0.000 0.000 0.000 0.000 0.000 0.000 0.000 0.000 0.000 0.000
0.000 0.000 0.000 0.000 0.000 0.000 0.000 0.000 0.000 0.000 0.000 0.000 0.000 0.000 0.000 0.000 0.000 0.000 0.000 0.356 2.537 3.549 3.782 3.704 3.976 4.262 4.525 6.078 13.215 14.456 15.097 12.195 9.255 7.453 7.473 8.429 9.693 7.796 6.490 4.211 3.978 1.761 0.000 0.000 0.000 0.000 0.000 0.000 0.000 0.000 0.000 0.000 0.000 0.000 0.000 0.000 0.000 0.000 0.000
0.000 0.000 0.000 0.000 0.000 0.000 0.000 0.000 0.000 0.000 0.000 0.000 0.000 0.000 0.000 0.000 0.000 0.000 0.000 1.007 2.770 3.236 3.920 3.922 4.205 4.633 4.965 5.412 12.991 15.396 14.264 12.723 10.333 8.193 7.110 8.003 8.196 8.808 7.061 5.245 3.990 2.834 0.106 0.000 0.000 0.000 0.000 0.000 0.000 0.000 0.000 0.000 0.000 0.000 0.000 0.000 0.000 0.000 0.000
0.000 0.000 0.000 0.000 0.000 0.000 0.000 0.000 0.000 0.000 0.000 0.000 0.000 0.000 0.000 0.000 0.000 0.000 0.000 0.279 2.607 3.558 3.782 3.389 4.328 5.269 4.914 5.696 11.586 15.821 14.995 12.812 11.301 9.457 7.494 7.689 7.684 8.579 6.723 6.176 4.623 3.667 1.292 0.000 0.000 0.000 0.000 0.000 0.000 0.000 0.000 0.000 0.000 0.000 0.000 0.000 0.000 0.000 0.000
0.000 0.000 0.000 0.000 0.000 0.000 0.000 0.000 0.000 0.000 0.000 0.000 0.000 0.000 0.000 0.000 0.000 0.000 0.000 0.246 2.562 3.473 3.410 3.070 4.138 5.451 4.686 5.747 10.786 15.915 17.104 15.272 12.302 10.711 7.769 7.785 8.291 8.443 7.291 6.551 5.158 4.136 2.777 0.111 0.000 0.000 0.000 0.000 0.000 0.000 0.000 0.000 0.000 0.000 0.000 0.000 0.000 0.000 0.000
0.000 0.000 0.000 0.000 0.000 0.000 0.000 0.000 0.000 0.000 0.000 0.000 0.000 0.000 0.000 0.000 0.000 0.000 0.000 0.015 2.163 3.518 3.752 3.767 4.028 5.032 5.027 5.715 10.053 14.862 17.238 16.761 14.027 11.355 8.836 7.580 7.693 7.242 7.792 7.304 5.936 4.915 3.363 0.851 0.000 0.000 0.000 0.000 0.000 0.000 0.000 0.000 0.000 0.000 0.000 0.000 0.000 0.000 0.000
0.000 0.000 0.000 0.000 0.000 0.000 0.000 0.000 0.000 0.000 0.000 0.000 0.000 0.000 0.000 0.000 0.000 0.000 0.000 0.088 1.837 3.269 3.789 4.068 3.812 4.395 5.223 5.969 9.719 15.018 17.284 17.660 16.463 12.094 8.914 7.240 7.630 7.734 8.006 7.983 6.902 5.529 3.831 2.488 0.038 0.000 0.000 0.000 0.000 0.000 0.000 0.000 0.000 0.000 0.000 0.000 0.000 0.000 0.000
0.000 0.000 0.000 0.000 0.000 0.000 0.000 0.000 0.000 0.000 0.000 0.000 0.000 0.000 0.000 0.000 0.000 0.000 0.000 0.036 1.788 2.834 3.587 3.639 3.743 4.345 5.163 6.289 8.918 14.906 17.852 17.442 15.416 11.728 8.041 7.505 7.397 7.948 8.531 8.184 7.851 6.092 5.315 3.917 1.056 0.000 0.000 0.000 0.000 0.000 0.000 0.000 0.000 0.000 0.000 0.000 0.000 0.000 0.000
0.000 0.000 0.000 0.000 0.000 0.000 0.000 0.000 0.000 0.000 0.000 0.000 0.000 0.000 0.000 0.000 0.000 0.000 0.001 0.234 1.779 2.956 3.321 3.204 3.382 4.082 4.969 6.220 8.333 13.691 17.463 17.607 17.102 14.133 9.216 8.195 7.588 8.301 8.762 9.260 8.053 7.671 6.491 4.524 2.674 0.003 0.000 0.000 0.000 0.000 0.000 0.000 0.000 0.000 0.000 0.000 0.000 0.000 0.000
0.000 0.000 0.000 0.000 0.000 0.000 0.000 0.000 0.000 0.000 0.000 0.000 0.000 0.000 0.000 0.000 0.000 0.000 0.000 0.102 1.596 2.973 3.057 3.294 3.503 4.193 5.118 5.974 7.433 11.106 15.594 17.578 16.403 13.952 10.630 8.352 8.304 8.707 9.099 9.017 8.775 8.708 6.699 4.742 3.706 0.316 0.000 0.000 0.000 0.000 0.000 0.000 0.000 0.000 0.000 0.000 0.000 0.000 0.000
0.000 0.000 0.000 0.000 0.000 0.000 0.000 0.000 0.000 0.000 0.000 0.000 0.000 0.000 0.000 0.000 0.000 0.000 0.000 0.047 1.136 3.112 3.126 3.286 3.472 4.077 4.897 5.639 7.177 9.863 16.040 17.426 15.507 14.278 9.638 8.791 9.019 8.772 8.616 8.762 9.281 8.803 6.324 5.689 4.409 1.636 0.000 0.000 0.000 0.000 0.000 0.000 0.000 0.000 0.000 0.000 0.000 0.000 0.000
0.000 0.000 0.000 0.000 0.000 0.000 0.000 0.000 0.000 0.000 0.000 0.000 0.000 0.000 0.000 0.000 0.000 0.000 0.000 0.000 0.113 2.545 3.240 3.139 3.264 3.704 4.508 5.570 7.398 9.736 16.007 15.754 16.590 13.349 10.093 8.940 7.331 7.238 7.642 8.876 9.794 8.097 6.684 6.533 5.057 2.559 0.166 0.000 0.000 0.000 0.000 0.000 0.000 0.000 0.000 0.000 0.000 0.000 0.000
0.000 0.000 0.000 0.000 0.000 0.000 0.000 0.000 0.000 0.000 0.000 0.000 0.000 0.000 0.000 0.000 0.000 0.000 0.000 0.000 0.208 1.745 3.282 3.258 3.518 3.998 4.070 6.069 7.278 9.016 13.562 16.446 15.024 13.019 10.876 7.754 6.615 7.115 8.106 9.430 8.539 8.034 8.124 7.495 5.200 4.022 1.618 0.043 0.000 0.000 0.000 0.000 0.000 0.000 0.000 0.000 0.000 0.000 0.000
0.000 0.000 0.000 0.000 0.000 0.000 0.000 0.000 0.000 0.000 0.000 0.000 0.000 0.000 0.000 0.000 0.000 0.000 0.000 0.000 0.327 2.165 3.537 3.681 3.396 3.613 4.966 5.644 6.890 8.002 13.875 15.553 15.145 14.702 11.655 8.898 7.879 7.876 8.664 8.700 8.231 9.053 8.171 6.680 5.928 4.860 3.188 1.407 0.000 0.000 0.000 0.000 0.000 0.000 0.000 0.000 0.000 0.000 0.000
0.000 0.000 0.000 0.000 0.000 0.000 0.000 0.000 0.000 0.000 0.000 0.000 0.000 0.000 0.000 0.000 0.000 0.000 0.000 0.001 0.531 2.303 3.548 3.886 2.952 3.739 4.486 2.883 5.370 7.940 12.172 14.991 16.240 15.081 11.987 9.300 8.632 8.778 8.124 8.686 8.947 8.491 7.929 6.666 6.297 4.990 4.860 3.437 0.000 0.000 0.000 0.000 0.000 0.000 0.000 0.000 0.000 0.000 0.000
0.000 0.000 0.000 0.000 0.000 0.000 0.000 0.000 0.000 0.000 0.000 0.000 0.000 0.000 0.000 0.000 0.000 0.000 0.000 0.000 0.094 1.263 3.053 4.007 3.191 3.215 3.262 2.767 4.856 7.889 11.995 15.253 16.348 15.689 13.129 9.898 9.758 8.801 8.268 8.901 8.398 7.809 7.641 6.849 6.622 6.313 5.793 4.378 0.000 0.000 0.000 0.000 0.000 0.000 0.000 0.000 0.000 0.000 0.000
0.000 0.000 0.000 0.000 0.000 0.000 0.000 0.000 0.000 0.000 0.000 0.000 0.000 0.000 0.000 0.000 0.000 0.000 0.000 0.000 0.032 0.701 2.656 4.122 3.517 2.971 3.012 3.193 5.548 7.753 11.353 14.556 15.722 15.253 11.740 10.680 10.012 8.013 8.304 7.956 6.475 7.308 7.695 7.862 7.600 6.782 5.697 5.111 0.001 0.000 0.000 0.000 0.000 0.000 0.000 0.000 0.000 0.000 0.000
0.000 0.000 0.000 0.000 0.000 0.000 0.000 0.000 0.000 0.000 0.000 0.000 0.000 0.000 0.000 0.000 0.000 0.000 0.000 0.000 0.000 0.038 0.932 3.878 3.626 2.793 2.781 4.072 5.839 7.963 11.028 15.027 15.531 13.997 11.978 11.443 9.905 8.852 8.422 7.350 6.461 7.032 8.088 8.236 7.604 6.821 6.163 5.308 0.124 0.000 0.000 0.000 0.000 0.000 0.000 0.000 0.000 0.000 0.000
0.000 0.000 0.000 0.000 0.000 0.000 0.000 0.000 0.000 0.000 0.000 0.000 0.000 0.000 0.000 0.000 0.000 0.000 0.000 0.000 0.000 0.000 1.327 2.833 3.358 2.209 3.018 4.023 5.417 7.525 10.067 12.960 14.675 13.732 13.457 12.720 10.095 8.751 7.725 6.771 6.710 7.497 8.205 7.963 7.554 6.832 6.280 5.257 0.839 0.000 0.000 0.000 0.000 0.000 0.000 0.000 0.000 0.000 0.000
0.000 0.000 0.000 0.000 0.000 0.000 0.000 0.000 0.000 0.000 0.000 0.000 0.000 0.000 0.000 0.000 0.000 0.000 0.000 0.000 0.000 0.000 0.001 2.382 2.531 2.553 3.371 3.717 4.814 6.777 9.437 11.378 14.590 13.756 14.569 12.825 10.407 9.342 8.266 7.702 6.817 7.250 7.769 7.963 7.996 7.539 5.772 4.492 1.094 0.000 0.000 0.000 0.000 0.000 0.000 0.000 0.000 0.000 0.000
0.000 0.000 0.000 0.000 0.000 0.000 0.000 0.000 0.000 0.000 0.000 0.000 0.000 0.000 0.000 0.000 0.000 0.000 0.000 0.000 0.000 0.000 0.000 1.050 2.702 3.008 3.387 3.698 4.162 6.007 8.242 10.896 12.818 14.584 14.447 13.727 11.011 10.008 8.231 6.923 6.029 6.147 6.498 7.586 7.507 6.783 3.879 3.366 0.571 0.000 0.000 0.000 0.000 0.000 0.000 0.000 0.000 0.000 0.000
0.000 0.000 0.000 0.000 0.000 0.000 0.000 0.000 0.000 0.000 0.000 0.000 0.000 0.000 0.000 0.000 0.000 0.000 0.000 0.000 0.000 0.000 0.000 0.723 2.323 3.100 3.398 3.521 3.509 5.486 7.847 10.383 12.941 13.621 14.803 13.497 11.478 9.908 7.216 6.169 5.252 5.275 5.968 6.890 6.659 5.737 4.517 3.944 1.568 0.000 0.000 0.000 0.000 0.000 0.000 0.000 0.000 0.000 0.000
0.000 0.000 0.000 0.000 0.000 0.000 0.000 0.000 0.000 0.000 0.000 0.000 0.000 0.000 0.000 0.000 0.000 0.000 0.000 0.000 0.000 0.000 0.002 0.366 1.668 2.622 3.267 3.044 3.351 4.645 7.159 9.343 11.437 13.204 13.239 12.869 11.539 8.759 5.887 5.586 5.252 4.849 5.501 5.712 5.989 6.222 5.476 4.103 3.275 0.000 0.000 0.000 0.000 0.000 0.000 0.000 0.000 0.000 0.000
0.000 0.000 0.000 0.000 0.000 0.000 0.000 0.000 0.000 0.000 0.000 0.000 0.000 0.000 0.000 0.000 0.000 0.000 0.000 0.000 0.000 0.000 0.000 0.047 0.888 2.001 2.839 2.882 3.128 3.791 5.818 7.625 9.623 12.245 12.472 11.499 10.821 8.146 6.332 6.569 5.149 4.870 4.959 4.590 5.693 6.336 5.038 4.229 3.583 0.016 0.000 0.000 0.000 0.000 0.000 0.000 0.000 0.000 0.000
0.000 0.000 0.000 0.000 0.000 0.000 0.000 0.000 0.000 0.000 0.000 0.000 0.000 0.000 0.000 0.000 0.000 0.000 0.000 0.000 0.000 0.000 0.000 0.002 0.231 1.303 2.582 2.702 2.831 3.390 4.894 6.937 8.780 10.827 11.516 11.789 10.781 8.590 7.308 6.460 5.393 5.115 4.667 4.832 5.834 5.814 5.224 4.409 3.161 0.611 0.000 0.000 0.000 0.000 0.000 0.000 0.000 0.000 0.000
0.000 0.000 0.000 0.000 0.000 0.000 0.000 0.000 0.000 0.000 0.000 0.000 0.000 0.000 0.000 0.000 0.000 0.000 0.000 0.000 0.000 0.000 0.000 0.000 0.006 0.615 2.225 2.535 2.656 3.197 3.742 5.632 7.146 8.580 10.225 10.494 10.150 8.430 8.028 6.613 6.132 5.160 5.015 4.971 5.033 5.810 5.366 4.410 3.155 2.308 0.000 0.000 0.000 0.000 0.000 0.000 0.000 0.000 0.000
0.000 0.000 0.000 0.000 0.000 0.000 0.000 0.000 0.000 0.000 0.000 0.000 0.000 0.000 0.000 0.000 0.000 0.000 0.000 0.000 0.000 0.000 0.000 0.000 0.002 0.511 1.787 2.320 2.613 2.943 3.390 4.396 5.868 7.712 9.610 9.810 10.091 8.574 7.242 7.139 6.230 5.403 4.837 4.128 3.865 5.248 5.298 4.631 2.993 2.607 0.009 0.000 0.000 0.000 0.000 0.000 0.000 0.000 0.000
0.000 0.000 0.000 0.000 0.000 0.000 0.000 0.000 0.000 0.000 0.000 0.000 0.000 0.000 0.000 0.000 0.000 0.000 0.000 0.000 0.000 0.000 0.000 0.000 0.002 0.284 1.311 2.102 2.398 2.723 2.716 3.569 5.103 6.533 8.072 9.321 10.205 8.514 7.012 7.084 6.047 5.417 3.722 3.195 2.647 4.765 5.323 4.874 2.773 2.277 0.328 0.000 0.000 0.000 0.000 0.000 0.000 0.000 0.000
0.000 0.000 0.000 0.000 0.000 0.000 0.000 0.000 0.000 0.000 0.000 0.000 0.000 0.000 0.000 0.000 0.000 0.000 0.000 0.000 0.000 0.000 0.000 0.000 0.000 0.239 0.897 1.603 2.076 2.491 2.336 3.051 4.436 5.956 7.261 9.356 10.061 8.002 7.383 7.423 6.185 4.494 3.109 2.609 3.439 4.860 5.539 5.051 3.223 2.488 1.637 0.064 0.000 0.000 0.000 0.000 0.000 0.000 0.000
0.000 0.000 0.000 0.000 0.000 0.000 0.000 0.000 0.000 0.000 0.000 0.000 0.000 0.000 0.000 0.000 0.000 0.000 0.000 0.000 0.000 0.000 0.000 0.000 0.000 0.018 0.958 1.365 1.968 2.346 2.692 2.891 4.051 5.820 7.150 9.241 10.578 7.435 7.657 6.793 5.351 3.932 3.355 3.304 4.052 4.745 5.618 5.211 3.419 2.845 2.396 1.193 0.003 0.000 0.000 0.000 0.000 0.000 0.000
0.000 0.000 0.000 0.000 0.000 0.000 0.000 0.000 0.000 0.000 0.000 0.000 0.000 0.000 0.000 0.000 0.000 0.000 0.000 0.000 0.000 0.000 0.000 0.000 0.000 0.000 0.006 0.868 1.824 2.227 2.572 2.827 3.717 5.493 6.737 8.788 10.113 7.940 7.122 6.610 4.699 3.567 3.271 3.590 3.752 4.590 5.649 4.995 3.320 3.058 2.860 2.569 0.267 0.000 0.000 0.000 0.000 0.000 0.000
0.000 0.000 0.000 0.000 0.000 0.000 0.000 0.000 0.000 0.000 0.000 0.000 0.000 0.000 0.000 0.000 0.000 0.000 0.000 0.000 0.000 0.000 0.000 0.000 0.000 0.000 0.000 0.393 1.507 2.186 2.079 2.680 3.403 5.138 6.093 7.070 9.139 7.253 6.017 5.552 4.079 3.803 3.447 3.472 3.243 4.362 5.329 4.775 3.291 3.031 2.869 2.678 1.200 0.046 0.000 0.000 0.000 0.000 0.000
0.000 0.000 0.000 0.000 0.000 0.000 0.000 0.000 0.000 0.000 0.000 0.000 0.000 0.000 0.000 0.000 0.000 0.000 0.000 0.000 0.000 0.000 0.000 0.000 0.000 0.000 0.000 0.121 1.204 1.873 2.029 2.581 3.001 4.098 5.191 5.758 7.999 6.260 5.086 4.466 4.720 4.540 4.133 3.587 3.695 3.774 4.548 4.723 3.277 2.859 2.724 2.521 1.849 0.702 0.001 0.000 0.000 0.000 0.000
0.000 0.000 0.000 0.000 0.000 0.000 0.000 0.000 0.000 0.000 0.000 0.000 0.000 0.000 0.000 0.000 0.000 0.000 0.000 0.000 0.000 0.000 0.000 0.000 0.000 0.000 0.000 0.000 0.938 1.750 2.218 2.398 2.647 3.395 4.179 3.879 6.206 4.839 4.355 4.336 5.276 5.029 3.873 3.721 3.933 3.842 4.386 4.703 2.953 2.557 2.595 2.562 2.363 2.184 0.301 0.000 0.000 0.000 0.000
0.000 0.000 0.000 0.000 0.000 0.000 0.000 0.000 0.000 0.000 0.000 0.000 0.000 0.000 0.000 0.000 0.000 0.000 0.000 0.000 0.000 0.000 0.000 0.000 0.000 0.000 0.000 0.002 1.024 1.691 2.009 2.095 2.296 2.861 2.968 3.624 4.848 4.642 4.278 5.073 5.130 4.269 3.305 4.200 3.422 4.033 4.111 4.266 2.709 2.497 2.495 2.431 2.588 2.870 1.833 0.004 0.000 0.000 0.000
0.000 0.000 0.000 0.000 0.000 0.000 0.000 0.000 0.000 0.000 0.000 0.000 0.000 0.000 0.000 0.000 0.000 0.000 0.000 0.000 0.000 0.000 0.000 0.000 0.000 0.000 0.000 0.008 0.585 1.316 1.677 2.007 2.001 2.223 2.756 1.763 4.149 4.602 4.622 5.027 4.299 3.229 3.829 3.658 1.305 3.107 4.192 3.957 3.027 2.543 2.413 2.397 2.573 2.475 2.565 0.093 0.000 0.000 0.000
0.000 0.000 0.000 0.000 0.000 0.000 0.000 0.000 0.000 0.000 0.000 0.000 0.000 0.000 0.000 0.000 0.000 0.000 0.000 0.000 0.000 0.000 0.000 0.000 0.000 0.000 0.000 0.003 0.227 0.857 1.280 1.768 1.850 1.748 2.067 3.676 4.566 4.539 4.565 4.187 3.333 2.248 3.230 2.722 0.811 1.637 3.959 3.883 3.220 2.477 2.305 2.314 2.229 1.790 2.505 0.019 0.000 0.000 0.000
0.000 0.000 0.000 0.000 0.000 0.000 0.000 0.000 0.000 0.000 0.000 0.000 0.000 0.000 0.000 0.000 0.000 0.000 0.000 0.000 0.000 0.000 0.000 0.000 0.000 0.000 0.000 0.000 0.000 0.058 0.370 1.063 1.430 1.414 0.092 3.264 3.656 3.747 4.035 3.308 2.616 1.601 2.974 3.077 2.873 2.750 3.226 3.694 3.030 2.373 2.182 2.042 2.085 2.249 2.201 0.348 0.000 0.000 0.000
0.000 0.000 0.000 0.000 0.000 0.000 0.000 0.000 0.000 0.000 0.000 0.000 0.000 0.000 0.000 0.000 0.000 0.000 0.000 0.000 0.000 0.000 0.000 0.000 0.000 0.000 0.000 0.000 0.000 0.000 0.003 0.633 1.449 1.760 2.158 2.791 2.550 2.779 3.090 2.913 3.423 3.213 3.706 3.992 3.664 2.855 2.691 3.010 2.844 2.277 2.066 1.956 1.920 1.934 1.740 0.811 0.000 0.000 0.000
0.000 0.000 0.000 0.000 0.000 0.000 0.000 0.000 0.000 0.000 0.000 0.000 0.000 0.000 0.000 0.000 0.000 0.000 0.000 0.000 0.000 0.000 0.000 0.000 0.000 0.000 0.000 0.000 0.000 0.000 0.000 0.246 1.316 1.797 1.824 1.516 1.621 1.670 2.877 2.842 3.790 3.465 4.057 3.755 3.021 2.519 2.092 2.507 2.694 2.252 1.980 1.843 1.690 1.604 1.910 1.403 0.000 0.000 0.000
0.000 0.000 0.000 0.000 0.000 0.000 0.000 0.000 0.000 0.000 0.000 0.000 0.000 0.000 0.000 0.000 0.000 0.000 0.000 0.000 0.000 0.000 0.000 0.000 0.000 0.000 0.000 0.000 0.000 0.000 0.000 0.047 0.556 1.438 1.598 0.084 0.225 1.367 2.255 2.361 2.774 3.283 3.682 2.761 1.874 2.011 0.972 1.320 1.717 2.107 1.850 1.626 1.467 1.725 2.376 1.777 0.004 0.000 0.000
0.000 0.000 0.000 0.000 0.000 0.000 0.000 0.000 0.000 0.000 0.000 0.000 0.000 0.000 0.000 0.000 0.000 0.000 0.000 0.000 0.000 0.000 0.000 0.000 0.000 0.000 0.000 0.000 0.000 0.000 0.000 0.000 0.019 0.365 1.569 1.832 0.437 1.951 2.046 1.299 1.946 2.731 2.717 1.834 1.174 0.432 0.095 0.071 0.767 1.916 1.640 1.401 1.232 1.541 2.051 1.725 0.149 0.000 0.000
0.000 0.000 0.000 0.000 0.000 0.000 0.000 0.000 0.000 0.000 0.000 0.000 0.000 0.000 0.000 0.000 0.000 0.000 0.000 0.000 0.000 0.000 0.000 0.000 0.000 0.000 0.000 0.000 0.000 0.000 0.000 0.000 0.000 0.556 1.308 2.008 2.284 2.529 1.803 0.449 1.176 2.359 2.621 1.604 0.692 0.074 0.020 0.073 0.129 0.941 1.450 0.958 0.074 0.883 1.004 1.355 0.807 0.000 0.000
0.000 0.000 0.000 0.000 0.000 0.000 0.000 0.000 0.000 0.000 0.000 0.000 0.000 0.000 0.000 0.000 0.000 0.000 0.000 0.000 0.000 0.000 0.000 0.000 0.000 0.000 0.000 0.000 0.000 0.000 0.000 0.000 0.000 0.002 1.050 1.782 2.437 2.329 0.147 0.092 0.249 2.348 1.474 0.073 0.008 0.022 0.067 0.083 0.093 0.747 1.107 0.047 0.085 0.089 0.796 1.275 1.196 0.008 0.000
0.000 0.000 0.000 0.000 0.000 0.000 0.000 0.000 0.000 0.000 0.000 0.000 0.000 0.000 0.000 0.000 0.000 0.000 0.000 0.000 0.000 0.000 0.000 0.000 0.000 0.000 0.000 0.000 0.000 0.000 0.000 0.000 0.000 0.000 0.106 1.255 1.647 1.775 0.097 0.491 2.181 2.047 0.051 0.007 0.049 0.029 0.085 0.087 0.059 0.096 0.078 0.091 0.074 0.070 1.011 1.218 0.823 0.211 0.000
0.000 0.000 0.000 0.000 0.000 0.000 0.000 0.000 0.000 0.000 0.000 0.000 0.000 0.000 0.000 0.000 0.000 0.000 0.000 0.000 0.000 0.000 0.000 0.000 0.000 0.000 0.000 0.000 0.000 0.000 0.000 0.000 0.000 0.000 0.000 0.576 1.250 1.595 2.052 2.400 2.240 1.019 0.044 0.033 0.075 0.087 0.008 0.043 0.044 0.062 0.095 0.549 0.082 0.101 0.914 1.065 0.806 0.511 0.002
0.000 0.000 0.000 0.000 0.000 0.000 0.000 0.000 0.000 0.000 0.000 0.000 0.000 0.000 0.000 0.000 0.000 0.000 0.000 0.000 0.000 0.000 0.000 0.000 0.000 0.000 0.000 0.000 0.000 0.000 0.000 0.000 0.000 0.000 0.000 0.016 0.905 1.336 1.582 2.096 1.719 0.335 0.099 0.018 0.064 0.041 0.069 0.067 0.064 0.082 0.078 0.086 0.094 0.195 1.064 1.240 1.074 0.639 0.099
0.000 0.000 0.000 0.000 0.000 0.000 0.000 0.000 0.000 0.000 0.000 0.000 0.000 0.000 0.000 0.000 0.000 0.000 0.000 0.000 0.000 0.000 0.000 0.000 0.000 0.000 0.000 0.000 0.000 0.000 0.000 0.000 0.000 0.000 0.000 0.009 0.104 1.003 1.487 1.786 1.710 1.146 0.263 0.098 0.021 0.010 0.072 0.071 0.088 0.070 0.089 0.079 0.025 0.183 1.266 1.117 1.188 0.783 0.390
0.000 0.000 0.000 0.000 0.000 0.000 0.000 0.000 0.000 0.000 0.000 0.000 0.000 0.000 0.000 0.000 0.000 0.000 0.000 0.000 0.000 0.000 0.000 0.000 0.000 0.000 0.000 0.000 0.000 0.000 0.000 0.000 0.000 0.000 0.000 0.011 0.052 1.058 1.512 1.547 1.273 1.293 0.262 0.093 0.041 0.082 0.092 0.089 0.040 0.043 0.150 0.084 0.307 0.116 0.734 0.886 1.218 1.000 0.448
0.000 0.000 0.000 0.000 0.000 0.000 0.000 0.000 0.000 0.000 0.000 0.000 0.000 0.000 0.000 0.000 0.000 0.000 0.000 0.000 0.000 0.000 0.000 0.000 0.000 0.000 0.000 0.000 0.000 0.000 0.000 0.000 0.000 0.000 0.000 0.000 0.142 0.633 1.107 1.375 1.396 1.176 0.352 0.090 0.062 0.220 0.076 0.065 0.056 0.297 0.313 0.083 0.245 1.072 1.210 1.296 1.019 1.203 0.981
0.000 0.000 0.000 0.000 0.000 0.000 0.000 0.000 0.000 0.000 0.000 0.000 0.000 0.000 0.000 0.000 0.000 0.000 0.000 0.000 0.000 0.000 0.000 0.000 0.000 0.000 0.000 0.000 0.000 0.000 0.000 0.000 0.000 0.000 0.000 0.000 0.005 0.157 0.435 1.159 1.382 1.352 1.255 0.099 0.089 0.078 0.091 0.094 0.575 0.085 0.096 0.061 0.105 1.636 1.716 1.464 0.999 1.410 1.334
0.000 0.000 0.000 0.000 0.000 0.000 0.000 0.000 0.000 0.000 0.000 0.000 0.000 0.000 0.000 0.000 0.000 0.000 0.000 0.000 0.000 0.000 0.000 0.000 0.000 0.000 0.000 0.000 0.000 0.000 0.000 0.000 0.000 0.000 0.000 0.000 0.000 0.002 0.076 0.592 1.296 1.343 1.386 1.260 0.824 0.035 0.020 0.033 0.076 0.090 0.083 0.081 0.334 1.649 1.891 1.161 1.096 1.505 1.426
0.000 0.000 0.000 0.000 0.000 0.000 0.000 0.000 0.000 0.000 0.000 0.000 0.000 0.000 0.000 0.000 0.000 0.000 0.000 0.000 0.000 0.000 0.000 0.000 0.000 0.000 0.000 0.000 0.000 0.000 0.000 0.000 0.000 0.000 0.000 0.000 0.000 0.000 0.000 0.085 1.059 1.415 1.381 1.087 0.090 0.086 0.068 0.066 0.076 0.078 0.022 0.039 0.227 1.657 1.097 0.151 0.482 1.195 1.501
0.000 0.000 0.000 0.000 0.000 0.000 0.000 0.000 0.000 0.000 0.000 0.000 0.000 0.000 0.000 0.000 0.000 0.000 0.000 0.000 0.000 0.000 0.000 0.000 0.000 0.000 0.000 0.000 0.000 0.000 0.000 0.000 0.000 0.000 0.000 0.000 0.000 0.000 0.000 0.002 0.617 1.290 1.340 1.022 0.043 0.023 0.052 0.085 0.064 0.083 0.063 0.084 0.095 0.095 0.355 0.590 0.239 1.158 1.646
0.000 0.000 0.000 0.000 0.000 0.000 0.000 0.000 0.000 0.000 0.000 0.000 0.000 0.000 0.000 0.000 0.000 0.000 0.000 0.000 0.000 0.000 0.000 0.000 0.000 0.000 0.000 0.000 0.000 0.000 0.000 0.000 0.000 0.000 0.000 0.000 0.000 0.000 0.000 0.000 0.047 0.701 1.209 1.139 0.198 0.075 0.030 0.060 0.086 0.086 0.086 0.077 0.055 0.090 1.363 1.434 0.994 1.362 1.494
0.000 0.000 0.000 0.000 0.000 0.000 0.000 0.000 0.000 0.000 0.000 0.000 0.000 0.000 0.000 0.000 0.000 0.000 0.000 0.000 0.000 0.000 0.000 0.000 0.000 0.000 0.000 0.000 0.000 0.000 0.000 0.000 0.000 0.000 0.000 0.000 0.000 0.000 0.000 0.000 0.000 0.094 0.977 1.026 0.854 0.058 0.062 0.079 0.042 0.088 0.088 0.086 0.302 0.300 1.778 1.556 0.760 0.787 0.822
0.000 0.000 0.000 0.000 0.000 0.000 0.000 0.000 0.000 0.000 0.000 0.000 0.000 0.000 0.000 0.000 0.000 0.000 0.000 0.000 0.000 0.000 0.000 0.000 0.000 0.000 0.000 0.000 0.000 0.000 0.000 0.000 0.000 0.000 0.000 0.000 0.000 0.000 0.000 0.000 0.000 0.016 0.846 1.036 0.783 0.118 0.089 0.267 0.096 0.046 0.025 0.096 0.198 1.201 1.457 1.328 0.751 0.139 0.822
0.000 0.000 0.000 0.000 0.000 0.000 0.000 0.000 0.000 0.000 0.000 0.000 0.000 0.000 0.000 0.000 0.000 0.000 0.000 0.000 0.000 0.000 0.000 0.000 0.000 0.000 0.000 0.000 0.000 0.000 0.000 0.000 0.000 0.000 0.000 0.000 0.000 0.000 0.000 0.000 0.000 0.002 0.331 1.029 1.053 1.236 0.126 1.178 0.098 0.055 0.080 0.094 0.071 0.356 1.177 1.255 0.088 0.155 0.243
0.000 0.000 0.000 0.000 0.000 0.000 0.000 0.000 0.000 0.000 0.000 0.000 0.000 0.000 0.000 0.000 0.000 0.000 0.000 0.000 0.000 0.000 0.000 0.000 0.000 0.000 0.000 0.000 0.000 0.000 0.000 0.000 0.000 0.000 0.000 0.000 0.000 0.000 0.000 0.000 0.000 0.001 0.099 0.962 1.361 1.220 1.412 1.361 0.698 0.048 0.086 0.096 0.099 0.358 0.939 0.090 0.081 0.087 0.089
0.000 0.000 0.000 0.000 0.000 0.000 0.000 0.000 0.000 0.000 0.000 0.000 0.000 0.000 0.000 0.000 0.000 0.000 0.000 0.000 0.000 0.000 0.000 0.000 0.000 0.000 0.000 0.000 0.000 0.000 0.000 0.000 0.000 0.000 0.000 0.000 0.000 0.000 0.000 0.000 0.000 0.000 0.216 0.569 1.096 0.942 1.389 0.142 0.097 0.027 0.013 0.065 0.071 0.529 0.203 0.229 0.073 0.081 0.083
0.000 0.000 0.000 0.000 0.000 0.000 0.000 0.000 0.000 0.000 0.000 0.000 0.000 0.000 0.000 0.000 0.000 0.000 0.000 0.000 0.000 0.000 0.000 0.000 0.000 0.000 0.000 0.000 0.000 0.000 0.000 0.000 0.000 0.000 0.000 0.000 0.000 0.000 0.000 0.000 0.000 0.000 0.001 0.369 0.093 1.234 1.053 0.063 0.070 0.090 0.040 0.072 0.082 0.834 0.081 0.588 0.065 0.054 0.052
0.000 0.000 0.000 0.000 0.000 0.000 0.000 0.000 0.000 0.000 0.000 0.000 0.000 0.000 0.000 0.000 0.000 0.000 0.000 0.000 0.000 0.000 0.000 0.000 0.000 0.000 0.000 0.000 0.000 0.000 0.000 0.000 0.000 0.000 0.000 0.000 0.000 0.000 0.000 0.000 0.000 0.000 0.001 0.045 0.602 1.225 1.048 0.086 0.084 0.025 0.100 0.099 0.060 0.710 0.946 1.205 0.053 0.069 0.075
0.000 0.000 0.000 0.000 0.000 0.000 0.000 0.000 0.000 0.000 0.000 0.000 0.000 0.000 0.000 0.000 0.000 0.000 0.000 0.000 0.000 0.000 0.000 0.000 0.000 0.000 0.000 0.000 0.000 0.000 0.000 0.000 0.000 0.000 0.000 0.000 0.000 0.000 0.000 0.000 0.000 0.000 0.000 0.027 0.655 0.979 0.996 0.087 0.057 0.142 0.110 0.094 0.058 1.552 1.264 0.099 0.299 0.072 0.037
0.000 0.000 0.000 0.000 0.000 0.000 0.000 0.000 0.000 0.000 0.000 0.000 0.000 0.000 0.000 0.000 0.000 0.000 0.000 0.000 0.000 0.000 0.000 0.000 0.000 0.000 0.000 0.000 0.000 0.000 0.000 0.000 0.000 0.000 0.000 0.000 0.000 0.000 0.000 0.000 0.000 0.000 0.000 0.001 0.443 0.371 0.910 0.092 0.240 2.498 2.324 2.307 2.568 1.842 0.193 0.094 0.069 0.065 0.058
0.000 0.000 0.000 0.000 0.000 0.000 0.000 0.000 0.000 0.000 0.000 0.000 0.000 0.000 0.000 0.000 0.000 0.000 0.000 0.000 0.000 0.000 0.000 0.000 0.000 0.000 0.000 0.000 0.000 0.000 0.000 0.000 0.000 0.000 0.000 0.000 0.000 0.000 0.000 0.000 0.000 0.000 0.000 0.000 0.058 0.488 0.098 0.086 1.251 2.378 3.233 2.884 2.801 1.404 0.190 0.070 0.097 0.057 0.051
0.000 0.000 0.000 0.000 0.000 0.000 0.000 0.000 0.000 0.000 0.000 0.000 0.000 0.000 0.000 0.000 0.000 0.000 0.000 0.000 0.000 0.000 0.000 0.000 0.000 0.000 0.000 0.000 0.000 0.000 0.000 0.000 0.000 0.000 0.000 0.000 0.000 0.000 0.000 0.000 0.000 0.000 0.000 0.000 0.001 0.323 0.131 0.106 1.607 2.002 2.651 2.364 1.861 1.416 0.360 0.128 0.085 0.066 0.053
0.000 0.000 0.000 0.000 0.000 0.000 0.000 0.000 0.000 0.000 0.000 0.000 0.000 0.000 0.000 0.000 0.000 0.000 0.000 0.000 0.000 0.000 0.000 0.000 0.000 0.000 0.000 0.000 0.000 0.000 0.000 0.000 0.000 0.000 0.000 0.000 0.000 0.000 0.000 0.000 0.000 0.000 0.000 0.000 0.000 0.031 0.086 1.301 1.492 1.525 2.074 1.544 1.633 2.133 1.662 1.255 0.099 0.060 0.078
0.000 0.000 0.000 0.000 0.000 0.000 0.000 0.000 0.000 0.000 0.000 0.000 0.000 0.000 0.000 0.000 0.000 0.000 0.000 0.000 0.000 0.000 0.000 0.000 0.000 0.000 0.000 0.000 0.000 0.000 0.000 0.000 0.000 0.000 0.000 0.000 0.000 0.000 0.000 0.000 0.000 0.000 0.000 0.000 0.000 0.078 0.977 1.369 1.358 1.332 1.418 0.653 1.110 2.273 2.292 1.986 0.546 0.137 0.095
0.000 0.000 0.000 0.000 0.000 0.000 0.000 0.000 0.000 0.000 0.000 0.000 0.000 0.000 0.000 0.000 0.000 0.000 0.000 0.000 0.000 0.000 0.000 0.000 0.000 0.000 0.000 0.000 0.000 0.000 0.000 0.000 0.000 0.000 0.000 0.000 0.000 0.000 0.000 0.000 0.000 0.000 0.000 0.000 0.000 0.191 0.897 1.152 1.144 1.170 1.292 0.205 0.148 1.415 1.638 1.749 1.328 0.093 0.082
0.000 0.000 0.000 0.000 0.000 0.000 0.000 0.000 0.000 0.000 0.000 0.000 0.000 0.000 0.000 0.000 0.000 0.000 0.000 0.000 0.000 0.000 0.000 0.000 0.000 0.000 0.000 0.000 0.000 0.000 0.000 0.000 0.000 0.000 0.000 0.000 0.000 0.000 0.000 0.000 0.000 0.000 0.000 0.000 0.000 0.001 0.086 0.532 0.987 1.112 1.228 0.202 0.075 0.789 1.157 1.283 1.153 0.514 0.261
0.000 0.000 0.000 0.000 0.000 0.000 0.000 0.000 0.000 0.000 0.000 0.000 0.000 0.000 0.000 0.000 0.000 0.000 0.000 0.000 0.000 0.000 0.000 0.000 0.000 0.000 0.000 0.000 0.000 0.000 0.000 0.000 0.000 0.000 0.000 0.000 0.000 0.000 0.000 0.000 0.000 0.000 0.000 0.000 0.000 0.000 0.001 0.045 0.797 0.956 0.885 0.126 1.032 1.202 1.294 0.871 0.562 1.124 0.778
0.000 0.000 0.000 0.000 0.000 0.000 0.000 0.000 0.000 0.000 0.000 0.000 0.000 0.000 0.000 0.000 0.000 0.000 0.000 0.000 0.000 0.000 0.000 0.000 0.000 0.000 0.000 0.000 0.000 0.000 0.000 0.000 0.000 0.000 0.000 0.000 0.000 0.000 0.000 0.000 0.000 0.000 0.000 0.000 0.000 0.000 0.000 0.001 0.203 0.660 0.096 1.183 2.063 1.779 0.934 0.716 0.095 1.145 0.706
0.000 0.000 0.000 0.000 0.000 0.000 0.000 0.000 0.000 0.000 0.000 0.000 0.000 0.000 0.000 0.000 0.000 0.000 0.000 0.000 0.000 0.000 0.000 0.000 0.000 0.000 0.000 0.000 0.000 0.000 0.000 0.000 0.000 0.000 0.000 0.000 0.000 0.000 0.000 0.000 0.000 0.000 0.000 0.000 0.000 0.000 0.000 0.000 0.004 0.771 0.979 1.509 2.042 1.816 0.973 0.307 0.098 0.127 0.763
