ncols        45
nrows        41
xllcorner    409867.8
yllcorner    6870409.1
cellsize     5.00
NODATA_value -9999
0.000 0.000 0.000 0.000 0.000 0.000 0.000 0.000 0.000 0.000 0.000 0.000 0.000 0.000 0.000 0.000 0.000 0.000 0.000 0.000 0.000 0.000 0.000 0.000 0.000 0.000 0.000 0.000 0.000 0.000 0.000 0.000 0.000 0.000 0.000 0.000 0.000 0.000 0.000 0.000 0.000 0.000 0.000 0.000 0.000
0.000 0.000 0.000 0.000 0.000 0.000 0.000 0.000 0.000 0.000 0.000 0.000 0.000 0.000 0.000 0.000 0.000 0.000 0.000 0.000 0.000 0.000 0.000 0.000 0.000 0.000 0.000 0.000 0.000 0.000 0.000 0.001 0.362 2.317 7.422 10.845 11.998 13.766 11.472 7.723 5.482 4.014 0.987 0.000 0.000
0.000 0.000 0.000 0.000 0.000 0.000 0.000 0.000 0.000 0.000 0.000 0.000 0.000 0.000 0.000 0.000 0.000 0.000 0.000 0.000 0.000 0.000 0.000 0.000 0.000 0.000 0.000 0.000 0.000 0.000 0.006 0.967 8.355 10.346 11.275 11.985 14.555 14.372 12.188 11.904 11.621 10.190 7.995 0.341 0.000
0.000 0.000 0.000 0.000 0.000 0.000 0.000 0.000 0.000 0.000 0.000 0.000 0.000 0.000 0.000 0.000 0.000 0.000 0.000 0.000 0.000 0.000 0.000 0.000 0.000 0.000 0.000 0.000 0.000 0.001 0.960 9.764 10.826 11.776 12.472 13.669 16.538 14.119 13.915 12.894 13.262 11.558 9.449 5.832 0.000
0.000 0.000 0.000 0.000 0.000 0.000 0.000 0.000 0.000 0.000 0.000 0.000 0.000 0.000 0.000 0.000 0.000 0.000 0.000 0.000 0.000 0.000 0.000 0.000 0.000 0.000 0.000 0.000 0.000 0.384 9.201 10.532 11.777 12.919 13.823 16.379 17.447 14.915 15.359 13.119 14.120 11.578 10.342 8.420 0.000
0.000 0.000 0.000 0.000 0.000 0.000 0.000 0.000 0.000 0.000 0.000 0.000 0.000 0.000 0.000 0.000 0.000 0.000 0.000 0.000 0.000 0.000 0.000 0.000 0.000 0.000 0.000 0.000 0.000 2.763 10.087 11.763 13.151 13.871 15.438 17.652 16.735 15.117 13.820 12.663 12.995 11.460 12.266 11.640 0.000
0.000 0.000 0.000 0.000 0.000 0.000 0.000 0.000 0.000 0.000 0.000 0.000 0.000 0.000 0.000 0.000 0.000 0.000 0.000 0.000 0.000 0.000 0.000 0.000 0.000 0.000 0.000 0.000 0.013 5.695 11.079 12.570 13.718 13.068 15.452 16.745 15.247 13.632 11.675 11.900 11.591 12.176 10.692 9.516 0.000
0.000 0.000 0.000 0.000 0.000 0.000 0.000 0.000 0.000 0.000 0.000 0.000 0.000 0.000 0.000 0.000 0.000 0.000 0.000 0.000 0.000 0.000 0.000 0.000 0.000 0.000 0.000 0.000 0.580 9.785 11.480 12.629 13.739 13.671 16.562 16.697 13.711 11.318 11.551 11.836 11.522 10.681 11.048 9.101 0.000
0.000 0.000 0.000 0.000 0.000 0.000 0.000 0.000 0.000 0.000 0.000 0.000 0.000 0.000 0.000 0.000 0.000 0.000 0.000 0.000 0.000 0.000 0.000 0.000 0.001 0.000 0.000 0.036 4.388 10.716 12.814 13.611 14.961 16.765 17.928 14.613 11.535 11.527 11.829 11.144 11.035 11.299 10.008 4.526 0.000
0.000 0.000 0.000 0.000 0.000 0.000 0.000 0.000 0.000 0.000 0.000 0.000 0.000 0.000 0.000 0.000 0.000 0.000 0.000 0.000 0.000 0.140 1.500 3.276 2.785 0.838 0.285 0.922 9.465 11.970 12.844 13.127 15.462 17.956 16.494 12.328 11.453 11.954 10.309 11.644 11.288 11.965 6.442 0.000 0.000
0.000 0.000 0.000 0.000 0.000 0.000 0.000 0.000 0.000 0.000 0.000 0.000 0.000 0.000 0.000 0.000 0.000 0.000 0.000 0.001 0.597 6.725 8.975 9.446 9.749 9.889 7.784 7.735 10.329 11.571 11.290 13.306 15.030 17.974 15.173 12.866 11.979 10.112 10.325 11.172 10.541 6.576 3.233 0.000 0.000
0.000 0.000 0.000 0.000 0.000 0.000 0.000 0.000 0.000 0.000 0.000 0.000 0.000 0.000 0.000 0.000 0.000 0.000 0.000 0.633 8.897 9.605 10.154 10.825 10.743 10.240 9.411 9.203 10.130 10.093 11.530 12.925 15.695 17.876 14.985 12.369 9.138 9.649 10.062 9.684 4.846 0.000 0.000 0.000 0.000
0.000 0.000 0.000 0.000 0.000 0.000 0.000 0.000 0.000 0.000 0.000 0.000 0.000 0.000 0.000 0.000 0.000 0.000 0.363 8.397 10.060 11.009 11.697 12.003 11.553 11.502 11.737 9.133 8.146 10.174 12.649 14.702 15.248 15.156 13.994 8.782 7.941 7.396 4.872 2.598 0.000 0.000 0.000 0.000 0.000
0.000 0.000 0.000 0.000 0.000 0.000 0.000 0.000 0.000 0.000 0.000 0.000 0.000 0.000 0.000 0.000 0.006 0.969 7.797 10.332 11.370 12.399 13.296 12.881 12.265 13.461 11.421 6.910 7.733 10.095 12.930 14.613 13.003 13.713 12.422 5.282 4.908 0.000 0.000 0.000 0.000 0.000 0.000 0.000 0.000
0.000 0.000 0.000 0.000 0.000 0.000 0.000 0.000 0.000 0.000 0.000 0.000 0.000 0.000 0.000 0.021 0.540 9.480 10.367 11.610 12.716 13.976 14.284 12.824 14.858 12.637 8.331 5.920 7.311 9.707 11.904 12.951 12.713 14.577 10.661 5.641 3.569 0.000 0.000 0.000 0.000 0.000 0.000 0.000 0.000
0.000 0.000 0.000 0.000 0.000 0.000 0.000 0.000 0.000 0.000 0.000 0.000 0.074 2.014 2.919 5.680 9.785 10.439 11.689 13.481 14.552 15.387 14.679 15.390 13.721 8.438 5.892 5.613 6.641 8.585 11.279 9.661 11.345 11.349 10.781 5.210 0.000 0.000 0.000 0.000 0.000 0.000 0.000 0.000 0.000
0.000 0.000 0.000 0.000 0.000 0.000 0.000 0.000 0.000 0.000 0.005 0.661 6.891 10.270 11.082 10.645 10.999 11.494 13.122 13.703 14.138 13.080 15.307 13.631 8.738 7.537 6.200 4.678 5.549 7.448 8.843 8.875 10.365 9.757 7.145 0.000 0.000 0.000 0.000 0.000 0.000 0.000 0.000 0.000 0.000
0.000 0.000 0.000 0.000 0.000 0.000 0.000 0.000 0.000 0.065 2.176 10.064 10.619 11.243 11.851 11.519 12.177 12.603 13.359 12.943 12.656 14.813 15.275 10.165 7.888 5.800 4.221 4.283 5.506 6.972 7.782 8.542 9.357 7.852 4.028 0.000 0.000 0.000 0.000 0.000 0.000 0.000 0.000 0.000 0.000
0.000 0.000 0.000 0.000 0.000 0.000 0.000 0.000 0.003 6.565 10.065 11.171 11.489 12.072 13.738 12.559 13.173 12.814 12.702 13.266 13.895 13.109 11.318 9.899 7.093 5.296 3.412 5.437 5.129 6.290 7.574 7.554 6.976 4.120 0.000 0.000 0.000 0.000 0.000 0.000 0.000 0.000 0.000 0.000 0.000
0.000 0.000 0.000 0.000 0.000 0.000 0.000 0.015 2.149 10.495 10.677 11.728 12.543 13.013 12.367 10.815 11.509 12.442 13.049 13.449 10.450 9.464 8.505 9.481 8.533 6.754 5.601 6.482 4.592 5.324 5.471 5.569 4.509 0.000 0.000 0.000 0.000 0.000 0.000 0.000 0.000 0.000 0.000 0.000 0.000
0.000 0.000 0.000 0.000 0.000 0.000 0.006 0.660 9.529 11.701 12.214 12.579 13.410 13.297 12.658 11.055 11.416 11.899 12.742 10.925 8.974 8.272 6.206 8.768 9.649 7.040 6.474 5.580 4.258 4.906 5.449 4.686 0.000 0.000 0.000 0.000 0.000 0.000 0.000 0.000 0.000 0.000 0.000 0.000 0.000
0.000 0.000 0.000 0.000 0.000 0.000 0.314 8.251 10.055 12.058 12.592 12.961 12.680 12.469 10.239 8.696 9.338 9.547 9.111 8.864 7.985 7.952 8.352 7.614 7.272 6.316 5.479 3.567 5.837 6.222 4.235 0.000 0.000 0.000 0.000 0.000 0.000 0.000 0.000 0.000 0.000 0.000 0.000 0.000 0.000
0.000 0.000 0.000 0.000 0.000 0.036 3.066 8.742 10.450 12.065 12.190 12.039 10.673 9.042 6.630 5.607 6.393 7.176 7.740 7.036 7.556 6.438 6.408 4.818 3.890 3.813 4.192 2.280 6.482 4.111 0.000 0.000 0.000 0.000 0.000 0.000 0.000 0.000 0.000 0.000 0.000 0.000 0.000 0.000 0.000
0.000 0.000 0.000 0.000 0.137 2.607 7.541 8.690 9.962 10.289 9.056 8.290 6.994 6.700 4.998 5.060 5.968 6.173 5.930 3.649 3.715 3.443 3.811 3.484 2.060 3.142 3.638 3.665 4.002 0.000 0.000 0.000 0.000 0.000 0.000 0.000 0.000 0.000 0.000 0.000 0.000 0.000 0.000 0.000 0.000
0.000 0.000 0.000 0.230 5.033 7.072 6.828 7.349 7.173 6.946 6.498 6.351 5.501 6.115 5.823 5.758 6.312 5.815 4.260 3.625 2.751 3.299 3.929 6.015 3.395 4.598 5.282 3.920 0.000 0.000 0.000 0.000 0.000 0.000 0.000 0.000 0.000 0.000 0.000 0.000 0.000 0.000 0.000 0.000 0.000
0.000 0.000 0.182 5.997 7.258 6.873 6.445 6.367 6.024 5.851 5.956 6.562 5.724 5.852 5.723 5.885 6.225 6.198 4.600 6.409 6.255 5.881 6.366 6.519 3.982 6.113 3.452 0.000 0.000 0.000 0.000 0.000 0.000 0.000 0.000 0.000 0.000 0.000 0.000 0.000 0.000 0.000 0.000 0.000 0.000
0.000 0.052 5.530 6.764 7.167 7.044 6.328 6.065 5.888 6.812 6.935 7.243 6.631 6.465 6.624 6.489 6.621 7.555 7.803 9.302 9.622 9.325 8.193 6.426 3.962 0.000 0.000 0.000 0.000 0.000 0.000 0.000 0.000 0.000 0.000 0.000 0.000 0.000 0.000 0.000 0.000 0.000 0.000 0.000 0.000
0.025 4.001 6.501 6.652 7.169 7.430 6.963 7.450 8.074 7.557 6.950 7.482 7.709 8.168 8.449 8.090 8.278 9.263 11.025 11.496 11.582 10.317 5.612 0.000 0.000 0.000 0.000 0.000 0.000 0.000 0.000 0.000 0.000 0.000 0.000 0.000 0.000 0.000 0.000 0.000 0.000 0.000 0.000 0.000 0.000
0.255 6.704 6.499 6.864 6.946 7.855 7.822 8.194 7.888 7.611 7.177 7.501 8.075 8.822 10.003 9.974 10.328 11.521 12.719 13.121 12.689 5.981 0.000 0.000 0.000 0.000 0.000 0.000 0.000 0.000 0.000 0.000 0.000 0.000 0.000 0.000 0.000 0.000 0.000 0.000 0.000 0.000 0.000 0.000 0.000
0.772 6.945 7.085 7.146 7.361 8.069 8.034 7.461 6.633 7.242 7.315 8.496 9.311 9.455 10.611 11.844 12.366 12.862 13.755 14.113 10.492 0.003 0.000 0.000 0.000 0.000 0.000 0.000 0.000 0.000 0.000 0.000 0.000 0.000 0.000 0.000 0.000 0.000 0.000 0.000 0.000 0.000 0.000 0.000 0.000
0.389 7.127 7.394 8.395 8.624 8.723 8.017 7.113 5.749 7.610 7.677 9.107 10.749 11.477 11.868 13.148 13.574 13.790 14.078 14.481 6.967 0.116 0.000 0.000 0.000 0.000 0.000 0.000 0.000 0.000 0.000 0.000 0.000 0.000 0.000 0.000 0.000 0.000 0.000 0.000 0.000 0.000 0.000 0.000 0.000
0.458 7.683 9.217 9.912 9.236 8.490 8.777 8.412 7.374 7.923 9.057 9.927 11.202 12.468 12.994 13.949 14.098 15.419 13.196 8.712 5.696 0.646 0.001 0.000 0.000 0.000 0.000 0.000 0.000 0.000 0.000 0.000 0.000 0.000 0.000 0.000 0.000 0.000 0.000 0.000 0.000 0.000 0.000 0.000 0.000
2.027 8.802 10.477 10.520 9.274 8.475 8.974 9.446 8.704 8.883 10.028 10.508 11.606 12.504 13.289 14.093 15.535 14.860 8.165 6.040 0.983 0.001 0.000 0.000 0.000 0.000 0.000 0.000 0.000 0.000 0.000 0.000 0.000 0.000 0.000 0.000 0.000 0.000 0.000 0.000 0.000 0.000 0.000 0.000 0.000
1.089 8.589 10.508 9.963 9.866 9.002 8.850 9.740 9.632 10.051 11.201 10.893 11.617 11.460 11.653 12.204 12.668 8.720 6.696 0.286 0.000 0.000 0.000 0.000 0.000 0.000 0.000 0.000 0.000 0.000 0.000 0.000 0.000 0.000 0.000 0.000 0.000 0.000 0.000 0.000 0.000 0.000 0.000 0.000 0.000
1.046 7.073 10.155 9.624 9.628 8.949 9.329 9.417 10.509 11.257 11.088 11.412 11.553 10.825 10.440 9.014 8.233 0.000 0.000 0.000 0.000 0.000 0.000 0.000 0.000 0.000 0.000 0.000 0.000 0.000 0.000 0.000 0.000 0.000 0.000 0.000 0.000 0.000 0.000 0.000 0.000 0.000 0.000 0.000 0.000
0.029 2.868 8.127 8.383 8.288 9.065 9.652 11.786 12.386 12.111 11.559 11.471 11.923 11.003 10.623 5.854 0.000 0.000 0.000 0.000 0.000 0.000 0.000 0.000 0.000 0.000 0.000 0.000 0.000 0.000 0.000 0.000 0.000 0.000 0.000 0.000 0.000 0.000 0.000 0.000 0.000 0.000 0.000 0.000 0.000
0.000 0.000 4.514 8.623 8.039 9.841 11.249 12.760 13.129 12.838 11.474 12.502 11.416 10.837 6.348 0.000 0.000 0.000 0.000 0.000 0.000 0.000 0.000 0.000 0.000 0.000 0.000 0.000 0.000 0.000 0.000 0.000 0.000 0.000 0.000 0.000 0.000 0.000 0.000 0.000 0.000 0.000 0.000 0.000 0.000
0.000 0.000 0.000 0.001 8.781 10.855 12.981 13.060 15.056 12.785 12.311 13.029 12.985 6.932 0.000 0.000 0.000 0.000 0.000 0.000 0.000 0.000 0.000 0.000 0.000 0.000 0.000 0.000 0.000 0.000 0.000 0.000 0.000 0.000 0.000 0.000 0.000 0.000 0.000 0.000 0.000 0.000 0.000 0.000 0.000
0.000 0.000 0.000 0.015 3.094 7.421 7.922 8.295 12.479 12.171 10.824 13.800 6.587 0.000 0.000 0.000 0.000 0.000 0.000 0.000 0.000 0.000 0.000 0.000 0.000 0.000 0.000 0.000 0.000 0.000 0.000 0.000 0.000 0.000 0.000 0.000 0.000 0.000 0.000 0.000 0.000 0.000 0.000 0.000 0.000
0.000 0.000 0.000 0.000 0.000 0.000 0.000 3.942 6.601 11.882 12.717 7.082 0.000 0.000 0.000 0.000 0.000 0.000 0.000 0.000 0.000 0.000 0.000 0.000 0.000 0.000 0.000 0.000 0.000 0.000 0.000 0.000 0.000 0.000 0.000 0.000 0.000 0.000 0.000 0.000 0.000 0.000 0.000 0.000 0.000
0.000 0.000 0.000 0.000 0.000 0.000 0.000 0.057 3.402 6.949 7.021 0.000 0.000 0.000 0.000 0.000 0.000 0.000 0.000 0.000 0.000 0.000 0.000 0.000 0.000 0.000 0.000 0.000 0.000 0.000 0.000 0.000 0.000 0.000 0.000 0.000 0.000 0.000 0.000 0.000 0.000 0.000 0.000 0.000 0.000
