ncols        60
nrows        146
xllcorner    409512.8
yllcorner    6870879.1
cellsize     5.00
NODATA_value -9999
0.000 0.000 0.001 0.714 5.790 8.753 3.696 0.088 0.000 0.000 0.000 0.000 0.000 0.000 0.000 0.000 0.000 0.000 0.000 0.000 0.000 0.000 0.000 0.000 0.000 0.000 0.000 0.000 0.000 0.000 0.000 0.000 0.000 0.000 0.000 0.000 0.000 0.000 0.000 0.000 0.000 0.000 0.000 0.000 0.000 0.000 0.000 0.000 0.000 0.000 0.000 0.000 0.000 0.000 0.000 0.000 0.000 0.000 0.000 0.000
0.000 0.000 1.184 14.947 18.644 18.919 18.652 9.442 0.285 0.000 0.000 0.000 0.000 0.000 0.000 0.000 0.000 0.000 0.000 0.000 0.000 0.000 0.000 0.000 0.000 0.000 0.000 0.000 0.000 0.000 0.000 0.000 0.000 0.000 0.000 0.000 0.000 0.000 0.000 0.000 0.000 0.000 0.000 0.000 0.000 0.000 0.000 0.000 0.000 0.000 0.000 0.000 0.000 0.000 0.000 0.000 0.000 0.000 0.000 0.000
0.000 0.652 14.037 18.091 19.322 19.964 19.789 18.691 9.947 0.286 0.000 0.000 0.000 0.000 0.000 0.000 0.000 0.000 0.000 0.000 0.000 0.000 0.000 0.000 0.000 0.000 0.000 0.000 0.000 0.000 0.000 0.000 0.000 0.000 0.000 0.000 0.000 0.000 0.000 0.000 0.000 0.000 0.000 0.000 0.000 0.000 0.000 0.000 0.000 0.000 0.000 0.000 0.000 0.000 0.000 0.000 0.000 0.000 0.000 0.000
0.010 3.606 18.885 18.518 19.498 20.291 21.691 20.289 17.056 8.080 0.091 0.000 0.000 0.000 0.000 0.000 0.000 0.000 0.000 0.000 0.000 0.000 0.000 0.000 0.000 0.000 0.000 0.000 0.000 0.000 0.000 0.000 0.000 0.000 0.000 0.000 0.000 0.000 0.000 0.000 0.000 0.000 0.000 0.000 0.000 0.000 0.000 0.000 0.000 0.000 0.000 0.000 0.000 0.000 0.000 0.000 0.000 0.000 0.000 0.000
0.832 19.485 20.006 20.252 20.563 21.424 22.364 21.741 18.344 15.739 4.926 0.020 0.000 0.000 0.000 0.000 0.000 0.000 0.000 0.000 0.000 0.000 0.000 0.000 0.000 0.000 0.000 0.000 0.000 0.000 0.000 0.000 0.000 0.000 0.000 0.000 0.000 0.000 0.000 0.000 0.000 0.000 0.000 0.000 0.000 0.000 0.000 0.000 0.000 0.000 0.000 0.000 0.000 0.000 0.000 0.000 0.000 0.000 0.000 0.000
4.004 19.846 20.879 20.615 21.733 23.731 23.223 22.408 18.590 15.855 13.117 2.914 0.058 0.000 0.000 0.000 0.000 0.000 0.000 0.000 0.000 0.000 0.000 0.000 0.000 0.000 0.000 0.000 0.000 0.000 0.000 0.000 0.000 0.000 0.000 0.000 0.000 0.000 0.000 0.000 0.000 0.000 0.000 0.000 0.000 0.000 0.000 0.000 0.000 0.000 0.000 0.000 0.000 0.000 0.000 0.000 0.000 0.000 0.000 0.000
10.172 21.177 22.820 22.962 24.925 24.932 22.851 22.349 17.931 17.434 15.794 11.299 4.156 0.363 0.001 0.000 0.000 0.000 0.000 0.000 0.000 0.000 0.000 0.000 0.000 0.000 0.000 0.000 0.000 0.000 0.000 0.000 0.000 0.000 0.000 0.000 0.000 0.000 0.000 0.000 0.000 0.000 0.000 0.000 0.000 0.000 0.000 0.000 0.000 0.000 0.000 0.000 0.000 0.000 0.000 0.000 0.000 0.000 0.000 0.000
13.741 21.678 24.065 25.729 25.978 23.803 23.937 21.165 18.257 18.427 19.756 16.120 13.054 6.624 1.038 0.014 0.000 0.000 0.000 0.000 0.000 0.000 0.000 0.000 0.000 0.000 0.000 0.000 0.000 0.000 0.000 0.000 0.000 0.000 0.000 0.000 0.000 0.000 0.000 0.000 0.000 0.000 0.000 0.000 0.000 0.000 0.000 0.000 0.000 0.000 0.000 0.000 0.000 0.000 0.000 0.000 0.000 0.000 0.000 0.000
14.495 20.886 23.601 24.903 26.090 25.053 21.655 20.472 19.052 19.758 20.845 17.617 15.867 13.170 8.315 2.338 0.073 0.000 0.000 0.000 0.000 0.000 0.000 0.000 0.000 0.000 0.000 0.000 0.000 0.000 0.000 0.000 0.000 0.000 0.000 0.000 0.000 0.000 0.000 0.000 0.000 0.000 0.000 0.000 0.000 0.000 0.000 0.000 0.000 0.000 0.000 0.000 0.000 0.000 0.000 0.000 0.000 0.000 0.000 0.000
13.139 21.587 23.999 24.564 25.714 24.721 20.567 20.621 19.335 20.027 20.747 20.397 17.235 15.525 13.245 9.233 3.535 0.125 0.000 0.000 0.000 0.000 0.000 0.000 0.000 0.000 0.000 0.000 0.000 0.000 0.000 0.000 0.000 0.000 0.000 0.000 0.000 0.000 0.000 0.000 0.000 0.000 0.000 0.000 0.000 0.000 0.000 0.000 0.000 0.000 0.000 0.000 0.000 0.000 0.000 0.000 0.000 0.000 0.000 0.000
10.397 20.380 23.221 23.511 25.617 24.467 23.456 20.133 17.662 16.786 19.669 21.788 19.509 16.123 14.652 12.166 9.907 3.572 0.004 0.000 0.000 0.000 0.000 0.000 0.000 0.000 0.000 0.000 0.000 0.000 0.000 0.000 0.000 0.000 0.000 0.000 0.000 0.000 0.000 0.000 0.000 0.000 0.000 0.000 0.000 0.000 0.000 0.000 0.000 0.000 0.000 0.000 0.000 0.000 0.000 0.000 0.000 0.000 0.000 0.000
8.503 19.165 23.114 24.802 26.036 27.713 25.011 21.663 17.881 15.352 20.086 21.536 21.238 16.684 15.568 14.192 11.923 8.434 1.054 0.000 0.000 0.000 0.000 0.000 0.000 0.000 0.000 0.000 0.000 0.000 0.000 0.000 0.000 0.000 0.000 0.000 0.000 0.000 0.000 0.000 0.000 0.000 0.000 0.000 0.000 0.000 0.000 0.000 0.000 0.000 0.000 0.000 0.000 0.000 0.000 0.000 0.000 0.000 0.000 0.000
6.939 19.541 22.502 25.180 26.484 28.750 27.746 25.357 24.531 25.788 18.804 23.544 20.644 18.273 18.807 15.394 11.672 10.736 4.759 0.000 0.000 0.000 0.000 0.000 0.000 0.000 0.000 0.000 0.000 0.000 0.000 0.000 0.000 0.000 0.000 0.000 0.000 0.000 0.000 0.000 0.000 0.000 0.000 0.000 0.000 0.000 0.000 0.000 0.000 0.000 0.000 0.000 0.000 0.000 0.000 0.000 0.000 0.000 0.000 0.000
5.774 18.345 22.869 24.819 27.773 27.815 27.532 26.406 26.724 24.091 25.602 18.870 20.841 20.102 17.229 16.408 13.691 11.027 7.103 0.434 0.000 0.000 0.000 0.000 0.000 0.000 0.000 0.000 0.000 0.000 0.000 0.000 0.000 0.000 0.000 0.000 0.000 0.000 0.000 0.000 0.000 0.000 0.000 0.000 0.000 0.000 0.000 0.000 0.000 0.000 0.000 0.000 0.000 0.000 0.000 0.000 0.000 0.000 0.000 0.000
4.701 17.890 22.286 26.221 25.834 26.595 27.196 26.209 24.926 25.659 24.491 20.151 19.707 20.866 17.143 16.800 14.024 10.527 8.791 3.849 0.000 0.000 0.000 0.000 0.000 0.000 0.000 0.000 0.000 0.000 0.000 0.000 0.000 0.000 0.000 0.000 0.000 0.000 0.000 0.000 0.000 0.000 0.000 0.000 0.000 0.000 0.000 0.000 0.000 0.000 0.000 0.000 0.000 0.000 0.000 0.000 0.000 0.000 0.000 0.000
3.319 15.492 21.935 24.529 26.032 24.987 26.546 24.741 23.856 25.239 25.183 24.020 15.683 17.716 18.306 16.531 14.663 11.647 10.214 6.227 0.055 0.000 0.000 0.000 0.000 0.000 0.000 0.000 0.000 0.000 0.000 0.000 0.000 0.000 0.000 0.000 0.000 0.000 0.000 0.000 0.000 0.000 0.000 0.000 0.000 0.000 0.000 0.000 0.000 0.000 0.000 0.000 0.000 0.000 0.000 0.000 0.000 0.000 0.000 0.000
1.931 13.267 19.680 23.817 26.284 26.828 25.384 25.377 26.156 23.733 24.609 22.683 19.991 15.564 18.297 17.811 17.393 14.016 10.517 7.056 2.056 0.000 0.000 0.000 0.000 0.000 0.000 0.000 0.000 0.000 0.000 0.000 0.000 0.000 0.000 0.000 0.000 0.000 0.000 0.000 0.000 0.000 0.000 0.000 0.000 0.000 0.000 0.000 0.000 0.000 0.000 0.000 0.000 0.000 0.000 0.000 0.000 0.000 0.000 0.000
0.986 10.307 17.819 21.712 25.269 26.763 27.122 25.755 26.063 25.166 24.298 21.537 23.935 20.510 21.876 22.022 16.527 14.414 10.483 7.420 5.119 0.000 0.000 0.000 0.000 0.000 0.000 0.000 0.000 0.000 0.000 0.000 0.000 0.000 0.000 0.000 0.000 0.000 0.000 0.000 0.000 0.000 0.000 0.000 0.000 0.000 0.000 0.000 0.000 0.000 0.000 0.000 0.000 0.000 0.000 0.000 0.000 0.000 0.000 0.000
0.399 8.340 16.849 21.080 25.111 26.478 25.795 27.003 26.248 24.222 23.255 22.286 24.334 24.179 19.749 22.021 17.066 14.102 10.795 8.355 6.193 0.034 0.000 0.000 0.000 0.000 0.000 0.000 0.000 0.000 0.000 0.000 0.000 0.000 0.000 0.000 0.000 0.000 0.000 0.000 0.000 0.000 0.000 0.000 0.000 0.000 0.000 0.000 0.000 0.000 0.000 0.000 0.000 0.000 0.000 0.000 0.000 0.000 0.000 0.000
0.123 5.611 15.433 21.165 23.072 26.937 25.007 25.638 24.802 22.510 23.154 22.571 23.775 22.400 20.367 20.410 18.025 15.305 11.534 8.923 6.700 1.571 0.000 0.000 0.000 0.000 0.000 0.000 0.000 0.000 0.000 0.000 0.000 0.000 0.000 0.000 0.000 0.000 0.000 0.000 0.000 0.000 0.000 0.000 0.000 0.000 0.000 0.000 0.000 0.000 0.000 0.000 0.000 0.000 0.000 0.000 0.000 0.000 0.000 0.000
0.020 2.747 12.724 18.529 23.185 25.428 25.611 25.562 25.558 23.114 22.453 26.006 24.205 22.111 23.820 18.885 19.691 14.831 12.266 9.391 7.073 4.509 0.000 0.000 0.000 0.000 0.000 0.000 0.000 0.000 0.000 0.000 0.000 0.000 0.000 0.000 0.000 0.000 0.000 0.000 0.000 0.000 0.000 0.000 0.000 0.000 0.000 0.000 0.000 0.000 0.000 0.000 0.000 0.000 0.000 0.000 0.000 0.000 0.000 0.000
0.002 1.062 10.072 17.306 20.415 23.435 25.237 25.371 24.484 25.099 25.886 25.248 24.105 23.577 21.087 21.441 19.554 14.549 12.972 10.222 7.971 5.899 0.000 0.000 0.000 0.000 0.000 0.000 0.000 0.000 0.000 0.000 0.000 0.000 0.000 0.000 0.000 0.000 0.000 0.000 0.000 0.000 0.000 0.000 0.000 0.000 0.000 0.000 0.000 0.000 0.000 0.000 0.000 0.000 0.000 0.000 0.000 0.000 0.000 0.000
0.000 0.296 6.751 14.791 19.642 21.680 23.421 24.105 23.313 23.802 26.399 25.278 22.755 21.106 23.596 24.694 19.548 15.278 13.555 11.052 8.735 6.327 0.110 0.000 0.000 0.000 0.000 0.000 0.000 0.000 0.000 0.000 0.000 0.000 0.000 0.000 0.000 0.000 0.000 0.000 0.000 0.000 0.000 0.000 0.000 0.000 0.000 0.000 0.000 0.000 0.000 0.000 0.000 0.000 0.000 0.000 0.000 0.000 0.000 0.000
0.000 0.005 3.856 12.638 17.192 20.539 22.396 22.803 21.856 22.711 26.490 22.942 22.776 23.732 23.772 23.115 18.633 16.570 14.888 12.421 9.769 6.754 2.012 0.000 0.000 0.000 0.000 0.000 0.000 0.000 0.000 0.000 0.000 0.000 0.000 0.000 0.000 0.000 0.000 0.000 0.000 0.000 0.000 0.000 0.000 0.000 0.000 0.000 0.000 0.000 0.000 0.000 0.000 0.000 0.000 0.000 0.000 0.000 0.000 0.000
0.000 0.000 1.463 11.536 16.165 19.689 21.889 22.108 22.362 23.964 25.103 24.956 24.171 21.156 21.765 21.467 18.760 18.494 15.727 13.242 10.398 7.526 4.362 0.000 0.000 0.000 0.000 0.000 0.000 0.000 0.000 0.000 0.000 0.000 0.000 0.000 0.000 0.000 0.000 0.000 0.000 0.000 0.000 0.000 0.000 0.000 0.000 0.000 0.000 0.000 0.000 0.000 0.000 0.000 0.000 0.000 0.000 0.000 0.000 0.000
0.000 0.000 0.278 8.682 13.608 17.762 20.034 23.086 23.271 23.874 23.429 24.105 21.659 18.991 20.155 22.713 19.887 18.186 15.584 13.874 11.248 7.359 5.021 0.120 0.000 0.000 0.000 0.000 0.000 0.000 0.000 0.000 0.000 0.000 0.000 0.000 0.000 0.000 0.000 0.000 0.000 0.000 0.000 0.000 0.000 0.000 0.000 0.000 0.000 0.000 0.000 0.000 0.000 0.000 0.000 0.000 0.000 0.000 0.000 0.000
0.000 0.000 0.160 6.057 11.593 16.212 18.465 21.137 22.969 24.014 24.385 22.973 20.061 21.118 21.906 23.884 20.517 19.278 16.459 15.248 11.607 7.931 5.333 1.448 0.000 0.000 0.000 0.000 0.000 0.000 0.000 0.000 0.000 0.000 0.000 0.000 0.000 0.000 0.000 0.000 0.000 0.000 0.000 0.000 0.000 0.000 0.000 0.000 0.000 0.000 0.000 0.000 0.000 0.000 0.000 0.000 0.000 0.000 0.000 0.000
0.000 0.000 0.066 4.224 10.013 14.393 17.860 20.509 20.458 23.332 22.776 21.022 19.737 20.173 21.354 23.244 21.208 19.339 18.430 15.978 12.633 7.633 5.320 4.200 0.161 0.000 0.000 0.000 0.000 0.000 0.000 0.000 0.000 0.000 0.000 0.000 0.000 0.000 0.000 0.000 0.000 0.000 0.000 0.000 0.000 0.000 0.000 0.000 0.000 0.000 0.000 0.000 0.000 0.000 0.000 0.000 0.000 0.000 0.000 0.000
0.000 0.000 0.009 2.201 8.101 12.479 16.950 20.007 21.579 21.805 20.909 20.132 20.543 22.160 23.830 22.107 22.143 19.781 17.418 15.636 11.687 7.215 6.692 5.773 2.015 0.000 0.000 0.000 0.000 0.000 0.000 0.000 0.000 0.000 0.000 0.000 0.000 0.000 0.000 0.000 0.000 0.000 0.000 0.000 0.000 0.000 0.000 0.000 0.000 0.000 0.000 0.000 0.000 0.000 0.000 0.000 0.000 0.000 0.000 0.000
0.000 0.000 0.000 0.955 6.046 10.667 14.857 17.881 20.222 20.070 21.061 19.532 21.755 20.286 22.698 22.305 21.662 20.818 19.375 15.425 11.098 8.492 7.435 6.001 3.750 0.009 0.000 0.000 0.000 0.000 0.000 0.000 0.000 0.000 0.000 0.000 0.000 0.000 0.000 0.000 0.000 0.000 0.000 0.000 0.000 0.000 0.000 0.000 0.000 0.000 0.000 0.000 0.000 0.000 0.000 0.000 0.000 0.000 0.000 0.000
0.000 0.000 0.000 0.130 3.742 9.176 12.859 16.652 18.112 19.792 19.947 21.612 20.542 21.860 20.764 22.080 22.485 22.614 17.890 14.895 11.718 9.272 7.898 6.383 4.421 0.648 0.000 0.000 0.000 0.000 0.000 0.000 0.000 0.000 0.000 0.000 0.000 0.000 0.000 0.000 0.000 0.000 0.000 0.000 0.000 0.000 0.000 0.000 0.000 0.000 0.000 0.000 0.000 0.000 0.000 0.000 0.000 0.000 0.000 0.000
0.000 0.000 0.000 0.006 1.258 6.148 10.431 13.960 16.665 19.210 20.292 21.307 21.870 22.300 18.920 21.322 22.271 22.017 16.791 14.533 12.953 10.934 8.270 6.899 4.500 2.580 0.000 0.000 0.000 0.000 0.000 0.000 0.000 0.000 0.000 0.000 0.000 0.000 0.000 0.000 0.000 0.000 0.000 0.000 0.000 0.000 0.000 0.000 0.000 0.000 0.000 0.000 0.000 0.000 0.000 0.000 0.000 0.000 0.000 0.000
0.000 0.000 0.000 0.000 0.336 3.734 8.637 12.777 17.098 19.030 21.784 21.173 22.861 21.831 22.364 23.181 22.815 21.614 17.333 16.176 15.608 12.449 8.177 7.540 5.031 4.172 0.063 0.000 0.000 0.000 0.000 0.000 0.000 0.000 0.000 0.000 0.000 0.000 0.000 0.000 0.000 0.000 0.000 0.000 0.000 0.000 0.000 0.000 0.000 0.000 0.000 0.000 0.000 0.000 0.000 0.000 0.000 0.000 0.000 0.000
0.000 0.000 0.000 0.000 0.039 1.539 6.459 10.710 14.031 17.552 20.235 21.741 23.153 21.411 19.764 22.362 23.656 21.048 18.218 18.119 16.735 11.599 9.521 7.801 6.351 5.470 1.405 0.000 0.000 0.000 0.000 0.000 0.000 0.000 0.000 0.000 0.000 0.000 0.000 0.000 0.000 0.000 0.000 0.000 0.000 0.000 0.000 0.000 0.000 0.000 0.000 0.000 0.000 0.000 0.000 0.000 0.000 0.000 0.000 0.000
0.000 0.000 0.000 0.000 0.001 0.436 3.880 8.252 12.462 16.459 18.308 20.997 20.927 20.239 20.812 20.358 22.865 21.203 20.052 19.531 17.675 13.840 11.499 7.766 7.556 6.142 3.159 0.000 0.000 0.000 0.000 0.000 0.000 0.000 0.000 0.000 0.000 0.000 0.000 0.000 0.000 0.000 0.000 0.000 0.000 0.000 0.000 0.000 0.000 0.000 0.000 0.000 0.000 0.000 0.000 0.000 0.000 0.000 0.000 0.000
0.000 0.000 0.000 0.000 0.000 0.022 1.011 5.461 9.182 12.650 17.941 18.642 18.917 19.777 20.964 23.274 23.108 21.647 20.719 20.370 19.313 15.722 11.408 8.902 8.366 6.457 4.150 0.004 0.000 0.000 0.000 0.000 0.000 0.000 0.000 0.000 0.000 0.000 0.000 0.000 0.000 0.000 0.000 0.000 0.000 0.000 0.000 0.000 0.000 0.000 0.000 0.000 0.000 0.000 0.000 0.000 0.000 0.000 0.000 0.000
0.000 0.000 0.000 0.000 0.000 0.000 0.155 2.253 7.048 11.150 14.540 17.580 19.567 20.513 22.116 20.212 21.174 21.532 19.980 20.126 19.061 14.760 11.811 11.420 8.856 6.821 5.095 0.519 0.000 0.000 0.000 0.000 0.000 0.000 0.000 0.000 0.000 0.000 0.000 0.000 0.000 0.000 0.000 0.000 0.000 0.000 0.000 0.000 0.000 0.000 0.000 0.000 0.000 0.000 0.000 0.000 0.000 0.000 0.000 0.000
0.000 0.000 0.000 0.000 0.000 0.000 0.005 0.587 4.175 8.326 12.935 15.924 17.919 19.316 19.162 17.283 21.821 19.736 19.296 20.426 19.806 15.610 15.324 12.473 8.522 6.604 6.191 2.877 0.000 0.000 0.000 0.000 0.000 0.000 0.000 0.000 0.000 0.000 0.000 0.000 0.000 0.000 0.000 0.000 0.000 0.000 0.000 0.000 0.000 0.000 0.000 0.000 0.000 0.000 0.000 0.000 0.000 0.000 0.000 0.000
0.000 0.000 0.000 0.000 0.000 0.000 0.000 0.019 1.022 4.712 8.415 12.837 17.045 18.392 17.017 18.779 22.465 21.672 19.938 20.914 18.968 16.336 16.825 11.564 7.965 7.652 6.747 4.380 0.020 0.000 0.000 0.000 0.000 0.000 0.000 0.000 0.000 0.000 0.000 0.000 0.000 0.000 0.000 0.000 0.000 0.000 0.000 0.000 0.000 0.000 0.000 0.000 0.000 0.000 0.000 0.000 0.000 0.000 0.000 0.000
0.000 0.000 0.000 0.000 0.000 0.000 0.000 0.000 0.059 2.052 5.550 9.464 13.330 15.939 18.834 20.250 19.822 21.139 21.008 19.934 18.689 17.425 16.152 12.260 9.204 8.706 6.829 4.824 0.637 0.000 0.000 0.000 0.000 0.000 0.000 0.000 0.000 0.000 0.000 0.000 0.000 0.000 0.000 0.000 0.000 0.000 0.000 0.000 0.000 0.000 0.000 0.000 0.000 0.000 0.000 0.000 0.000 0.000 0.000 0.000
0.000 0.000 0.000 0.000 0.000 0.000 0.000 0.000 0.000 0.172 2.775 6.482 10.185 14.256 17.000 18.572 19.119 20.903 20.144 18.332 18.161 18.082 17.313 14.463 11.441 8.764 7.021 4.857 2.852 0.100 0.000 0.000 0.000 0.000 0.000 0.000 0.000 0.000 0.000 0.000 0.000 0.000 0.000 0.000 0.000 0.000 0.000 0.000 0.000 0.000 0.000 0.000 0.000 0.000 0.000 0.000 0.000 0.000 0.000 0.000
0.000 0.000 0.000 0.000 0.000 0.000 0.000 0.000 0.000 0.003 0.694 3.700 7.205 11.312 14.548 16.558 17.958 19.111 20.188 21.566 18.040 19.376 18.897 16.719 11.939 8.754 6.521 5.021 4.501 1.602 0.000 0.000 0.000 0.000 0.000 0.000 0.000 0.000 0.000 0.000 0.000 0.000 0.000 0.000 0.000 0.000 0.000 0.000 0.000 0.000 0.000 0.000 0.000 0.000 0.000 0.000 0.000 0.000 0.000 0.000
0.000 0.000 0.000 0.000 0.000 0.000 0.000 0.000 0.000 0.000 0.055 2.135 5.422 9.105 13.266 15.534 17.386 18.902 20.793 20.408 18.143 19.871 20.297 16.671 12.903 8.922 6.491 5.923 5.418 3.290 0.000 0.000 0.000 0.000 0.000 0.000 0.000 0.000 0.000 0.000 0.000 0.000 0.000 0.000 0.000 0.000 0.000 0.000 0.000 0.000 0.000 0.000 0.000 0.000 0.000 0.000 0.000 0.000 0.000 0.000
0.000 0.000 0.000 0.000 0.000 0.000 0.000 0.000 0.000 0.000 0.003 0.669 3.893 7.005 11.152 14.294 18.677 20.166 19.999 19.826 19.330 20.910 19.210 15.882 13.375 9.532 7.354 6.534 5.593 3.773 0.156 0.000 0.000 0.000 0.000 0.000 0.000 0.000 0.000 0.000 0.000 0.000 0.000 0.000 0.000 0.000 0.000 0.000 0.000 0.000 0.000 0.000 0.000 0.000 0.000 0.000 0.000 0.000 0.000 0.000
0.000 0.000 0.000 0.000 0.000 0.000 0.000 0.000 0.000 0.000 0.000 0.120 2.265 5.763 9.785 13.381 16.048 18.833 18.603 19.902 19.450 17.368 18.497 15.749 14.121 11.009 7.834 7.188 6.099 4.688 1.793 0.000 0.000 0.000 0.000 0.000 0.000 0.000 0.000 0.000 0.000 0.000 0.000 0.000 0.000 0.000 0.000 0.000 0.000 0.000 0.000 0.000 0.000 0.000 0.000 0.000 0.000 0.000 0.000 0.000
0.000 0.000 0.000 0.000 0.000 0.000 0.000 0.000 0.000 0.000 0.000 0.006 0.961 4.224 8.409 12.064 15.263 16.966 18.763 19.157 18.370 18.372 17.357 17.025 14.626 11.788 9.042 7.880 7.005 5.783 3.187 0.000 0.000 0.000 0.000 0.000 0.000 0.000 0.000 0.000 0.000 0.000 0.000 0.000 0.000 0.000 0.000 0.000 0.000 0.000 0.000 0.000 0.000 0.000 0.000 0.000 0.000 0.000 0.000 0.000
0.000 0.000 0.000 0.000 0.000 0.000 0.000 0.000 0.000 0.000 0.000 0.000 0.192 2.408 6.749 10.738 13.350 16.544 19.681 19.826 19.206 18.641 16.261 15.708 15.509 14.577 9.638 8.219 7.600 6.412 4.098 0.000 0.000 0.000 0.000 0.000 0.000 0.000 0.000 0.000 0.000 0.000 0.000 0.000 0.000 0.000 0.000 0.000 0.000 0.000 0.000 0.000 0.000 0.000 0.000 0.000 0.000 0.000 0.000 0.000
0.000 0.000 0.000 0.000 0.000 0.000 0.000 0.000 0.000 0.000 0.000 0.000 0.023 0.998 4.857 9.561 12.321 15.252 18.617 21.324 22.575 18.606 15.692 14.663 16.055 13.306 10.619 8.778 8.240 6.965 5.069 0.005 0.000 0.000 0.000 0.000 0.000 0.000 0.000 0.000 0.000 0.000 0.000 0.000 0.000 0.000 0.000 0.000 0.000 0.000 0.000 0.000 0.000 0.000 0.000 0.000 0.000 0.000 0.000 0.000
0.000 0.000 0.000 0.000 0.000 0.000 0.000 0.000 0.000 0.000 0.000 0.000 0.000 0.118 2.270 8.322 10.675 13.743 17.105 20.743 22.937 22.507 19.681 18.324 16.307 13.238 13.179 9.143 8.474 8.130 5.953 0.531 0.000 0.000 0.000 0.000 0.000 0.000 0.000 0.000 0.000 0.000 0.000 0.000 0.000 0.000 0.000 0.000 0.000 0.000 0.000 0.000 0.000 0.000 0.000 0.000 0.000 0.000 0.000 0.000
0.000 0.000 0.000 0.000 0.000 0.000 0.000 0.000 0.000 0.000 0.000 0.000 0.000 0.006 1.105 7.156 10.380 12.425 15.971 19.499 21.497 22.199 21.879 22.183 20.062 16.925 13.102 10.191 9.506 8.300 7.144 2.518 0.000 0.000 0.000 0.000 0.000 0.000 0.000 0.000 0.000 0.000 0.000 0.000 0.000 0.000 0.000 0.000 0.000 0.000 0.000 0.000 0.000 0.000 0.000 0.000 0.000 0.000 0.000 0.000
0.000 0.000 0.000 0.000 0.000 0.000 0.000 0.000 0.000 0.000 0.000 0.000 0.000 0.002 0.675 5.557 9.210 11.543 14.583 17.299 19.312 21.979 23.271 22.018 20.119 18.549 14.755 10.780 9.784 7.931 7.808 4.120 0.000 0.000 0.000 0.000 0.000 0.000 0.000 0.000 0.000 0.000 0.000 0.000 0.000 0.000 0.000 0.000 0.000 0.000 0.000 0.000 0.000 0.000 0.000 0.000 0.000 0.000 0.000 0.000
0.000 0.000 0.000 0.000 0.000 0.000 0.000 0.000 0.000 0.000 0.000 0.000 0.000 0.000 0.334 4.296 8.062 10.365 13.031 16.137 18.570 20.860 21.909 21.193 20.392 19.327 15.543 11.773 9.174 8.585 8.066 6.370 0.000 0.000 0.000 0.000 0.000 0.000 0.000 0.000 0.000 0.000 0.000 0.000 0.000 0.000 0.000 0.000 0.000 0.000 0.000 0.000 0.000 0.000 0.000 0.000 0.000 0.000 0.000 0.000
0.000 0.000 0.000 0.000 0.000 0.000 0.000 0.000 0.000 0.000 0.000 0.000 0.000 0.000 0.038 3.059 6.991 9.481 11.167 14.079 17.879 20.319 20.368 21.033 21.978 19.908 17.509 13.924 9.884 7.332 8.245 8.129 0.000 0.000 0.000 0.000 0.000 0.000 0.000 0.000 0.000 0.000 0.000 0.000 0.000 0.000 0.000 0.000 0.000 0.000 0.000 0.000 0.000 0.000 0.000 0.000 0.000 0.000 0.000 0.000
0.000 0.000 0.000 0.000 0.000 0.000 0.000 0.000 0.000 0.000 0.000 0.000 0.000 0.000 0.006 1.172 5.838 8.349 9.824 12.925 16.752 18.974 20.573 19.728 20.385 18.426 18.281 13.178 9.299 9.318 9.852 8.038 0.000 0.000 0.000 0.000 0.000 0.000 0.000 0.000 0.000 0.000 0.000 0.000 0.000 0.000 0.000 0.000 0.000 0.000 0.000 0.000 0.000 0.000 0.000 0.000 0.000 0.000 0.000 0.000
0.000 0.000 0.000 0.000 0.000 0.000 0.000 0.000 0.000 0.000 0.000 0.000 0.000 0.000 0.000 0.114 4.216 7.535 8.555 11.473 15.249 18.760 18.983 20.010 20.720 19.741 17.779 13.526 9.644 9.161 9.411 7.842 0.182 0.000 0.000 0.000 0.000 0.000 0.000 0.000 0.000 0.000 0.000 0.000 0.000 0.000 0.000 0.000 0.000 0.000 0.000 0.000 0.000 0.000 0.000 0.000 0.000 0.000 0.000 0.000
0.000 0.000 0.000 0.000 0.000 0.000 0.000 0.000 0.000 0.000 0.000 0.000 0.000 0.000 0.000 0.000 2.136 6.795 8.148 10.080 13.167 16.057 17.764 19.679 18.642 18.718 17.000 14.309 9.613 7.936 8.825 7.956 2.439 0.000 0.000 0.000 0.000 0.000 0.000 0.000 0.000 0.000 0.000 0.000 0.000 0.000 0.000 0.000 0.000 0.000 0.000 0.000 0.000 0.000 0.000 0.000 0.000 0.000 0.000 0.000
0.000 0.000 0.000 0.000 0.000 0.000 0.000 0.000 0.000 0.000 0.000 0.000 0.000 0.000 0.000 0.001 1.114 5.826 7.504 8.337 10.502 13.573 18.165 17.557 19.597 19.018 16.708 14.222 9.728 8.966 8.356 7.775 4.560 0.017 0.000 0.000 0.000 0.000 0.000 0.000 0.000 0.000 0.000 0.000 0.000 0.000 0.000 0.000 0.000 0.000 0.000 0.000 0.000 0.000 0.000 0.000 0.000 0.000 0.000 0.000
0.000 0.000 0.000 0.000 0.000 0.000 0.000 0.000 0.000 0.000 0.000 0.000 0.000 0.000 0.000 0.001 0.374 4.592 7.077 7.559 9.041 12.419 16.160 17.635 17.805 18.561 17.229 12.816 10.231 9.140 8.156 8.030 5.450 1.097 0.012 0.000 0.000 0.000 0.000 0.000 0.000 0.000 0.000 0.000 0.000 0.000 0.000 0.000 0.000 0.000 0.000 0.000 0.000 0.000 0.000 0.000 0.000 0.000 0.000 0.000
0.000 0.000 0.000 0.000 0.000 0.000 0.000 0.000 0.000 0.000 0.000 0.000 0.000 0.000 0.000 0.000 0.055 2.611 6.375 6.581 7.042 9.629 13.224 16.155 17.363 18.021 15.712 12.868 10.926 10.965 8.067 7.972 6.077 3.750 0.952 0.001 0.000 0.000 0.000 0.000 0.000 0.000 0.000 0.000 0.000 0.000 0.000 0.000 0.000 0.000 0.000 0.000 0.000 0.000 0.000 0.000 0.000 0.000 0.000 0.000
0.000 0.000 0.000 0.000 0.000 0.000 0.000 0.000 0.000 0.000 0.000 0.000 0.000 0.000 0.000 0.000 0.004 0.576 5.668 6.476 6.436 7.872 11.361 15.295 16.902 16.792 14.782 11.792 13.013 11.046 8.282 8.342 5.994 5.208 3.498 0.305 0.000 0.000 0.000 0.000 0.000 0.000 0.000 0.000 0.000 0.000 0.000 0.000 0.000 0.000 0.000 0.000 0.000 0.000 0.000 0.000 0.000 0.000 0.000 0.000
0.000 0.000 0.000 0.000 0.000 0.000 0.000 0.000 0.000 0.000 0.000 0.000 0.000 0.000 0.000 0.000 0.000 0.002 4.382 6.142 6.072 6.633 8.790 13.178 14.281 15.173 13.307 12.648 14.860 12.016 8.959 7.003 5.878 6.696 5.461 2.293 0.000 0.000 0.000 0.000 0.000 0.000 0.000 0.000 0.000 0.000 0.000 0.000 0.000 0.000 0.000 0.000 0.000 0.000 0.000 0.000 0.000 0.000 0.000 0.000
0.000 0.000 0.000 0.000 0.000 0.000 0.000 0.000 0.000 0.000 0.000 0.000 0.000 0.000 0.000 0.000 0.000 0.001 3.233 5.618 6.164 5.606 6.078 9.669 13.726 13.840 13.579 15.535 15.613 13.072 9.418 7.013 6.713 7.547 5.969 4.064 0.004 0.000 0.000 0.000 0.000 0.000 0.000 0.000 0.000 0.000 0.000 0.000 0.000 0.000 0.000 0.000 0.000 0.000 0.000 0.000 0.000 0.000 0.000 0.000
0.000 0.000 0.000 0.000 0.000 0.000 0.000 0.000 0.000 0.000 0.000 0.000 0.000 0.000 0.000 0.000 0.000 0.002 2.428 4.735 5.746 5.212 5.345 7.936 13.496 14.574 15.308 15.873 16.129 13.236 9.208 7.317 7.469 7.097 6.269 4.602 0.219 0.000 0.000 0.000 0.000 0.000 0.000 0.000 0.000 0.000 0.000 0.000 0.000 0.000 0.000 0.000 0.000 0.000 0.000 0.000 0.000 0.000 0.000 0.000
0.000 0.000 0.000 0.000 0.000 0.000 0.000 0.000 0.000 0.000 0.000 0.000 0.000 0.000 0.000 0.000 0.000 0.033 1.411 3.815 4.992 5.058 4.720 5.128 12.181 13.633 14.715 14.108 15.826 12.338 9.892 7.985 7.255 6.589 6.681 4.765 1.851 0.000 0.000 0.000 0.000 0.000 0.000 0.000 0.000 0.000 0.000 0.000 0.000 0.000 0.000 0.000 0.000 0.000 0.000 0.000 0.000 0.000 0.000 0.000
0.000 0.000 0.000 0.000 0.000 0.000 0.000 0.000 0.000 0.000 0.000 0.000 0.000 0.000 0.000 0.000 0.000 0.014 0.879 2.854 4.110 4.322 4.631 4.061 8.680 12.839 14.019 13.727 15.092 13.140 11.001 8.202 6.543 7.565 6.796 6.000 3.691 0.020 0.000 0.000 0.000 0.000 0.000 0.000 0.000 0.000 0.000 0.000 0.000 0.000 0.000 0.000 0.000 0.000 0.000 0.000 0.000 0.000 0.000 0.000
0.000 0.000 0.000 0.000 0.000 0.000 0.000 0.000 0.000 0.000 0.000 0.000 0.000 0.000 0.000 0.000 0.000 0.000 0.000 1.941 3.399 4.617 4.730 3.916 5.320 11.926 12.653 14.069 14.447 13.864 12.115 8.677 7.475 8.705 8.135 7.051 4.702 0.971 0.000 0.000 0.000 0.000 0.000 0.000 0.000 0.000 0.000 0.000 0.000 0.000 0.000 0.000 0.000 0.000 0.000 0.000 0.000 0.000 0.000 0.000
0.000 0.000 0.000 0.000 0.000 0.000 0.000 0.000 0.000 0.000 0.000 0.000 0.000 0.000 0.000 0.000 0.000 0.000 0.000 1.458 3.582 4.394 4.342 3.958 3.162 10.558 11.845 13.334 14.783 14.652 13.138 9.195 8.119 8.680 7.947 7.372 5.837 2.620 0.031 0.000 0.000 0.000 0.000 0.000 0.000 0.000 0.000 0.000 0.000 0.000 0.000 0.000 0.000 0.000 0.000 0.000 0.000 0.000 0.000 0.000
0.000 0.000 0.000 0.000 0.000 0.000 0.000 0.000 0.000 0.000 0.000 0.000 0.000 0.000 0.000 0.000 0.000 0.000 0.000 0.415 3.108 3.741 4.252 4.147 3.997 9.005 11.817 13.288 15.379 15.301 14.134 10.229 8.644 8.584 8.023 7.682 6.077 3.909 0.843 0.000 0.000 0.000 0.000 0.000 0.000 0.000 0.000 0.000 0.000 0.000 0.000 0.000 0.000 0.000 0.000 0.000 0.000 0.000 0.000 0.000
0.000 0.000 0.000 0.000 0.000 0.000 0.000 0.000 0.000 0.000 0.000 0.000 0.000 0.000 0.000 0.000 0.000 0.000 0.000 0.098 2.281 3.526 4.173 4.308 4.745 8.721 12.211 13.875 15.212 16.339 14.809 12.151 8.945 8.010 7.315 6.870 6.179 4.791 2.117 0.080 0.000 0.000 0.000 0.000 0.000 0.000 0.000 0.000 0.000 0.000 0.000 0.000 0.000 0.000 0.000 0.000 0.000 0.000 0.000 0.000
0.000 0.000 0.000 0.000 0.000 0.000 0.000 0.000 0.000 0.000 0.000 0.000 0.000 0.000 0.000 0.000 0.000 0.000 0.000 0.124 1.553 3.142 3.972 4.092 4.713 8.865 12.299 15.208 17.465 17.284 15.411 13.157 7.763 6.959 7.174 7.206 7.388 5.206 2.869 1.299 0.139 0.000 0.000 0.000 0.000 0.000 0.000 0.000 0.000 0.000 0.000 0.000 0.000 0.000 0.000 0.000 0.000 0.000 0.000 0.000
0.000 0.000 0.000 0.000 0.000 0.000 0.000 0.000 0.000 0.000 0.000 0.000 0.000 0.000 0.000 0.000 0.000 0.000 0.000 0.002 1.331 3.164 3.686 3.738 4.518 7.065 11.186 14.007 15.490 15.581 15.132 13.523 7.872 6.845 6.875 7.929 7.584 4.980 4.007 3.013 2.101 0.039 0.000 0.000 0.000 0.000 0.000 0.000 0.000 0.000 0.000 0.000 0.000 0.000 0.000 0.000 0.000 0.000 0.000 0.000
0.000 0.000 0.000 0.000 0.000 0.000 0.000 0.000 0.000 0.000 0.000 0.000 0.000 0.000 0.000 0.000 0.000 0.000 0.000 0.041 0.844 3.001 3.225 3.784 4.729 6.638 9.701 14.507 15.293 13.585 16.105 12.711 8.837 6.828 7.393 7.868 6.748 5.717 5.994 4.435 4.362 0.736 0.000 0.000 0.000 0.000 0.000 0.000 0.000 0.000 0.000 0.000 0.000 0.000 0.000 0.000 0.000 0.000 0.000 0.000
0.000 0.000 0.000 0.000 0.000 0.000 0.000 0.000 0.000 0.000 0.000 0.000 0.000 0.000 0.000 0.000 0.000 0.000 0.000 0.000 0.272 2.028 2.719 3.687 4.083 5.691 7.070 10.902 13.908 14.577 14.582 12.943 9.806 6.641 7.332 7.323 7.599 7.599 7.807 4.962 3.852 1.320 0.000 0.000 0.000 0.000 0.000 0.000 0.000 0.000 0.000 0.000 0.000 0.000 0.000 0.000 0.000 0.000 0.000 0.000
0.000 0.000 0.000 0.000 0.000 0.000 0.000 0.000 0.000 0.000 0.000 0.000 0.000 0.000 0.000 0.000 0.000 0.000 0.000 0.000 0.053 1.572 2.534 3.312 3.544 4.667 5.495 6.805 11.230 12.837 13.825 13.291 10.535 6.943 6.914 7.546 8.069 8.504 8.373 5.328 2.059 3.106 0.125 0.000 0.000 0.000 0.000 0.000 0.000 0.000 0.000 0.000 0.000 0.000 0.000 0.000 0.000 0.000 0.000 0.000
0.000 0.000 0.000 0.000 0.000 0.000 0.000 0.000 0.000 0.000 0.000 0.000 0.000 0.000 0.000 0.000 0.000 0.000 0.000 0.000 0.096 1.824 3.442 3.421 3.617 3.550 3.961 4.633 9.495 13.010 14.143 13.782 11.177 7.879 6.769 7.608 7.703 8.801 7.135 5.508 1.966 3.866 1.009 0.000 0.000 0.000 0.000 0.000 0.000 0.000 0.000 0.000 0.000 0.000 0.000 0.000 0.000 0.000 0.000 0.000
0.000 0.000 0.000 0.000 0.000 0.000 0.000 0.000 0.000 0.000 0.000 0.000 0.000 0.000 0.000 0.000 0.000 0.000 0.000 0.000 0.330 2.493 3.455 3.675 3.585 3.804 4.029 4.288 5.822 12.501 13.898 14.658 11.761 8.766 7.228 7.311 8.262 9.503 7.630 6.368 4.143 3.953 1.853 0.001 0.000 0.000 0.000 0.000 0.000 0.000 0.000 0.000 0.000 0.000 0.000 0.000 0.000 0.000 0.000 0.000
0.000 0.000 0.000 0.000 0.000 0.000 0.000 0.000 0.000 0.000 0.000 0.000 0.000 0.000 0.000 0.000 0.000 0.000 0.000 0.001 1.033 2.744 3.150 3.814 3.798 4.047 4.425 4.728 5.037 12.059 14.761 13.794 12.288 9.989 7.934 6.932 7.826 8.004 8.629 6.909 5.149 3.963 2.895 0.191 0.000 0.000 0.000 0.000 0.000 0.000 0.000 0.000 0.000 0.000 0.000 0.000 0.000 0.000 0.000 0.000
0.000 0.000 0.000 0.000 0.000 0.000 0.000 0.000 0.000 0.000 0.000 0.000 0.000 0.000 0.000 0.000 0.000 0.000 0.000 0.000 0.295 2.604 3.478 3.673 3.263 4.171 5.074 4.661 5.330 10.446 15.158 14.546 12.426 10.955 9.162 7.290 7.501 7.502 8.392 6.561 6.047 4.552 3.652 1.507 0.002 0.000 0.000 0.000 0.000 0.000 0.000 0.000 0.000 0.000 0.000 0.000 0.000 0.000 0.000 0.000
0.000 0.000 0.000 0.000 0.000 0.000 0.000 0.000 0.000 0.000 0.000 0.000 0.000 0.000 0.000 0.000 0.000 0.000 0.000 0.000 0.263 2.601 3.403 3.304 2.939 3.985 5.259 4.434 5.382 9.442 15.217 16.641 14.856 11.937 10.375 7.553 7.582 8.086 8.220 7.091 6.396 5.052 4.106 2.887 0.234 0.000 0.000 0.000 0.000 0.000 0.000 0.000 0.000 0.000 0.000 0.000 0.000 0.000 0.000 0.000
0.000 0.000 0.000 0.000 0.000 0.000 0.000 0.000 0.000 0.000 0.000 0.000 0.000 0.000 0.000 0.000 0.000 0.000 0.000 0.000 0.019 2.222 3.459 3.651 3.644 3.874 4.840 4.773 5.350 9.107 14.166 16.774 16.335 13.633 11.027 8.580 7.378 7.481 7.032 7.545 7.122 5.799 4.852 3.399 1.049 0.000 0.000 0.000 0.000 0.000 0.000 0.000 0.000 0.000 0.000 0.000 0.000 0.000 0.000 0.000
0.000 0.000 0.000 0.000 0.000 0.000 0.000 0.000 0.000 0.000 0.000 0.000 0.000 0.000 0.000 0.000 0.000 0.000 0.000 0.000 0.102 1.868 3.212 3.685 3.943 3.673 4.216 4.973 5.600 8.956 14.252 16.810 17.217 16.002 11.676 8.597 7.043 7.404 7.510 7.803 7.772 6.733 5.426 3.820 2.614 0.096 0.000 0.000 0.000 0.000 0.000 0.000 0.000 0.000 0.000 0.000 0.000 0.000 0.000 0.000
0.000 0.000 0.000 0.000 0.000 0.000 0.000 0.000 0.000 0.000 0.000 0.000 0.000 0.000 0.000 0.000 0.000 0.000 0.000 0.000 0.043 1.828 2.790 3.490 3.523 3.604 4.171 4.915 5.916 8.307 13.965 17.348 17.006 14.950 11.325 7.672 7.318 7.192 7.722 8.296 7.968 7.645 5.959 5.264 3.969 1.432 0.000 0.000 0.000 0.000 0.000 0.000 0.000 0.000 0.000 0.000 0.000 0.000 0.000 0.000
0.000 0.000 0.000 0.000 0.000 0.000 0.000 0.000 0.000 0.000 0.000 0.000 0.000 0.000 0.000 0.000 0.000 0.000 0.000 0.001 0.274 1.822 2.927 3.229 3.101 3.253 3.913 4.746 5.893 7.796 12.344 16.940 17.161 16.588 13.670 8.898 7.979 7.395 8.077 8.525 9.007 7.829 7.489 6.393 4.534 2.871 0.014 0.000 0.000 0.000 0.000 0.000 0.000 0.000 0.000 0.000 0.000 0.000 0.000 0.000
0.000 0.000 0.000 0.000 0.000 0.000 0.000 0.000 0.000 0.000 0.000 0.000 0.000 0.000 0.000 0.000 0.000 0.000 0.000 0.000 0.125 1.660 2.956 2.972 3.191 3.376 4.037 4.908 5.679 6.990 10.165 15.001 17.102 15.901 13.461 10.208 8.107 8.100 8.492 8.850 8.751 8.522 8.474 6.551 4.718 3.813 0.596 0.000 0.000 0.000 0.000 0.000 0.000 0.000 0.000 0.000 0.000 0.000 0.000 0.000
0.000 0.000 0.000 0.000 0.000 0.000 0.000 0.000 0.000 0.000 0.000 0.000 0.000 0.000 0.000 0.000 0.000 0.000 0.000 0.000 0.060 1.207 3.107 3.045 3.186 3.342 3.910 4.701 5.375 6.802 9.202 15.350 16.921 15.041 13.739 9.148 8.491 8.759 8.536 8.361 8.487 9.003 8.529 6.134 5.603 4.443 1.963 0.003 0.000 0.000 0.000 0.000 0.000 0.000 0.000 0.000 0.000 0.000 0.000 0.000
0.000 0.000 0.000 0.000 0.000 0.000 0.000 0.000 0.000 0.000 0.000 0.000 0.000 0.000 0.000 0.000 0.000 0.000 0.000 0.000 0.000 0.133 2.551 3.165 3.046 3.144 3.560 4.320 5.326 7.065 9.180 15.237 15.203 16.078 12.838 9.539 8.561 7.056 7.008 7.406 8.610 9.475 7.810 6.452 6.370 5.023 2.745 0.450 0.001 0.000 0.000 0.000 0.000 0.000 0.000 0.000 0.000 0.000 0.000 0.000
0.000 0.000 0.000 0.000 0.000 0.000 0.000 0.000 0.000 0.000 0.000 0.000 0.000 0.000 0.000 0.000 0.000 0.000 0.000 0.000 0.000 0.250 1.753 3.207 3.169 3.391 3.846 3.894 5.837 6.934 8.445 12.746 15.831 14.488 12.538 10.369 7.363 6.350 6.878 7.874 9.149 8.237 7.761 7.852 7.233 5.093 4.125 2.230 0.266 0.000 0.000 0.000 0.000 0.000 0.000 0.000 0.000 0.000 0.000 0.000
0.000 0.000 0.000 0.000 0.000 0.000 0.000 0.000 0.000 0.000 0.000 0.000 0.000 0.000 0.000 0.000 0.000 0.000 0.000 0.000 0.000 0.377 2.165 3.460 3.590 3.272 3.470 4.770 5.421 6.553 7.467 12.963 14.947 14.622 14.164 11.103 8.430 7.544 7.611 8.403 8.439 7.967 8.751 7.878 6.397 5.728 4.824 3.516 2.418 0.000 0.000 0.000 0.000 0.000 0.000 0.000 0.000 0.000 0.000 0.000
0.000 0.000 0.000 0.000 0.000 0.000 0.000 0.000 0.000 0.000 0.000 0.000 0.000 0.000 0.000 0.000 0.000 0.000 0.000 0.000 0.001 0.610 2.314 3.472 3.798 2.849 3.595 4.303 2.754 5.065 7.385 11.356 14.374 15.668 14.517 11.428 8.777 8.240 8.447 7.870 8.439 8.680 8.200 7.640 6.369 6.021 4.823 4.909 3.804 0.000 0.000 0.000 0.000 0.000 0.000 0.000 0.000 0.000 0.000 0.000
0.000 0.000 0.000 0.000 0.000 0.000 0.000 0.000 0.000 0.000 0.000 0.000 0.000 0.000 0.000 0.000 0.000 0.000 0.000 0.000 0.000 0.118 1.319 2.997 3.916 3.091 3.091 3.149 2.607 4.548 7.291 11.161 14.591 15.742 15.052 12.476 9.278 9.263 8.419 7.991 8.647 8.129 7.543 7.378 6.567 6.335 6.090 5.695 4.513 0.000 0.000 0.000 0.000 0.000 0.000 0.000 0.000 0.000 0.000 0.000
0.000 0.000 0.000 0.000 0.000 0.000 0.000 0.000 0.000 0.000 0.000 0.000 0.000 0.000 0.000 0.000 0.000 0.000 0.000 0.000 0.000 0.043 0.753 2.627 4.033 3.415 2.858 2.905 3.034 5.252 7.248 10.501 13.877 15.114 14.581 11.023 9.906 9.429 7.629 7.993 7.727 6.261 7.054 7.457 7.594 7.282 6.517 5.571 5.168 0.002 0.000 0.000 0.000 0.000 0.000 0.000 0.000 0.000 0.000 0.000
0.000 0.000 0.000 0.000 0.000 0.000 0.000 0.000 0.000 0.000 0.000 0.000 0.000 0.000 0.000 0.000 0.000 0.000 0.000 0.000 0.000 0.000 0.054 1.062 3.798 3.530 2.696 2.679 3.902 5.549 7.512 10.299 14.219 14.940 13.371 11.251 10.529 9.282 8.393 8.064 7.118 6.270 6.814 7.866 7.992 7.325 6.540 5.993 5.303 0.239 0.000 0.000 0.000 0.000 0.000 0.000 0.000 0.000 0.000 0.000
0.000 0.000 0.000 0.000 0.000 0.000 0.000 0.000 0.000 0.000 0.000 0.000 0.000 0.000 0.000 0.000 0.000 0.000 0.000 0.000 0.000 0.000 0.000 1.389 2.797 3.277 2.130 2.907 3.849 5.139 7.108 9.452 12.141 14.102 13.131 12.662 11.591 9.406 8.263 7.383 6.567 6.531 7.289 7.998 7.767 7.337 6.589 6.065 5.218 1.063 0.000 0.000 0.000 0.000 0.000 0.000 0.000 0.000 0.000 0.000
0.000 0.000 0.000 0.000 0.000 0.000 0.000 0.000 0.000 0.000 0.000 0.000 0.000 0.000 0.000 0.000 0.000 0.000 0.000 0.000 0.000 0.000 0.000 0.001 2.369 2.482 2.468 3.254 3.562 4.581 6.388 8.873 10.610 13.958 13.168 13.704 11.397 9.637 8.779 7.890 7.462 6.635 7.055 7.572 7.781 7.794 7.297 5.531 4.435 1.178 0.000 0.000 0.000 0.000 0.000 0.000 0.000 0.000 0.000 0.000
0.000 0.000 0.000 0.000 0.000 0.000 0.000 0.000 0.000 0.000 0.000 0.000 0.000 0.000 0.000 0.000 0.000 0.000 0.000 0.000 0.000 0.000 0.000 0.000 1.103 2.657 2.917 3.269 3.552 3.960 5.693 7.762 10.151 12.134 13.923 13.643 12.336 10.053 9.274 7.793 6.678 5.853 5.987 6.338 7.415 7.327 6.587 3.688 3.276 0.611 0.000 0.000 0.000 0.000 0.000 0.000 0.000 0.000 0.000 0.000
0.000 0.000 0.000 0.000 0.000 0.000 0.000 0.000 0.000 0.000 0.000 0.000 0.000 0.000 0.000 0.000 0.000 0.000 0.000 0.000 0.000 0.000 0.000 0.000 0.788 2.306 3.013 3.288 3.385 3.357 5.212 7.447 9.785 12.121 12.985 14.013 12.474 10.235 8.901 6.695 5.891 5.074 5.128 5.822 6.724 6.486 5.572 4.377 3.836 1.689 0.000 0.000 0.000 0.000 0.000 0.000 0.000 0.000 0.000 0.000
0.000 0.000 0.000 0.000 0.000 0.000 0.000 0.000 0.000 0.000 0.000 0.000 0.000 0.000 0.000 0.000 0.000 0.000 0.000 0.000 0.000 0.000 0.000 0.003 0.422 1.687 2.562 3.165 2.933 3.224 4.433 6.808 8.814 10.434 12.561 12.538 11.917 9.931 7.465 5.288 5.290 5.051 4.694 5.357 5.558 5.811 6.043 5.311 4.004 3.340 0.000 0.000 0.000 0.000 0.000 0.000 0.000 0.000 0.000 0.000
0.000 0.000 0.000 0.000 0.000 0.000 0.000 0.000 0.000 0.000 0.000 0.000 0.000 0.000 0.000 0.000 0.000 0.000 0.000 0.000 0.000 0.000 0.000 0.000 0.058 0.931 1.975 2.759 2.778 3.010 3.631 5.565 7.242 9.049 11.596 11.799 10.650 9.076 6.571 5.715 6.195 4.919 4.692 4.802 4.447 5.531 6.137 4.857 4.122 3.607 0.041 0.000 0.000 0.000 0.000 0.000 0.000 0.000 0.000 0.000
0.000 0.000 0.000 0.000 0.000 0.000 0.000 0.000 0.000 0.000 0.000 0.000 0.000 0.000 0.000 0.000 0.000 0.000 0.000 0.000 0.000 0.000 0.000 0.000 0.003 0.259 1.316 2.517 2.607 2.728 3.265 4.671 6.624 8.309 10.170 10.828 10.879 9.181 7.119 6.702 6.050 5.147 4.903 4.498 4.690 5.677 5.620 5.032 4.280 3.136 0.798 0.000 0.000 0.000 0.000 0.000 0.000 0.000 0.000 0.000
0.000 0.000 0.000 0.000 0.000 0.000 0.000 0.000 0.000 0.000 0.000 0.000 0.000 0.000 0.000 0.000 0.000 0.000 0.000 0.000 0.000 0.000 0.000 0.000 0.000 0.008 0.652 2.182 2.448 2.560 3.081 3.595 5.378 6.748 7.832 9.553 9.637 9.027 7.459 7.363 6.193 5.861 4.947 4.823 4.795 4.886 5.618 5.166 4.269 3.104 2.407 0.000 0.000 0.000 0.000 0.000 0.000 0.000 0.000 0.000
0.000 0.000 0.000 0.000 0.000 0.000 0.000 0.000 0.000 0.000 0.000 0.000 0.000 0.000 0.000 0.000 0.000 0.000 0.000 0.000 0.000 0.000 0.000 0.000 0.000 0.002 0.548 1.771 2.244 2.521 2.837 3.262 4.202 5.548 7.188 8.905 8.989 9.139 7.788 6.604 6.686 5.942 5.186 4.647 3.981 3.730 5.060 5.098 4.486 2.940 2.625 0.016 0.000 0.000 0.000 0.000 0.000 0.000 0.000 0.000
0.000 0.000 0.000 0.000 0.000 0.000 0.000 0.000 0.000 0.000 0.000 0.000 0.000 0.000 0.000 0.000 0.000 0.000 0.000 0.000 0.000 0.000 0.000 0.000 0.000 0.002 0.316 1.315 2.038 2.316 2.627 2.619 3.412 4.849 6.123 7.315 8.606 9.371 7.783 6.418 6.674 5.793 5.198 3.567 3.063 2.515 4.589 5.132 4.721 2.715 2.266 0.366 0.000 0.000 0.000 0.000 0.000 0.000 0.000 0.000
0.000 0.000 0.000 0.000 0.000 0.000 0.000 0.000 0.000 0.000 0.000 0.000 0.000 0.000 0.000 0.000 0.000 0.000 0.000 0.000 0.000 0.000 0.000 0.000 0.000 0.000 0.273 0.914 1.566 2.011 2.406 2.253 2.919 4.194 5.634 6.750 8.590 9.382 7.322 6.908 7.025 5.931 4.308 2.966 2.475 3.297 4.694 5.353 4.897 3.153 2.453 1.696 0.107 0.000 0.000 0.000 0.000 0.000 0.000 0.000
0.000 0.000 0.000 0.000 0.000 0.000 0.000 0.000 0.000 0.000 0.000 0.000 0.000 0.000 0.000 0.000 0.000 0.000 0.000 0.000 0.000 0.000 0.000 0.000 0.000 0.000 0.021 0.971 1.342 1.914 2.265 2.595 2.773 3.851 5.533 6.690 8.713 9.947 6.929 7.241 6.434 5.133 3.764 3.211 3.158 3.893 4.585 5.440 5.054 3.340 2.788 2.402 1.382 0.010 0.000 0.000 0.000 0.000 0.000 0.000
0.000 0.000 0.000 0.000 0.000 0.000 0.000 0.000 0.000 0.000 0.000 0.000 0.000 0.000 0.000 0.000 0.000 0.000 0.000 0.000 0.000 0.000 0.000 0.000 0.000 0.000 0.000 0.007 0.870 1.781 2.151 2.479 2.710 3.528 5.262 6.368 8.325 9.563 7.517 6.744 6.249 4.445 3.408 3.121 3.432 3.595 4.442 5.482 4.841 3.238 2.987 2.826 2.633 0.462 0.001 0.000 0.000 0.000 0.000 0.000
0.000 0.000 0.000 0.000 0.000 0.000 0.000 0.000 0.000 0.000 0.000 0.000 0.000 0.000 0.000 0.000 0.000 0.000 0.000 0.000 0.000 0.000 0.000 0.000 0.000 0.000 0.000 0.000 0.405 1.489 2.114 2.006 2.571 3.252 4.911 5.780 6.735 8.662 6.878 5.683 5.175 3.815 3.654 3.300 3.318 3.107 4.218 5.169 4.625 3.207 2.956 2.815 2.688 1.401 0.097 0.000 0.000 0.000 0.000 0.000
0.000 0.000 0.000 0.000 0.000 0.000 0.000 0.000 0.000 0.000 0.000 0.000 0.000 0.000 0.000 0.000 0.000 0.000 0.000 0.000 0.000 0.000 0.000 0.000 0.000 0.000 0.000 0.000 0.130 1.217 1.815 1.958 2.480 2.872 3.929 4.955 5.452 7.517 5.858 4.755 4.070 4.516 4.396 3.975 3.431 3.542 3.653 4.414 4.582 3.191 2.785 2.661 2.493 1.910 0.860 0.010 0.000 0.000 0.000 0.000
0.000 0.000 0.000 0.000 0.000 0.000 0.000 0.000 0.000 0.000 0.000 0.000 0.000 0.000 0.000 0.000 0.000 0.000 0.000 0.000 0.000 0.000 0.000 0.000 0.000 0.000 0.000 0.000 0.000 0.958 1.701 2.139 2.308 2.543 3.252 4.007 3.724 5.649 4.519 4.037 4.044 5.088 4.881 3.724 3.569 3.788 3.732 4.266 4.568 2.870 2.487 2.527 2.511 2.355 2.257 0.705 0.000 0.000 0.000 0.000
0.000 0.000 0.000 0.000 0.000 0.000 0.000 0.000 0.000 0.000 0.000 0.000 0.000 0.000 0.000 0.000 0.000 0.000 0.000 0.000 0.000 0.000 0.000 0.000 0.000 0.000 0.000 0.000 0.003 1.025 1.648 1.939 2.022 2.209 2.744 2.849 3.425 4.424 4.397 4.040 4.875 4.943 4.129 3.193 4.031 3.299 3.920 4.005 4.147 2.626 2.426 2.425 2.371 2.542 2.867 2.303 0.006 0.000 0.000 0.000
0.000 0.000 0.000 0.000 0.000 0.000 0.000 0.000 0.000 0.000 0.000 0.000 0.000 0.000 0.000 0.000 0.000 0.000 0.000 0.000 0.000 0.000 0.000 0.000 0.000 0.000 0.000 0.000 0.009 0.604 1.293 1.628 1.942 1.933 2.142 2.644 1.523 3.901 4.429 4.445 4.844 4.099 3.085 3.716 3.535 1.202 3.029 4.097 3.849 2.932 2.465 2.342 2.332 2.510 2.436 2.679 0.134 0.000 0.000 0.000
0.000 0.000 0.000 0.000 0.000 0.000 0.000 0.000 0.000 0.000 0.000 0.000 0.000 0.000 0.000 0.000 0.000 0.000 0.000 0.000 0.000 0.000 0.000 0.000 0.000 0.000 0.000 0.000 0.003 0.246 0.855 1.254 1.717 1.790 1.693 1.992 3.541 4.352 4.392 4.416 4.016 3.097 2.054 3.128 2.631 0.621 1.578 3.877 3.789 3.118 2.400 2.234 2.245 2.174 1.764 2.515 0.039 0.000 0.000 0.000
0.000 0.000 0.000 0.000 0.000 0.000 0.000 0.000 0.000 0.000 0.000 0.000 0.000 0.000 0.000 0.000 0.000 0.000 0.000 0.000 0.000 0.000 0.000 0.000 0.000 0.000 0.000 0.000 0.000 0.001 0.064 0.375 1.042 1.390 1.375 0.069 3.138 3.451 3.617 3.889 3.150 2.378 1.363 2.880 3.005 2.830 2.714 3.176 3.612 2.933 2.297 2.113 1.980 2.028 2.200 2.192 0.466 0.000 0.000 0.000
0.000 0.000 0.000 0.000 0.000 0.000 0.000 0.000 0.000 0.000 0.000 0.000 0.000 0.000 0.000 0.000 0.000 0.000 0.000 0.000 0.000 0.000 0.000 0.000 0.000 0.000 0.000 0.000 0.000 0.000 0.000 0.003 0.628 1.409 1.704 2.082 2.702 2.343 2.650 2.974 2.780 3.296 3.105 3.600 3.896 3.612 2.833 2.660 2.955 2.759 2.204 2.000 1.896 1.866 1.886 1.730 0.882 0.000 0.000 0.000
0.000 0.000 0.000 0.000 0.000 0.000 0.000 0.000 0.000 0.000 0.000 0.000 0.000 0.000 0.000 0.000 0.000 0.000 0.000 0.000 0.000 0.000 0.000 0.000 0.000 0.000 0.000 0.000 0.000 0.000 0.000 0.000 0.249 1.283 1.739 1.761 1.468 1.410 1.506 2.770 2.742 3.681 3.363 3.942 3.672 2.994 2.510 2.068 2.468 2.625 2.181 1.916 1.787 1.647 1.569 1.886 1.432 0.000 0.000 0.000
0.000 0.000 0.000 0.000 0.000 0.000 0.000 0.000 0.000 0.000 0.000 0.000 0.000 0.000 0.000 0.000 0.000 0.000 0.000 0.000 0.000 0.000 0.000 0.000 0.000 0.000 0.000 0.000 0.000 0.000 0.000 0.000 0.049 0.554 1.399 1.549 0.094 0.094 1.216 2.163 2.280 2.684 3.197 3.584 2.713 1.861 2.000 0.957 1.287 1.679 2.044 1.793 1.581 1.434 1.688 2.338 1.773 0.009 0.000 0.000
0.000 0.000 0.000 0.000 0.000 0.000 0.000 0.000 0.000 0.000 0.000 0.000 0.000 0.000 0.000 0.000 0.000 0.000 0.000 0.000 0.000 0.000 0.000 0.000 0.000 0.000 0.000 0.000 0.000 0.000 0.000 0.000 0.000 0.020 0.356 1.521 1.764 0.154 1.861 1.972 1.217 1.873 2.669 2.663 1.812 1.159 0.423 0.095 0.074 0.743 1.868 1.594 1.366 1.206 1.511 2.020 1.714 0.193 0.000 0.000
0.000 0.000 0.000 0.000 0.000 0.000 0.000 0.000 0.000 0.000 0.000 0.000 0.000 0.000 0.000 0.000 0.000 0.000 0.000 0.000 0.000 0.000 0.000 0.000 0.000 0.000 0.000 0.000 0.000 0.000 0.000 0.000 0.000 0.000 0.555 1.274 1.935 2.204 2.448 1.747 0.309 1.118 2.318 2.564 1.584 0.670 0.074 0.021 0.074 0.272 0.915 1.418 0.938 0.075 0.865 0.991 1.348 0.861 0.000 0.000
0.000 0.000 0.000 0.000 0.000 0.000 0.000 0.000 0.000 0.000 0.000 0.000 0.000 0.000 0.000 0.000 0.000 0.000 0.000 0.000 0.000 0.000 0.000 0.000 0.000 0.000 0.000 0.000 0.000 0.000 0.000 0.000 0.000 0.000 0.002 1.029 1.726 2.350 2.263 0.097 0.099 0.257 2.324 1.448 0.071 0.009 0.022 0.068 0.083 0.096 0.732 1.086 0.048 0.085 0.092 0.774 1.262 1.204 0.012 0.000
0.000 0.000 0.000 0.000 0.000 0.000 0.000 0.000 0.000 0.000 0.000 0.000 0.000 0.000 0.000 0.000 0.000 0.000 0.000 0.000 0.000 0.000 0.000 0.000 0.000 0.000 0.000 0.000 0.000 0.000 0.000 0.000 0.000 0.000 0.000 0.109 1.227 1.599 1.727 0.373 0.351 2.155 2.026 0.051 0.007 0.049 0.030 0.085 0.087 0.059 0.096 0.078 0.094 0.074 0.083 0.985 1.200 0.822 0.245 0.000
0.000 0.000 0.000 0.000 0.000 0.000 0.000 0.000 0.000 0.000 0.000 0.000 0.000 0.000 0.000 0.000 0.000 0.000 0.000 0.000 0.000 0.000 0.000 0.000 0.000 0.000 0.000 0.000 0.000 0.000 0.000 0.000 0.000 0.000 0.000 0.000 0.571 1.220 1.548 1.987 2.332 2.202 1.006 0.045 0.033 0.075 0.086 0.009 0.044 0.045 0.062 0.098 0.529 0.088 0.085 0.882 1.041 0.800 0.530 0.003
0.000 0.000 0.000 0.000 0.000 0.000 0.000 0.000 0.000 0.000 0.000 0.000 0.000 0.000 0.000 0.000 0.000 0.000 0.000 0.000 0.000 0.000 0.000 0.000 0.000 0.000 0.000 0.000 0.000 0.000 0.000 0.000 0.000 0.000 0.000 0.000 0.016 0.888 1.300 1.533 2.031 1.682 0.132 0.052 0.019 0.063 0.041 0.069 0.067 0.065 0.082 0.080 0.089 0.095 0.216 1.032 1.213 1.055 0.640 0.115
0.000 0.000 0.000 0.000 0.000 0.000 0.000 0.000 0.000 0.000 0.000 0.000 0.000 0.000 0.000 0.000 0.000 0.000 0.000 0.000 0.000 0.000 0.000 0.000 0.000 0.000 0.000 0.000 0.000 0.000 0.000 0.000 0.000 0.000 0.000 0.000 0.009 0.102 0.981 1.446 1.731 1.661 1.131 0.245 0.098 0.021 0.010 0.072 0.072 0.088 0.069 0.089 0.079 0.031 0.153 1.235 1.088 1.162 0.776 0.404
0.000 0.000 0.000 0.000 0.000 0.000 0.000 0.000 0.000 0.000 0.000 0.000 0.000 0.000 0.000 0.000 0.000 0.000 0.000 0.000 0.000 0.000 0.000 0.000 0.000 0.000 0.000 0.000 0.000 0.000 0.000 0.000 0.000 0.000 0.000 0.000 0.012 0.053 1.040 1.471 1.503 1.241 1.259 0.310 0.093 0.041 0.083 0.092 0.088 0.040 0.045 0.157 0.088 0.178 0.100 0.689 0.852 1.190 0.980 0.447
0.000 0.000 0.000 0.000 0.000 0.000 0.000 0.000 0.000 0.000 0.000 0.000 0.000 0.000 0.000 0.000 0.000 0.000 0.000 0.000 0.000 0.000 0.000 0.000 0.000 0.000 0.000 0.000 0.000 0.000 0.000 0.000 0.000 0.000 0.000 0.000 0.000 0.151 0.631 1.085 1.339 1.359 1.146 0.306 0.090 0.062 0.141 0.076 0.065 0.063 0.257 0.230 0.084 0.195 1.030 1.176 1.267 0.989 1.175 0.963
0.000 0.000 0.000 0.000 0.000 0.000 0.000 0.000 0.000 0.000 0.000 0.000 0.000 0.000 0.000 0.000 0.000 0.000 0.000 0.000 0.000 0.000 0.000 0.000 0.000 0.000 0.000 0.000 0.000 0.000 0.000 0.000 0.000 0.000 0.000 0.000 0.000 0.006 0.165 0.434 1.133 1.345 1.317 1.224 0.083 0.263 0.076 0.091 0.095 0.551 0.085 0.096 0.062 0.160 1.596 1.684 1.437 0.967 1.375 1.301
0.000 0.000 0.000 0.000 0.000 0.000 0.000 0.000 0.000 0.000 0.000 0.000 0.000 0.000 0.000 0.000 0.000 0.000 0.000 0.000 0.000 0.000 0.000 0.000 0.000 0.000 0.000 0.000 0.000 0.000 0.000 0.000 0.000 0.000 0.000 0.000 0.000 0.000 0.002 0.079 0.586 1.264 1.307 1.349 1.231 0.807 0.035 0.020 0.034 0.076 0.089 0.083 0.081 0.340 1.612 1.860 1.136 1.065 1.468 1.388
0.000 0.000 0.000 0.000 0.000 0.000 0.000 0.000 0.000 0.000 0.000 0.000 0.000 0.000 0.000 0.000 0.000 0.000 0.000 0.000 0.000 0.000 0.000 0.000 0.000 0.000 0.000 0.000 0.000 0.000 0.000 0.000 0.000 0.000 0.000 0.000 0.000 0.000 0.000 0.000 0.087 1.038 1.378 1.345 1.063 0.090 0.086 0.068 0.067 0.076 0.078 0.022 0.040 0.238 1.628 1.069 0.262 0.439 1.165 1.460
0.000 0.000 0.000 0.000 0.000 0.000 0.000 0.000 0.000 0.000 0.000 0.000 0.000 0.000 0.000 0.000 0.000 0.000 0.000 0.000 0.000 0.000 0.000 0.000 0.000 0.000 0.000 0.000 0.000 0.000 0.000 0.000 0.000 0.000 0.000 0.000 0.000 0.000 0.000 0.000 0.003 0.612 1.260 1.306 1.000 0.044 0.023 0.052 0.084 0.064 0.083 0.063 0.084 0.095 0.099 0.228 0.546 0.173 1.129 1.599
0.000 0.000 0.000 0.000 0.000 0.000 0.000 0.000 0.000 0.000 0.000 0.000 0.000 0.000 0.000 0.000 0.000 0.000 0.000 0.000 0.000 0.000 0.000 0.000 0.000 0.000 0.000 0.000 0.000 0.000 0.000 0.000 0.000 0.000 0.000 0.000 0.000 0.000 0.000 0.000 0.000 0.049 0.691 1.181 1.114 0.169 0.074 0.030 0.060 0.086 0.086 0.086 0.077 0.055 0.202 1.324 1.404 0.972 1.334 1.455
0.000 0.000 0.000 0.000 0.000 0.000 0.000 0.000 0.000 0.000 0.000 0.000 0.000 0.000 0.000 0.000 0.000 0.000 0.000 0.000 0.000 0.000 0.000 0.000 0.000 0.000 0.000 0.000 0.000 0.000 0.000 0.000 0.000 0.000 0.000 0.000 0.000 0.000 0.000 0.000 0.000 0.000 0.094 0.957 1.004 0.834 0.061 0.062 0.079 0.043 0.088 0.087 0.088 0.194 0.131 1.740 1.528 0.745 0.768 0.801
0.000 0.000 0.000 0.000 0.000 0.000 0.000 0.000 0.000 0.000 0.000 0.000 0.000 0.000 0.000 0.000 0.000 0.000 0.000 0.000 0.000 0.000 0.000 0.000 0.000 0.000 0.000 0.000 0.000 0.000 0.000 0.000 0.000 0.000 0.000 0.000 0.000 0.000 0.000 0.000 0.000 0.000 0.016 0.831 1.014 0.756 0.271 0.091 0.110 0.096 0.046 0.026 0.097 0.122 1.151 1.425 1.306 0.741 0.253 0.802
0.000 0.000 0.000 0.000 0.000 0.000 0.000 0.000 0.000 0.000 0.000 0.000 0.000 0.000 0.000 0.000 0.000 0.000 0.000 0.000 0.000 0.000 0.000 0.000 0.000 0.000 0.000 0.000 0.000 0.000 0.000 0.000 0.000 0.000 0.000 0.000 0.000 0.000 0.000 0.000 0.000 0.000 0.002 0.327 1.007 1.031 1.209 0.272 1.156 0.068 0.055 0.080 0.093 0.073 0.247 1.148 1.234 0.091 0.249 0.211
0.000 0.000 0.000 0.000 0.000 0.000 0.000 0.000 0.000 0.000 0.000 0.000 0.000 0.000 0.000 0.000 0.000 0.000 0.000 0.000 0.000 0.000 0.000 0.000 0.000 0.000 0.000 0.000 0.000 0.000 0.000 0.000 0.000 0.000 0.000 0.000 0.000 0.000 0.000 0.000 0.000 0.000 0.001 0.099 0.943 1.337 1.191 1.378 1.329 0.679 0.048 0.086 0.095 0.041 0.361 0.902 0.090 0.081 0.087 0.088
0.000 0.000 0.000 0.000 0.000 0.000 0.000 0.000 0.000 0.000 0.000 0.000 0.000 0.000 0.000 0.000 0.000 0.000 0.000 0.000 0.000 0.000 0.000 0.000 0.000 0.000 0.000 0.000 0.000 0.000 0.000 0.000 0.000 0.000 0.000 0.000 0.000 0.000 0.000 0.000 0.000 0.000 0.000 0.220 0.561 1.069 0.921 1.357 0.104 0.099 0.028 0.014 0.065 0.077 0.375 0.157 0.134 0.073 0.081 0.083
0.000 0.000 0.000 0.000 0.000 0.000 0.000 0.000 0.000 0.000 0.000 0.000 0.000 0.000 0.000 0.000 0.000 0.000 0.000 0.000 0.000 0.000 0.000 0.000 0.000 0.000 0.000 0.000 0.000 0.000 0.000 0.000 0.000 0.000 0.000 0.000 0.000 0.000 0.000 0.000 0.000 0.000 0.000 0.001 0.367 0.094 1.207 1.031 0.065 0.070 0.089 0.040 0.073 0.069 0.695 0.100 0.568 0.065 0.054 0.052
0.000 0.000 0.000 0.000 0.000 0.000 0.000 0.000 0.000 0.000 0.000 0.000 0.000 0.000 0.000 0.000 0.000 0.000 0.000 0.000 0.000 0.000 0.000 0.000 0.000 0.000 0.000 0.000 0.000 0.000 0.000 0.000 0.000 0.000 0.000 0.000 0.000 0.000 0.000 0.000 0.000 0.000 0.000 0.001 0.045 0.589 1.198 1.027 0.086 0.083 0.027 0.053 0.101 0.074 0.531 0.861 1.198 0.055 0.069 0.075
0.000 0.000 0.000 0.000 0.000 0.000 0.000 0.000 0.000 0.000 0.000 0.000 0.000 0.000 0.000 0.000 0.000 0.000 0.000 0.000 0.000 0.000 0.000 0.000 0.000 0.000 0.000 0.000 0.000 0.000 0.000 0.000 0.000 0.000 0.000 0.000 0.000 0.000 0.000 0.000 0.000 0.000 0.000 0.000 0.028 0.648 0.958 0.977 0.087 0.060 0.284 0.316 0.254 0.329 1.463 1.203 0.037 0.306 0.072 0.038
0.000 0.000 0.000 0.000 0.000 0.000 0.000 0.000 0.000 0.000 0.000 0.000 0.000 0.000 0.000 0.000 0.000 0.000 0.000 0.000 0.000 0.000 0.000 0.000 0.000 0.000 0.000 0.000 0.000 0.000 0.000 0.000 0.000 0.000 0.000 0.000 0.000 0.000 0.000 0.000 0.000 0.000 0.000 0.000 0.001 0.442 0.359 0.893 0.092 0.229 2.424 2.213 2.173 2.502 1.805 0.090 0.094 0.069 0.065 0.058
0.000 0.000 0.000 0.000 0.000 0.000 0.000 0.000 0.000 0.000 0.000 0.000 0.000 0.000 0.000 0.000 0.000 0.000 0.000 0.000 0.000 0.000 0.000 0.000 0.000 0.000 0.000 0.000 0.000 0.000 0.000 0.000 0.000 0.000 0.000 0.000 0.000 0.000 0.000 0.000 0.000 0.000 0.000 0.000 0.000 0.060 0.482 0.098 0.088 1.211 2.303 3.145 2.770 2.726 1.319 0.318 0.076 0.097 0.057 0.051
0.000 0.000 0.000 0.000 0.000 0.000 0.000 0.000 0.000 0.000 0.000 0.000 0.000 0.000 0.000 0.000 0.000 0.000 0.000 0.000 0.000 0.000 0.000 0.000 0.000 0.000 0.000 0.000 0.000 0.000 0.000 0.000 0.000 0.000 0.000 0.000 0.000 0.000 0.000 0.000 0.000 0.000 0.000 0.000 0.000 0.001 0.323 0.106 0.098 1.568 1.946 2.582 2.294 1.760 1.283 0.366 0.335 0.090 0.066 0.053
0.000 0.000 0.000 0.000 0.000 0.000 0.000 0.000 0.000 0.000 0.000 0.000 0.000 0.000 0.000 0.000 0.000 0.000 0.000 0.000 0.000 0.000 0.000 0.000 0.000 0.000 0.000 0.000 0.000 0.000 0.000 0.000 0.000 0.000 0.000 0.000 0.000 0.000 0.000 0.000 0.000 0.000 0.000 0.000 0.000 0.000 0.032 0.087 1.274 1.455 1.485 2.020 1.489 1.535 2.029 1.536 1.117 0.138 0.062 0.078
0.000 0.000 0.000 0.000 0.000 0.000 0.000 0.000 0.000 0.000 0.000 0.000 0.000 0.000 0.000 0.000 0.000 0.000 0.000 0.000 0.000 0.000 0.000 0.000 0.000 0.000 0.000 0.000 0.000 0.000 0.000 0.000 0.000 0.000 0.000 0.000 0.000 0.000 0.000 0.000 0.000 0.000 0.000 0.000 0.000 0.000 0.083 0.961 1.338 1.326 1.301 1.385 0.587 1.011 2.169 2.197 1.897 0.336 0.309 0.095
0.000 0.000 0.000 0.000 0.000 0.000 0.000 0.000 0.000 0.000 0.000 0.000 0.000 0.000 0.000 0.000 0.000 0.000 0.000 0.000 0.000 0.000 0.000 0.000 0.000 0.000 0.000 0.000 0.000 0.000 0.000 0.000 0.000 0.000 0.000 0.000 0.000 0.000 0.000 0.000 0.000 0.000 0.000 0.000 0.000 0.000 0.197 0.885 1.130 1.119 1.144 1.262 0.272 0.305 1.246 1.509 1.633 1.192 0.316 0.085
0.000 0.000 0.000 0.000 0.000 0.000 0.000 0.000 0.000 0.000 0.000 0.000 0.000 0.000 0.000 0.000 0.000 0.000 0.000 0.000 0.000 0.000 0.000 0.000 0.000 0.000 0.000 0.000 0.000 0.000 0.000 0.000 0.000 0.000 0.000 0.000 0.000 0.000 0.000 0.000 0.000 0.000 0.000 0.000 0.000 0.000 0.001 0.089 0.528 0.968 1.088 1.203 0.229 0.099 0.580 0.974 1.135 1.019 0.328 0.173
0.000 0.000 0.000 0.000 0.000 0.000 0.000 0.000 0.000 0.000 0.000 0.000 0.000 0.000 0.000 0.000 0.000 0.000 0.000 0.000 0.000 0.000 0.000 0.000 0.000 0.000 0.000 0.000 0.000 0.000 0.000 0.000 0.000 0.000 0.000 0.000 0.000 0.000 0.000 0.000 0.000 0.000 0.000 0.000 0.000 0.000 0.000 0.001 0.046 0.786 0.936 0.868 0.083 0.907 1.048 1.125 0.677 0.368 1.039 0.733
0.000 0.000 0.000 0.000 0.000 0.000 0.000 0.000 0.000 0.000 0.000 0.000 0.000 0.000 0.000 0.000 0.000 0.000 0.000 0.000 0.000 0.000 0.000 0.000 0.000 0.000 0.000 0.000 0.000 0.000 0.000 0.000 0.000 0.000 0.000 0.000 0.000 0.000 0.000 0.000 0.000 0.000 0.000 0.000 0.000 0.000 0.000 0.000 0.001 0.204 0.649 0.097 1.137 1.982 1.670 0.770 0.518 0.070 1.086 0.655
