ncols        41
nrows        41
xllcorner    409867.8
yllcorner    6870424.1
cellsize     5.00
NODATA_value -9999
0.000 0.000 0.000 0.000 0.000 0.000 0.000 0.000 0.000 0.000 0.000 0.000 0.000 0.000 0.000 0.000 0.000 0.000 0.000 0.000 0.000 0.000 0.000 0.000 0.000 0.000 0.000 0.000 0.000 0.000 0.000 0.000 0.000 0.000 0.000 0.000 0.000 0.000 0.000 0.000 0.000
0.000 0.000 0.000 0.000 0.000 0.000 0.000 0.000 0.000 0.000 0.000 0.000 0.000 0.000 0.000 0.000 0.000 0.000 0.000 0.000 0.000 0.000 0.000 0.000 0.000 0.000 0.000 0.287 2.781 8.693 14.209 15.276 15.280 16.983 12.865 10.190 8.227 3.465 0.431 0.062 0.007
0.000 0.000 0.000 0.000 0.000 0.000 0.000 0.000 0.000 0.000 0.000 0.000 0.000 0.000 0.000 0.000 0.000 0.000 0.000 0.000 0.000 0.000 0.000 0.000 0.000 0.001 1.022 8.447 13.922 14.762 15.512 16.326 16.835 18.766 16.335 16.230 16.875 17.226 9.902 5.045 1.941
0.000 0.000 0.000 0.000 0.000 0.000 0.000 0.000 0.000 0.000 0.000 0.000 0.000 0.000 0.000 0.000 0.000 0.000 0.000 0.000 0.000 0.000 0.000 0.000 0.000 0.919 12.082 13.260 14.583 15.757 16.833 18.071 18.025 20.298 18.182 18.759 18.517 20.708 17.194 12.573 9.470
0.000 0.000 0.000 0.000 0.000 0.000 0.000 0.000 0.000 0.000 0.000 0.000 0.000 0.000 0.000 0.000 0.000 0.000 0.000 0.000 0.000 0.000 0.000 0.000 0.120 7.849 12.961 13.458 14.710 16.677 17.506 19.018 19.665 20.151 20.137 19.713 19.204 23.181 18.450 15.682 10.816
0.000 0.000 0.000 0.000 0.000 0.000 0.000 0.000 0.000 0.000 0.000 0.000 0.000 0.000 0.000 0.000 0.000 0.000 0.000 0.000 0.000 0.000 0.000 0.000 1.986 12.454 12.632 13.984 15.593 17.484 18.191 20.008 19.619 19.128 20.130 19.586 23.031 23.042 18.841 17.201 10.860
0.000 0.000 0.000 0.000 0.000 0.000 0.000 0.000 0.000 0.000 0.000 0.000 0.000 0.000 0.000 0.000 0.000 0.000 0.000 0.000 0.000 0.000 0.000 0.027 7.259 12.385 13.432 15.691 16.298 17.650 19.823 20.224 20.048 19.726 19.508 20.213 25.312 21.538 20.678 17.747 11.372
0.000 0.000 0.000 0.000 0.000 0.000 0.000 0.000 0.000 0.000 0.000 0.000 0.000 0.000 0.000 0.000 0.000 0.000 0.000 0.029 0.417 1.270 1.119 1.304 11.634 12.670 14.701 16.244 16.189 17.855 19.408 19.520 19.767 19.877 19.838 23.154 25.355 21.806 22.115 17.311 12.020
0.000 0.000 0.000 0.000 0.000 0.000 0.000 0.000 0.000 0.000 0.000 0.000 0.000 0.000 0.000 0.000 0.000 0.043 1.487 8.029 11.919 11.611 11.082 10.151 11.177 12.534 14.629 15.416 17.238 19.250 19.102 20.306 20.516 20.154 21.448 25.183 25.305 23.837 21.191 17.468 10.629
0.000 0.000 0.000 0.000 0.000 0.000 0.000 0.000 0.000 0.000 0.000 0.000 0.000 0.000 0.000 0.000 0.113 3.431 12.672 12.744 13.186 12.588 11.628 10.500 11.153 13.230 15.132 16.978 17.974 20.094 20.782 20.838 20.075 18.251 21.682 24.879 24.394 22.466 19.742 16.948 8.627
0.000 0.000 0.000 0.000 0.000 0.000 0.000 0.000 0.000 0.000 0.000 0.000 0.000 0.000 0.000 0.007 2.241 13.060 13.618 14.032 14.553 13.727 12.457 11.239 12.026 13.816 15.683 17.303 18.185 19.281 21.318 19.621 20.082 18.767 23.297 25.375 22.307 19.101 17.846 10.355 7.741
0.000 0.000 0.000 0.000 0.000 0.000 0.000 0.000 0.000 0.000 0.000 0.000 0.000 0.000 0.000 0.710 13.205 14.015 14.612 15.169 15.498 14.359 13.198 12.728 13.370 14.452 15.635 17.333 18.905 20.664 23.760 20.685 20.832 22.586 25.161 22.459 19.412 17.396 10.764 8.343 6.592
0.000 0.000 0.000 0.000 0.000 0.000 0.000 0.000 0.000 0.000 0.000 0.000 0.000 0.000 0.023 4.213 14.331 15.059 15.652 16.242 16.067 16.289 14.115 14.153 14.116 14.766 16.156 18.503 20.075 24.506 21.941 18.475 19.767 22.466 21.790 18.420 15.310 10.830 7.623 7.074 5.671
0.000 0.000 0.000 0.000 0.000 0.000 0.000 0.000 0.000 0.000 0.000 0.008 0.795 4.899 2.005 14.463 14.880 16.112 16.901 17.550 16.750 15.841 15.509 14.687 14.554 14.877 15.989 18.096 23.574 22.805 18.581 18.234 17.671 20.294 18.310 12.001 9.642 7.349 6.164 5.652 4.757
0.000 0.000 0.000 0.000 0.000 0.000 0.000 0.000 0.000 0.000 0.010 1.419 15.340 15.842 16.027 15.270 16.152 17.289 18.128 18.138 18.113 16.651 15.223 15.049 14.324 14.473 14.942 19.469 21.307 18.380 17.477 16.580 17.596 18.974 13.044 9.909 6.262 5.517 4.945 4.356 3.714
0.000 0.000 0.000 0.000 0.000 0.000 0.000 0.000 0.000 0.001 0.571 15.426 16.547 17.531 16.862 17.226 17.352 18.574 19.330 19.435 18.395 17.542 16.068 15.012 14.143 14.802 17.379 18.133 15.005 16.085 17.754 18.839 16.322 15.314 11.472 7.716 4.982 3.868 3.643 2.549 0.000
0.000 0.000 0.000 0.000 0.000 0.000 0.000 0.000 0.083 4.016 12.041 16.207 18.175 18.950 18.537 19.034 18.805 19.768 20.019 19.098 18.564 17.438 16.821 15.104 14.199 16.044 15.536 12.977 12.357 14.724 17.758 18.348 11.872 9.543 9.603 5.176 3.131 0.000 0.000 0.000 0.000
0.000 0.000 0.000 0.000 0.000 0.000 0.000 0.000 0.879 16.225 16.307 18.213 21.555 21.386 19.509 20.387 20.416 21.824 20.650 19.807 18.708 17.824 16.972 14.930 16.546 14.341 11.061 10.113 11.372 14.340 16.482 15.059 8.392 8.528 6.133 3.587 3.147 0.000 0.000 0.000 0.000
0.000 0.000 0.000 0.000 0.000 0.000 0.000 0.079 8.334 18.048 18.338 20.032 21.931 20.746 20.101 20.661 19.508 20.563 20.165 21.191 20.157 18.535 17.497 18.534 16.508 10.538 8.394 9.585 11.026 12.954 17.664 11.991 7.552 6.344 5.062 3.387 0.000 0.000 0.000 0.000 0.000
0.000 0.000 0.000 0.000 0.000 0.000 0.002 0.629 16.141 19.181 18.255 19.116 21.226 20.688 18.442 19.592 17.900 19.416 21.031 19.327 17.697 15.746 18.374 18.439 13.027 10.374 8.771 8.891 9.530 11.693 14.415 8.910 6.459 5.030 4.273 0.000 0.000 0.000 0.000 0.000 0.000
0.000 0.000 0.000 0.000 0.000 0.002 0.561 9.649 15.608 18.785 16.432 17.164 19.878 18.698 16.031 16.344 17.198 19.432 19.073 17.243 15.975 17.689 18.930 15.158 13.297 10.005 8.094 8.026 9.105 10.955 11.523 6.819 5.568 4.026 3.506 0.000 0.000 0.000 0.000 0.000 0.000
0.000 0.000 0.000 0.000 0.001 0.457 10.306 13.508 16.168 18.231 17.689 18.726 17.442 16.640 15.951 15.037 15.809 17.088 16.391 16.930 18.767 16.958 15.008 13.989 10.967 8.777 7.302 8.069 8.484 9.785 10.958 5.606 3.917 3.336 0.000 0.000 0.000 0.000 0.000 0.000 0.000
0.000 0.000 0.000 0.006 0.656 8.677 13.408 14.887 16.714 16.915 15.668 16.203 16.400 16.198 13.570 12.053 13.336 15.342 15.153 16.210 14.218 12.770 11.338 11.030 10.157 9.539 8.247 8.543 8.624 9.437 6.053 3.706 3.393 0.000 0.000 0.000 0.000 0.000 0.000 0.000 0.000
0.000 0.000 0.019 1.853 11.978 13.147 13.853 14.093 14.992 17.123 16.783 15.534 15.665 15.186 13.584 12.096 13.123 14.471 13.293 11.391 10.643 10.199 8.319 9.569 9.626 8.498 8.638 7.309 7.568 6.902 3.637 3.325 0.000 0.000 0.000 0.000 0.000 0.000 0.000 0.000 0.000
0.000 0.001 0.537 12.307 12.964 13.336 13.501 13.974 14.325 15.740 15.536 15.138 13.898 13.801 12.369 11.450 12.533 12.738 10.358 9.322 8.476 8.806 9.647 9.196 7.473 7.874 7.707 5.410 8.418 4.108 3.279 0.000 0.000 0.000 0.000 0.000 0.000 0.000 0.000 0.000 0.000
0.000 0.050 8.821 12.266 13.003 13.505 13.207 13.549 14.185 15.240 14.649 14.700 13.163 11.949 11.060 10.373 11.170 11.853 10.455 9.557 8.500 8.280 9.277 7.864 5.313 6.534 7.018 4.517 4.471 3.019 0.000 0.000 0.000 0.000 0.000 0.000 0.000 0.000 0.000 0.000 0.000
0.037 2.186 11.949 13.044 13.862 13.891 13.985 14.367 14.395 14.356 12.949 12.723 11.816 11.379 10.541 11.102 12.006 12.816 11.336 9.607 8.070 7.111 7.538 5.763 4.340 6.139 6.180 5.298 3.128 0.000 0.000 0.000 0.000 0.000 0.000 0.000 0.000 0.000 0.000 0.000 0.000
0.648 11.822 12.298 13.528 13.786 14.604 13.896 13.840 12.222 12.196 11.728 11.552 11.478 12.444 12.770 12.979 13.768 14.402 12.810 10.391 7.592 7.307 7.153 7.880 5.839 6.730 5.356 3.418 0.000 0.000 0.000 0.000 0.000 0.000 0.000 0.000 0.000 0.000 0.000 0.000 0.000
1.851 12.666 13.536 13.622 14.863 13.469 13.166 12.923 11.806 11.155 11.206 12.211 12.609 13.624 14.134 14.960 15.762 15.720 13.134 12.909 10.086 7.663 5.763 4.942 6.491 4.076 3.380 0.000 0.000 0.000 0.000 0.000 0.000 0.000 0.000 0.000 0.000 0.000 0.000 0.000 0.000
3.713 12.757 13.656 14.519 14.044 13.272 12.375 11.846 10.432 11.916 12.479 13.235 13.485 14.051 15.379 16.119 16.693 16.889 13.571 12.957 8.732 6.065 4.534 3.590 2.732 0.000 0.000 0.000 0.000 0.000 0.000 0.000 0.000 0.000 0.000 0.000 0.000 0.000 0.000 0.000 0.000
5.716 13.384 14.795 14.130 14.408 13.486 12.718 12.603 12.045 12.768 13.184 14.518 15.502 16.344 16.702 17.388 17.430 16.197 15.906 8.850 7.326 5.078 4.274 0.000 0.000 0.000 0.000 0.000 0.000 0.000 0.000 0.000 0.000 0.000 0.000 0.000 0.000 0.000 0.000 0.000 0.000
5.787 13.177 13.864 15.070 14.128 14.048 13.742 14.170 13.046 13.943 14.213 14.835 16.141 17.902 19.747 18.267 17.991 16.967 13.343 8.070 6.858 4.417 0.000 0.000 0.000 0.000 0.000 0.000 0.000 0.000 0.000 0.000 0.000 0.000 0.000 0.000 0.000 0.000 0.000 0.000 0.000
5.451 12.851 15.457 14.450 13.983 13.842 14.628 15.236 14.674 14.521 15.627 16.348 16.778 16.910 18.679 19.080 17.724 12.024 9.508 7.773 6.753 0.062 0.000 0.000 0.000 0.000 0.000 0.000 0.000 0.000 0.000 0.000 0.000 0.000 0.000 0.000 0.000 0.000 0.000 0.000 0.000
3.352 11.719 13.029 15.008 14.958 15.057 14.673 14.887 14.516 16.091 15.829 17.516 18.691 18.201 18.245 17.784 13.438 8.715 8.640 7.730 6.044 0.716 0.004 0.000 0.000 0.000 0.000 0.000 0.000 0.000 0.000 0.000 0.000 0.000 0.000 0.000 0.000 0.000 0.000 0.000 0.000
4.081 9.258 13.176 15.981 15.704 15.380 15.811 15.717 15.930 16.812 17.544 18.771 18.914 19.371 18.598 15.187 9.255 8.161 8.172 6.510 5.107 1.737 0.047 0.000 0.000 0.000 0.000 0.000 0.000 0.000 0.000 0.000 0.000 0.000 0.000 0.000 0.000 0.000 0.000 0.000 0.000
4.564 7.311 9.140 16.711 14.557 15.099 16.923 16.978 17.942 17.891 18.200 19.241 19.360 20.144 13.705 10.005 8.713 7.379 5.103 4.783 2.251 0.063 0.000 0.000 0.000 0.000 0.000 0.000 0.000 0.000 0.000 0.000 0.000 0.000 0.000 0.000 0.000 0.000 0.000 0.000 0.000
3.378 6.339 7.291 14.701 14.776 16.228 16.565 17.856 18.848 18.932 20.305 19.483 17.653 11.305 8.999 7.671 6.081 4.449 5.213 0.740 0.000 0.000 0.000 0.000 0.000 0.000 0.000 0.000 0.000 0.000 0.000 0.000 0.000 0.000 0.000 0.000 0.000 0.000 0.000 0.000 0.000
2.434 5.629 6.497 8.807 14.536 16.245 17.540 12.266 16.312 19.105 19.087 20.149 9.573 7.961 6.216 4.913 4.476 0.000 0.000 0.000 0.000 0.000 0.000 0.000 0.000 0.000 0.000 0.000 0.000 0.000 0.000 0.000 0.000 0.000 0.000 0.000 0.000 0.000 0.000 0.000 0.000
0.224 3.629 4.819 5.739 7.487 13.435 9.107 8.933 12.448 18.111 19.668 11.179 7.715 5.985 5.181 4.566 0.000 0.000 0.000 0.000 0.000 0.000 0.000 0.000 0.000 0.000 0.000 0.000 0.000 0.000 0.000 0.000 0.000 0.000 0.000 0.000 0.000 0.000 0.000 0.000 0.000
0.000 0.000 3.893 4.453 5.431 7.073 6.569 7.253 8.430 11.462 15.828 8.551 5.711 5.112 4.969 0.000 0.000 0.000 0.000 0.000 0.000 0.000 0.000 0.000 0.000 0.000 0.000 0.000 0.000 0.000 0.000 0.000 0.000 0.000 0.000 0.000 0.000 0.000 0.000 0.000 0.000
0.000 0.000 0.000 0.007 4.791 5.572 5.828 6.150 7.555 8.298 8.019 6.676 5.619 5.349 0.000 0.000 0.000 0.000 0.000 0.000 0.000 0.000 0.000 0.000 0.000 0.000 0.000 0.000 0.000 0.000 0.000 0.000 0.000 0.000 0.000 0.000 0.000 0.000 0.000 0.000 0.000
