ncols        43
nrows        41
xllcorner    409867.8
yllcorner    6870414.1
cellsize     5.00
NODATA_value -9999
0.000 0.000 0.000 0.000 0.000 0.000 0.000 0.000 0.000 0.000 0.000 0.000 0.000 0.000 0.000 0.000 0.000 0.000 0.000 0.000 0.000 0.000 0.000 0.000 0.000 0.000 0.000 0.000 0.000 0.001 0.160 1.714 5.446 9.257 10.235 9.383 8.874 5.991 1.497 0.443 0.161 0.012 0.000
0.000 0.000 0.000 0.000 0.000 0.000 0.000 0.000 0.000 0.000 0.000 0.000 0.000 0.000 0.000 0.000 0.000 0.000 0.000 0.000 0.000 0.000 0.000 0.000 0.000 0.000 0.000 0.000 0.032 1.796 9.295 13.225 13.884 15.529 14.815 15.643 15.688 17.346 14.347 10.660 7.282 2.441 0.067
0.000 0.000 0.000 0.000 0.000 0.000 0.000 0.000 0.000 0.000 0.000 0.000 0.000 0.000 0.000 0.000 0.000 0.000 0.000 0.000 0.000 0.000 0.000 0.000 0.000 0.000 0.000 0.047 2.937 12.143 13.005 14.262 15.361 15.965 16.604 16.881 16.925 19.804 15.641 14.872 15.154 9.863 3.215
0.000 0.000 0.000 0.000 0.000 0.000 0.000 0.000 0.000 0.000 0.000 0.000 0.000 0.000 0.000 0.000 0.000 0.000 0.000 0.000 0.000 0.000 0.000 0.000 0.000 0.000 0.001 1.911 11.774 12.794 14.098 15.700 16.139 16.147 17.204 17.182 20.318 19.883 16.516 16.828 17.788 12.393 7.516
0.000 0.000 0.000 0.000 0.000 0.000 0.000 0.000 0.000 0.000 0.000 0.000 0.000 0.000 0.000 0.000 0.000 0.000 0.000 0.000 0.000 0.000 0.000 0.000 0.000 0.000 0.205 10.370 12.204 13.606 15.604 16.597 17.112 17.187 17.158 17.961 22.134 18.746 18.423 17.898 19.893 15.389 7.375
0.000 0.000 0.000 0.000 0.000 0.000 0.000 0.000 0.000 0.000 0.000 0.000 0.000 0.000 0.000 0.000 0.000 0.000 0.000 0.000 0.000 0.000 0.000 0.000 0.000 0.000 1.981 11.776 12.361 14.259 15.947 16.737 17.338 17.542 17.549 20.403 22.015 19.166 19.850 17.525 19.620 15.015 7.189
0.000 0.000 0.000 0.000 0.000 0.000 0.000 0.000 0.000 0.000 0.000 0.000 0.000 0.000 0.000 0.000 0.000 0.000 0.000 0.000 0.000 0.000 0.000 0.000 0.000 0.012 5.994 11.556 13.344 15.314 16.281 17.848 18.267 17.853 18.923 21.752 21.444 20.089 18.415 17.021 17.775 14.493 8.119
0.000 0.000 0.000 0.000 0.000 0.000 0.000 0.000 0.000 0.000 0.000 0.000 0.000 0.000 0.000 0.000 0.000 0.000 0.000 0.000 0.006 0.160 0.589 0.388 0.023 0.840 11.070 12.527 14.034 16.048 17.660 18.672 18.371 16.310 19.019 21.078 20.013 18.371 16.562 16.758 16.035 16.879 7.405
0.000 0.000 0.000 0.000 0.000 0.000 0.000 0.000 0.000 0.000 0.000 0.000 0.000 0.000 0.000 0.000 0.000 0.000 0.001 0.603 4.747 10.119 10.007 9.931 5.851 7.566 11.137 12.837 14.353 15.998 18.457 18.161 18.751 16.947 20.289 21.024 18.132 15.883 16.387 17.421 16.792 12.987 6.805
0.000 0.000 0.000 0.000 0.000 0.000 0.000 0.000 0.000 0.000 0.000 0.000 0.000 0.000 0.000 0.000 0.000 0.001 1.014 10.602 11.078 11.031 10.908 10.929 11.121 10.576 11.328 13.254 15.051 17.533 20.952 19.582 19.777 20.462 21.476 18.458 16.188 16.495 18.125 16.252 13.921 7.367 5.275
0.000 0.000 0.000 0.000 0.000 0.000 0.000 0.000 0.000 0.000 0.000 0.000 0.000 0.000 0.000 0.000 0.000 0.753 10.904 11.822 12.236 12.727 12.095 12.503 12.123 11.436 12.033 14.031 16.355 20.285 19.975 17.951 19.140 20.773 19.063 16.217 15.950 17.909 14.801 15.197 7.400 5.992 4.654
0.000 0.000 0.000 0.000 0.000 0.000 0.000 0.000 0.000 0.000 0.000 0.000 0.000 0.000 0.000 0.000 0.452 11.008 12.145 13.092 13.455 13.548 13.802 13.483 12.974 12.290 12.360 14.425 18.781 19.487 17.264 18.238 17.424 19.409 17.227 16.741 17.486 14.989 12.391 6.867 5.417 4.959 3.173
0.000 0.000 0.000 0.000 0.000 0.000 0.000 0.000 0.000 0.000 0.000 0.000 0.000 0.000 0.000 0.012 4.066 12.306 13.475 14.336 15.094 14.994 14.327 14.251 13.191 12.715 12.414 15.766 17.761 16.343 16.777 16.640 17.661 18.574 16.972 15.901 12.266 7.300 5.749 4.861 3.995 0.000 0.000
0.000 0.000 0.000 0.000 0.000 0.000 0.000 0.000 0.000 0.000 0.000 0.000 0.001 0.093 0.090 2.554 12.757 13.693 14.970 15.944 16.251 16.550 15.552 14.387 13.351 13.676 14.850 14.936 13.063 14.799 17.139 19.116 16.801 15.690 16.342 11.982 6.856 4.460 3.902 2.602 0.000 0.000 0.000
0.000 0.000 0.000 0.000 0.000 0.000 0.000 0.000 0.000 0.000 0.000 0.043 2.796 10.346 9.734 13.827 13.771 15.102 16.314 16.829 17.324 17.028 16.378 14.346 13.590 15.655 13.998 10.699 10.801 13.340 16.720 18.602 14.919 14.584 14.346 7.708 3.865 0.000 0.000 0.000 0.000 0.000 0.000
0.000 0.000 0.000 0.000 0.000 0.000 0.000 0.000 0.000 0.000 0.082 4.258 14.937 15.317 15.353 15.245 15.418 16.761 17.476 18.183 18.091 17.501 16.120 13.768 15.726 14.245 10.034 8.360 9.788 12.722 15.393 17.210 15.398 11.535 8.396 4.929 3.301 0.000 0.000 0.000 0.000 0.000 0.000
0.000 0.000 0.000 0.000 0.000 0.000 0.000 0.000 0.014 1.432 6.952 14.591 15.770 16.238 16.889 16.638 16.377 17.073 17.987 19.944 19.775 17.942 15.962 16.580 14.723 9.628 7.095 7.790 9.284 11.670 15.956 13.585 15.185 8.280 5.844 3.676 0.000 0.000 0.000 0.000 0.000 0.000 0.000
0.000 0.000 0.000 0.000 0.000 0.000 0.000 0.000 0.410 13.849 14.199 15.392 16.644 17.400 17.294 17.481 16.742 17.217 19.178 17.757 16.440 14.447 16.507 16.104 11.122 8.795 7.099 7.105 8.046 10.304 12.881 12.112 12.784 6.145 4.681 0.000 0.000 0.000 0.000 0.000 0.000 0.000 0.000
0.000 0.000 0.000 0.000 0.000 0.000 0.000 0.033 9.260 14.489 14.164 15.301 17.292 17.112 15.827 16.172 17.097 17.949 17.737 15.618 14.388 16.059 17.110 13.505 11.492 8.219 6.205 6.611 7.705 9.468 10.741 11.136 7.488 4.535 3.697 0.000 0.000 0.000 0.000 0.000 0.000 0.000 0.000
0.000 0.000 0.000 0.000 0.000 0.000 0.023 1.114 12.987 15.252 15.776 17.132 16.473 15.841 16.226 15.869 15.888 16.215 15.553 15.808 16.817 15.622 14.308 13.518 10.183 7.690 5.802 7.032 6.948 8.372 10.519 10.100 4.753 3.550 0.000 0.000 0.000 0.000 0.000 0.000 0.000 0.000 0.000
0.000 0.000 0.000 0.000 0.000 0.003 0.695 11.598 13.926 15.256 14.742 15.530 16.211 15.863 13.260 11.721 12.725 14.606 15.419 16.645 13.853 12.537 11.420 11.735 10.245 8.947 7.399 7.605 6.813 7.869 8.162 5.952 3.638 0.000 0.000 0.000 0.000 0.000 0.000 0.000 0.000 0.000 0.000
0.000 0.000 0.000 0.000 0.001 0.330 8.053 11.845 13.525 15.958 16.182 15.096 15.590 15.218 12.990 11.162 12.113 13.801 14.963 12.884 11.528 10.409 7.674 9.281 10.082 8.156 7.817 6.564 6.410 6.815 6.258 3.583 0.000 0.000 0.000 0.000 0.000 0.000 0.000 0.000 0.000 0.000 0.000
0.000 0.000 0.000 0.019 0.958 6.444 10.624 11.786 13.079 14.707 14.870 14.397 13.227 13.686 11.224 9.823 10.946 11.577 10.197 8.784 8.366 8.300 8.599 8.112 7.300 6.920 6.693 4.613 8.241 5.692 3.500 0.000 0.000 0.000 0.000 0.000 0.000 0.000 0.000 0.000 0.000 0.000 0.000
0.000 0.000 0.008 1.520 9.665 10.062 10.287 11.137 12.426 13.771 13.276 13.181 11.442 10.384 8.874 7.826 8.705 9.190 8.011 6.935 6.800 6.706 7.480 6.490 4.526 5.236 5.766 3.546 7.092 3.229 0.000 0.000 0.000 0.000 0.000 0.000 0.000 0.000 0.000 0.000 0.000 0.000 0.000
0.000 0.001 0.454 9.571 10.250 10.554 10.707 11.306 11.718 12.042 10.763 10.608 9.270 8.722 7.501 7.654 8.463 8.818 7.551 6.510 5.652 5.407 5.939 5.184 3.361 4.979 5.229 4.697 3.332 0.000 0.000 0.000 0.000 0.000 0.000 0.000 0.000 0.000 0.000 0.000 0.000 0.000 0.000
0.000 0.026 8.904 9.938 10.645 11.131 10.610 10.757 9.719 9.700 9.354 9.179 8.498 9.011 8.905 8.834 9.424 9.878 8.483 7.934 6.157 5.947 6.236 8.166 4.876 6.391 6.729 3.593 0.000 0.000 0.000 0.000 0.000 0.000 0.000 0.000 0.000 0.000 0.000 0.000 0.000 0.000 0.000
0.061 4.300 9.667 10.156 11.357 10.522 10.206 10.221 9.530 8.953 8.829 9.539 9.287 9.735 9.911 10.307 10.899 11.530 10.022 11.389 9.893 8.056 8.286 8.498 5.675 5.144 3.504 0.000 0.000 0.000 0.000 0.000 0.000 0.000 0.000 0.000 0.000 0.000 0.000 0.000 0.000 0.000 0.000
0.507 9.660 9.937 10.619 10.809 10.572 9.735 9.338 8.585 9.756 9.806 10.276 10.252 10.587 11.467 11.938 12.422 13.473 12.702 14.440 13.614 11.303 5.694 4.148 3.073 0.000 0.000 0.000 0.000 0.000 0.000 0.000 0.000 0.000 0.000 0.000 0.000 0.000 0.000 0.000 0.000 0.000 0.000
1.444 10.226 10.620 10.527 10.966 10.916 10.143 9.957 9.838 10.167 9.971 11.064 12.011 12.866 13.325 13.832 14.254 14.820 16.789 15.949 12.973 5.946 4.622 0.000 0.000 0.000 0.000 0.000 0.000 0.000 0.000 0.000 0.000 0.000 0.000 0.000 0.000 0.000 0.000 0.000 0.000 0.000 0.000
2.419 10.440 10.574 11.274 10.879 11.407 11.028 10.940 9.688 10.503 10.642 11.376 12.753 14.554 16.052 15.522 16.213 17.468 16.948 13.620 7.767 4.790 0.000 0.000 0.000 0.000 0.000 0.000 0.000 0.000 0.000 0.000 0.000 0.000 0.000 0.000 0.000 0.000 0.000 0.000 0.000 0.000 0.000
3.388 10.669 11.963 11.450 11.257 11.273 11.697 11.444 10.139 10.703 11.683 12.748 13.670 14.028 15.713 17.177 17.977 17.182 14.908 8.777 7.244 0.030 0.000 0.000 0.000 0.000 0.000 0.000 0.000 0.000 0.000 0.000 0.000 0.000 0.000 0.000 0.000 0.000 0.000 0.000 0.000 0.000 0.000
1.617 10.635 11.356 12.468 12.512 12.188 11.599 11.276 10.290 11.908 12.228 13.707 15.156 15.199 15.847 17.409 17.933 15.582 13.517 8.589 6.412 0.416 0.001 0.000 0.000 0.000 0.000 0.000 0.000 0.000 0.000 0.000 0.000 0.000 0.000 0.000 0.000 0.000 0.000 0.000 0.000 0.000 0.000
2.544 10.544 12.875 13.594 13.333 12.220 12.283 12.499 12.091 12.798 13.798 14.574 15.305 16.144 17.052 18.005 16.530 10.849 10.172 7.297 5.395 1.344 0.015 0.000 0.000 0.000 0.000 0.000 0.000 0.000 0.000 0.000 0.000 0.000 0.000 0.000 0.000 0.000 0.000 0.000 0.000 0.000 0.000
4.116 10.526 13.467 14.262 12.566 12.023 12.928 14.080 14.039 14.039 14.461 15.130 16.221 17.599 19.446 18.983 11.694 8.691 6.111 5.331 1.869 0.022 0.000 0.000 0.000 0.000 0.000 0.000 0.000 0.000 0.000 0.000 0.000 0.000 0.000 0.000 0.000 0.000 0.000 0.000 0.000 0.000 0.000
2.774 7.782 12.347 13.706 12.957 12.938 13.422 15.552 15.607 15.295 15.860 16.129 17.486 17.845 17.619 13.110 7.217 5.102 5.691 0.575 0.000 0.000 0.000 0.000 0.000 0.000 0.000 0.000 0.000 0.000 0.000 0.000 0.000 0.000 0.000 0.000 0.000 0.000 0.000 0.000 0.000 0.000 0.000
2.033 6.409 8.240 13.811 13.511 13.570 15.214 13.916 15.679 16.161 15.794 18.216 18.003 15.957 11.573 6.145 4.899 0.000 0.000 0.000 0.000 0.000 0.000 0.000 0.000 0.000 0.000 0.000 0.000 0.000 0.000 0.000 0.000 0.000 0.000 0.000 0.000 0.000 0.000 0.000 0.000 0.000 0.000
0.129 3.590 5.546 10.574 11.842 13.649 14.443 17.112 17.249 16.997 17.216 17.414 16.154 8.197 6.003 4.926 0.000 0.000 0.000 0.000 0.000 0.000 0.000 0.000 0.000 0.000 0.000 0.000 0.000 0.000 0.000 0.000 0.000 0.000 0.000 0.000 0.000 0.000 0.000 0.000 0.000 0.000 0.000
0.000 0.000 4.111 5.145 9.590 12.773 12.642 11.866 15.239 18.788 17.141 16.305 7.512 5.728 5.400 0.000 0.000 0.000 0.000 0.000 0.000 0.000 0.000 0.000 0.000 0.000 0.000 0.000 0.000 0.000 0.000 0.000 0.000 0.000 0.000 0.000 0.000 0.000 0.000 0.000 0.000 0.000 0.000
0.000 0.000 0.000 0.004 5.488 6.907 7.007 7.404 10.024 18.381 17.253 9.101 6.226 5.849 0.000 0.000 0.000 0.000 0.000 0.000 0.000 0.000 0.000 0.000 0.000 0.000 0.000 0.000 0.000 0.000 0.000 0.000 0.000 0.000 0.000 0.000 0.000 0.000 0.000 0.000 0.000 0.000 0.000
0.000 0.000 0.000 0.052 3.551 5.904 6.011 6.455 6.931 10.393 10.755 6.487 5.691 0.000 0.000 0.000 0.000 0.000 0.000 0.000 0.000 0.000 0.000 0.000 0.000 0.000 0.000 0.000 0.000 0.000 0.000 0.000 0.000 0.000 0.000 0.000 0.000 0.000 0.000 0.000 0.000 0.000 0.000
0.000 0.000 0.000 0.000 0.000 0.000 0.000 3.864 5.013 6.570 6.211 5.950 0.000 0.000 0.000 0.000 0.000 0.000 0.000 0.000 0.000 0.000 0.000 0.000 0.000 0.000 0.000 0.000 0.000 0.000 0.000 0.000 0.000 0.000 0.000 0.000 0.000 0.000 0.000 0.000 0.000 0.000 0.000
