ncols        46
nrows        119
xllcorner    409582.8
yllcorner    6870854.1
cellsize     5.00
NODATA_value -9999
0.000 0.000 0.000 0.000 0.000 0.000 0.000 0.000 0.000 0.000 0.000 0.000 0.000 0.000 0.000 0.000 0.000 0.000 0.000 0.000 0.000 0.000 0.000 0.000 0.000 0.000 0.000 0.000 0.000 0.000 0.000 0.000 0.000 0.000 0.000 0.000 0.000 0.000 0.000 0.000 0.000 0.000 0.000 0.000 0.000 0.000
0.000 0.000 0.232 4.069 14.694 18.990 19.067 15.387 5.066 0.133 0.000 0.000 0.000 0.000 0.000 0.000 0.000 0.000 0.000 0.000 0.000 0.000 0.000 0.000 0.000 0.000 0.000 0.000 0.000 0.000 0.000 0.000 0.000 0.000 0.000 0.000 0.000 0.000 0.000 0.000 0.000 0.000 0.000 0.000 0.000 0.000
0.000 0.970 9.612 19.352 19.150 19.992 19.931 18.493 19.974 8.805 0.015 0.000 0.000 0.000 0.000 0.000 0.000 0.000 0.000 0.000 0.000 0.000 0.000 0.000 0.000 0.000 0.000 0.000 0.000 0.000 0.000 0.000 0.000 0.000 0.000 0.000 0.000 0.000 0.000 0.000 0.000 0.000 0.000 0.000 0.000 0.000
0.656 9.532 19.376 19.707 20.327 21.588 22.158 21.013 18.628 19.176 4.150 0.000 0.000 0.000 0.000 0.000 0.000 0.000 0.000 0.000 0.000 0.000 0.000 0.000 0.000 0.000 0.000 0.000 0.000 0.000 0.000 0.000 0.000 0.000 0.000 0.000 0.000 0.000 0.000 0.000 0.000 0.000 0.000 0.000 0.000 0.000
4.003 18.496 19.784 20.878 20.694 22.128 22.573 20.809 19.588 21.481 16.115 0.549 0.000 0.000 0.000 0.000 0.000 0.000 0.000 0.000 0.000 0.000 0.000 0.000 0.000 0.000 0.000 0.000 0.000 0.000 0.000 0.000 0.000 0.000 0.000 0.000 0.000 0.000 0.000 0.000 0.000 0.000 0.000 0.000 0.000 0.000
10.273 17.691 21.089 20.545 21.129 22.866 23.438 21.753 23.980 23.286 17.994 8.282 0.000 0.000 0.000 0.000 0.000 0.000 0.000 0.000 0.000 0.000 0.000 0.000 0.000 0.000 0.000 0.000 0.000 0.000 0.000 0.000 0.000 0.000 0.000 0.000 0.000 0.000 0.000 0.000 0.000 0.000 0.000 0.000 0.000 0.000
15.755 18.975 22.433 22.558 22.017 23.461 22.724 22.141 25.178 22.132 18.497 15.593 0.354 0.000 0.000 0.000 0.000 0.000 0.000 0.000 0.000 0.000 0.000 0.000 0.000 0.000 0.000 0.000 0.000 0.000 0.000 0.000 0.000 0.000 0.000 0.000 0.000 0.000 0.000 0.000 0.000 0.000 0.000 0.000 0.000 0.000
16.237 19.959 21.231 22.832 23.293 22.631 22.396 22.838 23.765 22.054 20.181 19.509 6.070 0.000 0.000 0.000 0.000 0.000 0.000 0.000 0.000 0.000 0.000 0.000 0.000 0.000 0.000 0.000 0.000 0.000 0.000 0.000 0.000 0.000 0.000 0.000 0.000 0.000 0.000 0.000 0.000 0.000 0.000 0.000 0.000 0.000
11.756 19.374 21.125 23.091 22.924 21.220 21.869 22.826 24.240 23.990 24.206 19.563 12.159 0.001 0.000 0.000 0.000 0.000 0.000 0.000 0.000 0.000 0.000 0.000 0.000 0.000 0.000 0.000 0.000 0.000 0.000 0.000 0.000 0.000 0.000 0.000 0.000 0.000 0.000 0.000 0.000 0.000 0.000 0.000 0.000 0.000
6.903 18.457 20.436 21.987 23.284 24.563 21.864 23.716 25.187 26.146 23.845 20.163 14.994 0.662 0.000 0.000 0.000 0.000 0.000 0.000 0.000 0.000 0.000 0.000 0.000 0.000 0.000 0.000 0.000 0.000 0.000 0.000 0.000 0.000 0.000 0.000 0.000 0.000 0.000 0.000 0.000 0.000 0.000 0.000 0.000 0.000
3.776 18.120 20.438 22.092 24.136 23.604 21.840 23.598 25.843 24.839 23.570 20.134 14.969 5.794 0.000 0.000 0.000 0.000 0.000 0.000 0.000 0.000 0.000 0.000 0.000 0.000 0.000 0.000 0.000 0.000 0.000 0.000 0.000 0.000 0.000 0.000 0.000 0.000 0.000 0.000 0.000 0.000 0.000 0.000 0.000 0.000
1.970 18.050 22.597 24.180 24.049 23.341 22.883 24.504 23.825 22.739 22.316 19.838 16.821 10.616 0.039 0.000 0.000 0.000 0.000 0.000 0.000 0.000 0.000 0.000 0.000 0.000 0.000 0.000 0.000 0.000 0.000 0.000 0.000 0.000 0.000 0.000 0.000 0.000 0.000 0.000 0.000 0.000 0.000 0.000 0.000 0.000
0.906 14.227 20.738 23.753 23.253 23.973 23.015 20.731 22.593 21.634 21.907 21.068 17.627 14.167 2.448 0.000 0.000 0.000 0.000 0.000 0.000 0.000 0.000 0.000 0.000 0.000 0.000 0.000 0.000 0.000 0.000 0.000 0.000 0.000 0.000 0.000 0.000 0.000 0.000 0.000 0.000 0.000 0.000 0.000 0.000 0.000
0.393 10.878 20.532 22.802 24.084 23.682 22.373 21.945 21.020 22.436 21.614 20.496 19.577 15.766 7.898 0.027 0.000 0.000 0.000 0.000 0.000 0.000 0.000 0.000 0.000 0.000 0.000 0.000 0.000 0.000 0.000 0.000 0.000 0.000 0.000 0.000 0.000 0.000 0.000 0.000 0.000 0.000 0.000 0.000 0.000 0.000
0.111 6.968 18.691 22.638 25.930 25.044 23.271 22.341 19.875 20.200 21.684 22.778 20.369 16.782 11.676 2.148 0.000 0.000 0.000 0.000 0.000 0.000 0.000 0.000 0.000 0.000 0.000 0.000 0.000 0.000 0.000 0.000 0.000 0.000 0.000 0.000 0.000 0.000 0.000 0.000 0.000 0.000 0.000 0.000 0.000 0.000
0.015 3.406 16.024 20.933 24.965 27.342 27.831 22.520 19.222 18.789 21.343 20.202 20.417 17.819 13.628 7.112 0.007 0.000 0.000 0.000 0.000 0.000 0.000 0.000 0.000 0.000 0.000 0.000 0.000 0.000 0.000 0.000 0.000 0.000 0.000 0.000 0.000 0.000 0.000 0.000 0.000 0.000 0.000 0.000 0.000 0.000
0.001 1.096 11.549 18.737 23.043 26.897 28.563 27.657 23.893 22.677 21.318 19.501 22.934 18.541 13.552 10.421 1.209 0.000 0.000 0.000 0.000 0.000 0.000 0.000 0.000 0.000 0.000 0.000 0.000 0.000 0.000 0.000 0.000 0.000 0.000 0.000 0.000 0.000 0.000 0.000 0.000 0.000 0.000 0.000 0.000 0.000
0.000 0.212 7.259 17.005 21.523 25.605 27.134 27.598 26.598 27.357 25.700 23.984 22.127 19.928 15.536 11.301 5.769 0.000 0.000 0.000 0.000 0.000 0.000 0.000 0.000 0.000 0.000 0.000 0.000 0.000 0.000 0.000 0.000 0.000 0.000 0.000 0.000 0.000 0.000 0.000 0.000 0.000 0.000 0.000 0.000 0.000
0.000 0.020 3.310 14.186 19.901 23.032 24.837 27.412 28.347 27.251 25.326 25.041 23.793 20.577 16.719 11.208 8.460 0.000 0.000 0.000 0.000 0.000 0.000 0.000 0.000 0.000 0.000 0.000 0.000 0.000 0.000 0.000 0.000 0.000 0.000 0.000 0.000 0.000 0.000 0.000 0.000 0.000 0.000 0.000 0.000 0.000
0.000 0.001 0.957 9.995 18.306 21.987 24.149 26.104 26.934 26.295 25.409 25.246 23.564 21.174 17.304 12.846 10.176 0.009 0.000 0.000 0.000 0.000 0.000 0.000 0.000 0.000 0.000 0.000 0.000 0.000 0.000 0.000 0.000 0.000 0.000 0.000 0.000 0.000 0.000 0.000 0.000 0.000 0.000 0.000 0.000 0.000
0.000 0.000 0.157 5.519 14.869 19.672 23.535 25.729 25.240 26.002 27.091 25.625 25.661 23.937 19.526 12.088 10.764 1.303 0.000 0.000 0.000 0.000 0.000 0.000 0.000 0.000 0.000 0.000 0.000 0.000 0.000 0.000 0.000 0.000 0.000 0.000 0.000 0.000 0.000 0.000 0.000 0.000 0.000 0.000 0.000 0.000
0.000 0.000 0.012 2.151 11.370 18.324 22.503 24.133 25.746 24.346 25.122 23.558 25.679 22.039 19.359 14.899 12.884 4.979 0.000 0.000 0.000 0.000 0.000 0.000 0.000 0.000 0.000 0.000 0.000 0.000 0.000 0.000 0.000 0.000 0.000 0.000 0.000 0.000 0.000 0.000 0.000 0.000 0.000 0.000 0.000 0.000
0.000 0.000 0.000 0.526 6.994 15.404 21.049 24.222 24.089 24.714 25.588 25.093 24.119 21.609 19.510 16.427 13.021 6.805 0.000 0.000 0.000 0.000 0.000 0.000 0.000 0.000 0.000 0.000 0.000 0.000 0.000 0.000 0.000 0.000 0.000 0.000 0.000 0.000 0.000 0.000 0.000 0.000 0.000 0.000 0.000 0.000
0.000 0.000 0.000 0.060 3.226 11.948 18.391 21.493 22.634 24.532 23.364 23.797 22.984 22.033 19.205 16.063 13.504 8.152 0.000 0.000 0.000 0.000 0.000 0.000 0.000 0.000 0.000 0.000 0.000 0.000 0.000 0.000 0.000 0.000 0.000 0.000 0.000 0.000 0.000 0.000 0.000 0.000 0.000 0.000 0.000 0.000
0.000 0.000 0.000 0.003 1.062 7.943 14.445 18.755 23.594 22.362 24.666 24.275 22.064 21.243 18.231 18.186 13.914 8.870 0.000 0.000 0.000 0.000 0.000 0.000 0.000 0.000 0.000 0.000 0.000 0.000 0.000 0.000 0.000 0.000 0.000 0.000 0.000 0.000 0.000 0.000 0.000 0.000 0.000 0.000 0.000 0.000
0.000 0.000 0.000 0.000 0.255 4.927 11.947 17.075 21.610 22.817 22.694 23.740 22.764 19.468 18.365 18.007 14.424 9.773 0.000 0.000 0.000 0.000 0.000 0.000 0.000 0.000 0.000 0.000 0.000 0.000 0.000 0.000 0.000 0.000 0.000 0.000 0.000 0.000 0.000 0.000 0.000 0.000 0.000 0.000 0.000 0.000
0.000 0.000 0.000 0.000 0.070 3.095 8.808 12.851 18.297 21.082 22.204 23.266 21.169 19.101 18.279 20.671 14.876 10.063 0.000 0.000 0.000 0.000 0.000 0.000 0.000 0.000 0.000 0.000 0.000 0.000 0.000 0.000 0.000 0.000 0.000 0.000 0.000 0.000 0.000 0.000 0.000 0.000 0.000 0.000 0.000 0.000
0.000 0.000 0.000 0.000 0.043 2.656 7.854 10.513 15.510 20.238 21.954 21.923 20.097 17.908 20.649 19.967 15.358 10.968 0.231 0.000 0.000 0.000 0.000 0.000 0.000 0.000 0.000 0.000 0.000 0.000 0.000 0.000 0.000 0.000 0.000 0.000 0.000 0.000 0.000 0.000 0.000 0.000 0.000 0.000 0.000 0.000
0.000 0.000 0.000 0.000 0.036 2.536 7.264 9.478 11.826 17.938 19.468 20.355 18.756 17.914 22.383 20.133 16.342 9.881 2.177 0.000 0.000 0.000 0.000 0.000 0.000 0.000 0.000 0.000 0.000 0.000 0.000 0.000 0.000 0.000 0.000 0.000 0.000 0.000 0.000 0.000 0.000 0.000 0.000 0.000 0.000 0.000
0.000 0.000 0.000 0.000 0.018 2.041 7.049 8.244 8.701 14.187 18.915 19.134 18.573 21.329 22.535 20.267 16.938 10.192 4.589 0.000 0.000 0.000 0.000 0.000 0.000 0.000 0.000 0.000 0.000 0.000 0.000 0.000 0.000 0.000 0.000 0.000 0.000 0.000 0.000 0.000 0.000 0.000 0.000 0.000 0.000 0.000
0.000 0.000 0.000 0.000 0.007 1.334 6.347 7.496 8.046 11.372 18.721 20.307 20.966 21.633 22.636 19.772 16.079 10.968 6.830 0.071 0.000 0.000 0.000 0.000 0.000 0.000 0.000 0.000 0.000 0.000 0.000 0.000 0.000 0.000 0.000 0.000 0.000 0.000 0.000 0.000 0.000 0.000 0.000 0.000 0.000 0.000
0.000 0.000 0.000 0.000 0.002 0.810 5.308 7.304 7.129 8.586 17.293 19.186 20.420 19.662 21.591 18.626 16.507 12.405 8.035 2.096 0.009 0.000 0.000 0.000 0.000 0.000 0.000 0.000 0.000 0.000 0.000 0.000 0.000 0.000 0.000 0.000 0.000 0.000 0.000 0.000 0.000 0.000 0.000 0.000 0.000 0.000
0.000 0.000 0.000 0.000 0.001 0.396 4.082 6.246 6.719 7.373 13.080 18.279 19.783 19.049 20.438 18.983 17.427 13.127 7.987 5.966 1.464 0.057 0.000 0.000 0.000 0.000 0.000 0.000 0.000 0.000 0.000 0.000 0.000 0.000 0.000 0.000 0.000 0.000 0.000 0.000 0.000 0.000 0.000 0.000 0.000 0.000
0.000 0.000 0.000 0.000 0.000 0.186 3.320 6.357 6.792 6.870 9.672 17.333 18.395 19.582 19.306 19.207 18.260 13.943 9.090 8.870 6.085 2.680 0.020 0.000 0.000 0.000 0.000 0.000 0.000 0.000 0.000 0.000 0.000 0.000 0.000 0.000 0.000 0.000 0.000 0.000 0.000 0.000 0.000 0.000 0.000 0.000
0.000 0.000 0.000 0.000 0.000 0.136 2.991 6.120 6.326 6.566 7.770 15.732 17.102 18.339 19.369 19.635 18.916 14.726 10.179 9.753 7.949 6.761 1.589 0.000 0.000 0.000 0.000 0.000 0.000 0.000 0.000 0.000 0.000 0.000 0.000 0.000 0.000 0.000 0.000 0.000 0.000 0.000 0.000 0.000 0.000 0.000
0.000 0.000 0.000 0.000 0.000 0.024 2.083 5.259 6.090 6.537 7.548 13.447 16.750 17.861 19.850 19.970 19.654 15.572 11.330 9.958 8.787 7.990 4.973 0.020 0.000 0.000 0.000 0.000 0.000 0.000 0.000 0.000 0.000 0.000 0.000 0.000 0.000 0.000 0.000 0.000 0.000 0.000 0.000 0.000 0.000 0.000
0.000 0.000 0.000 0.000 0.000 0.004 1.198 5.007 5.911 6.560 7.887 12.710 16.984 18.538 19.176 20.749 19.944 17.659 12.923 9.577 8.351 7.664 6.489 1.249 0.000 0.000 0.000 0.000 0.000 0.000 0.000 0.000 0.000 0.000 0.000 0.000 0.000 0.000 0.000 0.000 0.000 0.000 0.000 0.000 0.000 0.000
0.000 0.000 0.000 0.000 0.000 0.005 0.881 4.561 5.552 6.492 7.945 13.642 17.060 20.392 22.203 22.111 20.590 18.550 12.636 8.522 8.120 7.937 8.021 4.170 0.155 0.000 0.000 0.000 0.000 0.000 0.000 0.000 0.000 0.000 0.000 0.000 0.000 0.000 0.000 0.000 0.000 0.000 0.000 0.000 0.000 0.000
0.000 0.000 0.000 0.000 0.000 0.001 0.912 4.468 5.249 6.070 7.407 12.127 15.857 19.067 20.458 20.120 20.001 18.681 12.949 8.720 7.882 8.737 8.402 5.199 2.089 0.002 0.000 0.000 0.000 0.000 0.000 0.000 0.000 0.000 0.000 0.000 0.000 0.000 0.000 0.000 0.000 0.000 0.000 0.000 0.000 0.000
0.000 0.000 0.000 0.000 0.000 0.003 0.548 4.275 4.793 6.045 7.704 12.352 14.942 20.063 21.517 18.349 21.100 17.467 13.916 9.095 8.563 8.823 7.551 6.277 5.573 0.499 0.000 0.000 0.000 0.000 0.000 0.000 0.000 0.000 0.000 0.000 0.000 0.000 0.000 0.000 0.000 0.000 0.000 0.000 0.000 0.000
0.000 0.000 0.000 0.000 0.000 0.000 0.128 3.258 4.454 5.976 7.292 11.330 13.363 16.460 20.355 20.332 19.729 17.513 14.476 9.768 8.714 8.345 8.487 8.373 8.397 3.150 0.004 0.000 0.000 0.000 0.000 0.000 0.000 0.000 0.000 0.000 0.000 0.000 0.000 0.000 0.000 0.000 0.000 0.000 0.000 0.000
0.000 0.000 0.000 0.000 0.000 0.000 0.051 2.832 4.238 5.461 6.301 10.353 12.833 14.309 18.510 19.058 18.942 17.668 15.047 10.922 8.565 8.672 9.086 9.433 9.068 5.090 0.231 0.004 0.000 0.000 0.000 0.000 0.000 0.000 0.000 0.000 0.000 0.000 0.000 0.000 0.000 0.000 0.000 0.000 0.000 0.000
0.000 0.000 0.000 0.000 0.000 0.000 0.101 2.971 4.893 5.256 6.124 8.478 10.675 13.468 18.301 19.877 19.507 18.040 15.530 12.037 8.985 8.843 8.785 9.854 7.908 6.216 1.420 0.622 0.000 0.000 0.000 0.000 0.000 0.000 0.000 0.000 0.000 0.000 0.000 0.000 0.000 0.000 0.000 0.000 0.000 0.000
0.000 0.000 0.000 0.000 0.000 0.000 0.480 3.347 4.979 5.340 5.668 8.051 10.258 12.497 16.663 20.094 19.199 19.037 16.128 12.714 10.028 8.768 9.444 10.759 8.619 7.138 4.189 2.654 0.009 0.000 0.000 0.000 0.000 0.000 0.000 0.000 0.000 0.000 0.000 0.000 0.000 0.000 0.000 0.000 0.000 0.000
0.000 0.000 0.000 0.000 0.000 0.000 0.540 3.319 4.550 5.390 5.814 7.403 9.751 12.766 16.468 20.774 20.486 18.288 16.588 13.821 11.262 8.685 9.159 9.347 9.753 7.928 5.733 3.656 0.692 0.000 0.000 0.000 0.000 0.000 0.000 0.000 0.000 0.000 0.000 0.000 0.000 0.000 0.000 0.000 0.000 0.000
0.000 0.000 0.000 0.000 0.000 0.000 0.131 2.862 4.743 5.296 5.394 7.141 9.475 12.668 16.235 19.726 20.918 18.729 16.409 14.690 12.574 9.459 9.033 8.825 9.537 7.643 6.865 4.731 2.573 0.000 0.000 0.000 0.000 0.000 0.000 0.000 0.000 0.000 0.000 0.000 0.000 0.000 0.000 0.000 0.000 0.000
0.000 0.000 0.000 0.000 0.000 0.000 0.081 2.285 4.514 4.849 5.031 6.661 9.181 11.661 15.935 19.214 21.150 20.898 19.058 15.722 13.925 10.005 9.393 9.603 9.599 8.295 7.383 5.595 3.760 0.167 0.000 0.000 0.000 0.000 0.000 0.000 0.000 0.000 0.000 0.000 0.000 0.000 0.000 0.000 0.000 0.000
0.000 0.000 0.000 0.000 0.000 0.000 0.001 1.381 4.386 5.063 5.451 6.458 8.592 11.178 15.323 19.252 20.030 20.952 20.581 17.558 14.377 11.502 9.413 9.185 8.441 8.873 8.294 6.601 5.038 1.581 0.000 0.000 0.000 0.000 0.000 0.000 0.000 0.000 0.000 0.000 0.000 0.000 0.000 0.000 0.000 0.000
0.000 0.000 0.000 0.000 0.000 0.000 0.014 1.314 4.062 5.093 5.699 5.900 7.511 10.328 14.705 19.408 20.574 20.974 21.557 20.433 15.482 11.890 9.272 9.313 9.153 9.189 9.159 7.740 5.882 3.000 0.046 0.000 0.000 0.000 0.000 0.000 0.000 0.000 0.000 0.000 0.000 0.000 0.000 0.000 0.000 0.000
0.000 0.000 0.000 0.000 0.000 0.000 0.004 1.098 3.405 4.792 5.202 5.753 7.147 9.668 14.188 18.237 21.257 21.672 21.232 19.284 15.304 11.014 9.636 9.055 9.546 9.950 9.443 8.891 6.690 5.141 1.302 0.000 0.000 0.000 0.000 0.000 0.000 0.000 0.000 0.000 0.000 0.000 0.000 0.000 0.000 0.000
0.000 0.000 0.000 0.000 0.000 0.000 0.020 1.046 3.228 4.458 4.603 5.177 6.596 8.690 13.012 17.761 21.114 21.305 21.410 21.256 18.063 12.702 10.635 9.239 9.948 10.302 10.735 9.208 8.552 6.726 3.256 0.026 0.000 0.000 0.000 0.000 0.000 0.000 0.000 0.000 0.000 0.000 0.000 0.000 0.000 0.000
0.000 0.000 0.000 0.000 0.000 0.000 0.005 0.691 2.925 4.071 4.637 5.172 6.317 8.337 11.514 16.384 19.387 19.675 21.524 20.364 17.958 14.811 11.166 10.203 10.297 10.761 10.577 10.100 9.853 7.266 4.273 0.955 0.000 0.000 0.000 0.000 0.000 0.000 0.000 0.000 0.000 0.000 0.000 0.000 0.000 0.000
0.000 0.000 0.000 0.000 0.000 0.000 0.001 0.337 2.683 3.986 4.557 5.144 6.313 7.756 10.178 15.440 18.843 20.632 21.491 19.187 18.463 13.799 12.192 11.620 10.619 10.363 10.407 10.775 10.185 7.181 5.682 2.991 0.000 0.000 0.000 0.000 0.000 0.000 0.000 0.000 0.000 0.000 0.000 0.000 0.000 0.000
0.000 0.000 0.000 0.000 0.000 0.000 0.000 0.021 1.776 3.889 4.275 4.753 5.542 7.155 9.304 15.007 20.070 20.893 19.985 20.602 17.213 14.295 13.270 10.261 9.145 9.303 10.500 11.578 9.654 7.828 7.016 4.421 0.129 0.000 0.000 0.000 0.000 0.000 0.000 0.000 0.000 0.000 0.000 0.000 0.000 0.000
0.000 0.000 0.000 0.000 0.000 0.000 0.000 0.015 1.040 3.788 4.236 5.035 5.862 6.406 9.072 14.945 18.710 18.789 21.045 19.091 16.735 15.289 12.115 9.533 9.151 9.732 11.177 10.396 9.682 9.601 8.615 5.219 1.683 0.000 0.000 0.000 0.000 0.000 0.000 0.000 0.000 0.000 0.000 0.000 0.000 0.000
0.000 0.000 0.000 0.000 0.000 0.000 0.000 0.031 1.434 3.946 4.541 4.900 5.372 7.302 8.642 13.985 16.765 19.526 19.950 19.030 18.666 16.082 13.716 11.240 10.246 10.661 10.443 9.952 11.008 9.990 8.161 6.522 3.500 0.015 0.000 0.000 0.000 0.000 0.000 0.000 0.000 0.000 0.000 0.000 0.000 0.000
0.000 0.000 0.000 0.000 0.000 0.000 0.000 0.035 1.301 3.806 4.544 4.180 5.487 6.646 5.340 11.482 15.953 17.838 19.362 20.431 19.047 16.148 14.248 12.411 11.816 10.208 10.453 10.704 10.519 9.993 8.559 7.616 4.862 0.897 0.000 0.000 0.000 0.000 0.000 0.000 0.000 0.000 0.000 0.000 0.000 0.000
0.000 0.000 0.000 0.000 0.000 0.000 0.000 0.003 0.430 3.104 4.538 4.296 4.787 4.586 5.450 9.858 15.315 17.952 19.921 20.723 19.937 17.602 15.192 14.430 12.351 10.702 10.883 10.263 9.757 9.839 9.069 8.551 7.009 3.381 0.000 0.000 0.000 0.000 0.000 0.000 0.000 0.000 0.000 0.000 0.000 0.000
0.000 0.000 0.000 0.000 0.000 0.000 0.000 0.000 0.161 2.452 4.530 4.561 4.338 4.308 5.376 9.494 14.140 17.935 19.163 20.071 19.514 16.359 16.385 15.583 11.601 11.155 9.895 8.063 9.236 9.908 10.362 10.214 8.393 4.905 0.003 0.000 0.000 0.000 0.000 0.000 0.000 0.000 0.000 0.000 0.000 0.000
0.000 0.000 0.000 0.000 0.000 0.000 0.000 0.000 0.001 0.196 4.059 4.517 3.924 4.055 6.184 9.425 13.613 17.980 20.141 19.754 18.152 16.300 17.193 15.567 13.231 11.779 9.370 7.930 8.770 10.243 10.914 10.574 9.344 6.598 0.638 0.000 0.000 0.000 0.000 0.000 0.000 0.000 0.000 0.000 0.000 0.000
0.000 0.000 0.000 0.000 0.000 0.000 0.000 0.000 0.000 0.376 2.579 3.995 3.150 4.341 6.114 8.764 12.322 16.457 18.239 18.637 17.616 17.851 18.667 15.948 13.674 11.044 8.604 8.171 9.193 10.285 10.494 10.546 9.798 7.783 3.361 0.014 0.000 0.000 0.000 0.000 0.000 0.000 0.000 0.000 0.000 0.000
0.000 0.000 0.000 0.000 0.000 0.000 0.000 0.000 0.000 0.000 1.916 2.811 3.469 4.701 5.550 7.544 11.192 15.547 16.365 18.714 17.496 19.106 17.783 16.109 14.656 12.031 9.973 8.403 8.892 9.754 10.384 11.106 11.041 8.115 3.969 0.174 0.000 0.000 0.000 0.000 0.000 0.000 0.000 0.000 0.000 0.000
0.000 0.000 0.000 0.000 0.000 0.000 0.000 0.000 0.000 0.000 0.439 2.843 3.896 4.720 5.396 6.642 9.587 13.534 16.404 17.209 18.771 18.831 18.766 16.611 15.757 12.628 9.449 7.674 7.609 8.121 9.782 10.455 10.344 6.664 3.240 0.253 0.000 0.000 0.000 0.000 0.000 0.000 0.000 0.000 0.000 0.000
0.000 0.000 0.000 0.000 0.000 0.000 0.000 0.000 0.000 0.000 0.173 2.019 3.855 4.584 5.096 5.351 8.635 12.423 16.116 17.809 17.734 19.374 18.262 16.903 15.587 12.153 9.180 6.974 6.708 7.404 8.850 9.482 9.120 7.118 4.045 0.000 0.000 0.000 0.000 0.000 0.000 0.000 0.000 0.000 0.000 0.000
0.000 0.000 0.000 0.000 0.000 0.000 0.000 0.000 0.000 0.000 0.039 1.022 2.989 4.322 4.293 4.818 7.035 10.878 14.795 16.425 17.506 17.448 17.306 16.619 13.756 10.796 8.904 7.223 6.395 6.907 7.351 8.491 9.546 8.281 4.583 0.030 0.000 0.000 0.000 0.000 0.000 0.000 0.000 0.000 0.000 0.000
0.000 0.000 0.000 0.000 0.000 0.000 0.000 0.000 0.000 0.000 0.002 0.347 2.022 3.627 4.041 4.486 5.615 8.576 11.917 14.648 16.712 16.625 15.535 15.194 12.563 11.224 10.639 7.414 6.626 6.474 5.989 7.657 9.801 7.938 5.078 0.947 0.000 0.000 0.000 0.000 0.000 0.000 0.000 0.000 0.000 0.000
0.000 0.000 0.000 0.000 0.000 0.000 0.000 0.000 0.000 0.000 0.000 0.046 0.998 3.159 3.739 3.998 4.773 7.422 10.378 13.793 15.408 15.670 16.013 15.104 13.277 12.416 10.847 7.868 7.181 6.252 6.147 7.498 9.190 8.203 5.478 2.350 0.000 0.000 0.000 0.000 0.000 0.000 0.000 0.000 0.000 0.000
0.000 0.000 0.000 0.000 0.000 0.000 0.000 0.000 0.000 0.000 0.000 0.001 0.297 2.536 3.477 3.741 4.436 5.375 8.485 11.721 12.976 14.279 14.441 14.253 13.570 13.757 11.150 9.024 7.295 6.805 6.567 6.469 9.376 8.535 5.643 2.996 0.005 0.000 0.000 0.000 0.000 0.000 0.000 0.000 0.000 0.000
0.000 0.000 0.000 0.000 0.000 0.000 0.000 0.000 0.000 0.000 0.000 0.000 0.196 1.779 3.124 3.643 4.067 4.800 6.701 9.752 12.657 13.996 13.694 14.160 14.076 12.525 12.210 9.693 7.728 6.734 5.575 5.291 8.912 8.640 6.004 3.173 0.426 0.000 0.000 0.000 0.000 0.000 0.000 0.000 0.000 0.000
0.000 0.000 0.000 0.000 0.000 0.000 0.000 0.000 0.000 0.000 0.000 0.000 0.076 1.114 2.738 3.344 3.765 3.839 5.507 8.107 11.283 12.504 13.106 14.171 14.338 12.014 12.161 9.795 8.092 5.551 4.704 4.108 8.215 8.720 6.410 3.225 1.641 0.000 0.000 0.000 0.000 0.000 0.000 0.000 0.000 0.000
0.000 0.000 0.000 0.000 0.000 0.000 0.000 0.000 0.000 0.000 0.000 0.000 0.039 0.585 1.922 2.834 3.436 3.320 4.751 7.331 10.146 12.099 13.351 13.530 13.727 12.516 12.632 10.649 7.306 5.015 4.250 4.989 8.012 8.966 6.660 3.780 2.488 0.123 0.000 0.000 0.000 0.000 0.000 0.000 0.000 0.000
0.000 0.000 0.000 0.000 0.000 0.000 0.000 0.000 0.000 0.000 0.000 0.000 0.004 0.647 1.541 2.626 3.262 3.785 4.345 6.403 9.310 12.135 14.070 13.960 12.431 13.120 11.573 9.693 7.077 5.410 5.089 5.787 7.418 8.990 6.907 4.054 3.154 1.333 0.000 0.000 0.000 0.000 0.000 0.000 0.000 0.000
0.000 0.000 0.000 0.000 0.000 0.000 0.000 0.000 0.000 0.000 0.000 0.000 0.000 0.003 0.780 2.338 3.076 3.652 4.261 5.982 8.139 11.095 13.961 13.294 13.082 12.606 11.384 9.185 7.160 5.665 5.655 5.713 6.987 8.910 6.724 3.998 3.559 2.644 0.195 0.000 0.000 0.000 0.000 0.000 0.000 0.000
0.000 0.000 0.000 0.000 0.000 0.000 0.000 0.000 0.000 0.000 0.000 0.000 0.000 0.000 0.270 1.739 2.988 2.956 3.984 5.200 7.717 9.582 11.583 12.079 11.860 11.091 10.139 8.259 7.739 6.010 5.736 5.214 6.791 8.659 6.516 4.001 3.628 3.075 1.446 0.006 0.000 0.000 0.000 0.000 0.000 0.000
0.000 0.000 0.000 0.000 0.000 0.000 0.000 0.000 0.000 0.000 0.000 0.000 0.000 0.000 0.056 1.080 2.509 2.856 3.783 4.532 5.973 7.809 10.601 10.782 10.619 9.872 8.916 8.685 8.421 6.961 6.018 5.925 6.069 7.587 6.414 4.021 3.494 3.164 2.316 0.341 0.000 0.000 0.000 0.000 0.000 0.000
0.000 0.000 0.000 0.000 0.000 0.000 0.000 0.000 0.000 0.000 0.000 0.000 0.000 0.000 0.000 0.601 2.263 3.134 3.491 3.851 4.962 6.045 7.274 9.033 8.615 8.931 8.502 9.346 9.049 7.123 6.181 6.069 5.820 7.168 6.395 3.697 3.184 3.148 2.772 1.626 0.084 0.000 0.000 0.000 0.000 0.000
0.000 0.000 0.000 0.000 0.000 0.000 0.000 0.000 0.000 0.000 0.000 0.000 0.000 0.000 0.001 0.894 2.094 2.812 2.966 3.319 4.123 4.319 7.334 7.770 8.296 8.621 9.174 9.168 8.363 6.656 7.107 5.582 5.853 6.172 5.897 3.480 3.156 3.101 2.831 2.559 1.315 0.000 0.000 0.000 0.000 0.000
0.000 0.000 0.000 0.000 0.000 0.000 0.000 0.000 0.000 0.000 0.000 0.000 0.000 0.000 0.001 0.343 1.467 2.203 2.749 2.783 3.126 3.949 4.931 6.655 8.274 8.790 9.172 8.157 7.176 7.257 6.476 3.836 4.664 5.747 5.439 3.908 3.275 3.062 2.930 2.953 2.251 0.025 0.000 0.000 0.000 0.000
0.000 0.000 0.000 0.000 0.000 0.000 0.000 0.000 0.000 0.000 0.000 0.000 0.000 0.000 0.000 0.076 0.769 1.521 2.337 2.536 2.369 3.155 6.120 7.172 8.038 8.333 8.105 7.161 6.663 6.959 5.869 4.111 3.174 5.292 5.112 4.185 3.225 2.993 2.952 2.690 1.855 0.661 0.000 0.000 0.000 0.000
0.000 0.000 0.000 0.000 0.000 0.000 0.000 0.000 0.000 0.000 0.000 0.000 0.000 0.000 0.000 0.000 0.020 0.303 1.264 1.862 1.841 1.380 5.154 6.040 6.856 7.759 7.070 6.376 5.947 6.534 5.339 4.445 3.755 4.165 4.767 3.984 3.123 2.875 2.663 2.637 2.620 1.684 0.010 0.000 0.000 0.000
0.000 0.000 0.000 0.000 0.000 0.000 0.000 0.000 0.000 0.000 0.000 0.000 0.000 0.000 0.000 0.000 0.000 0.002 0.657 1.883 2.401 3.009 3.864 4.675 5.609 6.203 6.432 6.628 6.886 6.543 5.962 4.989 3.642 3.412 3.822 3.705 3.024 2.743 2.578 2.475 2.377 1.682 0.162 0.000 0.000 0.000
0.000 0.000 0.000 0.000 0.000 0.000 0.000 0.000 0.000 0.000 0.000 0.000 0.000 0.000 0.000 0.000 0.000 0.000 0.211 1.658 2.469 2.545 2.461 3.666 4.469 5.756 5.957 7.018 6.836 6.437 5.561 4.022 3.066 2.629 3.071 3.453 2.990 2.651 2.437 2.145 1.938 2.013 0.587 0.000 0.000 0.000
0.000 0.000 0.000 0.000 0.000 0.000 0.000 0.000 0.000 0.000 0.000 0.000 0.000 0.000 0.000 0.000 0.000 0.000 0.025 0.559 1.859 2.129 0.392 2.756 3.856 4.732 5.024 5.620 6.283 5.871 4.394 2.755 2.464 1.478 1.860 2.323 2.776 2.456 2.109 1.818 2.106 2.637 1.309 0.000 0.000 0.000
0.000 0.000 0.000 0.000 0.000 0.000 0.000 0.000 0.000 0.000 0.000 0.000 0.000 0.000 0.000 0.000 0.000 0.000 0.000 0.013 0.458 2.093 2.670 2.709 3.851 4.077 3.624 4.471 5.149 4.275 3.358 1.840 0.973 0.097 0.076 1.421 2.470 2.147 1.764 1.503 1.849 2.300 1.650 0.003 0.000 0.000
0.000 0.000 0.000 0.000 0.000 0.000 0.000 0.000 0.000 0.000 0.000 0.000 0.000 0.000 0.000 0.000 0.000 0.000 0.000 0.000 0.540 1.661 2.828 3.255 3.723 3.362 2.517 3.480 3.674 3.570 2.327 1.199 0.077 0.018 0.048 0.870 1.408 1.817 1.159 0.095 1.069 1.117 1.381 0.203 0.000 0.000
0.000 0.000 0.000 0.000 0.000 0.000 0.000 0.000 0.000 0.000 0.000 0.000 0.000 0.000 0.000 0.000 0.000 0.000 0.000 0.000 0.001 1.258 2.381 3.362 3.219 1.691 1.426 2.575 3.213 2.024 0.586 0.005 0.022 0.062 0.078 0.066 1.118 1.368 0.044 0.086 0.094 1.006 1.363 0.880 0.000 0.000
0.000 0.000 0.000 0.000 0.000 0.000 0.000 0.000 0.000 0.000 0.000 0.000 0.000 0.000 0.000 0.000 0.000 0.000 0.000 0.000 0.000 0.080 1.542 2.162 2.341 0.436 2.080 2.977 2.806 0.052 0.004 0.047 0.019 0.086 0.090 0.052 0.500 0.074 0.080 0.071 0.068 1.289 1.381 0.781 0.030 0.000
0.000 0.000 0.000 0.000 0.000 0.000 0.000 0.000 0.000 0.000 0.000 0.000 0.000 0.000 0.000 0.000 0.000 0.000 0.000 0.000 0.000 0.000 0.616 1.572 2.108 2.802 3.281 2.942 1.770 0.042 0.031 0.075 0.091 0.004 0.041 0.043 0.058 0.100 0.789 0.079 0.033 1.248 1.309 0.848 0.283 0.000
0.000 0.000 0.000 0.000 0.000 0.000 0.000 0.000 0.000 0.000 0.000 0.000 0.000 0.000 0.000 0.000 0.000 0.000 0.000 0.000 0.000 0.000 0.016 1.071 1.728 2.142 2.847 2.231 0.701 0.057 0.007 0.069 0.034 0.069 0.066 0.060 0.080 0.403 0.090 0.072 0.135 1.407 1.525 1.249 0.592 0.018
0.000 0.000 0.000 0.000 0.000 0.000 0.000 0.000 0.000 0.000 0.000 0.000 0.000 0.000 0.000 0.000 0.000 0.000 0.000 0.000 0.000 0.000 0.005 0.121 1.237 1.926 2.395 2.270 1.507 0.773 0.307 0.010 0.082 0.233 0.068 0.095 0.069 0.150 0.072 0.092 0.072 1.609 1.426 1.451 0.837 0.235
0.000 0.000 0.000 0.000 0.000 0.000 0.000 0.000 0.000 0.000 0.000 0.000 0.000 0.000 0.000 0.000 0.000 0.000 0.000 0.000 0.000 0.000 0.004 0.050 1.220 1.945 2.021 1.619 1.658 0.083 0.698 0.028 0.912 0.406 0.096 0.100 0.074 0.925 0.054 0.090 0.945 1.214 1.248 1.504 1.195 0.438
0.000 0.000 0.000 0.000 0.000 0.000 0.000 0.000 0.000 0.000 0.000 0.000 0.000 0.000 0.000 0.000 0.000 0.000 0.000 0.000 0.000 0.000 0.000 0.073 0.619 1.309 1.753 1.789 1.522 0.973 0.686 0.076 1.051 0.071 0.053 0.207 1.119 0.682 0.066 0.099 1.578 1.616 1.622 1.336 1.481 1.141
0.000 0.000 0.000 0.000 0.000 0.000 0.000 0.000 0.000 0.000 0.000 0.000 0.000 0.000 0.000 0.000 0.000 0.000 0.000 0.000 0.000 0.000 0.000 0.001 0.090 0.424 1.415 1.768 1.725 1.630 0.718 0.914 0.193 0.093 0.085 1.395 0.083 0.098 0.048 0.070 2.109 2.099 1.757 1.346 1.750 1.666
0.000 0.000 0.000 0.000 0.000 0.000 0.000 0.000 0.000 0.000 0.000 0.000 0.000 0.000 0.000 0.000 0.000 0.000 0.000 0.000 0.000 0.000 0.000 0.000 0.001 0.052 0.642 1.631 1.713 1.780 1.589 1.081 0.030 0.015 0.029 0.076 0.143 0.087 0.075 0.479 2.164 2.258 1.411 1.433 1.874 1.812
0.000 0.000 0.000 0.000 0.000 0.000 0.000 0.000 0.000 0.000 0.000 0.000 0.000 0.000 0.000 0.000 0.000 0.000 0.000 0.000 0.000 0.000 0.000 0.000 0.000 0.000 0.067 1.262 1.803 1.764 1.332 0.092 0.090 0.069 0.064 0.080 0.079 0.018 0.023 0.259 2.157 1.468 0.190 0.940 1.525 1.924
0.000 0.000 0.000 0.000 0.000 0.000 0.000 0.000 0.000 0.000 0.000 0.000 0.000 0.000 0.000 0.000 0.000 0.000 0.000 0.000 0.000 0.000 0.000 0.000 0.000 0.000 0.002 0.649 1.599 1.685 1.241 0.022 0.018 0.052 0.094 0.061 0.083 0.060 0.085 0.091 0.983 0.611 1.084 0.805 1.491 2.127
0.000 0.000 0.000 0.000 0.000 0.000 0.000 0.000 0.000 0.000 0.000 0.000 0.000 0.000 0.000 0.000 0.000 0.000 0.000 0.000 0.000 0.000 0.000 0.000 0.000 0.000 0.000 0.036 0.788 1.499 1.384 0.470 0.074 0.028 0.058 0.088 0.086 0.086 0.077 0.077 1.419 1.856 1.789 1.280 1.668 1.896
0.000 0.000 0.000 0.000 0.000 0.000 0.000 0.000 0.000 0.000 0.000 0.000 0.000 0.000 0.000 0.000 0.000 0.000 0.000 0.000 0.000 0.000 0.000 0.000 0.000 0.000 0.000 0.000 0.094 1.182 1.242 1.044 0.074 0.056 0.074 0.034 0.091 0.096 0.068 0.086 1.811 2.265 1.899 0.972 0.997 1.092
0.000 0.000 0.000 0.000 0.000 0.000 0.000 0.000 0.000 0.000 0.000 0.000 0.000 0.000 0.000 0.000 0.000 0.000 0.000 0.000 0.000 0.000 0.000 0.000 0.000 0.000 0.000 0.000 0.016 0.990 1.261 1.028 0.261 0.076 1.065 0.099 0.046 0.015 0.097 0.404 2.267 1.998 1.635 0.867 0.088 1.073
0.000 0.000 0.000 0.000 0.000 0.000 0.000 0.000 0.000 0.000 0.000 0.000 0.000 0.000 0.000 0.000 0.000 0.000 0.000 0.000 0.000 0.000 0.000 0.000 0.000 0.000 0.000 0.000 0.001 0.369 1.252 1.278 1.551 0.291 1.513 0.104 0.054 0.079 0.093 1.128 1.674 1.809 1.552 0.099 0.248 0.560
0.000 0.000 0.000 0.000 0.000 0.000 0.000 0.000 0.000 0.000 0.000 0.000 0.000 0.000 0.000 0.000 0.000 0.000 0.000 0.000 0.000 0.000 0.000 0.000 0.000 0.000 0.000 0.000 0.000 0.100 1.156 1.630 1.538 1.783 1.751 1.212 0.049 0.088 0.072 0.850 1.345 1.731 0.203 0.082 0.087 0.097
0.000 0.000 0.000 0.000 0.000 0.000 0.000 0.000 0.000 0.000 0.000 0.000 0.000 0.000 0.000 0.000 0.000 0.000 0.000 0.000 0.000 0.000 0.000 0.000 0.000 0.000 0.000 0.000 0.000 0.182 0.651 1.370 1.161 1.710 0.442 0.529 0.020 0.009 0.064 1.407 1.880 1.431 0.103 0.073 0.084 0.086
0.000 0.000 0.000 0.000 0.000 0.000 0.000 0.000 0.000 0.000 0.000 0.000 0.000 0.000 0.000 0.000 0.000 0.000 0.000 0.000 0.000 0.000 0.000 0.000 0.000 0.000 0.000 0.000 0.000 0.001 0.379 0.083 1.500 1.274 0.053 0.067 0.093 0.081 1.137 1.791 2.146 1.430 0.951 0.068 0.053 0.050
0.000 0.000 0.000 0.000 0.000 0.000 0.000 0.000 0.000 0.000 0.000 0.000 0.000 0.000 0.000 0.000 0.000 0.000 0.000 0.000 0.000 0.000 0.000 0.000 0.000 0.000 0.000 0.000 0.000 0.001 0.042 0.725 1.493 1.257 0.078 0.097 0.081 0.195 1.615 1.734 2.222 2.150 1.335 0.043 0.069 0.079
0.000 0.000 0.000 0.000 0.000 0.000 0.000 0.000 0.000 0.000 0.000 0.000 0.000 0.000 0.000 0.000 0.000 0.000 0.000 0.000 0.000 0.000 0.000 0.000 0.000 0.000 0.000 0.000 0.000 0.000 0.021 0.711 1.183 1.188 0.090 0.025 0.866 1.622 2.191 2.169 2.716 2.409 0.076 0.305 0.058 0.036
0.000 0.000 0.000 0.000 0.000 0.000 0.000 0.000 0.000 0.000 0.000 0.000 0.000 0.000 0.000 0.000 0.000 0.000 0.000 0.000 0.000 0.000 0.000 0.000 0.000 0.000 0.000 0.000 0.000 0.000 0.001 0.438 0.494 1.081 0.164 0.243 3.238 3.264 3.365 3.424 2.815 1.657 0.193 0.066 0.067 0.059
0.000 0.000 0.000 0.000 0.000 0.000 0.000 0.000 0.000 0.000 0.000 0.000 0.000 0.000 0.000 0.000 0.000 0.000 0.000 0.000 0.000 0.000 0.000 0.000 0.000 0.000 0.000 0.000 0.000 0.000 0.000 0.046 0.538 0.277 0.100 1.643 3.094 4.007 3.853 3.692 2.561 1.770 0.671 0.083 0.058 0.051
0.000 0.000 0.000 0.000 0.000 0.000 0.000 0.000 0.000 0.000 0.000 0.000 0.000 0.000 0.000 0.000 0.000 0.000 0.000 0.000 0.000 0.000 0.000 0.000 0.000 0.000 0.000 0.000 0.000 0.000 0.000 0.000 0.315 0.317 0.455 1.983 2.549 3.348 3.359 2.864 2.613 1.773 1.149 0.248 0.065 0.052
0.000 0.000 0.000 0.000 0.000 0.000 0.000 0.000 0.000 0.000 0.000 0.000 0.000 0.000 0.000 0.000 0.000 0.000 0.000 0.000 0.000 0.000 0.000 0.000 0.000 0.000 0.000 0.000 0.000 0.000 0.000 0.000 0.025 0.097 1.572 1.876 1.936 2.638 2.376 2.572 3.228 2.875 2.456 1.368 0.061 0.076
0.000 0.000 0.000 0.000 0.000 0.000 0.000 0.000 0.000 0.000 0.000 0.000 0.000 0.000 0.000 0.000 0.000 0.000 0.000 0.000 0.000 0.000 0.000 0.000 0.000 0.000 0.000 0.000 0.000 0.000 0.000 0.000 0.051 1.118 1.670 1.685 1.646 1.827 1.485 1.901 3.419 3.359 3.127 2.154 0.053 0.240
0.000 0.000 0.000 0.000 0.000 0.000 0.000 0.000 0.000 0.000 0.000 0.000 0.000 0.000 0.000 0.000 0.000 0.000 0.000 0.000 0.000 0.000 0.000 0.000 0.000 0.000 0.000 0.000 0.000 0.000 0.000 0.000 0.136 0.991 1.353 1.389 1.420 1.620 0.722 0.390 2.661 2.897 2.999 2.630 1.528 0.702
0.000 0.000 0.000 0.000 0.000 0.000 0.000 0.000 0.000 0.000 0.000 0.000 0.000 0.000 0.000 0.000 0.000 0.000 0.000 0.000 0.000 0.000 0.000 0.000 0.000 0.000 0.000 0.000 0.000 0.000 0.000 0.000 0.000 0.060 0.558 1.168 1.345 1.485 0.838 0.245 2.310 2.590 2.735 2.644 2.205 1.152
0.000 0.000 0.000 0.000 0.000 0.000 0.000 0.000 0.000 0.000 0.000 0.000 0.000 0.000 0.000 0.000 0.000 0.000 0.000 0.000 0.000 0.000 0.000 0.000 0.000 0.000 0.000 0.000 0.000 0.000 0.000 0.000 0.000 0.001 0.038 0.902 1.145 1.047 0.996 2.042 2.497 2.763 2.593 2.460 2.676 1.476
0.000 0.000 0.000 0.000 0.000 0.000 0.000 0.000 0.000 0.000 0.000 0.000 0.000 0.000 0.000 0.000 0.000 0.000 0.000 0.000 0.000 0.000 0.000 0.000 0.000 0.000 0.000 0.000 0.000 0.000 0.000 0.000 0.000 0.000 0.000 0.196 0.770 0.098 1.578 2.720 2.804 2.591 2.625 2.463 2.763 1.466
0.000 0.000 0.000 0.000 0.000 0.000 0.000 0.000 0.000 0.000 0.000 0.000 0.000 0.000 0.000 0.000 0.000 0.000 0.000 0.000 0.000 0.000 0.000 0.000 0.000 0.000 0.000 0.000 0.000 0.000 0.000 0.000 0.000 0.000 0.000 0.004 0.878 1.178 1.811 2.586 2.747 2.591 2.735 2.648 2.437 1.550
0.000 0.000 0.000 0.000 0.000 0.000 0.000 0.000 0.000 0.000 0.000 0.000 0.000 0.000 0.000 0.000 0.000 0.000 0.000 0.000 0.000 0.000 0.000 0.000 0.000 0.000 0.000 0.000 0.000 0.000 0.000 0.000 0.000 0.000 0.000 0.000 0.729 1.314 1.718 2.069 2.642 2.908 3.052 3.236 2.614 1.524
0.000 0.000 0.000 0.000 0.000 0.000 0.000 0.000 0.000 0.000 0.000 0.000 0.000 0.000 0.000 0.000 0.000 0.000 0.000 0.000 0.000 0.000 0.000 0.000 0.000 0.000 0.000 0.000 0.000 0.000 0.000 0.000 0.000 0.000 0.000 0.001 0.325 1.465 1.644 1.677 2.326 3.055 3.172 3.722 3.019 1.710
0.000 0.000 0.000 0.000 0.000 0.000 0.000 0.000 0.000 0.000 0.000 0.000 0.000 0.000 0.000 0.000 0.000 0.000 0.000 0.000 0.000 0.000 0.000 0.000 0.000 0.000 0.000 0.000 0.000 0.000 0.000 0.000 0.000 0.000 0.000 0.000 0.053 1.139 1.520 1.572 2.093 2.230 2.879 3.744 3.180 2.273
0.000 0.000 0.000 0.000 0.000 0.000 0.000 0.000 0.000 0.000 0.000 0.000 0.000 0.000 0.000 0.000 0.000 0.000 0.000 0.000 0.000 0.000 0.000 0.000 0.000 0.000 0.000 0.000 0.000 0.000 0.000 0.000 0.000 0.000 0.000 0.000 0.082 0.707 1.291 1.500 2.045 1.902 2.803 2.800 2.580 2.318
