ncols        33
nrows        40
xllcorner    409817.8
yllcorner    6870589.1
cellsize     5.00
NODATA_value -9999
0.000 0.000 0.000 0.000 0.000 0.000 0.000 0.000 0.000 0.000 0.000 0.000 0.000 0.000 0.000 0.000 0.000 0.000 0.000 0.000 0.000 0.000 0.000 0.000 0.000 0.000 0.000 0.000 0.000 0.000 0.000 0.000 0.000
0.000 0.000 0.000 0.000 0.000 0.000 0.000 0.000 0.000 0.080 2.834 15.135 18.265 17.658 16.920 17.223 10.401 1.438 0.003 0.000 0.000 0.000 0.000 0.000 0.000 0.000 0.000 0.000 0.000 0.000 0.000 0.000 0.000
0.000 0.000 0.000 0.000 0.000 0.000 0.000 0.000 0.036 3.460 18.393 18.680 18.681 18.638 18.224 17.786 18.005 16.583 3.590 0.012 0.000 0.000 0.000 0.000 0.000 0.000 0.000 0.000 0.000 0.000 0.000 0.000 0.000
0.000 0.000 0.000 0.000 0.000 0.000 0.000 0.001 2.049 18.225 18.497 19.454 19.447 19.740 19.740 19.426 20.108 17.750 17.614 4.030 0.004 0.000 0.000 0.000 0.000 0.000 0.000 0.000 0.000 0.000 0.000 0.000 0.000
0.000 0.000 0.000 0.000 0.000 0.000 0.000 0.145 9.870 18.536 19.815 20.244 21.021 21.000 19.883 20.817 20.631 18.898 17.708 15.552 2.284 0.000 0.000 0.000 0.000 0.000 0.000 0.000 0.000 0.000 0.000 0.000 0.000
0.000 0.000 0.000 0.000 0.000 0.000 0.000 1.825 18.304 19.313 20.965 21.322 21.123 21.057 20.973 22.366 21.437 19.998 19.563 16.496 11.514 0.453 0.000 0.000 0.000 0.000 0.000 0.000 0.000 0.000 0.000 0.000 0.000
0.000 0.000 0.000 0.000 0.000 0.000 0.004 5.191 18.274 20.411 21.136 21.181 21.007 21.498 22.314 22.306 21.151 21.136 20.106 17.001 13.154 6.962 0.054 0.000 0.000 0.000 0.000 0.000 0.000 0.000 0.000 0.000 0.000
0.000 0.000 0.000 0.000 0.000 0.000 0.032 7.885 18.708 20.133 21.031 21.301 21.967 22.455 22.651 21.803 21.565 22.812 19.748 17.868 14.193 13.843 3.963 0.008 0.000 0.000 0.000 0.000 0.000 0.000 0.000 0.000 0.000
0.000 0.000 0.000 0.000 0.000 0.000 0.085 9.357 17.973 19.687 21.129 22.080 22.092 22.941 22.951 23.007 23.827 22.249 20.278 18.535 16.499 15.076 12.685 2.022 0.001 0.000 0.000 0.000 0.000 0.000 0.000 0.000 0.000
0.000 0.000 0.000 0.000 0.000 0.000 0.110 9.326 17.899 19.280 20.705 21.866 22.988 23.378 23.094 23.472 23.465 22.568 21.098 20.163 18.789 17.964 15.633 10.761 0.913 0.000 0.000 0.000 0.000 0.000 0.000 0.000 0.000
0.000 0.000 0.000 0.000 0.000 0.000 0.066 7.504 16.752 19.199 20.844 22.775 22.118 22.591 23.526 23.022 22.824 22.502 21.753 20.402 20.838 19.566 18.641 15.750 6.629 0.398 0.000 0.000 0.000 0.000 0.000 0.000 0.000
0.000 0.000 0.000 0.000 0.000 0.000 0.018 4.709 15.977 18.886 21.106 21.335 23.092 23.104 22.976 23.654 23.532 22.783 22.042 22.532 22.221 21.706 20.285 15.809 12.078 4.807 0.075 0.000 0.000 0.000 0.000 0.000 0.000
0.000 0.000 0.000 0.000 0.000 0.000 0.002 1.894 13.891 17.450 19.115 21.605 22.656 22.378 22.602 22.974 24.009 23.185 23.623 23.545 23.325 22.878 21.344 18.774 14.199 9.878 2.265 0.004 0.000 0.000 0.000 0.000 0.000
0.000 0.000 0.000 0.000 0.000 0.000 0.000 0.409 8.787 15.721 18.550 20.165 21.136 22.380 23.221 24.058 23.861 23.824 24.588 24.481 24.718 24.052 22.968 20.543 16.277 13.136 6.953 0.888 0.002 0.000 0.000 0.000 0.000
0.000 0.000 0.000 0.000 0.000 0.000 0.000 0.038 4.444 16.283 16.863 19.286 20.619 22.038 22.394 22.693 24.040 24.555 24.036 25.762 26.018 24.361 24.048 21.515 19.129 14.378 9.780 4.136 0.468 0.001 0.000 0.000 0.000
0.000 0.000 0.000 0.000 0.007 0.507 3.925 7.907 11.266 17.208 16.428 18.322 19.827 20.793 21.954 23.760 23.552 24.339 25.429 26.312 26.105 24.698 24.095 22.527 20.442 16.034 10.266 7.041 3.809 0.402 0.001 0.000 0.000
0.000 0.000 0.000 0.182 3.846 16.160 17.276 16.826 16.793 16.043 16.084 16.636 18.080 20.372 21.721 22.214 23.095 24.585 26.058 26.743 25.549 24.410 24.979 23.105 20.402 17.479 11.486 9.709 7.043 2.835 0.307 0.002 0.000
0.000 0.000 0.292 6.061 17.764 17.909 18.275 18.675 17.949 17.737 17.349 16.903 17.796 18.679 20.898 21.617 23.544 24.193 25.912 25.993 25.123 26.006 24.909 23.490 21.264 17.776 13.306 11.642 8.800 5.235 2.476 0.533 0.003
0.000 0.036 3.708 18.028 18.201 18.951 19.655 19.338 19.307 19.114 18.355 17.727 17.312 18.419 20.851 22.207 23.022 25.418 25.785 25.926 26.460 25.189 24.196 23.776 22.132 18.834 15.350 13.690 9.904 7.286 5.432 2.909 0.410
0.000 1.488 18.224 18.315 18.899 21.034 20.500 20.398 20.646 20.397 19.474 18.926 18.275 19.320 19.207 20.767 22.467 24.228 24.629 25.787 25.793 25.638 25.359 24.234 22.436 19.574 17.096 14.821 11.225 9.002 6.610 4.324 2.344
0.026 5.838 18.198 18.603 20.276 21.292 20.884 21.363 21.572 21.094 20.429 19.550 19.525 19.301 18.847 20.103 22.157 23.153 24.546 25.707 26.190 26.381 25.346 23.823 22.905 19.488 16.999 14.830 12.947 9.785 6.747 5.438 4.222
0.394 13.132 18.162 19.649 20.811 21.087 21.542 21.892 22.391 21.888 20.842 19.895 19.800 18.877 18.796 20.464 22.166 23.354 24.063 25.346 25.980 25.872 25.507 23.879 22.496 20.788 18.238 16.683 13.585 10.694 7.669 6.041 4.879
1.671 17.901 18.662 19.792 20.548 21.326 21.805 22.014 22.267 21.641 20.590 20.801 20.353 20.002 19.702 21.335 23.200 23.932 23.204 24.713 26.609 25.958 24.126 24.008 23.497 20.065 18.360 16.287 14.684 12.045 7.936 6.418 5.020
2.988 17.095 18.341 19.498 20.971 21.200 21.766 22.214 21.517 20.804 21.117 20.756 20.168 20.744 19.839 20.134 22.938 23.699 23.764 23.897 25.233 25.927 24.748 24.079 22.330 20.266 18.339 16.800 14.969 12.370 9.054 6.632 4.966
3.748 16.846 18.448 19.624 20.701 21.318 21.919 21.690 21.926 20.954 21.746 20.450 20.199 20.992 20.076 21.231 21.608 22.589 22.850 24.175 24.848 25.330 25.184 23.816 21.440 19.895 18.454 18.316 15.321 13.813 10.284 7.135 5.722
3.781 15.932 17.035 19.521 20.911 21.031 21.658 21.837 22.387 21.620 20.918 20.533 20.999 19.405 18.451 19.793 22.163 23.415 23.048 23.170 25.602 24.942 23.250 22.282 21.271 19.754 19.562 17.224 16.215 13.661 11.982 7.904 6.050
3.074 15.292 16.909 18.235 19.773 21.104 21.818 21.578 21.337 21.096 21.098 21.093 19.181 18.562 17.090 19.188 20.890 22.733 22.812 23.766 23.894 23.201 22.880 21.636 20.350 19.413 19.167 16.587 15.285 14.579 12.669 8.763 6.155
2.071 13.518 16.016 18.530 20.203 21.042 21.509 21.766 21.862 20.167 20.581 19.544 19.259 20.331 19.376 19.747 20.529 21.778 20.866 21.859 22.336 23.002 22.182 20.983 20.049 19.401 18.482 16.869 16.731 15.675 12.896 9.606 5.986
1.198 11.302 15.128 17.675 19.289 20.206 20.748 20.938 20.194 19.363 20.434 20.390 19.112 18.158 17.332 17.955 19.977 21.471 22.486 21.799 23.073 21.993 21.006 20.227 19.289 19.061 18.050 16.903 16.775 15.407 13.401 10.393 6.826
0.569 8.821 14.411 16.681 18.297 19.792 20.191 20.944 18.401 18.260 19.537 18.180 16.762 16.430 16.763 18.039 19.096 20.117 20.622 21.099 21.181 20.465 19.686 19.193 18.853 18.557 17.436 16.530 16.426 15.461 14.439 11.690 7.463
0.189 6.133 12.800 15.563 17.459 18.702 18.997 19.987 20.887 18.853 17.221 16.252 15.389 17.171 18.309 16.179 17.467 19.976 20.955 20.991 20.165 19.278 18.723 18.460 18.425 17.785 16.191 16.695 16.239 15.447 14.583 12.022 7.640
0.039 3.553 11.022 13.960 16.731 17.703 19.265 20.337 18.488 16.474 16.759 16.085 18.049 18.400 16.055 15.568 17.267 18.672 19.929 19.053 19.331 18.705 18.199 18.286 18.443 17.882 17.453 17.005 16.716 15.044 14.458 11.847 7.474
0.004 1.591 8.809 11.877 14.371 16.332 18.202 18.144 16.970 16.345 16.183 18.435 17.341 15.755 15.352 14.842 17.236 17.741 18.829 19.535 18.764 19.034 17.664 17.671 17.670 16.826 16.695 16.316 15.240 14.813 13.640 11.511 7.945
0.000 0.552 6.500 10.569 13.128 15.488 16.389 16.457 16.485 17.768 16.822 15.499 14.472 14.488 14.780 15.621 15.970 17.821 18.574 20.340 20.572 17.879 16.815 15.907 16.024 15.823 14.958 14.132 13.674 14.321 13.096 12.645 8.068
0.000 0.121 3.959 9.035 10.890 13.583 15.169 15.584 17.170 17.171 13.946 12.520 12.095 13.281 13.842 12.983 14.083 15.230 17.167 18.076 17.789 16.210 14.238 14.696 14.602 15.065 14.413 13.134 12.948 12.996 13.223 11.364 7.767
0.000 0.016 2.025 7.493 9.666 10.977 13.589 15.608 17.182 15.488 12.955 9.606 9.370 11.735 12.497 11.682 12.105 14.274 15.204 16.397 15.351 13.989 13.190 13.130 13.961 13.751 13.305 12.611 13.211 13.583 12.253 9.832 7.125
0.000 0.001 0.879 6.268 9.363 9.976 11.716 14.810 14.592 13.362 9.309 8.387 8.301 9.082 10.204 8.825 9.338 10.852 12.586 14.045 13.350 12.214 11.544 10.662 12.136 12.838 12.266 11.923 10.961 10.920 9.271 8.330 6.636
0.000 0.000 0.232 4.189 7.901 9.486 10.099 10.812 11.963 9.905 7.613 7.289 7.416 7.999 7.938 7.816 8.286 8.290 8.954 11.721 11.929 10.273 8.089 8.194 9.387 9.956 9.590 8.890 8.987 8.212 7.903 7.258 6.967
0.000 0.000 0.052 2.257 6.581 7.505 7.434 7.818 8.152 7.554 6.768 6.743 6.871 6.736 7.104 7.071 7.188 7.231 7.506 8.083 9.708 8.278 5.905 7.397 8.241 7.854 7.845 8.291 7.975 7.670 7.309 7.650 6.835
0.000 0.000 0.013 1.106 4.602 6.272 6.102 6.176 6.017 5.723 5.138 5.425 5.193 5.804 5.892 5.624 5.613 5.680 5.861 5.919 6.037 4.887 5.497 6.907 6.613 6.409 6.492 6.443 6.453 7.017 6.912 6.780 5.599
