ncols        39
nrows        87
xllcorner    409637.8
yllcorner    6870794.1
cellsize     5.00
NODATA_value -9999
0.000 0.000 0.000 0.540 7.176 15.743 17.511 8.888 0.266 0.000 0.000 0.000 0.000 0.000 0.000 0.000 0.000 0.000 0.000 0.000 0.000 0.000 0.000 0.000 0.000 0.000 0.000 0.000 0.000 0.000 0.000 0.000 0.000 0.000 0.000 0.000 0.000 0.000 0.000
0.000 0.000 0.941 13.871 18.210 18.838 18.367 17.659 13.046 0.380 0.000 0.000 0.000 0.000 0.000 0.000 0.000 0.000 0.000 0.000 0.000 0.000 0.000 0.000 0.000 0.000 0.000 0.000 0.000 0.000 0.000 0.000 0.000 0.000 0.000 0.000 0.000 0.000 0.000
0.000 0.709 14.094 18.815 19.549 20.229 20.163 19.824 18.269 12.503 0.093 0.000 0.000 0.000 0.000 0.000 0.000 0.000 0.000 0.000 0.000 0.000 0.000 0.000 0.000 0.000 0.000 0.000 0.000 0.000 0.000 0.000 0.000 0.000 0.000 0.000 0.000 0.000 0.000
0.013 4.138 18.497 19.973 20.906 20.975 21.480 21.502 20.500 18.170 7.660 0.033 0.000 0.000 0.000 0.000 0.000 0.000 0.000 0.000 0.000 0.000 0.000 0.000 0.000 0.000 0.000 0.000 0.000 0.000 0.000 0.000 0.000 0.000 0.000 0.000 0.000 0.000 0.000
0.752 17.972 19.385 21.150 22.375 22.094 22.519 23.339 23.422 19.513 17.696 5.213 0.017 0.000 0.000 0.000 0.000 0.000 0.000 0.000 0.000 0.000 0.000 0.000 0.000 0.000 0.000 0.000 0.000 0.000 0.000 0.000 0.000 0.000 0.000 0.000 0.000 0.000 0.000
2.917 18.196 20.341 22.280 22.990 23.595 23.653 23.710 22.943 20.122 16.460 14.952 4.029 0.041 0.000 0.000 0.000 0.000 0.000 0.000 0.000 0.000 0.000 0.000 0.000 0.000 0.000 0.000 0.000 0.000 0.000 0.000 0.000 0.000 0.000 0.000 0.000 0.000 0.000
5.959 18.359 20.517 22.988 24.130 24.713 23.908 24.396 25.325 22.690 18.585 16.726 13.615 4.934 0.077 0.000 0.000 0.000 0.000 0.000 0.000 0.000 0.000 0.000 0.000 0.000 0.000 0.000 0.000 0.000 0.000 0.000 0.000 0.000 0.000 0.000 0.000 0.000 0.000
9.939 18.193 21.196 23.490 24.128 24.261 23.231 25.323 24.795 23.364 21.291 17.783 16.004 14.428 5.444 0.128 0.000 0.000 0.000 0.000 0.000 0.000 0.000 0.000 0.000 0.000 0.000 0.000 0.000 0.000 0.000 0.000 0.000 0.000 0.000 0.000 0.000 0.000 0.000
12.298 19.190 21.348 23.055 24.213 24.684 24.972 25.630 23.890 24.153 20.952 19.537 18.717 16.471 13.501 6.069 0.098 0.000 0.000 0.000 0.000 0.000 0.000 0.000 0.000 0.000 0.000 0.000 0.000 0.000 0.000 0.000 0.000 0.000 0.000 0.000 0.000 0.000 0.000
12.317 17.927 21.550 22.847 25.223 27.785 25.307 24.417 25.863 22.729 21.557 21.271 17.592 15.982 13.896 13.734 5.691 0.391 0.002 0.000 0.000 0.000 0.000 0.000 0.000 0.000 0.000 0.000 0.000 0.000 0.000 0.000 0.000 0.000 0.000 0.000 0.000 0.000 0.000
11.500 18.394 20.410 23.308 27.401 26.678 23.743 25.925 24.477 22.280 22.748 20.406 17.271 16.558 15.450 16.366 12.680 7.795 1.675 0.003 0.000 0.000 0.000 0.000 0.000 0.000 0.000 0.000 0.000 0.000 0.000 0.000 0.000 0.000 0.000 0.000 0.000 0.000 0.000
9.278 18.016 21.732 25.832 24.787 25.399 24.879 24.791 24.177 24.560 23.264 22.310 20.051 18.226 17.836 15.472 12.934 13.458 10.039 1.511 0.000 0.000 0.000 0.000 0.000 0.000 0.000 0.000 0.000 0.000 0.000 0.000 0.000 0.000 0.000 0.000 0.000 0.000 0.000
7.200 17.701 22.836 22.171 23.572 24.814 23.768 24.360 26.064 24.898 22.662 22.320 21.186 20.898 17.649 16.145 14.479 13.572 12.905 8.080 0.204 0.000 0.000 0.000 0.000 0.000 0.000 0.000 0.000 0.000 0.000 0.000 0.000 0.000 0.000 0.000 0.000 0.000 0.000
3.916 15.628 19.899 20.965 22.222 24.868 24.353 25.416 26.704 26.112 24.348 23.077 23.868 21.310 18.777 17.782 14.809 13.320 12.589 11.212 4.425 0.000 0.000 0.000 0.000 0.000 0.000 0.000 0.000 0.000 0.000 0.000 0.000 0.000 0.000 0.000 0.000 0.000 0.000
2.100 12.568 18.322 19.408 22.898 24.090 25.115 24.707 26.176 25.594 22.872 24.227 24.581 20.245 19.547 16.876 13.461 13.466 13.089 12.867 9.699 0.285 0.000 0.000 0.000 0.000 0.000 0.000 0.000 0.000 0.000 0.000 0.000 0.000 0.000 0.000 0.000 0.000 0.000
1.209 10.152 16.552 20.413 23.801 24.838 26.387 26.240 25.604 24.149 22.276 24.728 24.223 22.315 20.411 16.034 13.651 13.368 13.939 13.633 11.869 4.243 0.000 0.000 0.000 0.000 0.000 0.000 0.000 0.000 0.000 0.000 0.000 0.000 0.000 0.000 0.000 0.000 0.000
0.533 7.769 14.903 20.922 24.365 25.217 25.279 24.693 24.183 23.080 24.040 26.242 23.986 21.723 19.385 15.212 14.335 14.609 14.598 13.567 12.268 8.295 0.000 0.000 0.000 0.000 0.000 0.000 0.000 0.000 0.000 0.000 0.000 0.000 0.000 0.000 0.000 0.000 0.000
0.201 5.462 13.245 19.017 22.586 25.269 24.683 23.211 24.627 22.683 25.701 24.924 23.470 22.425 20.275 17.666 15.505 15.257 14.718 13.938 13.248 11.193 0.043 0.000 0.000 0.000 0.000 0.000 0.000 0.000 0.000 0.000 0.000 0.000 0.000 0.000 0.000 0.000 0.000
0.042 3.107 11.775 17.248 22.822 23.177 23.322 24.005 23.588 24.730 25.126 26.024 23.686 23.420 20.614 16.769 15.204 14.414 13.305 13.879 13.026 11.456 1.707 0.000 0.000 0.000 0.000 0.000 0.000 0.000 0.000 0.000 0.000 0.000 0.000 0.000 0.000 0.000 0.000
0.003 1.151 8.669 15.142 19.941 22.829 22.847 24.438 24.993 23.694 25.969 25.079 23.847 22.475 19.153 16.175 14.408 13.808 13.214 13.641 12.417 10.001 4.924 0.000 0.000 0.000 0.000 0.000 0.000 0.000 0.000 0.000 0.000 0.000 0.000 0.000 0.000 0.000 0.000
0.000 0.239 5.624 12.019 16.906 21.036 23.089 23.623 23.676 23.843 23.986 23.706 23.431 20.069 17.624 15.418 14.891 13.732 13.436 12.755 11.983 10.750 6.915 0.000 0.000 0.000 0.000 0.000 0.000 0.000 0.000 0.000 0.000 0.000 0.000 0.000 0.000 0.000 0.000
0.000 0.068 3.461 10.344 15.721 19.765 20.706 21.661 22.151 23.185 23.069 21.721 21.991 18.729 17.355 18.026 15.161 14.189 13.460 11.761 11.612 11.367 7.532 0.005 0.000 0.000 0.000 0.000 0.000 0.000 0.000 0.000 0.000 0.000 0.000 0.000 0.000 0.000 0.000
0.000 0.010 1.762 8.259 12.199 17.736 20.859 21.670 22.433 21.779 21.940 22.365 21.649 19.333 18.406 17.897 15.164 15.363 13.066 11.913 12.661 10.943 8.273 0.836 0.000 0.000 0.000 0.000 0.000 0.000 0.000 0.000 0.000 0.000 0.000 0.000 0.000 0.000 0.000
0.000 0.001 0.814 6.568 10.558 16.025 18.202 20.984 21.001 19.777 20.317 20.608 20.476 19.436 20.189 17.656 16.534 15.225 14.050 13.197 12.595 11.335 8.620 3.579 0.000 0.000 0.000 0.000 0.000 0.000 0.000 0.000 0.000 0.000 0.000 0.000 0.000 0.000 0.000
0.000 0.000 0.278 4.807 9.238 13.749 18.446 19.370 19.452 20.177 20.153 19.514 20.272 20.132 18.693 18.929 17.406 15.805 14.621 12.211 11.831 11.126 8.585 4.929 0.000 0.000 0.000 0.000 0.000 0.000 0.000 0.000 0.000 0.000 0.000 0.000 0.000 0.000 0.000
0.000 0.000 0.078 3.037 8.040 11.086 16.226 18.185 18.938 19.256 18.573 18.515 20.297 20.489 17.610 18.546 16.595 16.770 13.111 11.479 10.269 10.750 8.991 5.794 0.001 0.000 0.000 0.000 0.000 0.000 0.000 0.000 0.000 0.000 0.000 0.000 0.000 0.000 0.000
0.000 0.000 0.011 1.326 6.307 9.218 13.436 17.357 19.067 18.355 18.058 18.716 19.294 19.502 18.134 19.229 17.610 15.359 12.054 10.680 10.755 11.095 9.514 6.549 0.484 0.000 0.000 0.000 0.000 0.000 0.000 0.000 0.000 0.000 0.000 0.000 0.000 0.000 0.000
0.000 0.000 0.006 0.782 5.163 8.442 12.162 15.648 17.508 18.603 18.539 19.703 20.132 18.208 19.289 17.594 16.007 14.543 12.393 11.473 11.842 11.250 9.832 7.196 2.790 0.000 0.000 0.000 0.000 0.000 0.000 0.000 0.000 0.000 0.000 0.000 0.000 0.000 0.000
0.000 0.000 0.000 0.197 3.817 7.377 10.568 15.070 18.247 17.157 18.141 19.962 19.342 19.328 18.969 17.453 15.226 13.933 12.806 12.338 12.214 11.043 10.053 7.296 3.952 0.076 0.000 0.000 0.000 0.000 0.000 0.000 0.000 0.000 0.000 0.000 0.000 0.000 0.000
0.000 0.000 0.000 0.031 2.036 6.331 8.392 12.975 16.179 18.439 18.089 17.134 18.126 17.895 17.182 15.960 13.442 13.772 12.743 12.460 10.976 11.361 10.123 7.288 4.496 1.485 0.001 0.000 0.000 0.000 0.000 0.000 0.000 0.000 0.000 0.000 0.000 0.000 0.000
0.000 0.000 0.000 0.002 0.659 4.862 7.075 10.128 15.132 15.787 16.493 16.366 16.772 16.545 15.706 14.400 13.562 14.146 13.690 12.597 11.866 10.701 9.409 7.449 4.954 3.199 0.287 0.000 0.000 0.000 0.000 0.000 0.000 0.000 0.000 0.000 0.000 0.000 0.000
0.000 0.000 0.000 0.000 0.123 3.545 6.769 9.002 11.912 14.964 15.747 12.985 15.328 14.315 14.450 13.444 14.525 14.913 13.816 12.484 11.703 10.336 9.497 7.769 4.894 3.630 1.983 0.015 0.000 0.000 0.000 0.000 0.000 0.000 0.000 0.000 0.000 0.000 0.000
0.000 0.000 0.000 0.000 0.099 2.126 5.662 7.145 9.366 13.216 13.629 13.803 13.930 13.737 13.851 14.242 14.577 14.171 11.896 13.993 11.691 10.192 9.252 7.603 4.798 4.085 3.243 0.696 0.002 0.000 0.000 0.000 0.000 0.000 0.000 0.000 0.000 0.000 0.000
0.000 0.000 0.000 0.000 0.007 0.722 3.506 5.779 6.855 11.112 11.711 11.072 12.226 13.715 14.124 14.638 13.504 12.512 12.460 12.900 9.558 9.374 9.013 7.504 5.366 4.602 3.798 2.463 0.318 0.000 0.000 0.000 0.000 0.000 0.000 0.000 0.000 0.000 0.000
0.000 0.000 0.000 0.000 0.000 0.099 1.489 4.325 5.820 9.590 11.715 11.739 13.232 13.889 13.649 13.555 12.390 11.997 12.096 11.213 9.237 8.306 8.941 7.472 5.852 4.728 4.140 3.479 1.833 0.002 0.000 0.000 0.000 0.000 0.000 0.000 0.000 0.000 0.000
0.000 0.000 0.000 0.000 0.000 0.000 0.108 1.747 3.710 6.831 8.650 11.575 12.245 12.814 13.519 12.266 11.186 10.613 11.318 10.793 9.406 8.736 8.190 7.515 5.887 4.719 4.249 3.627 2.971 0.401 0.000 0.000 0.000 0.000 0.000 0.000 0.000 0.000 0.000
0.000 0.000 0.000 0.000 0.000 0.000 0.001 0.595 3.482 5.920 8.493 9.755 10.725 11.624 11.494 11.420 10.769 11.212 11.656 11.742 10.367 8.589 7.712 6.846 5.821 4.701 4.205 3.786 3.304 1.780 0.016 0.000 0.000 0.000 0.000 0.000 0.000 0.000 0.000
0.000 0.000 0.000 0.000 0.000 0.000 0.000 0.125 2.666 5.455 7.136 9.182 9.475 10.395 11.307 10.975 11.496 11.112 11.751 11.041 9.015 7.732 6.900 6.467 6.014 4.782 4.217 3.767 3.002 2.207 0.461 0.001 0.000 0.000 0.000 0.000 0.000 0.000 0.000
0.000 0.000 0.000 0.000 0.000 0.000 0.000 0.004 0.440 3.195 4.781 6.142 8.225 9.225 10.192 10.347 10.214 10.531 11.311 9.358 7.740 7.003 6.236 5.848 5.615 4.781 3.989 3.335 2.689 2.687 1.743 0.016 0.000 0.000 0.000 0.000 0.000 0.000 0.000
0.000 0.000 0.000 0.000 0.000 0.000 0.000 0.000 0.005 0.737 4.139 5.854 7.527 8.705 9.373 9.265 9.296 9.431 9.024 7.593 6.475 6.016 5.113 5.197 5.378 4.858 3.766 2.864 2.330 2.482 2.171 0.102 0.000 0.000 0.000 0.000 0.000 0.000 0.000
0.000 0.000 0.000 0.000 0.000 0.000 0.000 0.000 0.000 0.342 2.734 5.341 6.401 8.165 8.498 8.194 8.562 8.797 8.793 6.991 5.999 4.824 5.321 5.401 5.436 4.662 3.503 2.215 0.932 1.698 1.270 0.690 0.000 0.000 0.000 0.000 0.000 0.000 0.000
0.000 0.000 0.000 0.000 0.000 0.000 0.000 0.000 0.000 0.000 1.627 4.191 5.940 6.802 7.309 7.301 7.667 7.917 7.414 5.961 4.882 4.885 5.704 5.484 5.463 4.872 3.560 1.380 0.940 0.782 1.527 1.321 0.043 0.000 0.000 0.000 0.000 0.000 0.000
0.000 0.000 0.000 0.000 0.000 0.000 0.000 0.000 0.000 0.000 0.039 2.261 3.978 4.789 5.332 6.682 7.526 7.440 5.643 5.103 4.816 5.313 5.538 5.451 5.581 4.997 3.587 2.072 1.030 0.638 2.046 1.648 0.344 0.000 0.000 0.000 0.000 0.000 0.000
0.000 0.000 0.000 0.000 0.000 0.000 0.000 0.000 0.000 0.000 0.000 0.617 2.597 3.823 5.131 6.747 7.719 6.760 5.854 5.173 5.309 5.372 5.298 5.810 5.689 5.023 4.024 2.904 0.955 1.052 2.159 1.946 0.826 0.016 0.000 0.000 0.000 0.000 0.000
0.000 0.000 0.000 0.000 0.000 0.000 0.000 0.000 0.000 0.000 0.000 0.016 1.477 3.098 4.096 5.332 5.935 5.947 5.586 5.331 5.654 5.469 6.029 5.952 5.953 5.319 4.622 3.252 0.718 1.268 2.391 2.299 1.598 0.285 0.000 0.000 0.000 0.000 0.000
0.000 0.000 0.000 0.000 0.000 0.000 0.000 0.000 0.000 0.000 0.000 0.001 0.148 1.971 3.293 4.389 4.713 5.661 5.984 5.423 5.523 5.395 6.181 5.941 6.007 5.327 4.812 3.354 1.897 2.189 2.675 2.322 2.147 0.855 0.031 0.000 0.000 0.000 0.000
0.000 0.000 0.000 0.000 0.000 0.000 0.000 0.000 0.000 0.000 0.000 0.000 0.037 1.449 3.209 3.511 3.136 4.404 5.147 5.500 4.720 5.946 5.986 5.832 5.915 5.504 5.206 3.961 2.934 2.691 2.566 2.282 2.279 1.617 0.305 0.009 0.000 0.000 0.000
0.000 0.000 0.000 0.000 0.000 0.000 0.000 0.000 0.000 0.000 0.000 0.000 0.007 0.381 1.719 2.825 2.994 3.410 5.011 5.590 5.336 5.456 5.441 5.494 5.839 5.744 5.176 4.239 3.548 3.282 2.975 2.702 2.238 2.147 1.329 0.434 0.009 0.000 0.000
0.000 0.000 0.000 0.000 0.000 0.000 0.000 0.000 0.000 0.000 0.000 0.000 0.000 0.016 0.324 2.034 2.876 2.995 3.948 5.002 5.078 4.805 4.711 5.344 5.883 5.423 4.707 4.372 4.180 3.917 3.513 2.938 2.353 2.523 2.303 1.458 0.342 0.001 0.000
0.000 0.000 0.000 0.000 0.000 0.000 0.000 0.000 0.000 0.000 0.000 0.000 0.000 0.000 0.020 0.691 2.533 2.792 3.258 4.275 4.660 3.805 4.076 5.270 5.306 5.097 4.574 4.607 4.576 4.377 3.804 2.740 2.494 2.726 2.629 2.215 1.095 0.105 0.000
0.000 0.000 0.000 0.000 0.000 0.000 0.000 0.000 0.000 0.000 0.000 0.000 0.000 0.000 0.000 0.039 1.706 2.891 2.865 2.324 3.824 3.620 3.798 4.895 4.904 5.008 4.437 4.749 4.739 4.924 3.651 2.154 2.294 2.434 2.820 2.655 1.775 0.744 0.021
0.000 0.000 0.000 0.000 0.000 0.000 0.000 0.000 0.000 0.000 0.000 0.000 0.000 0.000 0.000 0.001 0.603 2.372 2.595 1.934 2.466 3.661 4.144 4.968 4.386 4.503 4.773 5.020 4.790 4.707 3.667 2.991 2.362 2.486 3.102 2.786 2.286 1.490 0.417
0.000 0.000 0.000 0.000 0.000 0.000 0.000 0.000 0.000 0.000 0.000 0.000 0.000 0.000 0.000 0.000 0.020 0.952 2.237 2.003 1.781 3.429 4.165 4.456 4.815 4.969 4.964 5.262 4.849 5.124 4.700 3.676 2.729 2.660 2.831 2.606 2.631 2.064 1.038
0.000 0.000 0.000 0.000 0.000 0.000 0.000 0.000 0.000 0.000 0.000 0.000 0.000 0.000 0.000 0.000 0.000 0.095 1.674 1.794 1.812 3.716 4.598 4.785 4.902 4.964 5.099 4.836 4.982 5.317 5.192 4.064 2.643 2.122 2.099 2.798 2.822 2.365 1.599
0.000 0.000 0.000 0.000 0.000 0.000 0.000 0.000 0.000 0.000 0.000 0.000 0.000 0.000 0.000 0.000 0.000 0.016 1.305 1.820 1.655 3.262 4.628 5.137 4.706 4.851 4.575 4.899 5.226 5.654 5.091 4.186 2.618 1.556 2.127 2.788 2.744 2.374 1.970
0.000 0.000 0.000 0.000 0.000 0.000 0.000 0.000 0.000 0.000 0.000 0.000 0.000 0.000 0.000 0.000 0.000 0.001 0.450 1.799 1.857 3.040 3.994 4.994 4.559 4.407 4.795 5.289 5.487 5.451 4.867 4.090 2.139 0.848 1.765 2.339 2.496 2.212 2.153
0.000 0.000 0.000 0.000 0.000 0.000 0.000 0.000 0.000 0.000 0.000 0.000 0.000 0.000 0.000 0.000 0.000 0.000 0.100 1.611 2.388 2.652 3.477 4.541 4.259 4.082 4.465 5.266 5.443 5.208 4.848 3.454 1.756 1.185 1.222 1.732 2.213 1.891 2.161
0.000 0.000 0.000 0.000 0.000 0.000 0.000 0.000 0.000 0.000 0.000 0.000 0.000 0.000 0.000 0.000 0.000 0.000 0.109 0.828 2.029 1.834 2.815 2.127 3.509 3.021 4.428 5.215 5.682 5.494 4.819 3.618 2.237 1.555 0.860 0.995 1.576 2.055 2.413
0.000 0.000 0.000 0.000 0.000 0.000 0.000 0.000 0.000 0.000 0.000 0.000 0.000 0.000 0.000 0.000 0.000 0.000 0.000 0.372 0.085 2.169 1.882 0.226 2.290 3.250 4.702 5.673 5.844 5.736 4.929 4.115 2.420 1.521 0.806 0.910 0.597 1.821 2.461
0.000 0.000 0.000 0.000 0.000 0.000 0.000 0.000 0.000 0.000 0.000 0.000 0.000 0.000 0.000 0.000 0.000 0.000 0.000 0.037 1.022 2.149 1.728 0.041 1.981 3.419 5.030 5.733 5.842 5.759 5.213 4.469 2.328 1.852 1.242 0.128 0.032 2.094 2.546
0.000 0.000 0.000 0.000 0.000 0.000 0.000 0.000 0.000 0.000 0.000 0.000 0.000 0.000 0.000 0.000 0.000 0.000 0.000 0.012 0.781 1.675 1.654 0.080 0.000 4.249 5.326 5.768 5.787 6.037 5.486 4.070 2.669 2.357 1.307 0.585 1.075 1.967 2.539
0.000 0.000 0.000 0.000 0.000 0.000 0.000 0.000 0.000 0.000 0.000 0.000 0.000 0.000 0.000 0.000 0.000 0.000 0.000 0.000 0.364 0.791 1.486 0.928 0.120 5.171 5.602 6.182 6.382 6.225 5.427 4.058 3.865 2.582 1.659 1.242 0.690 1.007 2.013
0.000 0.000 0.000 0.000 0.000 0.000 0.000 0.000 0.000 0.000 0.000 0.000 0.000 0.000 0.000 0.000 0.000 0.000 0.000 0.000 0.027 0.638 0.721 0.703 2.574 4.679 6.007 6.237 6.758 6.124 5.717 5.112 4.307 3.194 2.365 1.607 0.789 1.038 1.650
0.000 0.000 0.000 0.000 0.000 0.000 0.000 0.000 0.000 0.000 0.000 0.000 0.000 0.000 0.000 0.000 0.000 0.000 0.000 0.000 0.000 0.268 0.622 1.105 2.866 3.785 5.047 5.698 5.905 6.036 5.671 5.232 4.787 3.971 3.081 2.316 1.222 1.097 1.556
0.000 0.000 0.000 0.000 0.000 0.000 0.000 0.000 0.000 0.000 0.000 0.000 0.000 0.000 0.000 0.000 0.000 0.000 0.000 0.000 0.000 0.016 0.085 2.240 2.836 2.979 4.148 4.599 5.488 6.087 6.057 5.827 5.137 4.594 4.033 3.123 2.447 1.404 1.090
0.000 0.000 0.000 0.000 0.000 0.000 0.000 0.000 0.000 0.000 0.000 0.000 0.000 0.000 0.000 0.000 0.000 0.000 0.000 0.000 0.000 0.025 1.328 2.363 2.495 2.411 3.231 3.920 4.879 6.199 6.325 6.245 5.563 4.751 4.700 4.155 3.336 1.576 0.411
0.000 0.000 0.000 0.000 0.000 0.000 0.000 0.000 0.000 0.000 0.000 0.000 0.000 0.000 0.000 0.000 0.000 0.000 0.000 0.000 0.000 0.046 1.010 1.734 1.966 1.999 2.584 3.097 4.132 5.512 5.930 6.100 5.851 5.252 4.977 4.448 3.584 2.206 0.606
0.000 0.000 0.000 0.000 0.000 0.000 0.000 0.000 0.000 0.000 0.000 0.000 0.000 0.000 0.000 0.000 0.000 0.000 0.000 0.000 0.000 0.000 0.026 0.550 1.562 1.889 2.050 2.803 3.590 5.070 5.503 5.810 5.819 5.544 5.162 4.670 3.759 2.790 1.800
0.000 0.000 0.000 0.000 0.000 0.000 0.000 0.000 0.000 0.000 0.000 0.000 0.000 0.000 0.000 0.000 0.000 0.000 0.000 0.000 0.000 0.000 0.000 0.027 1.099 1.586 1.451 2.234 4.026 4.860 5.479 5.614 5.619 5.715 5.335 4.818 4.016 2.871 2.664
0.000 0.000 0.000 0.000 0.000 0.000 0.000 0.000 0.000 0.000 0.000 0.000 0.000 0.000 0.000 0.000 0.000 0.000 0.000 0.000 0.000 0.000 0.000 0.000 0.176 1.023 0.669 2.256 4.076 4.824 5.210 5.486 5.531 5.762 5.238 4.766 3.789 3.171 2.564
0.000 0.000 0.000 0.000 0.000 0.000 0.000 0.000 0.000 0.000 0.000 0.000 0.000 0.000 0.000 0.000 0.000 0.000 0.000 0.000 0.000 0.000 0.000 0.000 0.004 1.079 1.633 2.364 3.499 4.368 4.975 5.470 5.524 5.548 5.248 4.705 3.776 2.819 2.355
0.000 0.000 0.000 0.000 0.000 0.000 0.000 0.000 0.000 0.000 0.000 0.000 0.000 0.000 0.000 0.000 0.000 0.000 0.000 0.000 0.000 0.000 0.000 0.000 0.000 0.796 1.780 2.368 2.711 3.731 4.759 5.471 5.768 5.522 5.269 4.690 3.806 2.172 2.599
0.000 0.000 0.000 0.000 0.000 0.000 0.000 0.000 0.000 0.000 0.000 0.000 0.000 0.000 0.000 0.000 0.000 0.000 0.000 0.000 0.000 0.000 0.000 0.000 0.000 0.268 1.896 2.301 2.373 3.134 4.488 5.628 6.135 5.831 5.410 4.857 3.841 2.154 2.938
0.000 0.000 0.000 0.000 0.000 0.000 0.000 0.000 0.000 0.000 0.000 0.000 0.000 0.000 0.000 0.000 0.000 0.000 0.000 0.000 0.000 0.000 0.000 0.000 0.000 0.031 1.305 2.084 2.223 2.879 3.245 5.106 6.217 6.057 5.822 4.978 4.158 2.861 3.379
0.000 0.000 0.000 0.000 0.000 0.000 0.000 0.000 0.000 0.000 0.000 0.000 0.000 0.000 0.000 0.000 0.000 0.000 0.000 0.000 0.000 0.000 0.000 0.000 0.000 0.031 0.682 1.677 2.122 2.832 2.604 4.594 6.307 6.348 6.047 5.139 4.271 3.247 3.453
0.000 0.000 0.000 0.000 0.000 0.000 0.000 0.000 0.000 0.000 0.000 0.000 0.000 0.000 0.000 0.000 0.000 0.000 0.000 0.000 0.000 0.000 0.000 0.000 0.000 0.000 0.150 1.258 1.872 2.708 2.530 3.874 5.840 6.144 5.818 4.900 3.977 3.313 3.458
0.000 0.000 0.000 0.000 0.000 0.000 0.000 0.000 0.000 0.000 0.000 0.000 0.000 0.000 0.000 0.000 0.000 0.000 0.000 0.000 0.000 0.000 0.000 0.000 0.000 0.000 0.001 0.639 1.587 2.189 2.558 3.195 5.323 5.981 5.640 4.645 3.675 3.228 3.291
0.000 0.000 0.000 0.000 0.000 0.000 0.000 0.000 0.000 0.000 0.000 0.000 0.000 0.000 0.000 0.000 0.000 0.000 0.000 0.000 0.000 0.000 0.000 0.000 0.000 0.000 0.000 0.028 1.162 2.096 2.521 2.759 4.511 5.891 5.403 4.703 3.960 3.130 3.066
0.000 0.000 0.000 0.000 0.000 0.000 0.000 0.000 0.000 0.000 0.000 0.000 0.000 0.000 0.000 0.000 0.000 0.000 0.000 0.000 0.000 0.000 0.000 0.000 0.000 0.000 0.000 0.000 0.446 2.385 2.532 2.607 3.929 5.395 5.246 4.929 3.985 3.173 3.554
0.000 0.000 0.000 0.000 0.000 0.000 0.000 0.000 0.000 0.000 0.000 0.000 0.000 0.000 0.000 0.000 0.000 0.000 0.000 0.000 0.000 0.000 0.000 0.000 0.000 0.000 0.000 0.000 0.195 2.270 2.633 2.826 3.629 4.913 5.198 4.718 3.570 3.425 3.440
0.000 0.000 0.000 0.000 0.000 0.000 0.000 0.000 0.000 0.000 0.000 0.000 0.000 0.000 0.000 0.000 0.000 0.000 0.000 0.000 0.000 0.000 0.000 0.000 0.000 0.000 0.000 0.000 0.127 2.174 2.478 2.736 3.573 4.441 4.842 4.399 3.193 2.698 1.971
0.000 0.000 0.000 0.000 0.000 0.000 0.000 0.000 0.000 0.000 0.000 0.000 0.000 0.000 0.000 0.000 0.000 0.000 0.000 0.000 0.000 0.000 0.000 0.000 0.000 0.000 0.000 0.000 0.165 1.813 2.327 2.785 3.351 3.637 4.171 4.254 2.403 1.650 1.611
0.000 0.000 0.000 0.000 0.000 0.000 0.000 0.000 0.000 0.000 0.000 0.000 0.000 0.000 0.000 0.000 0.000 0.000 0.000 0.000 0.000 0.000 0.000 0.000 0.000 0.000 0.000 0.000 0.160 1.715 1.953 2.766 2.984 2.911 3.468 3.467 1.511 1.522 1.674
0.000 0.000 0.000 0.000 0.000 0.000 0.000 0.000 0.000 0.000 0.000 0.000 0.000 0.000 0.000 0.000 0.000 0.000 0.000 0.000 0.000 0.000 0.000 0.000 0.000 0.000 0.000 0.000 0.127 1.679 1.958 2.574 2.682 2.592 2.769 3.229 0.992 1.280 1.264
0.000 0.000 0.000 0.000 0.000 0.000 0.000 0.000 0.000 0.000 0.000 0.000 0.000 0.000 0.000 0.000 0.000 0.000 0.000 0.000 0.000 0.000 0.000 0.000 0.000 0.000 0.000 0.000 0.155 1.612 1.969 2.406 2.659 2.839 2.503 2.425 0.762 1.203 2.204
0.000 0.000 0.000 0.000 0.000 0.000 0.000 0.000 0.000 0.000 0.000 0.000 0.000 0.000 0.000 0.000 0.000 0.000 0.000 0.000 0.000 0.000 0.000 0.000 0.000 0.000 0.000 0.000 0.221 1.679 1.872 2.296 2.376 2.582 2.437 1.435 1.415 2.320 3.206
0.000 0.000 0.000 0.000 0.000 0.000 0.000 0.000 0.000 0.000 0.000 0.000 0.000 0.000 0.000 0.000 0.000 0.000 0.000 0.000 0.000 0.000 0.000 0.000 0.000 0.000 0.000 0.000 0.170 1.688 1.874 2.204 2.324 2.061 1.917 1.142 1.514 2.451 3.048
