ncols        45
nrows        40
xllcorner    409867.8
yllcorner    6870409.1
cellsize     5.00
NODATA_value -9999
0.000 0.000 0.000 0.000 0.000 0.000 0.000 0.000 0.000 0.000 0.000 0.000 0.000 0.000 0.000 0.000 0.000 0.000 0.000 0.000 0.000 0.000 0.000 0.000 0.000 0.000 0.000 0.000 0.000 0.000 0.000 0.000 0.000 0.000 0.000 0.010 0.157 0.914 1.665 0.645 0.151 0.125 0.045 0.000 0.000
0.000 0.000 0.000 0.000 0.000 0.000 0.000 0.000 0.000 0.000 0.000 0.000 0.000 0.000 0.000 0.000 0.000 0.000 0.000 0.000 0.000 0.000 0.000 0.000 0.000 0.000 0.000 0.000 0.000 0.000 0.000 0.000 0.000 0.046 0.833 4.139 8.332 9.430 8.531 9.174 7.358 6.011 4.018 0.040 0.000
0.000 0.000 0.000 0.000 0.000 0.000 0.000 0.000 0.000 0.000 0.000 0.000 0.000 0.000 0.000 0.000 0.000 0.000 0.000 0.000 0.000 0.000 0.000 0.000 0.000 0.000 0.000 0.000 0.000 0.000 0.000 0.000 0.243 3.045 8.398 9.487 11.430 9.680 10.222 10.053 9.807 7.378 7.288 3.615 0.000
0.000 0.000 0.000 0.000 0.000 0.000 0.000 0.000 0.000 0.000 0.000 0.000 0.000 0.000 0.000 0.000 0.000 0.000 0.000 0.000 0.000 0.000 0.000 0.000 0.000 0.000 0.000 0.000 0.000 0.000 0.000 0.169 4.573 8.445 9.658 11.960 13.038 11.396 11.678 10.393 10.489 7.503 8.069 9.097 0.000
0.000 0.000 0.000 0.000 0.000 0.000 0.000 0.000 0.000 0.000 0.000 0.000 0.000 0.000 0.000 0.000 0.000 0.000 0.000 0.000 0.000 0.000 0.000 0.000 0.000 0.000 0.000 0.000 0.000 0.000 0.002 2.289 8.400 9.498 11.453 13.817 13.732 12.010 10.243 9.520 9.524 8.498 9.205 8.603 0.000
0.000 0.000 0.000 0.000 0.000 0.000 0.000 0.000 0.000 0.000 0.000 0.000 0.000 0.000 0.000 0.000 0.000 0.000 0.000 0.000 0.000 0.000 0.000 0.000 0.000 0.000 0.000 0.000 0.000 0.000 0.085 7.706 8.992 9.803 12.198 13.960 12.352 10.254 8.408 8.882 8.837 8.917 7.500 7.099 0.000
0.000 0.000 0.000 0.000 0.000 0.000 0.000 0.000 0.000 0.000 0.000 0.000 0.000 0.000 0.000 0.000 0.000 0.000 0.000 0.000 0.000 0.000 0.000 0.000 0.000 0.000 0.000 0.000 0.000 0.000 0.627 8.514 9.535 10.607 13.539 13.517 10.057 8.403 8.865 8.881 8.351 7.675 7.684 7.008 0.000
0.000 0.000 0.000 0.000 0.000 0.000 0.000 0.000 0.000 0.000 0.000 0.000 0.000 0.000 0.000 0.000 0.000 0.000 0.000 0.000 0.000 0.000 0.000 0.000 0.000 0.000 0.000 0.000 0.000 0.023 2.634 8.994 10.362 12.389 13.502 11.130 8.638 8.968 8.750 7.994 7.868 7.954 6.918 6.973 0.000
0.000 0.000 0.000 0.000 0.000 0.000 0.000 0.000 0.000 0.000 0.000 0.000 0.000 0.000 0.000 0.000 0.000 0.000 0.000 0.000 0.000 0.000 0.000 0.000 0.000 0.000 0.000 0.000 0.001 0.656 7.964 8.860 10.819 12.866 12.465 9.516 9.177 8.908 7.349 8.093 7.863 8.618 8.261 0.000 0.000
0.000 0.000 0.000 0.000 0.000 0.000 0.000 0.000 0.000 0.000 0.000 0.000 0.000 0.000 0.000 0.000 0.000 0.000 0.000 0.000 0.000 0.000 0.001 0.051 0.230 0.102 0.017 0.002 0.278 6.529 7.257 9.020 10.984 13.376 12.392 10.813 9.187 7.042 7.268 7.571 7.910 9.045 3.141 0.000 0.000
0.000 0.000 0.000 0.000 0.000 0.000 0.000 0.000 0.000 0.000 0.000 0.000 0.000 0.000 0.000 0.000 0.000 0.000 0.000 0.000 0.000 0.102 1.701 6.412 7.782 6.154 4.260 0.810 5.907 6.230 7.537 8.974 11.610 13.987 13.247 10.307 6.702 6.830 7.227 7.241 7.438 0.000 0.000 0.000 0.000
0.000 0.000 0.000 0.000 0.000 0.000 0.000 0.000 0.000 0.000 0.000 0.000 0.000 0.000 0.000 0.000 0.000 0.000 0.000 0.000 0.173 3.568 7.671 8.366 8.937 9.282 9.380 5.892 5.166 6.690 8.626 9.919 11.200 12.463 13.137 6.881 5.538 5.272 6.480 2.472 0.000 0.000 0.000 0.000 0.000
0.000 0.000 0.000 0.000 0.000 0.000 0.000 0.000 0.000 0.000 0.000 0.000 0.000 0.000 0.000 0.000 0.000 0.000 0.000 0.118 3.707 7.971 9.039 9.655 10.527 11.227 9.317 4.567 5.275 7.157 9.457 10.291 9.871 12.586 12.521 3.668 3.700 0.000 0.000 0.000 0.000 0.000 0.000 0.000 0.000
0.000 0.000 0.000 0.000 0.000 0.000 0.000 0.000 0.000 0.000 0.000 0.000 0.000 0.000 0.000 0.000 0.000 0.000 0.130 2.946 8.013 9.322 10.432 10.827 13.771 10.382 6.607 4.163 5.353 7.298 9.526 9.872 10.508 12.000 7.538 4.039 3.977 0.000 0.000 0.000 0.000 0.000 0.000 0.000 0.000
0.000 0.000 0.000 0.000 0.000 0.000 0.000 0.000 0.000 0.000 0.000 0.000 0.000 0.000 0.000 0.000 0.006 1.941 6.387 8.375 9.297 10.346 11.334 14.012 13.002 6.414 4.480 4.247 4.956 6.676 8.708 6.886 8.426 8.186 7.576 5.670 0.000 0.000 0.000 0.000 0.000 0.000 0.000 0.000 0.000
0.000 0.000 0.000 0.000 0.000 0.000 0.000 0.000 0.000 0.000 0.000 0.000 0.000 0.022 0.276 1.055 3.213 7.405 8.366 9.183 9.813 10.043 12.955 12.331 7.366 6.442 5.543 3.458 3.940 5.491 6.309 6.443 7.366 6.890 7.831 0.000 0.000 0.000 0.000 0.000 0.000 0.000 0.000 0.000 0.000
0.000 0.000 0.000 0.000 0.000 0.000 0.000 0.000 0.000 0.000 0.000 0.004 0.563 4.943 7.905 7.465 7.804 8.450 9.078 9.608 10.278 12.507 13.227 8.263 6.340 4.459 3.536 2.727 3.862 5.074 5.672 6.405 6.578 6.082 4.510 0.000 0.000 0.000 0.000 0.000 0.000 0.000 0.000 0.000 0.000
0.000 0.000 0.000 0.000 0.000 0.000 0.000 0.000 0.000 0.000 0.060 2.968 7.624 8.221 9.313 8.342 8.848 9.231 9.568 10.940 11.894 11.910 10.279 7.550 4.604 3.562 1.908 3.931 3.843 4.928 5.916 5.488 5.089 6.295 0.000 0.000 0.000 0.000 0.000 0.000 0.000 0.000 0.000 0.000 0.000
0.000 0.000 0.000 0.000 0.000 0.000 0.000 0.000 0.002 0.648 4.430 8.001 8.685 9.491 9.577 8.315 8.827 9.734 10.790 11.114 8.374 7.653 6.403 6.954 6.299 4.824 3.989 5.328 3.394 3.891 3.759 3.939 6.183 0.000 0.000 0.000 0.000 0.000 0.000 0.000 0.000 0.000 0.000 0.000 0.000
0.000 0.000 0.000 0.000 0.000 0.000 0.000 0.001 0.246 8.027 8.358 9.199 9.802 10.518 10.663 9.370 9.709 9.886 10.411 8.405 6.518 6.101 4.285 6.825 7.763 5.463 5.080 4.614 2.855 3.453 3.934 5.757 0.000 0.000 0.000 0.000 0.000 0.000 0.000 0.000 0.000 0.000 0.000 0.000 0.000
0.000 0.000 0.000 0.000 0.000 0.000 0.000 0.144 5.971 8.848 9.180 10.231 10.282 10.471 9.506 8.055 8.401 7.824 6.987 7.087 6.194 6.248 7.003 6.775 6.332 5.353 4.410 2.799 4.126 4.392 5.767 0.000 0.000 0.000 0.000 0.000 0.000 0.000 0.000 0.000 0.000 0.000 0.000 0.000 0.000
0.000 0.000 0.000 0.000 0.000 0.000 0.071 3.535 7.688 9.552 9.583 10.193 9.416 7.286 5.163 4.283 4.857 5.493 6.160 6.256 6.564 5.546 5.873 3.914 3.244 3.000 3.205 1.466 4.744 4.591 0.000 0.000 0.000 0.000 0.000 0.000 0.000 0.000 0.000 0.000 0.000 0.000 0.000 0.000 0.000
0.000 0.000 0.000 0.000 0.000 0.002 0.708 6.761 7.890 8.680 7.975 6.893 5.679 5.223 3.461 3.533 4.331 4.680 5.158 2.971 3.557 2.790 2.802 2.261 1.320 2.051 2.531 2.788 4.888 0.000 0.000 0.000 0.000 0.000 0.000 0.000 0.000 0.000 0.000 0.000 0.000 0.000 0.000 0.000 0.000
0.000 0.000 0.000 0.000 0.021 1.071 4.635 5.908 6.117 5.549 4.886 4.591 3.965 4.834 4.448 4.342 4.801 4.269 3.430 1.854 1.078 1.659 2.347 4.397 2.432 3.248 3.975 4.512 0.000 0.000 0.000 0.000 0.000 0.000 0.000 0.000 0.000 0.000 0.000 0.000 0.000 0.000 0.000 0.000 0.000
0.000 0.000 0.000 0.046 1.887 4.721 4.386 4.498 4.337 3.982 4.167 4.635 3.777 3.929 3.840 4.239 4.589 4.129 2.128 3.790 3.682 3.821 4.423 4.557 2.842 4.357 3.148 0.000 0.000 0.000 0.000 0.000 0.000 0.000 0.000 0.000 0.000 0.000 0.000 0.000 0.000 0.000 0.000 0.000 0.000
0.000 0.000 0.070 3.249 4.928 4.962 4.250 3.868 3.742 4.759 5.048 5.432 4.681 4.361 4.252 4.162 4.171 4.694 4.813 5.972 6.368 6.491 6.327 4.818 2.938 0.000 0.000 0.000 0.000 0.000 0.000 0.000 0.000 0.000 0.000 0.000 0.000 0.000 0.000 0.000 0.000 0.000 0.000 0.000 0.000
0.000 0.029 3.488 4.683 5.056 5.300 4.847 5.370 5.937 5.653 5.019 5.377 5.540 6.181 6.207 5.115 5.136 5.988 7.267 7.541 7.888 7.585 8.894 0.000 0.000 0.000 0.000 0.000 0.000 0.000 0.000 0.000 0.000 0.000 0.000 0.000 0.000 0.000 0.000 0.000 0.000 0.000 0.000 0.000 0.000
0.017 2.698 4.508 4.687 4.814 5.498 5.831 6.719 6.621 5.621 5.402 5.256 5.366 5.899 7.034 6.535 6.651 7.554 8.321 8.927 9.424 8.741 0.000 0.000 0.000 0.000 0.000 0.000 0.000 0.000 0.000 0.000 0.000 0.000 0.000 0.000 0.000 0.000 0.000 0.000 0.000 0.000 0.000 0.000 0.000
0.143 4.769 4.656 4.687 5.060 5.898 5.881 5.717 5.460 5.360 5.143 6.216 6.527 6.031 6.795 7.907 8.156 8.590 9.706 10.737 11.044 0.000 0.000 0.000 0.000 0.000 0.000 0.000 0.000 0.000 0.000 0.000 0.000 0.000 0.000 0.000 0.000 0.000 0.000 0.000 0.000 0.000 0.000 0.000 0.000
0.151 4.910 4.767 5.678 6.317 6.637 5.677 4.615 3.614 5.536 5.145 6.488 7.678 8.146 8.359 9.419 9.597 10.020 11.783 12.589 7.030 0.019 0.000 0.000 0.000 0.000 0.000 0.000 0.000 0.000 0.000 0.000 0.000 0.000 0.000 0.000 0.000 0.000 0.000 0.000 0.000 0.000 0.000 0.000 0.000
0.123 5.392 6.391 7.180 6.520 6.082 6.411 5.977 5.048 5.461 6.183 6.879 8.088 9.605 10.275 10.836 10.983 12.105 12.486 10.262 4.903 0.176 0.000 0.000 0.000 0.000 0.000 0.000 0.000 0.000 0.000 0.000 0.000 0.000 0.000 0.000 0.000 0.000 0.000 0.000 0.000 0.000 0.000 0.000 0.000
0.861 6.482 7.584 7.873 6.592 6.101 6.549 7.279 6.239 6.062 7.133 7.459 8.784 10.084 10.714 11.002 11.463 12.037 5.892 5.516 0.300 0.000 0.000 0.000 0.000 0.000 0.000 0.000 0.000 0.000 0.000 0.000 0.000 0.000 0.000 0.000 0.000 0.000 0.000 0.000 0.000 0.000 0.000 0.000 0.000
0.196 6.589 8.103 7.613 7.650 6.728 6.719 6.795 6.454 6.746 7.968 8.266 9.011 8.782 8.306 8.651 8.447 6.512 7.049 0.078 0.000 0.000 0.000 0.000 0.000 0.000 0.000 0.000 0.000 0.000 0.000 0.000 0.000 0.000 0.000 0.000 0.000 0.000 0.000 0.000 0.000 0.000 0.000 0.000 0.000
0.308 6.238 7.627 7.070 7.450 6.563 6.667 6.324 6.956 7.803 8.205 8.462 8.285 7.344 7.136 6.692 7.853 0.000 0.000 0.000 0.000 0.000 0.000 0.000 0.000 0.000 0.000 0.000 0.000 0.000 0.000 0.000 0.000 0.000 0.000 0.000 0.000 0.000 0.000 0.000 0.000 0.000 0.000 0.000 0.000
0.004 1.636 6.219 5.961 5.897 6.269 6.264 7.911 8.595 9.114 8.894 7.814 7.822 7.461 8.667 9.771 0.000 0.000 0.000 0.000 0.000 0.000 0.000 0.000 0.000 0.000 0.000 0.000 0.000 0.000 0.000 0.000 0.000 0.000 0.000 0.000 0.000 0.000 0.000 0.000 0.000 0.000 0.000 0.000 0.000
0.000 0.000 5.239 6.218 5.616 6.713 7.581 8.590 9.861 9.765 8.497 8.364 8.441 9.682 10.947 0.000 0.000 0.000 0.000 0.000 0.000 0.000 0.000 0.000 0.000 0.000 0.000 0.000 0.000 0.000 0.000 0.000 0.000 0.000 0.000 0.000 0.000 0.000 0.000 0.000 0.000 0.000 0.000 0.000 0.000
0.000 0.000 0.000 0.000 6.703 7.993 9.420 10.560 10.869 8.943 8.109 9.497 11.550 11.577 0.000 0.000 0.000 0.000 0.000 0.000 0.000 0.000 0.000 0.000 0.000 0.000 0.000 0.000 0.000 0.000 0.000 0.000 0.000 0.000 0.000 0.000 0.000 0.000 0.000 0.000 0.000 0.000 0.000 0.000 0.000
0.000 0.000 0.000 0.001 1.820 9.900 11.629 13.900 8.995 8.538 7.948 12.205 8.606 0.000 0.000 0.000 0.000 0.000 0.000 0.000 0.000 0.000 0.000 0.000 0.000 0.000 0.000 0.000 0.000 0.000 0.000 0.000 0.000 0.000 0.000 0.000 0.000 0.000 0.000 0.000 0.000 0.000 0.000 0.000 0.000
0.000 0.000 0.000 0.000 0.000 0.000 0.000 3.811 8.563 9.780 11.269 13.985 0.000 0.000 0.000 0.000 0.000 0.000 0.000 0.000 0.000 0.000 0.000 0.000 0.000 0.000 0.000 0.000 0.000 0.000 0.000 0.000 0.000 0.000 0.000 0.000 0.000 0.000 0.000 0.000 0.000 0.000 0.000 0.000 0.000
0.000 0.000 0.000 0.000 0.000 0.000 0.000 0.008 2.515 9.215 11.239 0.000 0.000 0.000 0.000 0.000 0.000 0.000 0.000 0.000 0.000 0.000 0.000 0.000 0.000 0.000 0.000 0.000 0.000 0.000 0.000 0.000 0.000 0.000 0.000 0.000 0.000 0.000 0.000 0.000 0.000 0.000 0.000 0.000 0.000
