ncols        40
nrows        92
xllcorner    409632.8
yllcorner    6870794.1
cellsize     5.00
NODATA_value -9999
0.000 0.000 0.000 0.000 0.000 0.000 0.000 0.000 0.000 0.000 0.000 0.000 0.000 0.000 0.000 0.000 0.000 0.000 0.000 0.000 0.000 0.000 0.000 0.000 0.000 0.000 0.000 0.000 0.000 0.000 0.000 0.000 0.000 0.000 0.000 0.000 0.000 0.000 0.000 0.000
0.000 0.000 0.000 0.171 4.344 16.468 18.152 11.109 0.560 0.000 0.000 0.000 0.000 0.000 0.000 0.000 0.000 0.000 0.000 0.000 0.000 0.000 0.000 0.000 0.000 0.000 0.000 0.000 0.000 0.000 0.000 0.000 0.000 0.000 0.000 0.000 0.000 0.000 0.000 0.000
0.000 0.000 0.379 7.810 18.414 18.611 18.617 18.008 14.161 0.144 0.000 0.000 0.000 0.000 0.000 0.000 0.000 0.000 0.000 0.000 0.000 0.000 0.000 0.000 0.000 0.000 0.000 0.000 0.000 0.000 0.000 0.000 0.000 0.000 0.000 0.000 0.000 0.000 0.000 0.000
0.000 0.161 5.813 18.440 19.324 20.022 20.064 19.242 17.502 9.485 0.004 0.000 0.000 0.000 0.000 0.000 0.000 0.000 0.000 0.000 0.000 0.000 0.000 0.000 0.000 0.000 0.000 0.000 0.000 0.000 0.000 0.000 0.000 0.000 0.000 0.000 0.000 0.000 0.000 0.000
0.001 1.888 18.558 19.280 20.264 21.281 20.970 20.751 18.817 16.717 3.238 0.000 0.000 0.000 0.000 0.000 0.000 0.000 0.000 0.000 0.000 0.000 0.000 0.000 0.000 0.000 0.000 0.000 0.000 0.000 0.000 0.000 0.000 0.000 0.000 0.000 0.000 0.000 0.000 0.000
0.126 8.241 18.595 20.770 21.578 22.699 22.360 20.942 19.698 17.750 14.874 0.166 0.000 0.000 0.000 0.000 0.000 0.000 0.000 0.000 0.000 0.000 0.000 0.000 0.000 0.000 0.000 0.000 0.000 0.000 0.000 0.000 0.000 0.000 0.000 0.000 0.000 0.000 0.000 0.000
1.359 18.461 19.625 22.065 22.611 23.046 23.026 21.495 20.057 19.045 17.007 6.935 0.009 0.000 0.000 0.000 0.000 0.000 0.000 0.000 0.000 0.000 0.000 0.000 0.000 0.000 0.000 0.000 0.000 0.000 0.000 0.000 0.000 0.000 0.000 0.000 0.000 0.000 0.000 0.000
4.018 18.194 20.603 22.084 23.550 23.531 23.740 23.298 22.555 20.244 18.748 14.964 3.005 0.002 0.000 0.000 0.000 0.000 0.000 0.000 0.000 0.000 0.000 0.000 0.000 0.000 0.000 0.000 0.000 0.000 0.000 0.000 0.000 0.000 0.000 0.000 0.000 0.000 0.000 0.000
6.490 18.711 21.276 22.512 24.014 24.361 23.339 23.785 24.007 22.264 19.542 16.341 12.588 1.851 0.007 0.000 0.000 0.000 0.000 0.000 0.000 0.000 0.000 0.000 0.000 0.000 0.000 0.000 0.000 0.000 0.000 0.000 0.000 0.000 0.000 0.000 0.000 0.000 0.000 0.000
8.844 18.167 20.831 22.973 24.330 25.450 24.175 24.204 25.361 25.388 20.957 17.508 14.515 11.186 2.508 0.008 0.000 0.000 0.000 0.000 0.000 0.000 0.000 0.000 0.000 0.000 0.000 0.000 0.000 0.000 0.000 0.000 0.000 0.000 0.000 0.000 0.000 0.000 0.000 0.000
10.895 18.479 20.922 23.405 24.961 25.234 25.503 25.126 25.177 24.183 20.868 17.229 15.476 14.236 11.216 2.658 0.012 0.000 0.000 0.000 0.000 0.000 0.000 0.000 0.000 0.000 0.000 0.000 0.000 0.000 0.000 0.000 0.000 0.000 0.000 0.000 0.000 0.000 0.000 0.000
11.504 17.606 20.580 22.621 25.001 26.034 26.276 24.983 25.522 26.491 23.699 19.091 17.381 14.494 14.662 11.268 2.873 0.007 0.000 0.000 0.000 0.000 0.000 0.000 0.000 0.000 0.000 0.000 0.000 0.000 0.000 0.000 0.000 0.000 0.000 0.000 0.000 0.000 0.000 0.000
11.178 17.335 19.721 22.912 25.003 25.470 25.384 23.852 26.130 25.455 23.973 21.858 18.210 16.355 15.195 14.517 11.137 2.516 0.066 0.000 0.000 0.000 0.000 0.000 0.000 0.000 0.000 0.000 0.000 0.000 0.000 0.000 0.000 0.000 0.000 0.000 0.000 0.000 0.000 0.000
9.675 17.235 20.696 22.704 23.989 25.170 25.534 25.521 26.286 24.273 24.507 21.135 19.640 19.105 16.777 14.372 13.716 11.163 4.659 0.151 0.000 0.000 0.000 0.000 0.000 0.000 0.000 0.000 0.000 0.000 0.000 0.000 0.000 0.000 0.000 0.000 0.000 0.000 0.000 0.000
7.612 15.666 18.652 22.458 23.429 25.944 28.701 25.890 24.881 26.214 22.888 21.520 21.127 17.497 16.045 14.020 13.750 14.344 11.337 4.728 0.010 0.000 0.000 0.000 0.000 0.000 0.000 0.000 0.000 0.000 0.000 0.000 0.000 0.000 0.000 0.000 0.000 0.000 0.000 0.000
5.678 15.198 18.960 20.733 23.528 28.080 27.377 24.099 26.353 24.684 22.320 22.605 20.070 16.862 16.255 15.287 15.515 13.112 11.966 10.577 1.822 0.000 0.000 0.000 0.000 0.000 0.000 0.000 0.000 0.000 0.000 0.000 0.000 0.000 0.000 0.000 0.000 0.000 0.000 0.000
3.452 13.463 17.806 21.612 26.082 25.434 25.928 25.244 25.098 24.307 24.574 23.056 21.931 19.565 17.716 17.500 15.317 12.935 13.598 12.450 7.282 0.127 0.000 0.000 0.000 0.000 0.000 0.000 0.000 0.000 0.000 0.000 0.000 0.000 0.000 0.000 0.000 0.000 0.000 0.000
1.773 10.454 15.633 22.502 22.118 23.869 25.204 23.990 24.523 26.162 24.857 22.405 21.884 20.615 20.217 17.044 15.724 14.425 13.536 12.401 9.901 3.205 0.000 0.000 0.000 0.000 0.000 0.000 0.000 0.000 0.000 0.000 0.000 0.000 0.000 0.000 0.000 0.000 0.000 0.000
0.714 7.527 14.634 19.185 20.794 22.295 25.089 24.532 25.514 26.725 26.007 24.066 22.627 23.211 20.571 18.014 17.102 14.527 13.217 12.489 10.900 7.537 0.075 0.000 0.000 0.000 0.000 0.000 0.000 0.000 0.000 0.000 0.000 0.000 0.000 0.000 0.000 0.000 0.000 0.000
0.216 4.810 11.886 17.435 18.956 22.793 24.119 25.214 24.716 26.097 25.425 22.555 23.734 23.899 19.497 18.682 16.044 12.815 13.045 12.749 12.344 10.617 2.552 0.000 0.000 0.000 0.000 0.000 0.000 0.000 0.000 0.000 0.000 0.000 0.000 0.000 0.000 0.000 0.000 0.000
0.059 3.065 9.782 15.112 19.718 23.508 24.754 26.370 26.237 25.544 23.937 21.956 24.215 23.535 21.503 19.517 15.219 12.837 12.695 13.444 13.274 11.526 6.678 0.000 0.000 0.000 0.000 0.000 0.000 0.000 0.000 0.000 0.000 0.000 0.000 0.000 0.000 0.000 0.000 0.000
0.009 1.482 7.653 12.764 19.770 23.837 25.013 25.138 24.583 24.064 22.875 23.688 25.698 23.324 20.972 18.516 14.351 13.388 13.711 13.897 13.050 11.810 9.146 0.006 0.000 0.000 0.000 0.000 0.000 0.000 0.000 0.000 0.000 0.000 0.000 0.000 0.000 0.000 0.000 0.000
0.002 0.661 6.045 11.550 17.279 21.731 24.885 24.501 23.035 24.440 22.487 25.295 24.390 22.843 21.688 19.436 16.672 14.405 13.929 13.848 13.317 12.890 11.471 0.892 0.000 0.000 0.000 0.000 0.000 0.000 0.000 0.000 0.000 0.000 0.000 0.000 0.000 0.000 0.000 0.000
0.000 0.228 4.282 10.562 14.439 21.560 22.642 23.026 23.778 23.324 24.455 24.711 25.462 23.070 22.672 19.820 15.887 14.094 13.177 12.344 13.131 12.523 11.091 3.440 0.000 0.000 0.000 0.000 0.000 0.000 0.000 0.000 0.000 0.000 0.000 0.000 0.000 0.000 0.000 0.000
0.000 0.029 2.169 8.339 13.023 18.201 22.085 22.474 24.138 24.689 23.369 25.494 24.536 23.225 21.783 18.408 15.397 13.391 12.619 11.997 12.785 11.867 9.805 5.482 0.000 0.000 0.000 0.000 0.000 0.000 0.000 0.000 0.000 0.000 0.000 0.000 0.000 0.000 0.000 0.000
0.000 0.001 0.609 6.154 10.228 14.660 19.974 22.562 23.248 23.342 23.468 23.497 23.153 22.799 19.435 16.898 14.668 13.905 12.544 11.726 11.819 11.400 10.521 7.371 0.000 0.000 0.000 0.000 0.000 0.000 0.000 0.000 0.000 0.000 0.000 0.000 0.000 0.000 0.000 0.000
0.000 0.000 0.210 4.159 8.969 12.392 18.321 20.001 21.172 21.746 22.756 22.576 21.181 21.357 18.113 16.715 17.182 14.229 13.070 11.732 10.774 11.016 11.071 7.745 0.260 0.000 0.000 0.000 0.000 0.000 0.000 0.000 0.000 0.000 0.000 0.000 0.000 0.000 0.000 0.000
0.000 0.000 0.039 2.466 7.453 10.105 15.850 19.941 21.083 21.949 21.333 21.450 21.799 21.042 18.721 17.776 17.108 14.348 14.235 11.588 10.757 11.977 10.638 8.148 2.622 0.000 0.000 0.000 0.000 0.000 0.000 0.000 0.000 0.000 0.000 0.000 0.000 0.000 0.000 0.000
0.000 0.000 0.005 1.290 6.215 8.817 13.492 17.012 20.220 20.481 19.298 19.826 20.027 19.847 18.832 19.499 16.937 15.718 14.212 12.684 12.021 11.893 11.030 8.249 4.301 0.000 0.000 0.000 0.000 0.000 0.000 0.000 0.000 0.000 0.000 0.000 0.000 0.000 0.000 0.000
0.000 0.000 0.001 0.493 4.816 7.879 10.596 16.866 18.474 18.851 19.645 19.655 18.959 19.638 19.480 18.016 18.178 16.582 14.856 13.633 11.186 11.135 10.843 8.541 5.205 0.000 0.000 0.000 0.000 0.000 0.000 0.000 0.000 0.000 0.000 0.000 0.000 0.000 0.000 0.000
0.000 0.000 0.000 0.164 3.329 7.018 9.057 14.444 17.143 18.263 18.694 18.050 17.990 19.647 19.802 16.992 17.825 15.887 15.783 12.231 10.696 9.680 10.469 8.935 6.033 0.066 0.000 0.000 0.000 0.000 0.000 0.000 0.000 0.000 0.000 0.000 0.000 0.000 0.000 0.000
0.000 0.000 0.000 0.030 1.593 5.620 7.759 11.539 16.076 18.275 17.801 17.551 18.178 18.664 18.848 17.499 18.478 16.879 14.494 11.301 9.996 10.193 10.794 9.438 6.688 1.600 0.000 0.000 0.000 0.000 0.000 0.000 0.000 0.000 0.000 0.000 0.000 0.000 0.000 0.000
0.000 0.000 0.000 0.020 1.016 4.758 7.222 9.782 14.157 16.626 17.992 18.002 19.131 19.441 17.540 18.560 16.903 15.296 13.761 11.675 10.802 11.241 10.934 9.733 7.224 3.580 0.002 0.000 0.000 0.000 0.000 0.000 0.000 0.000 0.000 0.000 0.000 0.000 0.000 0.000
0.000 0.000 0.000 0.000 0.275 3.696 6.444 8.915 13.116 17.117 16.555 17.553 19.339 18.669 18.595 18.200 16.755 14.529 13.215 12.099 11.644 11.574 10.734 9.925 7.274 4.147 0.424 0.000 0.000 0.000 0.000 0.000 0.000 0.000 0.000 0.000 0.000 0.000 0.000 0.000
0.000 0.000 0.000 0.000 0.051 2.124 5.707 7.146 10.369 14.892 17.666 17.426 16.512 17.442 17.183 16.425 15.294 12.804 13.090 12.095 11.775 10.430 10.991 9.965 7.268 4.564 2.430 0.017 0.000 0.000 0.000 0.000 0.000 0.000 0.000 0.000 0.000 0.000 0.000 0.000
0.000 0.000 0.000 0.000 0.004 0.752 4.510 6.203 8.829 13.339 14.927 15.772 15.701 16.081 15.859 14.956 13.682 12.926 13.462 13.038 11.929 11.301 10.308 9.224 7.419 4.915 3.519 0.795 0.000 0.000 0.000 0.000 0.000 0.000 0.000 0.000 0.000 0.000 0.000 0.000
0.000 0.000 0.000 0.000 0.000 0.149 3.440 6.143 7.890 9.506 13.953 14.947 12.334 14.567 13.604 13.728 12.782 13.813 14.157 13.158 11.826 11.160 9.929 9.268 7.704 4.781 3.704 2.545 0.085 0.000 0.000 0.000 0.000 0.000 0.000 0.000 0.000 0.000 0.000 0.000
0.000 0.000 0.000 0.000 0.000 0.168 2.295 5.250 6.312 7.866 12.154 12.809 13.069 13.175 13.044 13.154 13.532 13.808 13.364 11.232 13.216 11.089 9.787 8.996 7.491 4.659 4.038 3.390 1.220 0.016 0.000 0.000 0.000 0.000 0.000 0.000 0.000 0.000 0.000 0.000
0.000 0.000 0.000 0.000 0.000 0.017 0.906 3.379 5.238 5.709 9.910 10.980 10.288 11.527 13.001 13.396 13.851 12.734 11.769 11.757 12.099 8.862 8.865 8.741 7.336 5.219 4.476 3.803 2.760 0.762 0.000 0.000 0.000 0.000 0.000 0.000 0.000 0.000 0.000 0.000
0.000 0.000 0.000 0.000 0.000 0.000 0.157 1.592 4.006 4.970 7.520 10.911 10.965 12.419 13.103 12.911 12.766 11.637 11.246 11.373 10.482 8.556 7.744 8.577 7.270 5.684 4.560 4.053 3.544 2.250 0.020 0.000 0.000 0.000 0.000 0.000 0.000 0.000 0.000 0.000
0.000 0.000 0.000 0.000 0.000 0.000 0.001 0.129 1.683 3.296 5.184 7.714 10.684 11.389 12.010 12.712 11.513 10.480 9.949 10.643 10.116 8.775 8.134 7.717 7.240 5.683 4.532 4.105 3.571 3.043 0.863 0.000 0.000 0.000 0.000 0.000 0.000 0.000 0.000 0.000
0.000 0.000 0.000 0.000 0.000 0.000 0.000 0.001 0.610 3.174 5.173 7.613 8.916 9.879 10.796 10.757 10.698 10.131 10.550 10.980 11.011 9.640 7.932 7.142 6.495 5.573 4.502 4.036 3.670 3.267 2.144 0.043 0.000 0.000 0.000 0.000 0.000 0.000 0.000 0.000
0.000 0.000 0.000 0.000 0.000 0.000 0.000 0.000 0.135 2.517 4.901 6.240 8.213 8.647 9.578 10.519 10.252 10.782 10.426 11.029 10.255 8.252 7.036 6.254 6.015 5.687 4.563 4.028 3.619 2.935 2.246 0.751 0.004 0.000 0.000 0.000 0.000 0.000 0.000 0.000
0.000 0.000 0.000 0.000 0.000 0.000 0.000 0.000 0.005 0.460 2.992 4.222 5.327 7.445 8.465 9.412 9.580 9.495 9.827 10.499 8.529 6.903 6.233 5.469 5.269 5.193 4.514 3.795 3.185 2.593 2.661 2.095 0.033 0.000 0.000 0.000 0.000 0.000 0.000 0.000
0.000 0.000 0.000 0.000 0.000 0.000 0.000 0.000 0.000 0.006 0.696 3.717 5.253 6.794 7.986 8.603 8.479 8.553 8.706 8.272 6.785 5.630 5.105 4.292 4.529 4.873 4.518 3.535 2.707 2.205 2.425 2.277 0.187 0.000 0.000 0.000 0.000 0.000 0.000 0.000
0.000 0.000 0.000 0.000 0.000 0.000 0.000 0.000 0.000 0.000 0.372 2.565 4.932 5.891 7.502 7.744 7.426 7.807 8.047 7.980 6.146 5.053 3.858 4.523 4.698 4.851 4.221 3.228 1.997 0.703 1.594 1.262 0.829 0.000 0.000 0.000 0.000 0.000 0.000 0.000
0.000 0.000 0.000 0.000 0.000 0.000 0.000 0.000 0.000 0.000 0.001 1.602 3.923 5.554 6.233 6.530 6.541 6.930 7.176 6.522 5.029 3.882 3.975 4.890 4.746 4.821 4.360 3.168 0.990 0.662 0.556 1.462 1.353 0.071 0.000 0.000 0.000 0.000 0.000 0.000
0.000 0.000 0.000 0.000 0.000 0.000 0.000 0.000 0.000 0.000 0.000 0.043 2.168 3.679 4.406 4.724 6.048 6.870 6.670 4.813 4.178 3.889 4.449 4.652 4.699 4.899 4.399 3.079 1.683 0.685 0.322 1.944 1.624 0.405 0.000 0.000 0.000 0.000 0.000 0.000
0.000 0.000 0.000 0.000 0.000 0.000 0.000 0.000 0.000 0.000 0.000 0.000 0.624 2.434 3.550 4.773 6.202 7.019 5.992 5.018 4.295 4.457 4.521 4.494 5.068 4.990 4.378 3.494 2.504 0.488 0.764 2.036 1.864 0.839 0.025 0.000 0.000 0.000 0.000 0.000
0.000 0.000 0.000 0.000 0.000 0.000 0.000 0.000 0.000 0.000 0.000 0.000 0.016 1.425 2.879 3.784 4.972 5.371 5.227 4.864 4.519 4.877 4.640 5.275 5.210 5.249 4.646 4.054 2.743 0.047 0.958 2.257 2.196 1.563 0.325 0.000 0.000 0.000 0.000 0.000
0.000 0.000 0.000 0.000 0.000 0.000 0.000 0.000 0.000 0.000 0.000 0.000 0.001 0.145 1.861 3.089 4.084 4.272 5.003 5.262 4.680 4.657 4.660 5.441 5.209 5.293 4.635 4.193 2.760 1.382 1.960 2.523 2.201 2.056 0.861 0.042 0.000 0.000 0.000 0.000
0.000 0.000 0.000 0.000 0.000 0.000 0.000 0.000 0.000 0.000 0.000 0.000 0.000 0.040 1.437 3.038 3.291 2.831 3.791 4.472 4.829 3.955 5.226 5.226 5.091 5.195 4.832 4.570 3.369 2.469 2.450 2.380 2.143 2.176 1.570 0.324 0.012 0.000 0.000 0.000
0.000 0.000 0.000 0.000 0.000 0.000 0.000 0.000 0.000 0.000 0.000 0.000 0.000 0.010 0.418 1.677 2.679 2.803 3.034 4.408 4.942 4.659 4.720 4.652 4.750 5.136 5.058 4.489 3.619 3.074 3.023 2.780 2.552 2.117 2.062 1.316 0.482 0.016 0.000 0.000
0.000 0.000 0.000 0.000 0.000 0.000 0.000 0.000 0.000 0.000 0.000 0.000 0.000 0.000 0.020 0.339 1.957 2.722 2.762 3.484 4.357 4.438 4.004 3.866 4.633 5.167 4.691 3.971 3.738 3.694 3.624 3.301 2.767 2.217 2.426 2.232 1.459 0.407 0.001 0.000
0.000 0.000 0.000 0.000 0.000 0.000 0.000 0.000 0.000 0.000 0.000 0.000 0.000 0.000 0.000 0.022 0.690 2.414 2.636 2.971 3.555 4.054 2.969 3.178 4.508 4.535 4.376 3.833 3.963 4.069 4.026 3.557 2.530 2.345 2.618 2.532 2.161 1.120 0.134 0.000
0.000 0.000 0.000 0.000 0.000 0.000 0.000 0.000 0.000 0.000 0.000 0.000 0.000 0.000 0.000 0.000 0.041 1.655 2.745 2.709 2.107 3.160 2.873 2.948 4.170 4.125 4.201 3.703 4.101 4.198 4.519 3.295 1.855 2.105 2.313 2.714 2.559 1.745 0.784 0.028
0.000 0.000 0.000 0.000 0.000 0.000 0.000 0.000 0.000 0.000 0.000 0.000 0.000 0.000 0.000 0.000 0.001 0.616 2.277 2.478 1.816 1.585 2.938 3.356 4.199 3.601 3.749 4.064 4.391 4.217 4.220 3.262 2.683 2.139 2.348 2.990 2.677 2.209 1.473 0.456
0.000 0.000 0.000 0.000 0.000 0.000 0.000 0.000 0.000 0.000 0.000 0.000 0.000 0.000 0.000 0.000 0.000 0.021 0.935 2.143 1.921 1.438 2.779 3.458 3.711 4.110 4.244 4.300 4.605 4.281 4.638 4.283 3.328 2.474 2.505 2.717 2.507 2.528 1.999 1.032
0.000 0.000 0.000 0.000 0.000 0.000 0.000 0.000 0.000 0.000 0.000 0.000 0.000 0.000 0.000 0.000 0.000 0.000 0.095 1.613 1.720 1.660 3.203 4.011 4.158 4.217 4.282 4.404 4.158 4.412 4.842 4.762 3.640 2.295 1.905 1.962 2.695 2.709 2.272 1.551
0.000 0.000 0.000 0.000 0.000 0.000 0.000 0.000 0.000 0.000 0.000 0.000 0.000 0.000 0.000 0.000 0.000 0.000 0.016 1.268 1.748 1.546 2.794 4.088 4.567 4.064 4.136 3.887 4.274 4.684 5.173 4.659 3.782 2.130 1.244 1.964 2.680 2.637 2.276 1.895
0.000 0.000 0.000 0.000 0.000 0.000 0.000 0.000 0.000 0.000 0.000 0.000 0.000 0.000 0.000 0.000 0.000 0.000 0.001 0.441 1.731 1.778 2.802 3.540 4.507 3.957 3.734 4.129 4.695 4.950 4.935 4.418 3.671 1.644 0.278 1.541 2.222 2.396 2.119 2.065
0.000 0.000 0.000 0.000 0.000 0.000 0.000 0.000 0.000 0.000 0.000 0.000 0.000 0.000 0.000 0.000 0.000 0.000 0.000 0.100 1.556 2.291 2.477 3.186 4.119 3.724 3.349 3.806 4.665 4.900 4.693 4.358 2.958 1.131 0.620 0.867 1.571 2.109 1.800 2.070
0.000 0.000 0.000 0.000 0.000 0.000 0.000 0.000 0.000 0.000 0.000 0.000 0.000 0.000 0.000 0.000 0.000 0.000 0.000 0.116 0.807 1.948 1.735 2.619 1.672 2.973 2.261 3.812 4.673 5.163 4.991 4.306 3.105 1.662 1.029 0.329 0.704 1.439 1.957 2.305
0.000 0.000 0.000 0.000 0.000 0.000 0.000 0.000 0.000 0.000 0.000 0.000 0.000 0.000 0.000 0.000 0.000 0.000 0.000 0.000 0.374 0.094 2.085 1.789 0.047 1.690 2.589 4.161 5.170 5.346 5.239 4.424 3.619 1.833 0.921 0.183 0.574 0.299 1.706 2.349
0.000 0.000 0.000 0.000 0.000 0.000 0.000 0.000 0.000 0.000 0.000 0.000 0.000 0.000 0.000 0.000 0.000 0.000 0.000 0.000 0.037 0.986 2.068 1.671 0.044 1.495 2.864 4.568 5.263 5.353 5.278 4.731 3.946 1.669 1.261 0.691 0.050 0.086 1.957 2.428
0.000 0.000 0.000 0.000 0.000 0.000 0.000 0.000 0.000 0.000 0.000 0.000 0.000 0.000 0.000 0.000 0.000 0.000 0.000 0.000 0.013 0.776 1.615 1.597 0.352 0.000 3.939 4.933 5.350 5.349 5.578 4.999 3.457 2.043 1.810 0.667 0.071 0.668 1.788 2.417
0.000 0.000 0.000 0.000 0.000 0.000 0.000 0.000 0.000 0.000 0.000 0.000 0.000 0.000 0.000 0.000 0.000 0.000 0.000 0.000 0.001 0.375 0.754 1.436 0.841 0.265 4.948 5.322 5.825 5.998 5.782 4.938 3.534 3.355 1.998 1.011 0.635 0.076 0.667 1.895
0.000 0.000 0.000 0.000 0.000 0.000 0.000 0.000 0.000 0.000 0.000 0.000 0.000 0.000 0.000 0.000 0.000 0.000 0.000 0.000 0.000 0.029 0.627 0.666 0.574 2.454 4.508 5.780 5.927 6.370 5.696 5.257 4.623 3.805 2.655 1.762 0.980 0.081 0.535 1.511
0.000 0.000 0.000 0.000 0.000 0.000 0.000 0.000 0.000 0.000 0.000 0.000 0.000 0.000 0.000 0.000 0.000 0.000 0.000 0.000 0.000 0.000 0.274 0.586 1.025 2.759 3.645 4.837 5.400 5.537 5.631 5.234 4.785 4.316 3.481 2.535 1.707 0.463 0.522 1.395
0.000 0.000 0.000 0.000 0.000 0.000 0.000 0.000 0.000 0.000 0.000 0.000 0.000 0.000 0.000 0.000 0.000 0.000 0.000 0.000 0.000 0.000 0.017 0.095 2.159 2.717 2.853 3.966 4.329 5.136 5.732 5.672 5.423 4.709 4.119 3.531 2.541 1.857 0.778 0.880
0.000 0.000 0.000 0.000 0.000 0.000 0.000 0.000 0.000 0.000 0.000 0.000 0.000 0.000 0.000 0.000 0.000 0.000 0.000 0.000 0.000 0.000 0.027 1.312 2.281 2.396 2.317 3.062 3.654 4.531 5.849 5.955 5.861 5.160 4.300 4.216 3.617 2.762 0.877 0.057
0.000 0.000 0.000 0.000 0.000 0.000 0.000 0.000 0.000 0.000 0.000 0.000 0.000 0.000 0.000 0.000 0.000 0.000 0.000 0.000 0.000 0.000 0.053 1.024 1.695 1.897 1.931 2.473 2.868 3.780 5.168 5.560 5.723 5.469 4.831 4.482 3.879 2.916 1.515 0.117
0.000 0.000 0.000 0.000 0.000 0.000 0.000 0.000 0.000 0.000 0.000 0.000 0.000 0.000 0.000 0.000 0.000 0.000 0.000 0.000 0.000 0.000 0.000 0.029 0.555 1.517 1.824 1.985 2.614 3.295 4.747 5.155 5.442 5.442 5.142 4.668 4.076 2.978 2.087 1.570
0.000 0.000 0.000 0.000 0.000 0.000 0.000 0.000 0.000 0.000 0.000 0.000 0.000 0.000 0.000 0.000 0.000 0.000 0.000 0.000 0.000 0.000 0.000 0.000 0.028 1.079 1.533 1.401 2.129 3.809 4.580 5.153 5.259 5.250 5.334 4.836 4.186 2.959 2.373 2.483
0.000 0.000 0.000 0.000 0.000 0.000 0.000 0.000 0.000 0.000 0.000 0.000 0.000 0.000 0.000 0.000 0.000 0.000 0.000 0.000 0.000 0.000 0.000 0.000 0.000 0.178 0.993 0.606 2.203 3.931 4.575 4.905 5.156 5.178 5.387 4.750 4.130 3.071 2.814 2.374
0.000 0.000 0.000 0.000 0.000 0.000 0.000 0.000 0.000 0.000 0.000 0.000 0.000 0.000 0.000 0.000 0.000 0.000 0.000 0.000 0.000 0.000 0.000 0.000 0.000 0.004 1.058 1.579 2.305 3.419 4.180 4.704 5.163 5.201 5.181 4.783 4.089 3.205 2.451 2.161
0.000 0.000 0.000 0.000 0.000 0.000 0.000 0.000 0.000 0.000 0.000 0.000 0.000 0.000 0.000 0.000 0.000 0.000 0.000 0.000 0.000 0.000 0.000 0.000 0.000 0.000 0.792 1.727 2.291 2.647 3.617 4.525 5.206 5.488 5.198 4.834 4.064 3.254 1.729 2.411
0.000 0.000 0.000 0.000 0.000 0.000 0.000 0.000 0.000 0.000 0.000 0.000 0.000 0.000 0.000 0.000 0.000 0.000 0.000 0.000 0.000 0.000 0.000 0.000 0.000 0.000 0.275 1.850 2.224 2.291 3.054 4.319 5.365 5.883 5.539 5.021 4.138 3.272 1.755 2.751
0.000 0.000 0.000 0.000 0.000 0.000 0.000 0.000 0.000 0.000 0.000 0.000 0.000 0.000 0.000 0.000 0.000 0.000 0.000 0.000 0.000 0.000 0.000 0.000 0.000 0.000 0.033 1.294 2.020 2.146 2.793 3.126 4.757 5.996 5.804 5.504 4.578 3.727 2.580 3.181
0.000 0.000 0.000 0.000 0.000 0.000 0.000 0.000 0.000 0.000 0.000 0.000 0.000 0.000 0.000 0.000 0.000 0.000 0.000 0.000 0.000 0.000 0.000 0.000 0.000 0.000 0.034 0.692 1.637 2.049 2.748 2.528 4.402 6.097 6.113 5.774 4.810 3.943 3.013 3.254
0.000 0.000 0.000 0.000 0.000 0.000 0.000 0.000 0.000 0.000 0.000 0.000 0.000 0.000 0.000 0.000 0.000 0.000 0.000 0.000 0.000 0.000 0.000 0.000 0.000 0.000 0.000 0.159 1.241 1.812 2.626 2.455 3.745 5.647 5.923 5.577 4.648 3.617 3.094 3.263
0.000 0.000 0.000 0.000 0.000 0.000 0.000 0.000 0.000 0.000 0.000 0.000 0.000 0.000 0.000 0.000 0.000 0.000 0.000 0.000 0.000 0.000 0.000 0.000 0.000 0.000 0.000 0.001 0.644 1.546 2.118 2.486 3.122 5.130 5.774 5.407 4.418 3.440 3.018 3.110
0.000 0.000 0.000 0.000 0.000 0.000 0.000 0.000 0.000 0.000 0.000 0.000 0.000 0.000 0.000 0.000 0.000 0.000 0.000 0.000 0.000 0.000 0.000 0.000 0.000 0.000 0.000 0.000 0.030 1.143 2.029 2.448 2.688 4.276 5.686 5.171 4.494 3.671 2.928 2.904
0.000 0.000 0.000 0.000 0.000 0.000 0.000 0.000 0.000 0.000 0.000 0.000 0.000 0.000 0.000 0.000 0.000 0.000 0.000 0.000 0.000 0.000 0.000 0.000 0.000 0.000 0.000 0.000 0.000 0.452 2.312 2.461 2.539 3.765 5.188 5.019 4.732 3.808 2.976 3.378
0.000 0.000 0.000 0.000 0.000 0.000 0.000 0.000 0.000 0.000 0.000 0.000 0.000 0.000 0.000 0.000 0.000 0.000 0.000 0.000 0.000 0.000 0.000 0.000 0.000 0.000 0.000 0.000 0.000 0.201 2.203 2.558 2.756 3.500 4.699 4.974 4.513 3.391 3.229 3.267
0.000 0.000 0.000 0.000 0.000 0.000 0.000 0.000 0.000 0.000 0.000 0.000 0.000 0.000 0.000 0.000 0.000 0.000 0.000 0.000 0.000 0.000 0.000 0.000 0.000 0.000 0.000 0.000 0.000 0.132 2.111 2.410 2.663 3.462 4.135 4.602 4.190 3.018 2.481 1.840
0.000 0.000 0.000 0.000 0.000 0.000 0.000 0.000 0.000 0.000 0.000 0.000 0.000 0.000 0.000 0.000 0.000 0.000 0.000 0.000 0.000 0.000 0.000 0.000 0.000 0.000 0.000 0.000 0.000 0.171 1.761 2.264 2.709 3.249 3.456 3.925 4.021 2.190 1.339 1.464
0.000 0.000 0.000 0.000 0.000 0.000 0.000 0.000 0.000 0.000 0.000 0.000 0.000 0.000 0.000 0.000 0.000 0.000 0.000 0.000 0.000 0.000 0.000 0.000 0.000 0.000 0.000 0.000 0.000 0.166 1.666 1.897 2.683 2.872 2.740 3.220 3.169 1.211 1.218 1.527
0.000 0.000 0.000 0.000 0.000 0.000 0.000 0.000 0.000 0.000 0.000 0.000 0.000 0.000 0.000 0.000 0.000 0.000 0.000 0.000 0.000 0.000 0.000 0.000 0.000 0.000 0.000 0.000 0.000 0.132 1.630 1.901 2.482 2.562 2.440 2.579 2.811 0.595 0.959 1.054
0.000 0.000 0.000 0.000 0.000 0.000 0.000 0.000 0.000 0.000 0.000 0.000 0.000 0.000 0.000 0.000 0.000 0.000 0.000 0.000 0.000 0.000 0.000 0.000 0.000 0.000 0.000 0.000 0.000 0.160 1.566 1.907 2.301 2.530 2.702 2.363 2.046 0.241 0.885 2.048
0.000 0.000 0.000 0.000 0.000 0.000 0.000 0.000 0.000 0.000 0.000 0.000 0.000 0.000 0.000 0.000 0.000 0.000 0.000 0.000 0.000 0.000 0.000 0.000 0.000 0.000 0.000 0.000 0.000 0.228 1.628 1.803 2.177 2.237 2.448 2.303 1.123 0.975 2.123 3.012
0.000 0.000 0.000 0.000 0.000 0.000 0.000 0.000 0.000 0.000 0.000 0.000 0.000 0.000 0.000 0.000 0.000 0.000 0.000 0.000 0.000 0.000 0.000 0.000 0.000 0.000 0.000 0.000 0.000 0.176 1.635 1.797 2.085 2.188 1.934 1.790 0.906 1.131 2.274 2.866
