ncols        42
nrows        101
xllcorner    409622.8
yllcorner    6870809.1
cellsize     5.00
NODATA_value -9999
0.000 0.000 0.000 0.117 2.869 7.796 2.624 0.044 0.000 0.000 0.000 0.000 0.000 0.000 0.000 0.000 0.000 0.000 0.000 0.000 0.000 0.000 0.000 0.000 0.000 0.000 0.000 0.000 0.000 0.000 0.000 0.000 0.000 0.000 0.000 0.000 0.000 0.000 0.000 0.000 0.000 0.000
0.000 0.000 0.100 4.727 17.505 16.920 19.453 10.134 0.062 0.000 0.000 0.000 0.000 0.000 0.000 0.000 0.000 0.000 0.000 0.000 0.000 0.000 0.000 0.000 0.000 0.000 0.000 0.000 0.000 0.000 0.000 0.000 0.000 0.000 0.000 0.000 0.000 0.000 0.000 0.000 0.000 0.000
0.000 0.000 1.326 18.059 17.943 19.438 19.974 18.452 8.902 0.000 0.000 0.000 0.000 0.000 0.000 0.000 0.000 0.000 0.000 0.000 0.000 0.000 0.000 0.000 0.000 0.000 0.000 0.000 0.000 0.000 0.000 0.000 0.000 0.000 0.000 0.000 0.000 0.000 0.000 0.000 0.000 0.000
0.000 0.015 4.772 18.506 19.958 20.770 21.445 19.218 16.647 0.151 0.000 0.000 0.000 0.000 0.000 0.000 0.000 0.000 0.000 0.000 0.000 0.000 0.000 0.000 0.000 0.000 0.000 0.000 0.000 0.000 0.000 0.000 0.000 0.000 0.000 0.000 0.000 0.000 0.000 0.000 0.000 0.000
0.000 0.375 17.731 19.211 20.822 20.657 21.810 19.488 17.554 7.798 0.000 0.000 0.000 0.000 0.000 0.000 0.000 0.000 0.000 0.000 0.000 0.000 0.000 0.000 0.000 0.000 0.000 0.000 0.000 0.000 0.000 0.000 0.000 0.000 0.000 0.000 0.000 0.000 0.000 0.000 0.000 0.000
0.000 1.328 17.450 19.935 21.441 20.957 21.660 20.454 19.173 15.915 0.000 0.000 0.000 0.000 0.000 0.000 0.000 0.000 0.000 0.000 0.000 0.000 0.000 0.000 0.000 0.000 0.000 0.000 0.000 0.000 0.000 0.000 0.000 0.000 0.000 0.000 0.000 0.000 0.000 0.000 0.000 0.000
0.008 3.358 17.658 20.639 21.446 21.913 21.320 21.099 20.522 16.605 0.215 0.000 0.000 0.000 0.000 0.000 0.000 0.000 0.000 0.000 0.000 0.000 0.000 0.000 0.000 0.000 0.000 0.000 0.000 0.000 0.000 0.000 0.000 0.000 0.000 0.000 0.000 0.000 0.000 0.000 0.000 0.000
0.278 15.127 17.913 20.787 21.344 21.607 21.769 21.768 21.499 17.684 5.957 0.000 0.000 0.000 0.000 0.000 0.000 0.000 0.000 0.000 0.000 0.000 0.000 0.000 0.000 0.000 0.000 0.000 0.000 0.000 0.000 0.000 0.000 0.000 0.000 0.000 0.000 0.000 0.000 0.000 0.000 0.000
1.162 16.367 18.664 20.480 21.810 21.621 22.507 22.283 22.474 18.844 13.393 0.000 0.000 0.000 0.000 0.000 0.000 0.000 0.000 0.000 0.000 0.000 0.000 0.000 0.000 0.000 0.000 0.000 0.000 0.000 0.000 0.000 0.000 0.000 0.000 0.000 0.000 0.000 0.000 0.000 0.000 0.000
2.984 16.630 19.486 20.547 22.750 22.875 22.152 23.185 22.933 21.252 18.108 0.647 0.000 0.000 0.000 0.000 0.000 0.000 0.000 0.000 0.000 0.000 0.000 0.000 0.000 0.000 0.000 0.000 0.000 0.000 0.000 0.000 0.000 0.000 0.000 0.000 0.000 0.000 0.000 0.000 0.000 0.000
6.275 17.370 20.326 22.806 23.891 25.352 25.646 24.800 23.796 22.235 17.514 6.147 0.000 0.000 0.000 0.000 0.000 0.000 0.000 0.000 0.000 0.000 0.000 0.000 0.000 0.000 0.000 0.000 0.000 0.000 0.000 0.000 0.000 0.000 0.000 0.000 0.000 0.000 0.000 0.000 0.000 0.000
11.252 17.053 19.581 21.961 24.324 25.218 24.827 23.246 23.329 22.421 17.846 10.929 0.154 0.000 0.000 0.000 0.000 0.000 0.000 0.000 0.000 0.000 0.000 0.000 0.000 0.000 0.000 0.000 0.000 0.000 0.000 0.000 0.000 0.000 0.000 0.000 0.000 0.000 0.000 0.000 0.000 0.000
14.189 17.103 20.706 23.294 25.048 27.683 26.664 21.924 24.642 21.376 18.803 13.847 3.860 0.000 0.000 0.000 0.000 0.000 0.000 0.000 0.000 0.000 0.000 0.000 0.000 0.000 0.000 0.000 0.000 0.000 0.000 0.000 0.000 0.000 0.000 0.000 0.000 0.000 0.000 0.000 0.000 0.000
14.466 17.255 20.809 22.831 24.231 26.530 26.057 24.537 23.468 21.404 19.156 14.765 9.004 0.218 0.000 0.000 0.000 0.000 0.000 0.000 0.000 0.000 0.000 0.000 0.000 0.000 0.000 0.000 0.000 0.000 0.000 0.000 0.000 0.000 0.000 0.000 0.000 0.000 0.000 0.000 0.000 0.000
13.329 16.636 19.324 22.858 24.540 25.785 25.185 23.718 22.891 21.473 19.576 16.141 12.230 4.316 0.018 0.000 0.000 0.000 0.000 0.000 0.000 0.000 0.000 0.000 0.000 0.000 0.000 0.000 0.000 0.000 0.000 0.000 0.000 0.000 0.000 0.000 0.000 0.000 0.000 0.000 0.000 0.000
12.502 16.036 19.912 21.276 23.188 25.292 25.612 24.839 23.554 21.773 19.858 17.164 13.318 9.502 2.180 0.045 0.000 0.000 0.000 0.000 0.000 0.000 0.000 0.000 0.000 0.000 0.000 0.000 0.000 0.000 0.000 0.000 0.000 0.000 0.000 0.000 0.000 0.000 0.000 0.000 0.000 0.000
11.957 15.675 18.615 21.238 22.991 24.223 24.777 25.294 23.136 22.841 20.356 17.520 14.991 12.217 8.568 3.329 0.879 0.001 0.000 0.000 0.000 0.000 0.000 0.000 0.000 0.000 0.000 0.000 0.000 0.000 0.000 0.000 0.000 0.000 0.000 0.000 0.000 0.000 0.000 0.000 0.000 0.000
10.491 15.119 18.939 20.709 22.307 24.865 25.289 26.377 24.545 22.112 20.580 18.551 16.073 12.672 11.781 9.370 7.579 1.049 0.000 0.000 0.000 0.000 0.000 0.000 0.000 0.000 0.000 0.000 0.000 0.000 0.000 0.000 0.000 0.000 0.000 0.000 0.000 0.000 0.000 0.000 0.000 0.000
9.269 14.603 18.107 20.669 22.646 25.185 25.583 25.526 24.863 22.292 20.323 19.181 17.268 13.991 12.734 11.164 11.182 7.010 0.357 0.000 0.000 0.000 0.000 0.000 0.000 0.000 0.000 0.000 0.000 0.000 0.000 0.000 0.000 0.000 0.000 0.000 0.000 0.000 0.000 0.000 0.000 0.000
7.582 12.817 16.250 19.892 22.860 23.837 25.769 25.327 25.153 24.476 23.132 20.021 18.710 14.391 13.416 12.707 11.713 9.942 5.172 0.122 0.000 0.000 0.000 0.000 0.000 0.000 0.000 0.000 0.000 0.000 0.000 0.000 0.000 0.000 0.000 0.000 0.000 0.000 0.000 0.000 0.000 0.000
6.109 11.660 15.223 19.673 22.498 23.514 25.364 25.854 24.159 24.488 24.660 21.849 18.811 15.945 13.714 12.443 10.536 10.529 9.433 3.561 0.012 0.000 0.000 0.000 0.000 0.000 0.000 0.000 0.000 0.000 0.000 0.000 0.000 0.000 0.000 0.000 0.000 0.000 0.000 0.000 0.000 0.000
4.835 10.970 14.973 17.624 20.686 23.247 24.922 26.662 24.937 24.536 25.730 25.144 20.046 16.413 13.706 12.983 11.521 10.988 11.136 8.211 1.539 0.000 0.000 0.000 0.000 0.000 0.000 0.000 0.000 0.000 0.000 0.000 0.000 0.000 0.000 0.000 0.000 0.000 0.000 0.000 0.000 0.000
3.486 9.555 13.596 17.108 19.930 22.976 25.044 25.773 26.118 25.382 25.285 23.695 19.700 15.626 14.027 12.799 12.273 11.966 11.066 10.438 5.951 0.062 0.000 0.000 0.000 0.000 0.000 0.000 0.000 0.000 0.000 0.000 0.000 0.000 0.000 0.000 0.000 0.000 0.000 0.000 0.000 0.000
2.262 8.261 10.934 15.016 18.685 21.327 24.409 26.145 26.533 25.027 25.450 25.924 22.708 17.374 15.508 13.078 13.037 12.518 12.639 10.869 9.165 2.350 0.000 0.000 0.000 0.000 0.000 0.000 0.000 0.000 0.000 0.000 0.000 0.000 0.000 0.000 0.000 0.000 0.000 0.000 0.000 0.000
1.395 6.831 9.896 13.707 17.008 20.937 23.844 25.072 25.286 23.538 25.757 24.677 22.712 19.997 16.191 14.502 13.774 13.288 12.557 11.715 10.996 6.217 0.059 0.000 0.000 0.000 0.000 0.000 0.000 0.000 0.000 0.000 0.000 0.000 0.000 0.000 0.000 0.000 0.000 0.000 0.000 0.000
0.690 5.557 9.016 11.970 17.215 20.086 22.300 24.360 25.120 25.008 25.825 23.362 23.136 19.073 17.333 16.873 14.903 13.196 12.502 12.465 11.501 7.660 1.949 0.000 0.000 0.000 0.000 0.000 0.000 0.000 0.000 0.000 0.000 0.000 0.000 0.000 0.000 0.000 0.000 0.000 0.000 0.000
0.216 4.079 7.883 9.861 14.011 19.032 21.274 24.623 27.956 25.465 24.297 25.178 21.542 19.414 18.536 15.060 13.545 12.204 12.625 13.456 11.022 8.492 5.649 0.088 0.000 0.000 0.000 0.000 0.000 0.000 0.000 0.000 0.000 0.000 0.000 0.000 0.000 0.000 0.000 0.000 0.000 0.000
0.060 2.817 6.926 9.296 12.528 16.619 20.648 26.208 26.479 23.438 25.690 23.575 20.937 20.453 17.461 14.302 13.603 13.010 13.772 12.115 10.898 10.313 8.333 1.830 0.000 0.000 0.000 0.000 0.000 0.000 0.000 0.000 0.000 0.000 0.000 0.000 0.000 0.000 0.000 0.000 0.000 0.000
0.038 2.104 6.340 8.810 10.971 15.782 21.968 23.886 24.778 24.524 24.349 23.219 23.098 20.994 19.264 16.745 14.929 14.648 13.109 11.541 12.400 10.886 8.283 4.895 0.013 0.000 0.000 0.000 0.000 0.000 0.000 0.000 0.000 0.000 0.000 0.000 0.000 0.000 0.000 0.000 0.000 0.000
0.009 1.143 5.173 7.140 9.875 13.844 17.899 21.731 23.875 23.061 23.631 24.942 23.378 20.539 19.409 17.849 17.131 14.203 13.157 12.572 11.955 11.066 8.837 6.983 0.941 0.000 0.000 0.000 0.000 0.000 0.000 0.000 0.000 0.000 0.000 0.000 0.000 0.000 0.000 0.000 0.000 0.000
0.002 0.594 4.044 6.531 9.143 10.813 16.523 19.657 23.415 23.457 24.456 25.375 24.415 22.154 20.234 20.254 17.639 15.052 13.896 12.290 11.266 10.907 9.505 8.280 4.357 0.000 0.000 0.000 0.000 0.000 0.000 0.000 0.000 0.000 0.000 0.000 0.000 0.000 0.000 0.000 0.000 0.000
0.000 0.200 2.967 5.941 7.430 9.433 13.946 19.484 22.098 23.893 23.577 24.650 23.839 20.716 21.347 21.047 16.738 15.787 13.256 10.158 10.778 11.022 10.983 10.202 6.818 0.003 0.000 0.000 0.000 0.000 0.000 0.000 0.000 0.000 0.000 0.000 0.000 0.000 0.000 0.000 0.000 0.000
0.000 0.009 1.531 5.093 6.421 8.240 13.488 19.296 22.221 24.630 24.958 24.188 22.370 20.258 21.913 20.787 18.604 16.664 12.742 10.021 10.238 11.481 11.800 10.918 8.801 0.690 0.000 0.000 0.000 0.000 0.000 0.000 0.000 0.000 0.000 0.000 0.000 0.000 0.000 0.000 0.000 0.000
0.000 0.002 0.473 3.603 5.309 7.682 11.785 18.463 21.904 23.154 23.137 22.743 21.453 21.909 23.387 20.785 18.349 15.773 11.850 10.309 10.722 11.556 11.583 11.127 9.783 4.052 0.000 0.000 0.000 0.000 0.000 0.000 0.000 0.000 0.000 0.000 0.000 0.000 0.000 0.000 0.000 0.000
0.000 0.000 0.178 2.053 5.045 7.588 10.047 15.413 21.053 22.393 21.423 22.985 21.130 23.395 22.216 20.518 19.164 16.742 13.860 11.010 10.804 11.167 11.582 11.833 11.143 5.703 0.000 0.000 0.000 0.000 0.000 0.000 0.000 0.000 0.000 0.000 0.000 0.000 0.000 0.000 0.000 0.000
0.000 0.000 0.020 1.461 4.781 7.378 9.139 13.164 18.412 20.590 21.940 21.686 22.856 22.874 23.267 20.828 20.180 17.217 13.386 10.796 9.836 9.662 11.034 11.406 10.722 5.153 0.000 0.000 0.000 0.000 0.000 0.000 0.000 0.000 0.000 0.000 0.000 0.000 0.000 0.000 0.000 0.000
0.000 0.000 0.002 0.486 3.857 6.566 8.490 10.219 16.940 19.733 22.015 22.855 21.720 23.538 22.488 21.013 19.533 16.125 13.164 10.562 9.246 9.311 10.344 10.589 9.558 6.609 0.160 0.000 0.000 0.000 0.000 0.000 0.000 0.000 0.000 0.000 0.000 0.000 0.000 0.000 0.000 0.000
0.000 0.000 0.000 0.079 1.970 5.715 6.827 8.276 13.324 19.204 20.878 21.468 21.706 21.545 21.168 20.622 17.371 14.646 12.423 11.138 9.251 9.286 9.187 9.920 10.146 8.054 2.066 0.000 0.000 0.000 0.000 0.000 0.000 0.000 0.000 0.000 0.000 0.000 0.000 0.000 0.000 0.000
0.000 0.000 0.000 0.013 0.960 4.414 6.273 7.544 10.427 16.036 18.409 19.683 20.916 20.661 19.262 19.193 16.100 14.699 14.671 11.564 9.791 9.221 8.151 9.293 10.580 7.725 3.764 0.000 0.000 0.000 0.000 0.000 0.000 0.000 0.000 0.000 0.000 0.000 0.000 0.000 0.000 0.000
0.000 0.000 0.000 0.001 0.275 3.345 5.573 6.437 8.332 15.045 17.824 19.536 19.498 19.579 19.832 18.966 16.738 15.808 14.742 11.943 10.820 9.068 8.430 9.625 10.139 7.845 4.554 0.000 0.000 0.000 0.000 0.000 0.000 0.000 0.000 0.000 0.000 0.000 0.000 0.000 0.000 0.000
0.000 0.000 0.000 0.000 0.054 2.238 4.996 5.881 6.999 11.147 16.318 17.899 17.356 18.022 18.041 17.795 16.882 17.399 14.758 13.316 11.079 9.981 9.457 9.321 10.547 8.397 5.163 0.005 0.000 0.000 0.000 0.000 0.000 0.000 0.000 0.000 0.000 0.000 0.000 0.000 0.000 0.000
0.000 0.000 0.000 0.000 0.017 1.132 4.237 5.566 6.115 9.350 14.086 16.109 17.502 17.858 17.076 17.607 17.442 15.929 15.909 14.160 11.943 10.458 8.483 8.563 10.346 8.728 5.933 0.590 0.000 0.000 0.000 0.000 0.000 0.000 0.000 0.000 0.000 0.000 0.000 0.000 0.000 0.000
0.000 0.000 0.000 0.000 0.004 0.508 3.373 5.103 5.657 7.516 12.051 15.205 16.456 16.192 16.222 17.587 17.726 15.075 15.633 13.720 13.130 9.525 7.933 7.431 9.930 9.018 6.499 2.426 0.000 0.000 0.000 0.000 0.000 0.000 0.000 0.000 0.000 0.000 0.000 0.000 0.000 0.000
0.000 0.000 0.000 0.000 0.001 0.153 1.980 4.217 5.181 6.236 9.807 14.696 15.569 15.753 16.414 16.691 16.896 15.540 16.181 14.564 12.149 9.210 7.565 7.919 10.174 9.448 6.867 3.632 0.020 0.000 0.000 0.000 0.000 0.000 0.000 0.000 0.000 0.000 0.000 0.000 0.000 0.000
0.000 0.000 0.000 0.000 0.000 0.140 1.442 3.767 5.020 6.188 8.207 12.604 15.529 16.096 17.269 17.308 15.547 16.374 14.776 13.192 11.615 9.665 8.441 8.846 10.240 9.659 7.276 4.211 0.934 0.000 0.000 0.000 0.000 0.000 0.000 0.000 0.000 0.000 0.000 0.000 0.000 0.000
0.000 0.000 0.000 0.000 0.000 0.001 0.489 3.175 4.700 5.946 7.681 11.394 14.049 15.501 17.357 16.572 16.438 15.921 14.575 12.495 11.241 10.139 9.369 9.126 10.009 9.753 7.261 4.377 2.854 0.042 0.000 0.000 0.000 0.000 0.000 0.000 0.000 0.000 0.000 0.000 0.000 0.000
0.000 0.000 0.000 0.000 0.000 0.000 0.118 2.068 4.407 4.876 6.831 9.269 14.418 15.168 14.565 15.332 15.127 14.235 13.180 11.040 11.245 10.316 9.896 8.438 10.100 9.692 7.222 4.545 3.651 1.060 0.000 0.000 0.000 0.000 0.000 0.000 0.000 0.000 0.000 0.000 0.000 0.000
0.000 0.000 0.000 0.000 0.000 0.000 0.015 0.932 3.605 4.510 6.208 7.931 11.298 13.426 13.668 13.968 13.911 12.860 11.723 11.219 11.649 11.248 10.114 9.316 9.335 8.838 7.300 4.691 3.836 2.626 0.079 0.000 0.000 0.000 0.000 0.000 0.000 0.000 0.000 0.000 0.000 0.000
0.000 0.000 0.000 0.000 0.000 0.000 0.000 0.243 3.006 4.784 5.694 6.269 8.840 12.437 10.409 12.327 11.588 11.748 10.998 11.961 12.214 11.324 10.084 9.570 8.908 8.758 7.469 4.439 3.684 3.229 1.183 0.013 0.000 0.000 0.000 0.000 0.000 0.000 0.000 0.000 0.000 0.000
0.000 0.000 0.000 0.000 0.000 0.000 0.000 0.433 2.413 4.214 4.667 5.345 6.872 10.270 10.966 11.008 11.116 11.269 11.667 11.842 11.348 9.536 11.235 9.262 8.755 8.396 7.135 4.273 3.807 3.510 2.466 0.653 0.000 0.000 0.000 0.000 0.000 0.000 0.000 0.000 0.000 0.000
0.000 0.000 0.000 0.000 0.000 0.000 0.000 0.081 1.300 2.957 4.094 4.148 4.852 8.642 8.096 9.573 11.061 11.463 11.825 10.769 9.888 9.996 10.124 7.063 7.540 8.085 6.927 4.799 4.085 3.662 3.133 2.322 0.030 0.000 0.000 0.000 0.000 0.000 0.000 0.000 0.000 0.000
0.000 0.000 0.000 0.000 0.000 0.000 0.000 0.006 0.380 1.697 3.280 3.752 3.916 8.064 8.888 10.208 11.013 10.984 10.750 9.709 9.346 9.576 8.672 6.821 6.275 7.680 6.762 5.193 4.093 3.734 3.489 2.731 0.660 0.000 0.000 0.000 0.000 0.000 0.000 0.000 0.000 0.000
0.000 0.000 0.000 0.000 0.000 0.000 0.000 0.000 0.003 0.191 1.522 2.592 3.089 5.101 8.375 9.112 9.884 10.638 9.599 8.687 8.267 8.990 8.464 7.226 6.628 6.524 6.546 5.091 4.026 3.685 3.318 3.049 2.348 0.018 0.000 0.000 0.000 0.000 0.000 0.000 0.000 0.000
0.000 0.000 0.000 0.000 0.000 0.000 0.000 0.000 0.000 0.001 0.642 2.582 3.649 5.021 6.816 7.669 8.647 8.855 8.870 8.536 8.921 9.356 9.285 7.908 6.303 5.686 5.603 4.866 3.964 3.575 3.315 3.071 2.589 0.492 0.002 0.000 0.000 0.000 0.000 0.000 0.000 0.000
0.000 0.000 0.000 0.000 0.000 0.000 0.000 0.000 0.000 0.000 0.162 2.163 3.722 4.356 5.873 6.539 7.470 8.508 8.413 9.027 8.754 9.318 8.410 6.417 5.308 4.565 4.839 4.768 3.970 3.525 3.206 2.701 2.230 1.642 0.052 0.000 0.000 0.000 0.000 0.000 0.000 0.000
0.000 0.000 0.000 0.000 0.000 0.000 0.000 0.000 0.000 0.000 0.010 0.510 2.515 3.058 3.351 5.515 6.546 7.420 7.629 7.699 8.106 8.571 6.533 4.819 4.310 3.352 3.689 3.944 3.804 3.288 2.787 2.317 2.524 2.629 0.169 0.000 0.000 0.000 0.000 0.000 0.000 0.000
0.000 0.000 0.000 0.000 0.000 0.000 0.000 0.000 0.000 0.000 0.000 0.008 0.597 2.967 4.044 5.104 6.241 6.653 6.449 6.680 6.937 6.448 4.788 3.481 2.667 1.771 2.598 3.516 3.605 2.955 2.315 1.902 2.238 2.404 0.666 0.000 0.000 0.000 0.000 0.000 0.000 0.000
0.000 0.000 0.000 0.000 0.000 0.000 0.000 0.000 0.000 0.000 0.000 0.000 0.448 2.185 4.049 4.792 5.974 5.855 5.431 5.874 6.197 6.029 4.022 2.574 0.716 2.142 2.679 3.255 2.925 2.560 1.524 0.078 1.348 1.224 1.157 0.005 0.000 0.000 0.000 0.000 0.000 0.000
0.000 0.000 0.000 0.000 0.000 0.000 0.000 0.000 0.000 0.000 0.000 0.000 0.001 1.499 3.285 4.665 4.974 4.588 4.576 5.016 5.325 4.267 2.479 0.662 1.030 2.539 2.610 3.064 3.039 2.250 0.079 0.088 0.095 1.288 1.394 0.239 0.000 0.000 0.000 0.000 0.000 0.000
0.000 0.000 0.000 0.000 0.000 0.000 0.000 0.000 0.000 0.000 0.000 0.000 0.000 0.055 1.926 2.999 3.503 3.237 4.500 5.191 4.689 2.482 1.351 0.877 1.826 1.927 2.493 3.010 2.801 1.658 0.680 0.068 0.049 1.684 1.548 0.575 0.001 0.000 0.000 0.000 0.000 0.000
0.000 0.000 0.000 0.000 0.000 0.000 0.000 0.000 0.000 0.000 0.000 0.000 0.000 0.000 0.632 2.064 2.925 3.960 4.978 5.193 3.959 2.639 1.598 1.852 1.928 2.025 2.946 3.049 2.609 2.079 1.616 0.077 0.054 1.723 1.648 0.858 0.073 0.000 0.000 0.000 0.000 0.000
0.000 0.000 0.000 0.000 0.000 0.000 0.000 0.000 0.000 0.000 0.000 0.000 0.000 0.000 0.016 1.289 2.374 3.066 4.048 3.746 3.359 2.843 2.114 2.676 2.128 3.132 3.110 3.311 2.803 2.559 1.414 0.054 0.106 1.917 1.932 1.456 0.439 0.001 0.000 0.000 0.000 0.000
0.000 0.000 0.000 0.000 0.000 0.000 0.000 0.000 0.000 0.000 0.000 0.000 0.000 0.000 0.002 0.137 1.596 2.603 3.369 3.360 3.479 3.298 2.558 2.075 2.530 3.405 3.152 3.330 2.708 2.550 1.109 0.094 1.353 2.146 1.890 1.818 0.866 0.086 0.000 0.000 0.000 0.000
0.000 0.000 0.000 0.000 0.000 0.000 0.000 0.000 0.000 0.000 0.000 0.000 0.000 0.000 0.001 0.045 1.379 2.599 2.762 2.233 2.608 2.588 2.967 1.614 3.321 3.158 3.004 3.205 2.999 2.888 1.720 1.168 1.851 1.913 1.788 1.910 1.435 0.374 0.030 0.000 0.000 0.000
0.000 0.000 0.000 0.000 0.000 0.000 0.000 0.000 0.000 0.000 0.000 0.000 0.000 0.000 0.000 0.023 0.513 1.550 2.308 2.377 2.254 2.633 3.195 2.821 2.832 2.506 2.625 3.220 3.229 2.640 1.877 1.800 2.402 2.301 2.175 1.805 1.839 1.268 0.605 0.053 0.000 0.000
0.000 0.000 0.000 0.000 0.000 0.000 0.000 0.000 0.000 0.000 0.000 0.000 0.000 0.000 0.000 0.000 0.037 0.377 1.753 2.337 2.296 2.528 2.786 2.749 1.955 1.480 2.648 3.255 2.685 1.859 1.937 2.420 2.940 2.797 2.348 1.868 2.171 2.033 1.440 0.593 0.007 0.000
0.000 0.000 0.000 0.000 0.000 0.000 0.000 0.000 0.000 0.000 0.000 0.000 0.000 0.000 0.000 0.000 0.000 0.031 0.680 2.107 2.260 2.411 2.466 2.506 0.432 0.273 2.336 2.389 2.380 1.655 2.136 2.715 3.151 2.981 2.016 1.968 2.336 2.272 2.002 1.157 0.241 0.000
0.000 0.000 0.000 0.000 0.000 0.000 0.000 0.000 0.000 0.000 0.000 0.000 0.000 0.000 0.000 0.000 0.000 0.000 0.049 1.513 2.371 2.327 1.728 1.158 0.622 0.088 2.097 1.898 1.838 1.483 2.253 2.715 3.327 2.414 1.058 1.626 2.002 2.430 2.299 1.651 0.866 0.062
0.000 0.000 0.000 0.000 0.000 0.000 0.000 0.000 0.000 0.000 0.000 0.000 0.000 0.000 0.000 0.000 0.000 0.000 0.001 0.642 2.020 2.171 1.567 0.019 0.733 0.842 1.973 1.144 1.431 1.968 2.644 2.645 2.927 2.078 1.962 1.576 1.998 2.685 2.383 1.996 1.413 0.554
0.000 0.000 0.000 0.000 0.000 0.000 0.000 0.000 0.000 0.000 0.000 0.000 0.000 0.000 0.000 0.000 0.000 0.000 0.000 0.026 0.885 1.896 1.713 0.933 0.772 1.304 1.404 2.059 2.126 2.403 2.775 2.713 3.353 3.029 2.550 1.885 2.134 2.416 2.239 2.247 1.813 1.002
0.000 0.000 0.000 0.000 0.000 0.000 0.000 0.000 0.000 0.000 0.000 0.000 0.000 0.000 0.000 0.000 0.000 0.000 0.000 0.000 0.095 1.451 1.534 1.364 1.726 2.370 2.369 2.273 2.353 2.417 2.159 2.841 3.626 3.543 2.699 1.574 1.446 1.613 2.408 2.398 2.019 1.419
0.000 0.000 0.000 0.000 0.000 0.000 0.000 0.000 0.000 0.000 0.000 0.000 0.000 0.000 0.000 0.000 0.000 0.000 0.000 0.000 0.016 1.167 1.561 1.316 1.373 2.586 3.011 2.283 2.107 1.811 2.460 3.222 3.970 3.589 2.539 1.313 0.713 1.573 2.385 2.339 2.014 1.696
0.000 0.000 0.000 0.000 0.000 0.000 0.000 0.000 0.000 0.000 0.000 0.000 0.000 0.000 0.000 0.000 0.000 0.000 0.000 0.000 0.001 0.414 1.549 1.581 2.229 2.184 3.176 2.351 1.876 2.165 3.030 3.526 3.629 3.375 2.615 0.478 0.056 1.059 1.925 2.125 1.876 1.833
0.000 0.000 0.000 0.000 0.000 0.000 0.000 0.000 0.000 0.000 0.000 0.000 0.000 0.000 0.000 0.000 0.000 0.000 0.000 0.000 0.000 0.100 1.407 2.036 2.061 2.486 2.713 2.445 1.479 1.793 2.952 3.443 3.368 3.217 1.941 0.082 0.087 0.104 1.219 1.848 1.580 1.834
0.000 0.000 0.000 0.000 0.000 0.000 0.000 0.000 0.000 0.000 0.000 0.000 0.000 0.000 0.000 0.000 0.000 0.000 0.000 0.000 0.000 0.138 0.751 1.730 1.493 2.200 0.935 1.912 0.067 1.916 3.135 3.768 3.694 3.037 1.935 0.071 0.087 0.089 0.100 1.160 1.719 2.026
0.000 0.000 0.000 0.000 0.000 0.000 0.000 0.000 0.000 0.000 0.000 0.000 0.000 0.000 0.000 0.000 0.000 0.000 0.000 0.000 0.000 0.001 0.379 0.058 1.862 1.577 0.048 0.055 0.380 2.557 3.783 4.004 3.947 3.159 2.587 0.283 0.051 0.048 0.080 0.055 1.440 2.061
0.000 0.000 0.000 0.000 0.000 0.000 0.000 0.000 0.000 0.000 0.000 0.000 0.000 0.000 0.000 0.000 0.000 0.000 0.000 0.000 0.000 0.000 0.039 0.888 1.851 1.520 0.060 0.020 1.007 3.251 3.972 4.018 4.007 3.535 2.900 0.095 0.068 0.082 0.053 0.063 1.642 2.126
0.000 0.000 0.000 0.000 0.000 0.000 0.000 0.000 0.000 0.000 0.000 0.000 0.000 0.000 0.000 0.000 0.000 0.000 0.000 0.000 0.000 0.000 0.015 0.758 1.453 1.441 0.085 0.043 2.989 3.835 4.204 4.151 4.356 3.736 1.753 0.111 0.299 0.031 0.098 0.103 1.436 2.115
0.000 0.000 0.000 0.000 0.000 0.000 0.000 0.000 0.000 0.000 0.000 0.000 0.000 0.000 0.000 0.000 0.000 0.000 0.000 0.000 0.000 0.000 0.001 0.404 0.657 1.302 0.601 0.253 4.307 4.570 4.873 4.971 4.586 3.586 1.969 2.001 0.245 0.059 0.034 0.089 0.082 1.644
0.000 0.000 0.000 0.000 0.000 0.000 0.000 0.000 0.000 0.000 0.000 0.000 0.000 0.000 0.000 0.000 0.000 0.000 0.000 0.000 0.000 0.000 0.000 0.034 0.595 0.522 0.172 2.138 4.007 5.169 5.107 5.329 4.522 3.981 3.247 2.380 1.061 0.109 0.059 0.091 0.039 1.243
0.000 0.000 0.000 0.000 0.000 0.000 0.000 0.000 0.000 0.000 0.000 0.000 0.000 0.000 0.000 0.000 0.000 0.000 0.000 0.000 0.000 0.000 0.000 0.000 0.292 0.491 0.815 2.471 3.245 4.258 4.602 4.530 4.517 4.011 3.521 2.953 2.021 0.859 0.024 0.012 0.072 1.102
0.000 0.000 0.000 0.000 0.000 0.000 0.000 0.000 0.000 0.000 0.000 0.000 0.000 0.000 0.000 0.000 0.000 0.000 0.000 0.000 0.000 0.000 0.000 0.000 0.019 0.095 1.938 2.399 2.507 3.449 3.584 4.163 4.774 4.620 4.310 3.484 2.665 1.987 0.647 0.106 0.027 0.520
0.000 0.000 0.000 0.000 0.000 0.000 0.000 0.000 0.000 0.000 0.000 0.000 0.000 0.000 0.000 0.000 0.000 0.000 0.000 0.000 0.000 0.000 0.000 0.000 0.033 1.256 2.056 2.128 2.065 2.575 2.883 3.542 4.909 4.958 4.818 4.020 2.917 2.726 1.923 1.240 0.029 0.059
0.000 0.000 0.000 0.000 0.000 0.000 0.000 0.000 0.000 0.000 0.000 0.000 0.000 0.000 0.000 0.000 0.000 0.000 0.000 0.000 0.000 0.000 0.000 0.000 0.078 1.040 1.578 1.709 1.742 2.146 2.170 2.730 4.226 4.555 4.694 4.400 3.585 2.948 1.856 0.897 0.101 0.251
0.000 0.000 0.000 0.000 0.000 0.000 0.000 0.000 0.000 0.000 0.000 0.000 0.000 0.000 0.000 0.000 0.000 0.000 0.000 0.000 0.000 0.000 0.000 0.000 0.000 0.038 0.563 1.391 1.647 1.803 2.025 2.395 3.853 4.203 4.434 4.394 3.984 3.168 2.079 1.110 0.505 1.106
0.000 0.000 0.000 0.000 0.000 0.000 0.000 0.000 0.000 0.000 0.000 0.000 0.000 0.000 0.000 0.000 0.000 0.000 0.000 0.000 0.000 0.000 0.000 0.000 0.000 0.000 0.031 1.019 1.389 1.267 1.768 3.164 3.803 4.265 4.285 4.229 4.267 3.370 2.319 1.712 1.482 2.123
0.000 0.000 0.000 0.000 0.000 0.000 0.000 0.000 0.000 0.000 0.000 0.000 0.000 0.000 0.000 0.000 0.000 0.000 0.000 0.000 0.000 0.000 0.000 0.000 0.000 0.000 0.000 0.185 0.910 0.430 2.013 3.486 3.893 4.065 4.247 4.213 4.362 3.401 2.468 2.084 2.167 1.999
0.000 0.000 0.000 0.000 0.000 0.000 0.000 0.000 0.000 0.000 0.000 0.000 0.000 0.000 0.000 0.000 0.000 0.000 0.000 0.000 0.000 0.000 0.000 0.000 0.000 0.000 0.000 0.004 0.996 1.430 2.137 3.144 3.642 3.955 4.309 4.325 4.192 3.550 2.600 2.298 1.731 1.783
0.000 0.000 0.000 0.000 0.000 0.000 0.000 0.000 0.000 0.000 0.000 0.000 0.000 0.000 0.000 0.000 0.000 0.000 0.000 0.000 0.000 0.000 0.000 0.000 0.000 0.000 0.000 0.000 0.776 1.577 2.082 2.454 3.266 3.902 4.456 4.737 4.333 3.736 2.801 2.311 0.675 2.033
0.000 0.000 0.000 0.000 0.000 0.000 0.000 0.000 0.000 0.000 0.000 0.000 0.000 0.000 0.000 0.000 0.000 0.000 0.000 0.000 0.000 0.000 0.000 0.000 0.000 0.000 0.000 0.000 0.295 1.718 2.012 2.065 2.806 3.847 4.641 5.208 4.768 4.109 3.229 2.328 0.800 2.348
0.000 0.000 0.000 0.000 0.000 0.000 0.000 0.000 0.000 0.000 0.000 0.000 0.000 0.000 0.000 0.000 0.000 0.000 0.000 0.000 0.000 0.000 0.000 0.000 0.000 0.000 0.000 0.000 0.039 1.252 1.840 1.934 2.549 2.780 4.085 5.396 5.141 4.744 3.819 2.988 2.018 2.718
0.000 0.000 0.000 0.000 0.000 0.000 0.000 0.000 0.000 0.000 0.000 0.000 0.000 0.000 0.000 0.000 0.000 0.000 0.000 0.000 0.000 0.000 0.000 0.000 0.000 0.000 0.000 0.000 0.048 0.711 1.518 1.847 2.507 2.316 3.913 5.513 5.490 5.059 3.998 3.258 2.541 2.777
0.000 0.000 0.000 0.000 0.000 0.000 0.000 0.000 0.000 0.000 0.000 0.000 0.000 0.000 0.000 0.000 0.000 0.000 0.000 0.000 0.000 0.000 0.000 0.000 0.000 0.000 0.000 0.000 0.000 0.184 1.186 1.646 2.396 2.244 3.393 5.069 5.320 4.887 3.682 2.833 2.646 2.790
0.000 0.000 0.000 0.000 0.000 0.000 0.000 0.000 0.000 0.000 0.000 0.000 0.000 0.000 0.000 0.000 0.000 0.000 0.000 0.000 0.000 0.000 0.000 0.000 0.000 0.000 0.000 0.000 0.000 0.001 0.651 1.428 1.922 2.280 2.914 4.439 5.201 4.750 3.587 2.538 2.588 2.678
0.000 0.000 0.000 0.000 0.000 0.000 0.000 0.000 0.000 0.000 0.000 0.000 0.000 0.000 0.000 0.000 0.000 0.000 0.000 0.000 0.000 0.000 0.000 0.000 0.000 0.000 0.000 0.000 0.000 0.000 0.034 1.086 1.845 2.242 2.489 3.641 5.107 4.519 3.832 2.900 2.502 2.520
0.000 0.000 0.000 0.000 0.000 0.000 0.000 0.000 0.000 0.000 0.000 0.000 0.000 0.000 0.000 0.000 0.000 0.000 0.000 0.000 0.000 0.000 0.000 0.000 0.000 0.000 0.000 0.000 0.000 0.000 0.000 0.467 2.105 2.257 2.342 3.296 4.587 4.381 4.057 2.984 2.547 2.932
0.000 0.000 0.000 0.000 0.000 0.000 0.000 0.000 0.000 0.000 0.000 0.000 0.000 0.000 0.000 0.000 0.000 0.000 0.000 0.000 0.000 0.000 0.000 0.000 0.000 0.000 0.000 0.000 0.000 0.000 0.000 0.220 2.011 2.346 2.546 3.120 4.085 4.327 3.864 2.680 2.818 2.843
0.000 0.000 0.000 0.000 0.000 0.000 0.000 0.000 0.000 0.000 0.000 0.000 0.000 0.000 0.000 0.000 0.000 0.000 0.000 0.000 0.000 0.000 0.000 0.000 0.000 0.000 0.000 0.000 0.000 0.000 0.000 0.149 1.932 2.214 2.442 3.130 3.496 3.702 3.339 2.468 2.076 1.580
0.000 0.000 0.000 0.000 0.000 0.000 0.000 0.000 0.000 0.000 0.000 0.000 0.000 0.000 0.000 0.000 0.000 0.000 0.000 0.000 0.000 0.000 0.000 0.000 0.000 0.000 0.000 0.000 0.000 0.000 0.000 0.190 1.613 2.083 2.472 2.939 2.945 2.914 2.787 1.742 0.709 1.179
0.000 0.000 0.000 0.000 0.000 0.000 0.000 0.000 0.000 0.000 0.000 0.000 0.000 0.000 0.000 0.000 0.000 0.000 0.000 0.000 0.000 0.000 0.000 0.000 0.000 0.000 0.000 0.000 0.000 0.000 0.000 0.184 1.528 1.732 2.411 2.510 2.230 2.531 1.874 0.482 0.596 1.242
0.000 0.000 0.000 0.000 0.000 0.000 0.000 0.000 0.000 0.000 0.000 0.000 0.000 0.000 0.000 0.000 0.000 0.000 0.000 0.000 0.000 0.000 0.000 0.000 0.000 0.000 0.000 0.000 0.000 0.000 0.000 0.145 1.488 1.709 2.132 2.083 1.829 1.921 1.680 0.094 0.178 0.580
